GitHatake/ROS1EARs/catkin_ws/src/torobo_robot/torobo_EARs2021/scripts/arm/test/kasousado.csv
"time","joint_1","joint_2","joint_3","joint_4","joint_5","joint_6","joint_7","x","y","z","roll","pitch","yaw","manipulability"
0,0.589729326523,1.22452306712,0.130445907895,0.297892810579,-0.0773180828673,1.26340894746,-0.367880484289,0.520865304375,0.373927743537,0.962983071208,-3.05252019134,0.350220467507,-2.13589615889,0.0208807650697
0,0.587442936148,1.2266348207,0.130428455867,0.293302586124,-0.0781209343898,1.26407220773,-0.367863040584,0.522286425254,0.372742055597,0.963220597538,-3.05112309679,0.351616270272,-2.13829811485,0.0205754948363
0,0.584807471933,1.22841514389,0.13041100384,0.286932138349,-0.0813323404798,1.26620140502,-0.367863040584,0.524129658183,0.371008914689,0.964201566793,-3.04708467065,0.352707125864,-2.14041271127,0.0201499145934
0,0.582346577928,1.2292179538,0.130393551812,0.281399421184,-0.0870221175697,1.26679489047,-0.367863040584,0.526246985356,0.369149647901,0.965591125014,-3.03989415036,0.354418763183,-2.14138607171,0.0197691301079
0,0.579815842523,1.22930517233,0.13041100384,0.277262999379,-0.0914377967822,1.26677744676,-0.367863040584,0.528162831926,0.367422704416,0.96699270582,-3.03397819035,0.356537565513,-2.14264360181,0.0194790936805
0,0.577110603488,1.22947974254,0.130428455867,0.273929420774,-0.0925373577397,1.26677744676,-0.367863040584,0.529707311519,0.365992942886,0.968069905321,-3.03168905708,0.359052066296,-2.14502453447,0.0192459048628
0,0.574213350538,1.22949718624,0.130463359922,0.270910011954,-0.0924675413072,1.26667265137,-0.367863040584,0.53117940168,0.364611095602,0.969149569869,-3.03058124766,0.361960581926,-2.14788767675,0.0190333671469
0,0.571647661144,1.22951462995,0.130445907895,0.268030219354,-0.0924849933348,1.26665520767,-0.367863040584,0.532509981208,0.363362386274,0.970173557795,-3.02942683819,0.364606393396,-2.15040382865,0.0188309412243
0,0.569169323433,1.22956696106,0.130445907895,0.265569292059,-0.0924849933348,1.26667265137,-0.367863040584,0.533737630303,0.362139333236,0.97102362801,-3.02849706569,0.366814463195,-2.15285078203,0.0186582247102
0,0.566429130409,1.22949718624,0.130445907895,0.263684339929,-0.0924849933348,1.26655054544,-0.367863040584,0.53499966885,0.360762634402,0.971754733566,-3.02768206735,0.36873162914,-2.15553274658,0.0185246983646
0,0.562345106298,1.22951462995,0.130428455867,0.262165905344,-0.0924849933348,1.26646332691,-0.367863040584,0.536685791992,0.358637563554,0.972295582491,-3.02704556034,0.370191688525,-2.15958154517,0.0184175482278
0,0.557580344923,1.22949718624,0.13048081195,0.261258333334,-0.0924151852247,1.26648077062,-0.367828153174,0.538494988123,0.356129834575,0.972633910007,-3.02682126274,0.371079609653,-2.16438486712,0.0183536593394
0,0.551977819648,1.22956696106,0.13048081195,0.261363062144,-0.0924326372522,1.26670767194,-0.367828153174,0.540437367045,0.353080435951,0.972536533148,-3.02696640981,0.370702320477,-2.17002160099,0.0183624080924
0,0.546654560103,1.22953207365,0.130515724327,0.261380505849,-0.0924151852247,1.26840064344,-0.367793232474,0.542077158268,0.35006408571,0.972445315866,-3.02769953839,0.369172563303,-2.17557484958,0.0183710020783
0,0.543094113463,1.22942741142,0.130533176355,0.261310697739,-0.0923977331972,1.27789521221,-0.367828153174,0.542064046266,0.347336838809,0.971940191612,-3.03143920214,0.360537958639,-2.18014556729,0.0184069054757
0,0.541488393773,1.22940996772,0.130515724327,0.261275793684,-0.0924500892797,1.29372530804,-0.367845596879,0.540512987594,0.345109952083,0.970997703508,-3.03761869946,0.345871499117,-2.18339884444,0.0184696678984
0,0.541017147418,1.22934005974,0.130550628382,0.261188525224,-0.0924326372522,1.3097823052,-0.367863040584,0.538519955694,0.34349491199,0.970135041217,-3.04390366947,0.331127468273,-2.18544341564,0.0185247034176
0,0.541383664963,1.22937508031,0.13056808041,0.261363062144,-0.0924326372522,1.32201713357,-0.367863040584,0.536710947342,0.342634549411,0.969363703575,-3.04876692034,0.319576050568,-2.18622659747,0.0185810248094
0,0.543094113463,1.22928772862,0.13056808041,0.261363062144,-0.0924500892797,1.33151170233,-0.367863040584,0.534840227342,0.342727511058,0.968902094089,-3.0523900458,0.310826898819,-2.18534780472,0.018612642112
0,0.547352707783,1.22934005974,0.13056808041,0.261397966199,-0.0924326372522,1.3387548347,-0.367863040584,0.532385302412,0.344367430436,0.968472107767,-3.05523504883,0.304020561815,-2.18172090611,0.0186387562664
0,0.554299130723,1.22925284121,0.13056808041,0.261380505849,-0.0924500892797,1.34458422801,-0.367863040584,0.529198308272,0.347539730523,0.968229896067,-3.05741536307,0.298690578341,-2.17524533431,0.0186551529944
0,0.562537053633,1.22923539751,0.13056808041,0.261397966199,-0.0924326372522,1.34840652996,-0.367863040584,0.525798805055,0.35154516848,0.968038934317,-3.05889701181,0.295142641067,-2.16731939077,0.0186678309542
0,0.570740122423,1.22918306639,0.13056808041,0.261397966199,-0.0924326372522,1.35112921271,-0.367880484289,0.522533791148,0.355599025481,0.967933818085,-3.05991215919,0.292657223221,-2.15930973016,0.018675601886
0,0.580252134889,1.22918306639,0.130550628382,0.261397966199,-0.0924500892797,1.35516083912,-0.367863040584,0.51859403913,0.360173792067,0.967731014129,-3.06142565413,0.288896066624,-2.15013121725,0.0186872667216
0,0.590218016583,1.22909571471,0.130515724327,0.261380505849,-0.0924849933348,1.3648648655,-0.367897961284,0.513704390615,0.364400879738,0.967314868607,-3.06500476993,0.279936700621,-2.14085411959,0.018712407885
0,0.600166387993,1.2290608273,0.1304982723,0.261380505849,-0.0925024536847,1.3796478064,-0.367897961284,0.508104666616,0.368070363738,0.966639851712,-3.07055958605,0.266199574127,-2.1319567119,0.0187497734468
0,0.609084981588,1.22895616507,0.130515724327,0.261345601794,-0.0925024536847,1.39280768376,-0.367915404989,0.503072590135,0.371311355009,0.966127361158,-3.07547183289,0.254082928292,-2.12387888689,0.018776748883
0,0.616781916613,1.22827546109,0.130445907895,0.261258333334,-0.0928515192022,1.40333196376,-0.367915404989,0.498895743657,0.374091306445,0.966126661758,-3.07871123013,0.244835616702,-2.11672359004,0.0187885966529
0,0.623414186413,1.22539565185,0.130515724327,0.262253173804,-0.0949284602797,1.41137790605,-0.367897961284,0.495508563835,0.376337141673,0.96723912907,-3.07898835199,0.238333831099,-2.10996870624,0.0188593906245
0,0.629348241953,1.22145124396,0.1304982723,0.263439994899,-0.0964468948647,1.42129139005,-0.367897961284,0.492091699026,0.378086839283,0.968879960567,-3.08004848633,0.231061318807,-2.10400220572,0.0189397188162
0,0.635212589253,1.2159534142,0.13048081195,0.264679180399,-0.0989427178921,1.43375311973,-0.367897961284,0.488498592167,0.379407743559,0.971368483195,-3.08051285946,0.222436346496,-2.0980082166,0.0190164327066
0,0.640186774958,1.20993200698,0.13048081195,0.265988174009,-0.102555545582,1.44574346991,-0.367880484289,0.485414720358,0.380166655036,0.974179057541,-3.07957442991,0.214266918253,-2.09276728914,0.0190908224705
0,0.645091119263,1.20405028255,0.1304982723,0.266407055959,-0.10868165665,1.45925235454,-0.367880484289,0.482529321033,0.380418309165,0.977145125419,-3.07657825813,0.204472824009,-2.08756572828,0.0191005143891
0,0.649995530148,1.19902369915,0.130515724327,0.267349532024,-0.115872407975,1.47141727493,-0.367880484289,0.47984206248,0.380595075767,0.979472808341,-3.07262967528,0.194274071517,-2.08238684352,0.0191473340387
0,0.654864987043,1.19504440385,0.1304982723,0.269269404854,-0.121806530095,1.48084206887,-0.367880484289,0.477247314344,0.381105202592,0.980947298139,-3.06960546072,0.185204431771,-2.07732673036,0.0192649337692
0,0.659490098908,1.19193769328,0.130515724327,0.271503414179,-0.124860851292,1.48846909591,-0.367880484289,0.47460530235,0.38202047032,0.981857081165,-3.06912401848,0.177777612188,-2.07268045324,0.0194071683217
0,0.663905819732,1.18996548934,0.1304982723,0.274016689234,-0.125558982327,1.49532833361,-0.367880484289,0.471833984828,0.38316688901,0.982015960266,-3.07109737442,0.170608596625,-2.06840821631,0.0195743717566
0,0.668164414053,1.18921501054,0.130515724327,0.276599772399,-0.125524078272,1.50044213554,-0.367880484289,0.469226341115,0.384489013079,0.981472164096,-3.07365438272,0.164156587883,-2.06427234348,0.0197526845727
0,0.672230994458,1.18924989795,0.130515724327,0.280439518059,-0.1255415303,1.5024492269,-0.367880484289,0.466917246763,0.385946254574,0.980142188183,-3.07575606366,0.158682847385,-2.06008912466,0.0200235993647
0,0.675861282498,1.18902299663,0.13056808041,0.285919837529,-0.12547172219,1.50497989572,-0.367880484289,0.464479646774,0.387052386909,0.97843009834,-3.07865154712,0.151488744167,-2.05622705014,0.0204077456444
0,0.679369398023,1.18890089069,0.130550628382,0.293250221719,-0.125506626245,1.50630641626,-0.367897961284,0.462013699277,0.388069567449,0.976098096019,-3.0816377266,0.143537070164,-2.05226983944,0.0209215793141
0,0.682371379783,1.18890089069,0.130533176355,0.299673033899,-0.125506626245,1.50801683147,-0.367880484289,0.459795052444,0.388847606331,0.973985393585,-3.08452903247,0.13597409816,-2.048925289,0.0213713743725
0,0.684989400292,1.18876120789,0.13056808041,0.304263258354,-0.125489174217,1.50960514074,-0.367897961284,0.457966835022,0.389581318087,0.972557298383,-3.08672524742,0.130378684265,-2.04601897067,0.0216911510923
0,0.687624797928,1.18820274301,0.13056808041,0.307335014934,-0.12547172219,1.51306085857,-0.367897961284,0.45610980404,0.390207058193,0.971828331067,-3.08886975069,0.12482523097,-2.04329784319,0.0219009778305
0,0.690504607173,1.1864748841,0.130707704952,0.309726134119,-0.125436809812,1.51943127306,-0.367897961284,0.453884834959,0.390707372993,0.971960249294,-3.09150143142,0.118317300645,-2.04041871436,0.0220534535221
0,0.693646205153,1.18260025103,0.130829877467,0.313146964539,-0.12547172219,1.52691875047,-0.367897961284,0.451345490625,0.391149317401,0.973032407615,-3.09395632998,0.111747502761,-2.03713225851,0.0222604288241
0,0.696630743207,1.17748631594,0.130882241872,0.317231055229,-0.12547172219,1.53353350998,-0.367897961284,0.448924780752,0.391572446909,0.974655629554,-3.09579650372,0.106496466451,-2.033862875,0.0225026253386
0,0.699301094832,1.17134280278,0.13098696236,0.322117955829,-0.12547172219,1.53904878344,-0.367897961284,0.44666895949,0.391936069115,0.976660595406,-3.09714444368,0.102485754147,-2.03072809023,0.0227907485168
0,0.702303010013,1.16516440221,0.13105677047,0.327476136074,-0.125436809812,1.54398801516,-0.367880484289,0.444289552446,0.3924601421,0.978546395245,-3.09843366574,0.0986044516362,-2.02722122021,0.0231082355598
0,0.705078090448,1.16003302342,0.131126586902,0.332607381704,-0.125401905757,1.54864814759,-0.367880484289,0.442037283248,0.392895871765,0.97988753674,-3.09995617295,0.094232046643,-2.02396865767,0.0234151749801
0,0.707905568577,1.15525091821,0.131196403335,0.339483996534,-0.125419357785,1.55292411904,-0.367880484289,0.439580715254,0.39324585445,0.980482675237,-3.10203928971,0.0882555324648,-2.02050178699,0.0238415264774
0,0.711256557598,1.15043379243,0.131248759417,0.349519619759,-0.125419357785,1.55700820973,-0.367880484289,0.436527089962,0.393595656868,0.980119407588,-3.10514470322,0.0795530909251,-2.01621088449,0.0244784969659
0,0.714642500608,1.14673372957,0.131458200392,0.359153838029,-0.125401905757,1.55924220241,-0.367880484289,0.433682255574,0.394191433658,0.979263931121,-3.10803461246,0.0719894131449,-2.01181752862,0.0250952175171
0,0.717766654883,1.14390625144,0.131545468852,0.367042753679,-0.125122656672,1.55946910373,-0.367880484289,0.431383648867,0.395011194352,0.978470291411,-3.11007926736,0.067169654477,-2.00784032186,0.0256015041764
0,0.720786080348,1.14135800575,0.13165018934,0.373989143329,-0.124668870667,1.55957389912,-0.367880484289,0.429230460752,0.395875899554,0.977809558835,-3.1120392591,0.0631532043565,-2.00404891604,0.0256015041764
0,0.721746016762,1.13865276672,0.131789813882,0.377410007039,-0.121160755142,1.55966111765,-0.367863040584,0.427996974665,0.396510206628,0.97832995858,-3.11556806253,0.0636826657925,-2.00266043865,0.0260446928777
0,0.720594066433,1.13449890121,0.131754901505,0.378352466459,-0.106569803195,1.56062105406,-0.367863040584,0.426571251092,0.397673928741,0.980463220123,-3.12814756132,0.0709455036625,-2.00369134461,0.0262490813768
0,0.718813876402,1.12954222579,0.131737449477,0.377881220104,-0.0840899605648,1.56700891225,-0.367897961284,0.423993816397,0.399015904982,0.983510743589,3.13395131714,0.0780326901114,-2.00548783229,0.0262726067877
0,0.716579817143,1.1228924457,0.131702545422,0.377933584509,-0.0574736919686,1.58048290947,-0.367915404989,0.423993816397,0.399015904982,0.983510743589,3.13395131714,0.0780326901114,-2.00548783229,0.0261829280762
0,0.714188697958,1.11475921831,0.131685093395,0.377636875074,-0.0327772837186,1.59554508281,-0.367915404989,0.420192147814,0.399807835502,0.98742073498,3.10699814671,0.0810540491097,-2.00735519342,0.0260940215451
0,0.712233937718,1.10645148729,0.131685093395,0.377636875074,-0.0165631746181,1.60694208069,-0.367915404989,0.4165265399,0.400142998339,0.992368220823,3.08202780001,0.0836097743229,-2.00883632676,0.0259579110695
0,0.710209402657,1.09775972844,0.131667641367,0.377601987664,-0.00431096314632,1.61547671304,-0.367915404989,0.414067253113,0.400016720793,0.997302162376,3.06626929314,0.0864377163654,-2.00968367879,0.025844230241
0,0.708341860943,1.09032464873,0.131667641367,0.377846332694,0.000488692205643,1.62163780306,-0.367915404989,0.412431755319,0.399691410869,1.00244637679,3.05543247882,0.0908907072923,-2.01061898413,0.0257292976061
0,0.706945632162,1.08484432926,0.13163272899,0.378544447084,-0.000139626346791,1.62708316854,-0.367897961284,0.411830312843,0.398764761277,1.0066666968,3.0517638587,0.0934601288198,-2.01160051483,0.0256500948902
0,0.706963075868,1.08192963261,0.131667641367,0.380638856834,-0.00312413945054,1.63142904796,-0.367897961284,0.411698853218,0.397408807744,1.00952230712,3.05246727282,0.0925082582823,-2.01231753151,0.0256208044929
0,0.707364480823,1.08006209089,0.131667641367,0.386066845189,-0.00687659714467,1.63298246983,-0.367915404989,0.411233684337,0.396396756914,1.01045094936,3.05414446356,0.0881107006586,-2.01172212381,0.0257111877441
0,0.708149913607,1.07789787303,0.131737449477,0.398441223194,-0.0102799890612,1.63209230823,-0.367915404989,0.410649251128,0.395540011689,1.0097792134,3.0559417234,0.0819650246646,-2.0107590214,0.0260377731456
0,0.708813107298,1.07623985552,0.131702545422,0.414445889239,-0.0132470490809,1.62828744999,-0.367915404989,0.409290071307,0.394679562214,1.00720134892,3.05589456589,0.0720584505577,-2.00895553945,0.0268165985335
0,0.711448571513,1.07470394394,0.131737449477,0.432841641179,-0.0158650425428,1.61659377595,-0.367915404989,0.40781936724,0.393844862348,1.00327326614,3.05506651743,0.061151780293,-2.00717632823,0.0278393041303
0,0.717312852233,1.07315058865,0.13171999745,0.452319535338,-0.0197571265999,1.59599888545,-0.367915404989,0.406124002536,0.394562683093,0.998604978249,3.05576060346,0.05540414402,-2.00373635983,0.0290391291275
0,0.725585762422,1.07105621219,0.131702545422,0.469720463453,-0.0238935567274,1.57472329098,-0.367915404989,0.404183242724,0.397323770559,0.993627797331,3.06047506929,0.0564723532942,-1.99760556538,0.0303297906895
0,0.735202503697,1.06690234668,0.131702545422,0.486981775348,-0.0269478841668,1.55798558985,-0.367915404989,0.401595031973,0.401217750166,0.98958379301,3.06662570126,0.0605206225596,-1.98913669633,0.0314691624208
0,0.743702248633,1.06082854176,0.131667641367,0.501031681153,-0.0280648950711,1.55231332304,-0.367915404989,0.39774940063,0.405200905396,0.986746532635,3.07104663091,0.0627570432466,-1.97884660943,0.032543164684
0,0.751800588612,1.05311422961,0.131667641367,0.514383439278,-0.0306130741812,1.55201664689,-0.367915404989,0.3932299572,0.407866441118,0.985935576511,3.07168614093,0.0601070550888,-1.96922611397,0.0333482791542
0,0.760422506062,1.04501588963,0.131702545422,0.526653088473,-0.0375594846374,1.5518944078,-0.367915404989,0.388505095219,0.409572495344,0.986211783974,3.0726571546,0.054093133164,-1.95959598418,0.034062626305
0,0.768049599687,1.03775531355,0.131685093395,0.537456700778,-0.0450644015861,1.5517372813,-0.367915404989,0.384227413745,0.411002913965,0.986968694263,3.07819851729,0.0477069815276,-1.94932214094,0.0346942752957
0,0.775432348282,1.03086125502,0.131702545422,0.546741845208,-0.0516617465248,1.55149293627,-0.367915404989,0.380634073751,0.412065041153,0.987691867679,3.08448694963,0.041729585428,-1.94021825108,0.0352396703828
0,0.782064551503,1.02532860443,0.131667641367,0.554665648268,-0.0567406527173,1.551143929,-0.367915404989,0.377234718628,0.413265755498,0.988681819344,3.09031903384,0.0372429207838,-1.93155250973,0.0356924003686
0,0.788609536198,1.02075582368,0.131667641367,0.562763954958,-0.0606152857873,1.54877025353,-0.367915404989,0.374146733798,0.414449713116,0.989336593902,3.09472384977,0.0334036162908,-1.92389129085,0.0360789221617
0,0.794107365952,1.01707313795,0.131702545422,0.571996734983,-0.0634427181435,1.54603012708,-0.367915404989,0.371120090368,0.415942586418,0.989421299088,3.09823532819,0.0308620472401,-1.91642580703,0.0364917939851
0,0.799500400318,1.01351269131,0.131685093395,0.584388623273,-0.0660956177411,1.54344699398,-0.367915404989,0.368252782026,0.417055598912,0.988680941034,3.10009119312,0.0271911282774,-1.9099278769,0.0369803518748
0,0.804090624773,1.01127869863,0.131667641367,0.596326642333,-0.0684169080098,1.54088143774,-0.367915404989,0.364952541183,0.417731020209,0.986928677439,3.1005828315,0.0203789265674,-1.90322176088,0.0376457972855
0,0.807598740298,1.01009186089,0.131667641367,0.607147665053,-0.0696735455372,1.53758271326,-0.367915404989,0.361977518582,0.418137782929,0.984587643372,3.10035016947,0.0128917293404,-1.89736439157,0.0382977040983
0,0.810810179677,1.00984751586,0.131685093395,0.616973863948,-0.0740368686672,1.53213734778,-0.367915404989,0.35952055349,0.418443934704,0.982017097349,3.09932078913,0.00656634817735,-1.89275565109,0.0388985357892
0,0.813271073682,1.00972534334,0.131667641367,0.624321725133,-0.0821351920023,1.52562725049,-0.367897961284,0.357934379517,0.418665403541,0.979204760992,3.10189460883,0.00121034993209,-1.88844312345,0.0394600469859
0,0.814806985262,1.00813710065,0.13163272899,0.632088434978,-0.0946492028722,1.51653402011,-0.367880484289,0.357618359306,0.418631671222,0.977040263116,3.1091937807,-0.00231328154855,-1.88496557512,0.0398849882191
0,0.815452735247,1.00459403113,0.131685093395,0.639436296163,-0.10505136861,1.50820884538,-0.367863040584,0.358514770415,0.418104742261,0.97555016768,3.12201667437,-0.00407402197535,-1.88207819206,0.0403129773083
0,0.815365450143,0.999427898092,0.131667641367,0.646173228193,-0.112277032312,1.50129727657,-0.367863040584,0.359498365887,0.417494429976,0.975293445507,3.13351222731,-0.00361218168671,-1.88005074521,0.0406789027434
0,0.815173502807,0.992516395852,0.13163272899,0.652491311563,-0.117547927452,1.49653261506,-0.367863040584,0.360352590341,0.416866925113,0.976130005342,-3.14067153317,-0.00133045338289,-1.87893858943,0.0409762736607
0,0.814614971347,0.985447833686,0.131597824935,0.658355658863,-0.119275803012,1.49478717928,-0.367863040584,0.360857228297,0.416204801533,0.978057909148,-3.13333894239,0.00159927282985,-1.87806306727,0.0412120480201
0,0.812433309782,0.978134859912,0.13138838396,0.664499238602,-0.119240890635,1.49377491175,-0.367880484289,0.360785508141,0.415436766644,0.980199277056,-3.13015139289,0.00354153710014,-1.87785571462,0.0414096964604
0,0.808227046578,0.971956392762,0.131336027877,0.669229079277,-0.119275803012,1.49265798199,-0.367880484289,0.361072809802,0.414094345526,0.982377435907,-3.12872872459,0.00532932929814,-1.87945270587,0.0416121563408
0,0.801612287062,0.967558182222,0.13131857585,0.673470229892,-0.119240890635,1.48913235618,-0.367863040584,0.362353585842,0.412209369619,0.984352220504,-3.12729459225,0.00752996112903,-1.88315242196,0.0417557094328
0,0.793129985832,0.964591087872,0.131283663472,0.679299623202,-0.119171082525,1.4818717801,-0.367863040584,0.364894966831,0.409804134052,0.985499532881,-3.12567887623,0.0108634163253,-1.88928585307,0.0419072265274
0,0.781261741592,0.962426936591,0.131405835987,0.688445118123,-0.118647480087,1.47012577495,-0.367863040584,0.368330682029,0.406965524429,0.985395416743,-3.12394084437,0.0149298505728,-1.89706240424,0.0421716363356
0,0.767299120892,0.961135370042,0.131405835987,0.696944863058,-0.117600283535,1.45907778433,-0.367863040584,0.372996716997,0.40308023219,0.983873461677,-3.12269089611,0.0196123891097,-1.90776613915,0.0426241473537
0,0.767299120892,0.961135370042,0.131405835987,0.696944863058,-0.117600283535,1.45907778433,-0.367863040584,0.378414682934,0.39834526836,0.982065164439,-3.12223813287,0.0236018961541,-1.92077700901,0.0430497181105
0,0.752760525027,0.960664123687,0.131440748365,0.702966270283,-0.116465818522,1.44928653942,-0.367863040584,0.384198478868,0.393452950281,0.980553622975,-3.12179772671,0.0280168193815,-1.93464639498,0.0433555592693
0,0.738186975173,0.960367447541,0.131458200392,0.707224864603,-0.112503925315,1.43994896401,-0.367880484289,0.389805058793,0.38892887358,0.979478980122,-3.12356461233,0.0344892219546,-1.94908748368,0.0435701266449
0,0.725358861097,0.960210321037,0.131877082342,0.708272086122,-0.106726879765,1.43202526082,-0.367880484289,0.394719614452,0.385522708434,0.979311453115,-3.1267053344,0.0432773212615,-1.96220833849,0.0436206766086
0,0.713682564193,0.960018373702,0.131859621992,0.707748442073,-0.0993965038971,1.42424097411,-0.367897961284,0.399324451074,0.382754791866,0.979649555708,-3.13043047675,0.0538129781759,-1.97483415203,0.0435889094156
0,0.693122627682,0.960035817407,0.131824717937,0.707626269558,-0.0944921263022,1.40155177373,-0.367897961284,0.403967665073,0.380463247704,0.979776229216,-3.13067859733,0.0653498046761,-1.98560425384,0.0435804836828
0,0.681708119513,0.960018373702,0.131842169965,0.707399368233,-0.0945270303572,1.3897009732,-0.367880484289,0.40930242544,0.377754832445,0.979938963359,-3.12675746016,0.07681869156,-1.99589746648,0.0435629840729
0,0.671079110708,0.960018373702,0.131842169965,0.706945632162,-0.0945095783297,1.37633177137,-0.367880484289,0.415073646037,0.374474575121,0.98018670451,-3.1223706112,0.0880944609633,-2.0071426839,0.0435321261676
0,0.660642049238,0.960070704817,0.131824717937,0.705880966938,-0.0945095783297,1.36144403508,-0.367880484289,0.420752723425,0.371642230988,0.980546704743,-3.11738628672,0.100991861025,-2.01753587909,0.0434807899129
0,0.650955466563,0.960088148522,0.131842169965,0.704135664317,-0.0945095783297,1.34718480481,-0.367880484289,0.426641582031,0.369041109774,0.981132979325,-3.11160896145,0.115809112932,-2.02767769844,0.0433874891682
0,0.641181598783,0.960140546217,0.131824717937,0.702460136517,-0.0945095783297,1.33308243474,-0.367863040584,0.432272350754,0.366686566418,0.981985789334,-3.10580261455,0.130710605486,-2.03702469203,0.0432518039996
0,0.632018660157,0.960140546217,0.131859621992,0.701308186188,-0.0944921263022,1.32109208456,-0.367880484289,0.442926570372,0.361595707614,0.983526887147,-3.09527697184,0.15761479682,-2.05510477601,0.0431126117887
0,0.623466517528,0.960175433627,0.131859621992,0.701098728568,-0.0944921263022,1.30676294632,-0.367863040584,0.447865797954,0.359370278604,0.983989421107,-3.08995547182,0.171132177785,-2.06302339444,0.043001007316
0,0.616345557668,0.960192877332,0.131859621992,0.701046397453,-0.0944921263022,1.29307949148,-0.367863040584,0.447865797954,0.359370278604,0.983989421107,-3.08995547182,0.171132177785,-2.06302339444,0.0429208524366
0,0.609311882913,0.960175433627,0.131842169965,0.700871893822,-0.0944921263022,1.27887259233,-0.367863040584,0.452174145567,0.357645884542,0.984424452009,-3.08489872169,0.183914102325,-2.06944563013,0.0428440103248
0,0.602417824378,0.960262718732,0.131842169965,0.700278474952,-0.0945270303572,1.2653637077,-0.367863040584,0.460825037658,0.354286955823,0.985602273153,-3.07430690157,0.2103530485,-2.08176984369,0.0427495345176
0,0.596693159878,0.960367447541,0.131842169965,0.698341158417,-0.0945095783297,1.2545600621,-0.367863040584,0.460825037658,0.354286955823,0.985602273153,-3.07430690157,0.2103530485,-2.08176984369,0.0426322177721
0,0.591387344038,0.960332493552,0.131859621992,0.695409018057,-0.0944921263022,1.2455541834,-0.367863040584,0.464569036189,0.352940575377,0.986603240766,-3.06959666534,0.222109173491,-2.08684252498,0.0424583977401
0,0.585592838139,0.960419778657,0.131824717937,0.690452276057,-0.0944921263022,1.2397422338,-0.367863040584,0.468096576116,0.351662858675,0.987975112548,-3.06511065557,0.233237863171,-2.09156690664,0.0422393935761
0,0.580426705098,0.960472109772,0.131824717937,0.683889781078,-0.0944921263022,1.23625162856,-0.367863040584,0.471730884615,0.349952139971,0.989848861882,-3.06103588282,0.24312433569,-2.09703373425,0.0419389713884
0,0.580426705098,0.960472109772,0.131824717937,0.683889781078,-0.0944921263022,1.23625162856,-0.367863040584,0.475096703061,0.348411550055,0.992208617551,-3.05722039621,0.252374549118,-2.10201880476,0.0415696846897
0,0.575295459468,0.960699011097,0.131842169965,0.676315085148,-0.0944921263022,1.23356383323,-0.367863040584,0.478494188641,0.346856016988,0.994793656833,-3.05340176701,0.261660108605,-2.10702205377,0.0411539041639
0,0.570583062498,0.961013197527,0.131824717937,0.669595596822,-0.0944921263022,1.23124248886,-0.367863040584,0.481545367899,0.345349525951,0.997030699098,-3.05005452406,0.269724513115,-2.11162118677,0.0407849364062
0,0.566115010558,0.961781120027,0.131859621992,0.664342112098,-0.0944572222471,1.2267745035,-0.367863040584,0.484519648559,0.344045349508,0.998610009136,-3.04672150976,0.278055735242,-2.11579696484,0.0404826623287
0,0.562065807279,0.962793454136,0.131859621992,0.660764221753,-0.0944572222471,1.21996773007,-0.367863040584,0.487380752222,0.343004737807,0.999590941077,-3.0431752552,0.286767964969,-2.11933746468,0.040253029192
0,0.559081335803,0.966633133217,0.131859621992,0.655301345988,-0.0944223098697,1.21422555529,-0.367863040584,0.49002680962,0.342496138248,0.999501745821,-3.04063694195,0.293705844845,-2.12226753164,0.0399802884481
0,0.556428427883,0.974696585787,0.131859621992,0.644061408028,-0.0943874058147,1.2112061964,-0.367863040584,0.493123164531,0.342274596295,0.998768592322,-3.03885049496,0.299651002374,-2.12566282841,0.0394890254311
0,0.554229289323,0.987210580012,0.131859621992,0.626573228098,-0.0943874058147,1.21097929508,-0.367863040584,0.496677965707,0.342398536001,0.997395284905,-3.03772656773,0.304751755123,-2.1294416739,0.0387417163838
0,0.552396701598,1.00457658743,0.131877082342,0.602906514438,-0.0943175893822,1.21108395731,-0.367845596879,0.500980313951,0.343031384249,0.995217808858,-3.03662723588,0.310905479556,-2.13356055758,0.0377003249967
0,0.551000439528,1.02461301305,0.131859621992,0.576674244543,-0.0944572222471,1.21127597122,-0.367845596879,0.505468897528,0.343906615706,0.992265632788,-3.03551873672,0.316830717805,-2.1375455244,0.0365043266355
0,0.549447117533,1.04684847736,0.131824717937,0.548242836088,-0.0944572222471,1.21165986589,-0.367845596879,0.510214646502,0.344718904823,0.988669559689,-3.03471254007,0.322645954122,-2.14207111796,0.0351523989403
0,0.547946126653,1.06889199433,0.131999254857,0.519497241203,-0.0943350497321,1.21373686523,-0.367845596879,0.514623666979,0.345378972415,0.985140147201,-3.03460511078,0.327449096854,-2.14670599091,0.0337263507856
0,0.546514943883,1.08994068748,0.131981794507,0.491921040354,-0.0944921263022,1.2174718155,-0.367845596879,0.518583571368,0.345668023869,0.981643664926,-3.03467728642,0.330330789698,-2.15128508006,0.0323099435775
0,0.545397947543,1.1097675889,0.131911986397,0.463158035053,-0.0945444823847,1.22481974326,-0.367845596879,0.522069558958,0.345778650069,0.979060438914,-3.03517109043,0.332052828977,-2.15579740742,0.0307732801151
0,0.544176222393,1.1271511066,0.131929438425,0.436192696778,-0.0945444823847,1.23450632594,-0.367863040584,0.524947271774,0.345499577101,0.977185202134,-3.03627706157,0.332190418596,-2.1603130466,0.0292866374884
0,0.542622867108,1.14329532229,0.131877082342,0.408686304039,-0.0946317508447,1.24689814765,-0.367863040584,0.527624460557,0.344744848971,0.976083598389,-3.03752020641,0.33136768254,-2.16526556273,0.0277203346414
0,0.540406284843,1.15518101023,0.131859621992,0.386154097004,-0.0947015672772,1.2597088846,-0.367863040584,0.529749393364,0.343361617915,0.975848197878,-3.03900145064,0.32944257032,-2.17034669027,0.0264044766955
0,0.537334528263,1.16301762806,0.131859621992,0.368334286939,-0.0951902573372,1.27152466456,-0.367863040584,0.531685117057,0.34135051892,0.976538815083,-3.03972898049,0.327618395328,-2.1755125199,0.0253369665462
0,0.533093377648,1.16715404986,0.131859621992,0.354284381134,-0.0953822462847,1.28391661943,-0.367880484289,0.533411574177,0.338556992621,0.978194074614,-3.04079846699,0.325252971793,-2.18146535802,0.0244807603152
0,0.527839926213,1.17012107763,0.131911986397,0.342660481924,-0.0955218708272,1.29210211136,-0.367863040584,0.535673198279,0.335489837216,0.97996651303,-3.04075702882,0.325660865606,-2.18790312989,0.0237495871042
0,0.522342129748,1.17211072528,0.131929438425,0.334562175234,-0.0956265913147,1.29878677885,-0.367863040584,0.53770916312,0.332260606703,0.981192915513,-3.0410541732,0.325093908895,-2.19430268454,0.0232398658252
0,0.517490116558,1.17350702064,0.13196434248,0.329710162044,-0.0956440433422,1.30632658737,-0.367863040584,0.538934486351,0.329188435953,0.981600425947,-3.04276916148,0.321312709285,-2.20007821172,0.0229494826668
0,0.513318774054,1.17432727426,0.131981794507,0.327406327964,-0.0955916872596,1.31624007137,-0.367880484289,0.539241891977,0.326194880922,0.981347589953,-3.04616920812,0.313512835878,-2.205302842,0.022837935481
0,0.509985195449,1.17439718224,0.131981794507,0.326865273499,-0.0956091392871,1.32655489375,-0.367863040584,0.538979930051,0.323549244285,0.980939495608,-3.04997974784,0.30436206186,-2.20960682306,0.022837935481
0,0.507279956413,1.17443206965,0.132016706885,0.326777988394,-0.0955567748822,1.33871994729,-0.367880484289,0.538169565148,0.321090438928,0.980317580271,-3.0547245694,0.293135974105,-2.21336447845,0.0228804515831
0,0.506005866858,1.17439718224,0.13205161094,0.326777988394,-0.0955218708272,1.35065796635,-0.367863040584,0.536909580557,0.319416835939,0.979743892664,-3.05935087099,0.28209578907,-2.21563580857,0.0228804515831
0,0.505534620503,1.17434485112,0.132243599887,0.326743100984,-0.0954695064222,1.36359080924,-0.367880484289,0.535228817056,0.318128673098,0.979172231302,-3.06445278711,0.270236599794,-2.21706382526,0.0229583302167
0,0.505796409238,1.17437973853,0.132505396945,0.326777988394,-0.0954520543947,1.3773614826,-0.367880484289,0.533172438061,0.317164538599,0.978513218856,-3.06993623576,0.257463194996,-2.21775592297,0.0229998180319
0,0.506808710058,1.17437973853,0.132487944917,0.326795465389,-0.0955218708272,1.38870614937,-0.367880484289,0.531262431348,0.316724691203,0.978010989111,-3.07413012302,0.24685494631,-2.21749414439,0.0230298133382
0,0.510491362503,1.17436229483,0.132679933865,0.326795465389,-0.0954695064222,1.39895119693,-0.367880484289,0.52862169442,0.317850569332,0.977595933173,-3.07817864624,0.237422619324,-2.2144277319,0.0230531611639
0,0.516146218893,1.17434485112,0.132645021487,0.326795465389,-0.0955218708272,1.40809675843,-0.367880484289,0.525541294527,0.320024991248,0.977237067094,-3.08150532569,0.228889095262,-2.20931118822,0.0230720031193
0,0.522918104913,1.17432727426,0.132767194002,0.326935081609,-0.0954869667721,1.41708519342,-0.367880484289,0.522063122057,0.322811450087,0.97685443358,-3.08503203389,0.220461156513,-2.20301468692,0.0230983461486
0,0.531051332303,1.17430983055,0.13278464603,0.326900160909,-0.0955218708272,1.42849963501,-0.367897961284,0.517831861294,0.326026380563,0.976453229058,-3.08922219961,0.209867490227,-2.19544902837,0.0231144855933
0,0.538626061523,1.17432727426,0.132767194002,0.326917637904,-0.0955393228547,1.44206085076,-0.367897961284,0.513458600939,0.328700489475,0.975961122119,-3.0942116908,0.197184469741,-2.18852064311,0.0231144855933
0,0.545834273198,1.17430983055,0.132732289947,0.326952525314,-0.0955393228547,1.45710558039,-0.367915404989,0.513458600939,0.328700489475,0.975961122119,-3.0942116908,0.197184469741,-2.18852064311,0.0231341990342
0,0.552536351108,1.17432727426,0.13271483792,0.327092141534,-0.0955567748822,1.47373861929,-0.367915404989,0.508983977909,0.330997731868,0.975468268451,-3.09971535421,0.183130353972,-2.18193702987,0.0231519869643
0,0.558819547068,1.17430983055,0.13271483792,0.327161982934,-0.0955742269097,1.48972584163,-0.367897961284,0.504428923008,0.332834423178,0.974912707933,-3.10583009417,0.167463785499,-2.17584205374,0.0231729361957
0,0.564125296329,1.17432727426,0.13271483792,0.327284155449,-0.0955742269097,1.50374072687,-0.367915404989,0.500104356003,0.334479005471,0.974464845105,-3.11166337889,0.152499868352,-2.17006567329,0.0231824170491
0,0.569413668463,1.17432727426,0.13271483792,0.327511023484,-0.0956091392871,1.51532973867,-0.367915404989,0.496365757035,0.33578088773,0.974068705762,-3.11680445341,0.139297835542,-2.16509627452,0.0231903951141
0,0.574649642903,1.17424005573,0.132697385892,0.328593132414,-0.0956265913147,1.52553989881,-0.367915404989,0.489628769661,0.338782573936,0.973232820191,-3.12506271169,0.117800888877,-2.15489285188,0.0232021864994
0,0.579676226303,1.17418772462,0.13271483792,0.331682365989,-0.0956440433422,1.53307970733,-0.367897961284,0.486446394301,0.340328132581,0.97214748767,-3.12885435421,0.107945814702,-2.14972495159,0.023270228183
0,0.584563126903,1.17396082329,0.132662473515,0.335661727869,-0.0973370148471,1.53660533314,-0.367897961284,0.483911462503,0.341884760612,0.970962248167,-3.12980846248,0.100540408617,-2.14449132518,0.0234766325493
0,0.588961337443,1.17331500673,0.132697385892,0.338541503824,-0.103637654512,1.53669255167,-0.367880484289,0.483911462503,0.341884760612,0.970962248167,-3.12980846248,0.100540408617,-2.14449132518,0.0237452074772
0,0.593097759248,1.17108101405,0.132732289947,0.341176968039,-0.112992615375,1.53669255167,-0.367863040584,0.482627272744,0.342990575731,0.970417319291,-3.12473230231,0.0961224030274,-2.13964048302,0.0239379078293
0,0.597024790013,1.16645590218,0.132732289947,0.345575178579,-0.123290060625,1.53670999537,-0.367863040584,0.481833306185,0.343601842748,0.970891552742,-3.11604422933,0.0923665152849,-2.13494334229,0.0241014592603
0,0.600515461833,1.16092318502,0.132732289947,0.352347064599,-0.128648215902,1.53711146691,-0.367863040584,0.479502699458,0.344512927755,0.973385788906,-3.10139986993,0.0852635660936,-2.12581836189,0.0243663140402
0,0.604058464768,1.15434331291,0.132732289947,0.362661953554,-0.130672800897,1.53777472717,-0.367863040584,0.477100518017,0.345349583771,0.974031543252,-3.10072336454,0.0803602578105,-2.12109276336,0.0247834429739
0,0.607549136588,1.14750165207,0.132889366517,0.376450070624,-0.130585532437,1.53777472717,-0.367863040584,0.474059701576,0.34630657954,0.973754919998,-3.10302781397,0.0739086575444,-2.11604375733,0.0254282650063
0,0.611284086858,1.14158490708,0.132941730922,0.391634416474,-0.130602984465,1.5377048192,-0.367863040584,0.470723308937,0.347200933027,0.972505227361,-3.10599147437,0.0653043429583,-2.11066116472,0.0262988140044
0,0.614774758678,1.13605232307,0.132854462462,0.405038572293,-0.13072515698,1.53747805103,-0.367863040584,0.467753310925,0.348020914127,0.971589593984,-3.1082128591,0.0580576160151,-2.10573320289,0.0272612297017
0,0.617898912953,1.13022292976,0.132854462462,0.415056751814,-0.13074261733,1.5370940232,-0.367863040584,0.465398110876,0.348928718987,0.971896597602,-3.10922469886,0.0544379322042,-2.1014605083,0.0280991927465
0,0.620394760948,1.12367794507,0.132889366517,0.424359339949,-0.130690252925,1.5370940232,-0.367863040584,0.465398110876,0.348928718987,0.971896597602,-3.10922469886,0.0544379322042,-2.1014605083,0.0287035933065
0,0.623082556278,1.11701072128,0.133011539032,0.434447360869,-0.13065534887,1.53728603711,-0.367845596879,0.463312488144,0.349564080544,0.97283311287,-3.10991842086,0.0518125714689,-2.09787207228,0.0292475537984
0,0.626904791653,1.10924401143,0.132994087005,0.447327872639,-0.130690252925,1.53721612914,-0.367863040584,0.457950924951,0.351154090634,0.974129321949,-3.1122662752,0.0435950775574,-2.08869382232,0.0298349088109
0,0.631163385973,1.10208816416,0.132994087005,0.460609855943,-0.130690252925,1.537233706,-0.367863040584,0.457950924951,0.351154090634,0.974129321949,-3.1122662752,0.0435950775574,-2.08869382232,0.030583712883
0,0.635806008123,1.09479270067,0.133081355465,0.476946118834,-0.130672800897,1.53714635432,-0.367863040584,0.454640287669,0.352215399563,0.974186057789,-3.11404207206,0.0377817421504,-2.08293355991,0.0313541541289
0,0.640378788872,1.08657218818,0.133011539032,0.493614011859,-0.130777521385,1.53702424838,-0.367863040584,0.450714203661,0.353200814834,0.973394131611,-3.1168983601,0.029399825631,-2.07641631313,0.0323046490128
0,0.644340640468,1.07758375318,0.13304645141,0.508885642813,-0.13081242544,1.53653555832,-0.367863040584,0.446807391882,0.354037078155,0.97303253486,-3.11923539926,0.0214807488903,-2.06997242298,0.0332494864066
0,0.648773804998,1.06716413542,0.133186075952,0.524785613338,-0.130707704952,1.53622130531,-0.367863040584,0.443349072417,0.354749137376,0.973531943527,-3.12076657286,0.0159556089201,-2.06422752919,0.0340830841842
0,0.654533356908,1.05473735972,0.133151171897,0.544525262943,-0.13074261733,1.53606431196,-0.367863040584,0.439583469022,0.355614205521,0.974645696437,-3.12219253057,0.011069157474,-2.05789050089,0.0349200297112
0,0.660729267763,1.03974502778,0.133238432035,0.567511239338,-0.13072515698,1.53470290402,-0.367863040584,0.429504724188,0.357628685209,0.977251462962,-3.12545260026,-0.00221263475609,-2.040968481,0.0359398141595
0,0.667291762742,1.02077326739,0.133395516927,0.596466258553,-0.13072515698,1.52964143321,-0.367863040584,0.423628341919,0.358609973263,0.979185009872,-3.12612117518,-0.00707247545107,-2.03093897101,0.0370874800577
0,0.673417832198,1.00078923946,0.133465325037,0.628737379378,-0.130690252925,1.51735440688,-0.367845596879,0.418240408577,0.359753761713,0.98063178545,-3.12490047182,-0.00738290746757,-2.02095016709,0.038485413455
0,0.679404285433,0.978326873827,0.133657313985,0.666872847503,-0.13065534887,1.49571222829,-0.367845596879,0.413034277642,0.361220959851,0.981630742161,-3.12144941208,-0.00213109926268,-2.01022373366,0.0400060011367
0,0.684797386378,0.955271089321,0.133727130417,0.709703202313,-0.130184110837,1.46785676171,-0.367828153174,0.407875441597,0.362496319966,0.981481116155,-3.11752348199,0.00520335904887,-1.99958188762,0.0417349266339
0,0.689387610833,0.930609551837,0.133831850905,0.758677203442,-0.12983504532,1.43469561244,-0.367828153174,0.402480073075,0.363152304554,0.980303202832,-3.11315818448,0.013204150954,-1.98893660137,0.0435768667364
0,0.692965501178,0.905773510722,0.133849302932,0.807022765133,-0.128718032335,1.40256404126,-0.367828153174,0.397150684011,0.363144301636,0.979316867053,-3.10950739953,0.0212052765491,-1.97959112825,0.0455179925539
0,0.696002370348,0.879872804383,0.133919111042,0.857794399998,-0.125506626245,1.37198589194,-0.367828153174,0.390962908184,0.362417022223,0.978065598958,-3.10881066986,0.0272206327802,-1.97103403098,0.0472059632746
0,0.698184031913,0.852698041777,0.133884206987,0.905284820662,-0.119921569642,1.3452998194,-0.367845596879,0.384775920819,0.36128565364,0.978335227477,-3.10977655078,0.03453925957,-1.96450363958,0.0487454457171
0,0.699423267347,0.826814845722,0.133762034472,0.947347252972,-0.11353366984,1.32402422492,-0.367863040584,0.379014572377,0.359668313185,0.979394659446,-3.11185502896,0.0408723300271,-1.96011243212,0.0498954090269
0,0.699911957407,0.801141040707,0.133884206987,0.987664382662,-0.10890854133,1.30705962246,-0.367845596879,0.373357606886,0.357140753436,0.98072194665,-3.11341287438,0.0440175413398,-1.95645616235,0.0506901757535
0,0.699964288523,0.774961101927,0.133849302932,1.02419409781,-0.105732047617,1.29550549807,-0.367845596879,0.368038291073,0.353958427911,0.983265843676,-3.11376605724,0.0454399391867,-1.95355801245,0.0512790331429
0,0.700103904743,0.749392025722,0.13393656307,1.0620153795,-0.104510314145,1.28540013332,-0.367845596879,0.362375236801,0.350081974327,0.984964580203,-3.11366779299,0.0430943106669,-1.95004043189,0.0516195885371
0,0.700121348448,0.726144227303,0.134041283557,1.09714886587,-0.104405593657,1.27614977643,-0.367863040584,0.357163105906,0.346165209881,0.986171016999,-3.11290774989,0.0399559210036,-1.94665868791,0.0518879907244
0,0.700034129922,0.703385118943,0.133988927475,1.13264893636,-0.104405593657,1.26707412291,-0.367845596879,0.35186727285,0.341935551238,0.986911725546,-3.11237390371,0.0357756809671,-1.94355237896,0.0520323051128
0,0.699946844818,0.682929911242,0.133971475447,1.16362842405,-0.104440506035,1.25646249123,-0.367863040584,0.347499419376,0.338479467022,0.987778221931,-3.11061996948,0.035135226187,-1.9407577105,0.052086687379
0,0.699458154758,0.663696362113,0.133657313985,1.19525386147,-0.1045452182,1.24192389536,-0.367863040584,0.343603271678,0.335069842569,0.987802694135,-3.10805063647,0.0363615039406,-1.9384901421,0.0520032358811
0,0.698882179593,0.647203006008,0.132505396945,1.22276018763,-0.104929196095,1.22232382869,-0.367863040584,0.341274863288,0.332570856358,0.987693444237,-3.1026942639,0.0433378336147,-1.93705114752,0.0518429204606
0,0.697817514368,0.632210607493,0.132086514995,1.24832933042,-0.10602874873,1.19944261439,-0.367863040584,0.339674427659,0.33069358429,0.987460443646,-3.09589000015,0.0537969409072,-1.93528158517,0.05156699984
0,0.693541476343,0.618474888118,0.132016706885,1.27183891757,-0.106150921245,1.17575845703,-0.367863040584,0.339351335722,0.328318559701,0.98724445432,-3.08964787,0.0662303528677,-1.93682488528,0.0511939282572
0,0.686211125442,0.607130221348,0.131842169965,1.29121208292,-0.106133469217,1.15577449568,-0.367863040584,0.340355348279,0.325075654957,0.987078558496,-3.08435706831,0.0769335525953,-1.94195847416,0.0507502467118
0,0.675913680193,0.597757825103,0.131772361855,1.30758319993,-0.10611601719,1.14020618858,-0.367845596879,0.342302442532,0.320766100646,0.986815098449,-3.08050703702,0.0845809284434,-1.95040212211,0.050325101493
0,0.663085499538,0.590165618888,0.131702545422,1.31999246535,-0.106063661107,1.12837283175,-0.367863040584,0.34533158562,0.315758119869,0.986839612921,-3.07735440863,0.0908361414892,-1.96178345766,0.0499533553901
0,0.647203006008,0.584318781873,0.131772361855,1.32795118911,-0.105819316077,1.11976829143,-0.367863040584,0.349693497154,0.310048760604,0.987329452612,-3.07471422121,0.0967468639466,-1.97662790621,0.0496356934137
0,0.628946836998,0.579554053788,0.131824717937,1.33044697052,-0.105313165667,1.11444509846,-0.367863040584,0.3554038655,0.303953590118,0.988900503449,-3.07185738721,0.103749373281,-1.9943950313,0.0493780707805
0,0.611319040848,0.576883702163,0.13189453437,1.32887623811,-0.10463248666,1.11139078559,-0.367845596879,0.3554038655,0.303953590118,0.988900503449,-3.07185738721,0.103749373281,-1.9943950313,0.0491686334461
0,0.592923255618,0.575819036938,0.131859621992,1.32554262622,-0.1029046111,1.1081444588,-0.367863040584,0.367755284099,0.292745281304,0.992271115681,-3.06787720554,0.118210121559,-2.03091337966,0.0490341152525
0,0.575661977013,0.576150667073,0.13189453437,1.32014959185,-0.10026916353,1.10592790982,-0.367863040584,0.373930840526,0.287718429788,0.99381745737,-3.06743663896,0.125867304625,-2.04926040951,0.0489347663845
0,0.560146001028,0.577267663413,0.13189453437,1.31213853698,-0.0973544668747,1.1048806883,-0.367863040584,0.373930840526,0.287718429788,0.99381745737,-3.06743663896,0.125867304625,-2.04926040951,0.0488800008838
0,0.545642292573,0.581596099133,0.13229595597,1.29967694044,-0.0922231962772,1.10482829061,-0.367880484289,0.379938751532,0.28348998314,0.995785501031,-3.06702150869,0.134244839239,-2.06618307711,0.0488479209434
0,0.533791492038,0.589153351358,0.132348320375,1.28454485913,-0.0842644974847,1.1048108469,-0.367880484289,0.386126346959,0.280418091954,0.997609459544,-3.06899855311,0.14387682321,-2.0830693914,0.0488904662181
0,0.533791492038,0.589153351358,0.132348320375,1.28454485913,-0.0842644974847,1.1048108469,-0.367880484289,0.391929418004,0.278817283742,0.998730987407,-3.07394912757,0.154014595824,-2.09907991589,0.0489991822927
0,0.521835995983,0.601964088308,0.132592665405,1.26489246134,-0.0724660696773,1.10484580089,-0.367897961284,0.398320357428,0.278152103607,0.998757388871,-3.08336088216,0.165039843928,-2.11719262052,0.0492075579647
0,0.511311649408,0.619295208313,0.132592665405,1.24443725364,-0.0610341635761,1.10484580089,-0.367915404989,0.404577471151,0.277883597706,0.996818902983,-3.09427200479,0.172623933154,-2.13434739178,0.0495152902955
0,0.502113756794,0.639575912383,0.132522848972,1.22162581417,-0.0546637116398,1.1048806883,-0.367897961284,0.411429820932,0.277644223231,0.99409938812,-3.10111061229,0.177950374459,-2.14838636807,0.0498478763924
0,0.493160242498,0.662806267097,0.132662473515,1.1945731575,-0.0520806243136,1.10496797341,-0.367897961284,0.419378145227,0.27743163316,0.991149180923,-3.10441672211,0.183284469819,-2.16071005143,0.0501615831235
0,0.485480784468,0.686333297957,0.132732289947,1.16542619095,-0.0516791985523,1.10515992074,-0.367880484289,0.427581512551,0.277496094964,0.988576640344,-3.10505492909,0.189411492844,-2.17098292091,0.050386892976
0,0.477679153924,0.712233937718,0.132994087005,1.12996100787,-0.0516617465248,1.10615474457,-0.367863040584,0.437005038442,0.277932202409,0.986664079201,-3.10444883693,0.198431348076,-2.1814777508,0.0504929910869
0,0.471134169229,0.737104932822,0.132889366517,1.09577008079,-0.0516791985523,1.10933129654,-0.367863040584,0.445517058322,0.278215209832,0.984654577873,-3.1043466403,0.204996242454,-2.1909593764,0.0505199461262
0,0.464589184534,0.761766403728,0.13311625952,1.05793135539,-0.0516791985523,1.11664420373,-0.367863040584,0.454094840793,0.278401901433,0.98367671864,-3.10446549852,0.211341689877,-2.20048569249,0.0503984692888
0,0.458934328143,0.786235927297,0.133011539032,1.0199703909,-0.0516966505799,1.12887896552,-0.367863040584,0.461724574707,0.278229398171,0.982535408273,-3.10599582387,0.213240640467,-2.2095327009,0.0502019846319
0,0.453768161813,0.808035099242,0.133081355465,0.983283615826,-0.0517315587961,1.14432516668,-0.367863040584,0.468391529933,0.277765513072,0.982199101697,-3.10800207576,0.213366026153,-2.21785968272,0.0498759122465
0,0.448514710379,0.829380468537,0.133063903437,0.947259967867,-0.0517664670123,1.1624066989,-0.367863040584,0.474473517536,0.276771470531,0.981709934238,-3.11092678488,0.210772710972,-2.22638488825,0.0494580004149
0,0.443540524674,0.850306989172,0.133063903437,0.910625523912,-0.0518188272561,1.18134350531,-0.367863040584,0.480363885698,0.275731118118,0.981541456745,-3.11370886377,0.208297812532,-2.23463570663,0.0488826809507
0,0.439212122243,0.870674978347,0.133063903437,0.875526991537,-0.0518188272561,1.1987095793,-0.367880484289,0.485862473772,0.27485972348,0.981158568714,-3.11625285761,0.206361439792,-2.24213740778,0.0482026421072
0,0.435616721614,0.888686735747,0.13311625952,0.843151075323,-0.0518188272561,1.21253258378,-0.367863040584,0.491040015915,0.274326392794,0.981252923011,-3.11746932459,0.207320129131,-2.24856787518,0.0474277804679
0,0.432597296149,0.905284820662,0.133151171897,0.811421042252,-0.0518188272561,1.22333622938,-0.367863040584,0.496297226676,0.274161749377,0.981982139063,-3.11715643284,0.21174484865,-2.25422298852,0.0465249956377
0,0.430014229628,0.921621116842,0.133081355465,0.781994776682,-0.0518188272561,1.2308934816,-0.367863040584,0.50137855371,0.274168633197,0.982168233526,-3.11630425882,0.217249455716,-2.25935176881,0.0456072660647
0,0.427919819879,0.936177156412,0.133151171897,0.756478031593,-0.0518188272561,1.2357803822,-0.367863040584,0.505886032091,0.274335828799,0.98213870876,-3.11521328578,0.223260354885,-2.26360956136,0.0447449457113
0,0.426471193404,0.949162396992,0.133220980007,0.733876049738,-0.0518362792836,1.23859041663,-0.367863040584,0.509931373393,0.274744842601,0.982092006634,-3.11371057818,0.229906201432,-2.26694839977,0.0439247142712
0,0.425546177689,0.961885848837,0.133308248467,0.713019370503,-0.0518188272561,1.24047526889,-0.367863040584,0.513585765399,0.275340553167,0.981628331866,-3.11243212646,0.236043312578,-2.26968500819,0.0431387332679
0,0.424516433164,0.973021057987,0.133255892385,0.695897708117,-0.0518188272561,1.24070217021,-0.367863040584,0.516824921617,0.27570879362,0.98087692523,-3.11108613015,0.241634415054,-2.27228639448,0.0424689032183
0,0.423783398074,0.983737351897,0.13320352798,0.679543968232,-0.0518362792836,1.24070217021,-0.367863040584,0.519851127327,0.276169964663,0.980105869764,-3.10972602829,0.24709060167,-2.27452019296,0.0418057438744
0,0.423032919278,0.992760740882,0.133238432035,0.664656298528,-0.0518188272561,1.2406672828,-0.367863040584,0.522609235215,0.276559153286,0.979828073759,-3.10823763012,0.25278760519,-2.2765381969,0.0411695624377
0,0.421601736509,1.0010510282,0.133168623925,0.650606392723,-0.0518711833386,1.24068472651,-0.367863040584,0.525409468779,0.276479985316,0.97968636436,-3.10659713174,0.258255697131,-2.27915447572,0.0405496592502
0,0.419769148783,1.00731678045,0.133168623925,0.638528690863,-0.0518886395273,1.2406672828,-0.367880484289,0.527978630261,0.276105649426,0.980075426506,-3.1048578474,0.263792816678,-2.28187414769,0.0399900514149
0,0.417028955759,1.01309384265,0.133168623925,0.625822682723,-0.0524995021024,1.2406672828,-0.367863040584,0.530947593063,0.275178391479,0.980963809924,-3.10210542557,0.270128334693,-2.28529290085,0.0393768841244
0,0.413677933449,1.01796329954,0.133133711547,0.614512969943,-0.0532674495698,1.2406672828,-0.367863040584,0.533850351406,0.273800596449,0.981917144666,-3.09927842084,0.275919833867,-2.28912946468,0.038817600512
0,0.410047645409,1.02154118989,0.133133711547,0.605821211093,-0.0532499975423,1.2406672828,-0.367863040584,0.536309161701,0.272251727482,0.982757488128,-3.09763989554,0.280742866257,-2.29329349045,0.0383795788679
0,0.406277741149,1.02429882662,0.133151171897,0.598368687678,-0.0532849015973,1.2406498391,-0.367863040584,0.53859380836,0.270554086867,0.983667437209,-3.09605469766,0.285163522832,-2.29745554813,0.0379952489681
0,0.402891798139,1.02599179812,0.13311625952,0.593411945678,-0.0533896220848,1.24063239539,-0.367863040584,0.540358965064,0.268915743604,0.984357211029,-3.09481751231,0.288191025187,-2.30106843276,0.0377355633935
0,0.399313874504,1.02740553719,0.13311625952,0.591073224188,-0.0534594343561,1.24054517687,-0.367863040584,0.541717831797,0.267069160654,0.984316469165,-3.09446912604,0.289134717613,-2.30481496299,0.0376213500522
0,0.395753394574,1.02794655836,0.133098807492,0.591073224188,-0.0540353928761,1.24052773316,-0.367880484289,0.542701597079,0.265047856697,0.983985008329,-3.0941214074,0.28844921319,-2.30824460244,0.0376294469032
0,0.392105662829,1.02878432226,0.133081355465,0.591090667893,-0.0580496504886,1.2405101563,-0.367863040584,0.543938533098,0.262478516907,0.983436814194,-3.0905754098,0.286257279436,-2.31073381767,0.0376427456255
0,0.388562659894,1.02932541002,0.13311625952,0.591108111598,-0.065275314191,1.24054517687,-0.367863040584,0.545356486947,0.25951283721,0.983043066923,-3.08383981497,0.283149841846,-2.31203716611,0.0376515050074
0,0.385421061914,1.02943007225,0.133081355465,0.591160442713,-0.0755553032523,1.24059750798,-0.367845596879,0.546884471742,0.256299373383,0.982886304327,-3.07393116371,0.279247316928,-2.31198804801,0.0376553281118
0,0.382820518399,1.02946502624,0.133168623925,0.591212840408,-0.0882962071247,1.24070217021,-0.367828153174,0.54841260595,0.253053534201,0.982778572063,-3.06175518082,0.274476842844,-2.31064194035,0.0376578982393
0,0.381249719409,1.02943007225,0.133168623925,0.591631689068,-0.0995884845222,1.24110364175,-0.367810676179,0.549474567785,0.250514964075,0.982599337423,-3.05116366851,0.269611585894,-2.30881032121,0.0376828442975
0,0.380761029349,1.02946502624,0.13320352798,0.592504406958,-0.108035881697,1.24518773244,-0.367828153174,0.549434495655,0.248708094918,0.982071645667,-3.04497778599,0.261876121624,-2.30710555287,0.0377626484698
0,0.381075182489,1.02939518484,0.133238432035,0.592818526808,-0.11229448434,1.25319878731,-0.367828153174,0.5484216622,0.247686876559,0.981634568538,-3.04408092885,0.252646320436,-2.30627682557,0.0378366353371
0,0.381616236954,1.02944758253,0.133343152522,0.593446833088,-0.116064396922,1.26253622957,-0.367828153174,0.547054540169,0.246766278142,0.98097407086,-3.04439439917,0.241992098514,-2.30550713076,0.0379374165841
0,0.382139847714,1.02941262854,0.13336060455,0.594494054608,-0.118246058487,1.27124543212,-0.367845596879,0.545609138483,0.246063360738,0.980265641193,-3.04602931943,0.232167469082,-2.3051414951,0.0380543116137
0,0.382384192744,1.02937774113,0.133395516927,0.596047409893,-0.118822017007,1.27920415588,-0.367845596879,0.54413351636,0.245476015202,0.979431877461,-3.04911121717,0.223175160821,-2.30540242444,0.0380543116137
0,0.383029942729,1.02927301232,0.133465325037,0.601754630688,-0.118787112952,1.28295668302,-0.367863040584,0.54413351636,0.245476015202,0.979431877461,-3.04911121717,0.223175160821,-2.30540242444,0.0381934168669
0,0.384007356139,1.02929045603,0.133587497552,0.609521340533,-0.118787112952,1.28360236642,-0.367863040584,0.54238826735,0.245328916113,0.977421678195,-3.05274832571,0.214564074988,-2.30486110887,0.0385434872955
0,0.384932371854,1.02922068121,0.133587497552,0.617759296733,-0.118822017007,1.28360236642,-0.367863040584,0.540629846243,0.2454966049,0.974782349924,-3.05605696629,0.206842052173,-2.30362940815,0.038992622755
0,0.386503170844,1.02908106499,0.133762034472,0.625787795313,-0.118752200575,1.28360236642,-0.367863040584,0.538897221099,0.24560720848,0.972071198645,-3.05913042422,0.199306756342,-2.30238166798,0.0394602887609
0,0.388021605429,1.02860981863,0.133709670067,0.631966262463,-0.119013997632,1.28356747901,-0.367863040584,0.53699622085,0.246130205026,0.969486887502,-3.06232656178,0.192132074197,-2.30043087044,0.0399115342295
0,0.388021605429,1.02860981863,0.133709670067,0.631966262463,-0.119013997632,1.28356747901,-0.367863040584,0.535511229854,0.246592739914,0.967717640974,-3.06416497423,0.186784893803,-2.2985582071,0.0402506144773
0,0.389557483719,1.02648048818,0.133639861957,0.634880959118,-0.120340451592,1.28356747901,-0.367863040584,0.534763797776,0.247083034429,0.968006795317,-3.0630158022,0.18550294111,-2.29639974807,0.0403796774984
0,0.391564608364,1.02157614388,0.133971475447,0.637603708438,-0.123796202712,1.2836722744,-0.367845596879,0.53411232065,0.247676018999,0.969999197311,-3.05889736573,0.186161823519,-2.2928737426,0.0404530529038
0,0.394967995079,1.01511837771,0.134006379502,0.643694890483,-0.125977864277,1.28391661943,-0.367845596879,0.532451216512,0.248938386273,0.971773722092,-3.05638054453,0.185335236103,-2.28811490063,0.0406871307942
0,0.398772820039,1.00731678045,0.134058743907,0.653346519168,-0.12711232929,1.28379438034,-0.367845596879,0.530024554271,0.250413363169,0.973161922846,-3.05547736072,0.18316699286,-2.28292666312,0.0410873458958
0,0.402630009404,0.998188729236,0.134128552017,0.666837960093,-0.127409038725,1.28377693663,-0.367845596879,0.526802423222,0.251815100015,0.974041798463,-3.05627851085,0.178868747952,-2.277629583,0.0416638991549
0,0.406539529884,0.987978502512,0.13419836845,0.681900133428,-0.127391578375,1.28368971811,-0.367863040584,0.523261222422,0.253179273577,0.97502418228,-3.05744800327,0.174268421953,-2.27218282011,0.0422886875496
0,0.410239626034,0.977960356282,0.134233272505,0.696683074323,-0.127409038725,1.28372460552,-0.367863040584,0.519781744686,0.254376512472,0.975969041585,-3.05857737324,0.169609074788,-2.267009336,0.0428837854831
0,0.413869914074,0.967715242147,0.13435544502,0.712600455263,-0.127374126347,1.28365469754,-0.367863040584,0.516079556189,0.255470140043,0.976665062134,-3.06010307795,0.164252476045,-2.26180482782,0.0435128094042
0,0.417308221489,0.958552303522,0.134407809425,0.727296177632,-0.127391578375,1.28370716181,-0.367845596879,0.512601575275,0.256442062315,0.977122463046,-3.06159222869,0.158889334015,-2.25697590857,0.0440807932248
0,0.420676720793,0.949982717187,0.134495069562,0.742532854598,-0.127374126347,1.28368971811,-0.367845596879,0.50899924219,0.257315859662,0.977059672511,-3.06358118981,0.152583893168,-2.25220075062,0.0446681155967
0,0.423713589964,0.942634856002,0.13459979005,0.757804485553,-0.127339222292,1.28368971811,-0.367863040584,0.505412200643,0.257967674707,0.976288300917,-3.06616883222,0.145148275062,-2.2478115277,0.0452625657265
0,0.426680651023,0.934780861052,0.134721962565,0.773652091673,-0.127304318237,1.28375949293,-0.367863040584,0.50170486041,0.258507192506,0.975618162457,-3.06878077601,0.13757443793,-2.24342945849,0.0458558413919
0,0.430171289554,0.926595302547,0.134879047457,0.790965767972,-0.12728686621,1.28368971811,-0.367863040584,0.49756835851,0.259181230582,0.974670772184,-3.07175326025,0.129081744666,-2.23837507916,0.0464882779667
0,0.433592153263,0.917310124827,0.135210660947,0.809256824392,-0.127304318237,1.28365469754,-0.367863040584,0.493221135505,0.259754082682,0.974032466684,-3.0746926533,0.120684411245,-2.23315462427,0.0471169790247
0,0.437030460678,0.906419260708,0.13690362413,0.829136123507,-0.127304318237,1.28368971811,-0.367863040584,0.488313884426,0.260610181742,0.973810115547,-3.07848975583,0.112683465165,-2.22699063149,0.047750747358
0,0.440556019908,0.895650635682,0.140551372519,0.849591397787,-0.127304318237,1.28363725383,-0.367863040584,0.482889314982,0.262036910794,0.973383720714,-3.08385985475,0.104821651991,-2.21956508487,0.0483745607595
0,0.443645253483,0.883747437453,0.14596188388,0.869453253197,-0.12726940586,1.2835325916,-0.367863040584,0.477369104633,0.263834446361,0.973807285123,-3.08963248956,0.0991921342689,-2.21145868144,0.048910393828
0,0.446612314543,0.871477788257,0.15327480772,0.889140538397,-0.127339222292,1.28349770419,-0.367863040584,0.471518375477,0.266131009431,0.974527738447,-3.09628142274,0.0946111080144,-2.20219207162,0.0493927662844
0,0.449474646793,0.859452484092,0.160954265749,0.909805203717,-0.127391578375,1.28342792937,-0.367863040584,0.465343683338,0.268354800302,0.974822463396,-3.10352897694,0.0890692966971,-2.19254416621,0.0498797988457
0,0.452319535338,0.847078106087,0.168528994969,0.931621819367,-0.127391578375,1.28321847175,-0.367863040584,0.458893994291,0.270391157205,0.974949618948,-3.11082902848,0.0828682160469,-2.18264984241,0.050358838537
0,0.454972443258,0.835698551907,0.17418385136,0.951850192322,-0.12735667432,1.28250288037,-0.367863040584,0.453168558307,0.271827491714,0.974980186047,-3.11646645962,0.0770170902637,-2.17411603502,0.0507653804819
0,0.457904583618,0.824702958978,0.178145752889,0.971921505352,-0.127339222292,1.27984997245,-0.367863040584,0.447933876656,0.272968201088,0.974818737324,-3.12033367311,0.0721408931925,-2.16622024448,0.0511299915961
0,0.461011260899,0.813463087597,0.180659027944,0.992289494527,-0.12735667432,1.27765086718,-0.367863040584,0.442770958204,0.27357618743,0.974627140898,-3.12334210904,0.0662257425837,-2.15896067794,0.0514669727279
0,0.463821262033,0.803392477093,0.182613804829,1.01115652611,-0.127339222292,1.2771272897,-0.367863040584,0.437824491493,0.273775088053,0.974233231865,-3.12660341003,0.058900507075,-2.15254746859,0.0517656737652
0,0.466840654209,0.792519123257,0.184219507874,1.03039000866,-0.127339222292,1.27700505061,-0.367863040584,0.432749100274,0.273817900755,0.974117741123,-3.12948261914,0.0514138075803,-2.14605520891,0.0520258122701
0,0.469598290938,0.782500910448,0.186785130689,1.04810508992,-0.127304318237,1.2769701632,-0.367863040584,0.427820905931,0.274133060678,0.974041944072,-3.13282675345,0.0448355457895,-2.13934166188,0.0522342376185
0,0.472233721864,0.771959120168,0.192928693784,1.06568055495,-0.127391578375,1.2769701632,-0.367863040584,0.422213026204,0.275489825687,0.974392225134,-3.13785410784,0.0400218775343,-2.13019226935,0.0523881628966
0,0.474380496018,0.762743783848,0.201847320669,1.08220886505,-0.127391578375,1.27693527579,-0.367863040584,0.416311155894,0.27757501201,0.974489552839,3.13842094138,0.0360642499747,-2.11963951589,0.052516198555
0,0.476823946319,0.752010046232,0.212214590674,1.10044752377,-0.127391578375,1.27693527579,-0.367863040584,0.409614811056,0.279996907174,0.974906096142,3.13093853603,0.0323154665075,-2.10734314719,0.0526102661644
0,0.479389569134,0.740909724493,0.222878553469,1.11840701664,-0.127391578375,1.27691783209,-0.367863040584,0.402829416562,0.282508839399,0.975600434346,3.12379069526,0.0292317616585,-2.09453758784,0.052654869467
0,0.481885417128,0.730402821623,0.231866988464,1.13556363301,-0.127409038725,1.27690038838,-0.367863040584,0.396538145651,0.284457285782,0.976162245557,3.11778833207,0.0257363434642,-2.08294339262,0.052674626608
0,0.484241615613,0.720175217773,0.239406813629,1.15392439767,-0.127426490752,1.27679559299,-0.367863040584,0.390292244161,0.285674996795,0.976173678279,3.1121555357,0.0204378207036,-2.0722304496,0.0527000913863
0,0.486283627669,0.710645695023,0.245515472669,1.17378625308,-0.12744394278,1.27658613537,-0.367880484289,0.384072656154,0.286058475115,0.975357172508,3.10649055934,0.0127454987273,-2.06252885942,0.0527435396081
0,0.487662446033,0.701447802408,0.251083060599,1.1961264462,-0.127461394807,1.27231016393,-0.367863040584,0.378071970088,0.286068841475,0.973663705491,3.10151132187,0.00610296885539,-2.05357504775,0.0527701851484
0,0.488238421198,0.692860838947,0.254172294174,1.21731482215,-0.127566115295,1.26283303887,-0.367863040584,0.373745713015,0.285652639836,0.971880463434,3.09995595941,0.00390139765312,-2.04758428381,0.0527271287486
0,0.487976599174,0.683244031093,0.255341671564,1.23682753714,-0.128578407792,1.24906236551,-0.367863040584,0.371127828799,0.284898700577,0.970925647411,3.10302356223,0.00705499900961,-2.04402339847,0.0525674472041
0,0.487924234769,0.671602688178,0.255935073789,1.25606115285,-0.13074261733,1.23672287491,-0.367863040584,0.368624337015,0.283778429826,0.970930902117,3.10817405981,0.0101834725827,-2.0402666817,0.0523224002117
0,0.487959155468,0.657989141318,0.256196879169,1.27545176191,-0.131266211445,1.22609379953,-0.367863040584,0.365778658851,0.282560173863,0.971758876889,3.11251276742,0.0135854889476,-2.03712547857,0.0520032649673
0,0.488011519873,0.641775017653,0.256493588604,1.29657022988,-0.131126586902,1.21631999833,-0.367845596879,0.36238271195,0.28109183875,0.973243836094,3.11678633387,0.0169466533101,-2.03389567915,0.051593452844
0,0.487976599174,0.625142045328,0.256545953009,1.31603061375,-0.131126586902,1.2102985911,-0.367845596879,0.358988522354,0.27925888473,0.975299955835,3.12088582073,0.0184845093382,-2.03105937354,0.0511644312671
0,0.487959155468,0.608456675308,0.256615761119,1.33475796254,-0.131109134875,1.20703475403,-0.367845596879,0.355387260102,0.277179101664,0.977511462399,3.12432216131,0.0181341401394,-2.02829332035,0.0507304417399
0,0.487959155468,0.592068048013,0.256685569229,1.3533980928,-0.131109134875,1.20665085936,-0.367845596879,0.351414391296,0.274731305632,0.979541032502,3.12662847863,0.0148963796145,-2.02553299682,0.0503108508375
0,0.488011519873,0.576866191879,0.257034643069,1.37161930782,-0.13105677047,1.20661597195,-0.367845596879,0.34736648599,0.272351975511,0.981115059412,3.12813436394,0.010829310372,-2.02263502851,0.0499039720169
0,0.487959155468,0.561769131133,0.256929914259,1.38999764934,-0.130952049982,1.20661597195,-0.367863040584,0.343389196969,0.269730950017,0.982523399694,3.12968020303,0.00634586190446,-2.02026387875,0.0494818386411
0,0.487924234769,0.549377276133,0.257069547124,1.40673535048,-0.13098696236,1.20663341565,-0.367863040584,0.339682171178,0.267349541521,0.983188640932,3.13030553896,0.00116174818071,-2.01792128018,0.0491171246501
0,0.487871870364,0.536880725613,0.256825202094,1.42286225561,-0.131004414387,1.20661597195,-0.367863040584,0.336207889786,0.264913328396,0.984015718524,3.13140596238,-0.00348216965863,-2.01605990345,0.0487358192038
0,0.487802062254,0.526583280363,0.256703029579,1.43610921835,-0.131021866415,1.20661597195,-0.367880484289,0.333335084432,0.262900962335,0.984683963801,3.13230019483,-0.00727255139353,-2.01451034767,0.0484102626703
0,0.487383180304,0.516739637763,0.256633221469,1.44659874409,-0.13105677047,1.20661597195,-0.367880484289,0.331176054554,0.261192864523,0.985897128549,3.13402989186,-0.00892597577463,-2.01366402803,0.0480975768193
0,0.487121391568,0.508728582888,0.255830361624,1.45263759502,-0.13105677047,1.20665085936,-0.367863040584,0.330142036917,0.259989083014,0.987525081971,3.13669914178,-0.00825174107705,-2.01391491578,0.0478540400717
0,0.486527972699,0.502323214413,0.254381735149,1.45438289764,-0.131213855362,1.20665085936,-0.367880484289,0.330333670789,0.259123193339,0.989638353258,3.14052432805,-0.00517044864332,-2.01551369311,0.0476751882064
0,0.483176950388,0.497174491788,0.253491623489,1.45417344003,-0.131178942985,1.20661597195,-0.367863040584,0.331518826516,0.257825140463,0.991792388083,-3.13918135779,-0.00105785072747,-2.01971192768,0.0475351545615
0,0.476666886393,0.493352223123,0.253125105944,1.45420832744,-0.131178942985,1.20661597195,-0.367863040584,0.333307773755,0.255568577497,0.993349804371,-3.13677726317,0.00187576596485,-2.02653933192,0.0474286763324
0,0.466194904223,0.491030945338,0.253055281189,1.45391165129,-0.131213855362,1.20642395803,-0.367863040584,0.336101615113,0.252116997238,0.994390254499,-3.13514947722,0.00415732057693,-2.03708996473,0.047361764746
0,0.453523816783,0.490105896334,0.252950569024,1.45359753144,-0.131196403335,1.20513245806,-0.367863040584,0.339537262254,0.248003902711,0.994858901748,-3.13398397165,0.00636741937568,-2.04988441138,0.0473217968998
0,0.438950300219,0.489879028298,0.252968029374,1.45351017976,-0.131091682847,1.19678970647,-0.367863040584,0.34419964858,0.243984490612,0.994996480918,-3.13091101558,0.0144536791781,-2.06441744652,0.0472146898851
0,0.424272088134,0.489931359414,0.252968029374,1.45342296123,-0.13107423082,1.18141341329,-0.367863040584,0.349769932158,0.240592820735,0.995064797157,-3.12538867381,0.028843129683,-2.07891936471,0.0470232473068
0,0.409908029189,0.489931359414,0.253020377134,1.45337063011,-0.1308996939,1.16197033996,-0.367863040584,0.355741107257,0.237666257251,0.995221909623,-3.11853424882,0.0471032995537,-2.09295369469,0.0467651885028
0,0.395823235973,0.490053531929,0.253020377134,1.45323094732,-0.1308996939,1.14114868129,-0.367863040584,0.361863092738,0.234833677248,0.995432361872,-3.11103345552,0.0665538060967,-2.10653428057,0.0464762583784
0,0.383134671539,0.490105896334,0.253020377134,1.45330072214,-0.130882241872,1.12247366362,-0.367863040584,0.367306097778,0.232140489023,0.995650794272,-3.10434748323,0.0838698947104,-2.11863400645,0.0462002856241
0,0.370498504799,0.490140817033,0.253020377134,1.45284691949,-0.13081242544,1.10716707868,-0.367863040584,0.372390188685,0.229094045914,0.996028444651,-3.09868984166,0.0985489467939,-2.13076425951,0.0459654011236
0,0.359293487539,0.490245545843,0.253020377134,1.45195689105,-0.13056808041,1.0941119967,-0.367863040584,0.376913067229,0.226342956646,0.996501634921,-3.09385484397,0.111525762679,-2.1415957769,0.0457617546494
0,0.348489875234,0.490489890873,0.253020377134,1.44974034207,-0.129206722395,1.08379710774,-0.367863040584,0.381182980656,0.223693445578,0.997283854074,-3.09053755705,0.123420474756,-2.15270726561,0.0456059968246
0,0.338122621874,0.491903596648,0.253055281189,1.44385848449,-0.127007608802,1.07692049291,-0.367863040584,0.385690906014,0.221340765419,0.998611702035,-3.08844715749,0.134798097893,-2.16421289466,0.0455490017319
0,0.329186551284,0.496999954868,0.253055281189,1.43171100781,-0.12578587533,1.07414541248,-0.367845596879,0.390927077805,0.219630341178,1.0001514494,-3.08667386564,0.144748960146,-2.17477668373,0.0456801688631
0,0.320861343269,0.507087975788,0.253055281189,1.41137790605,-0.125733519247,1.07447704261,-0.367863040584,0.397685444503,0.218486557218,1.00192278357,-3.08469914778,0.154827385744,-2.1852562893,0.0460103289377
0,0.313897476624,0.522569031073,0.253090201889,1.38769388184,-0.12562879876,1.07505301778,-0.367845596879,0.40489567077,0.218072346358,1.00229203461,-3.08476423469,0.163396348837,-2.19516808085,0.0464802045651
0,0.307788817584,0.542116733343,0.253509067194,1.36167093641,-0.125593894705,1.07646669026,-0.367845596879,0.412281554175,0.218125444513,1.00146888268,-3.08671481085,0.170089267906,-2.20454867469,0.0470469157283
0,0.303495302564,0.565818267833,0.253474163139,1.33259374468,-0.125663702815,1.07957340083,-0.367863040584,0.419829837495,0.218725882668,0.99950260548,-3.09022649941,0.174398298077,-2.21323129363,0.0477156513872
0,0.300109359554,0.590759037758,0.253788332924,1.30419725692,-0.125593894705,1.08369237893,-0.367863040584,0.426737292123,0.219543435618,0.996576926536,-3.09535941295,0.176232171156,-2.22109137222,0.0483851596352
0,0.296950317869,0.616956420243,0.253701064464,1.27138511492,-0.125750971275,1.08932982491,-0.367863040584,0.434483240155,0.220377366193,0.994205591752,-3.09958607127,0.179357893763,-2.22956967045,0.0490210733209
0,0.293703991079,0.642542940153,0.253683604114,1.23598983982,-0.125768423302,1.09557806688,-0.367863040584,0.442703504485,0.221194740947,0.992754774108,-3.1027557834,0.184746590504,-2.23845550501,0.0495340182229
0,0.290178431849,0.667972400138,0.253683604114,1.19658024885,-0.12578587533,1.10299570288,-0.367863040584,0.45170779961,0.221892645619,0.992456429905,-3.10463831938,0.192744723677,-2.24811330208,0.0499000257744
0,0.287473192814,0.691761219733,0.253701064464,1.15717079104,-0.12578587533,1.11170490544,-0.367863040584,0.460252647569,0.22263703588,0.992799000443,-3.10604003237,0.200823536095,-2.25697369158,0.0501057155083
0,0.285256610549,0.715794450937,0.253701064464,1.11805787622,-0.125820787707,1.12278778347,-0.367863040584,0.468161038735,0.223168657788,0.99271837659,-3.10849782181,0.20612440918,-2.26557275132,0.0502232420002
0,0.283511274639,0.738117200353,0.253666160409,1.08269755511,-0.125977864277,1.13406254226,-0.367863040584,0.474972736922,0.223466840161,0.992180111253,-3.11134871356,0.209127876292,-2.27328287264,0.05024377502
0,0.281923031944,0.759043720987,0.253631239709,1.05007736044,-0.126675995312,1.14308599783,-0.367880484289,0.48139755497,0.223640740709,0.991452600239,-3.11310483581,0.212654825557,-2.2802252213,0.0501499761946
0,0.280317345544,0.779935287632,0.253631239709,1.01887083826,-0.126972704747,1.15029410963,-0.367880484289,0.487641559446,0.223803212097,0.990257685549,-3.11508469508,0.216707408156,-2.28726621292,0.0499725919821
0,0.278729086204,0.798645192713,0.253596335654,0.991556459437,-0.126972704747,1.15575705198,-0.367880484289,0.493180818959,0.22383335997,0.988935641866,-3.11693229653,0.220711438971,-2.29384567385,0.0497424338673
0,0.277088479104,0.817285322972,0.253631239709,0.964608598156,-0.127007608802,1.15896842478,-0.367880484289,0.498905228007,0.22390589627,0.987541787497,-3.11803654564,0.226507396582,-2.30040212121,0.0494239513536
0,0.275587488224,0.833534334047,0.253596335654,0.941535303367,-0.12728686621,1.15928254463,-0.367880484289,0.504157654123,0.223954745794,0.986218796232,-3.11794577512,0.233348526023,-2.30608882688,0.049075128655
0,0.273632727984,0.849992802742,0.253543987894,0.918322458937,-0.127810460325,1.15929998833,-0.367880484289,0.509550338762,0.223674130301,0.984782863663,-3.11753241628,0.240288149492,-2.31222890301,0.048671980285
0,0.271485970474,0.865072419783,0.253526527544,0.896610572097,-0.128403870872,1.1593175652,-0.367863040584,0.514623930007,0.223164691097,0.983568249848,-3.11687119285,0.246988544925,-2.31825847794,0.0482403011421
0,0.269618462049,0.877621367997,0.253526527544,0.876713762698,-0.128526043387,1.15935245261,-0.367880484289,0.519200869423,0.222748653604,0.983133733401,-3.11596821042,0.254315349125,-2.32368106132,0.0477757838261
0,0.267803318029,0.890658939693,0.253229818109,0.856118872198,-0.12884020485,1.15936989631,-0.367880484289,0.523927328853,0.22218160486,0.982612447459,-3.11465485193,0.261668812465,-2.32929034968,0.0472582059159
0,0.266284883444,0.901602201507,0.252933108674,0.837182065793,-0.13074261733,1.15942222743,-0.367880484289,0.528328324913,0.221447930698,0.982682938269,-3.11130930647,0.268709144715,-2.33352628375,0.0467245101907
0,0.264661720049,0.911969421577,0.252845856859,0.819135354403,-0.13311625952,1.15935245261,-0.367863040584,0.532552155652,0.220598026607,0.982783149649,-3.10761984474,0.275451246658,-2.33744508237,0.046183374253
0,0.263125841759,0.921097539372,0.252828396509,0.803427431082,-0.135472458005,1.15936989631,-0.367863040584,0.536221723516,0.219721087345,0.98279738672,-3.10422930702,0.281064356772,-2.34085167928,0.0456923041011
0,0.261432870254,0.929021309142,0.252776032104,0.790599250427,-0.13985322484,1.15947455854,-0.367863040584,0.539434440839,0.218368656486,0.982499838481,-3.09932307283,0.284284118775,-2.34318280572,0.0452853274584
0,0.259408285259,0.936404057737,0.252810936159,0.778731006187,-0.147654855385,1.15950944595,-0.367863040584,0.542725305612,0.216342487328,0.982161521642,-3.09120127044,0.285986899109,-2.34428547443,0.0448944614255
0,0.257453525019,0.941884377207,0.252706223994,0.770702507607,-0.156643307024,1.15982369896,-0.367845596879,0.54526507186,0.214043808899,0.98159932779,-3.08238909267,0.285072894025,-2.34432027006,0.0446345881116
0,0.254643540529,0.946317541737,0.252741128049,0.764768385487,-0.165108147904,1.1633143042,-0.367845596879,0.547027809023,0.211149682447,0.980802042579,-3.0756297482,0.280412065631,-2.34523254124,0.04448142505
0,0.251327405629,0.949494027127,0.252601495184,0.761260269962,-0.169488931384,1.16968471869,-0.367845596879,0.547730049738,0.208273957405,0.979801462392,-3.07405049406,0.273315058191,-2.34813221129,0.0444474137404
0,0.248046191429,0.951570959882,0.252601495184,0.759776756077,-0.170797924994,1.17923175172,-0.367863040584,0.547319791698,0.205673559703,0.978646111721,-3.0769173863,0.263520741595,-2.35195586298,0.0445190480575
0,0.245096590719,0.953176646282,0.252618955534,0.759148383218,-0.17072810024,1.19043673569,-0.367863040584,0.546317663586,0.203346036954,0.977431457971,-3.08180997638,0.252309927191,-2.35588068975,0.0446350248039
0,0.243002197614,0.953735177742,0.252618955534,0.759183337207,-0.170763020939,1.19860491707,-0.367863040584,0.545485384907,0.201664118502,0.976749959522,-3.08513619821,0.244178101274,-2.35848830921,0.0447275353414
0,0.241274322054,0.953630448932,0.252653859589,0.759148383218,-0.170885193454,1.20597015538,-0.367863040584,0.544728788554,0.20024095766,0.976520430407,-3.08771763335,0.237408811092,-2.3605399484,0.0447275353414
0,0.240314385639,0.953543163827,0.252706223994,0.759183337207,-0.17072810024,1.21312606923,-0.367863040584,0.544728788554,0.20024095766,0.976520430407,-3.08771763335,0.237408811092,-2.3605399484,0.0447933267434
0,0.240401654099,0.953351216492,0.252741128049,0.759235668323,-0.170902637159,1.22317910287,-0.367863040584,0.543811016612,0.199296609846,0.976277149145,-3.09052925367,0.230861710364,-2.36187776625,0.0448587864214
0,0.240401654099,0.953351216492,0.252741128049,0.759235668323,-0.170902637159,1.22317910287,-0.367863040584,0.542262860741,0.19867980356,0.975983900051,-3.09402892196,0.221562805579,-2.36216273301,0.0449458790353
0,0.240855440104,0.952635625107,0.253421815379,0.759322953427,-0.171984746089,1.23489022061,-0.367863040584,0.540373488161,0.198237316234,0.975963828638,-3.09746801229,0.211083725324,-2.3614869111,0.0450323073804
0,0.241518667084,0.950471407247,0.253526527544,0.759759245793,-0.176208436354,1.24764862644,-0.367863040584,0.538518736063,0.197180341642,0.976594730894,-3.09727035296,0.199199670784,-2.3596992138,0.0451084722867
0,0.243368715159,0.946125527822,0.253631239709,0.760911196122,-0.184167143469,1.2597263283,-0.367845596879,0.536685080995,0.196245039968,0.978263798957,-3.09243313484,0.187836129458,-2.35537060019,0.0451617879669
0,0.250454754319,0.931063354487,0.253980313549,0.768328832128,-0.195162719754,1.28176984528,-0.367845596879,0.534447367643,0.196268176162,0.980595221957,-3.08804699167,0.178301314467,-2.34983734631,0.0452235068023
0,0.254678444584,0.919544184087,0.254102486064,0.778713562482,-0.196087735469,1.28876863262,-0.367845596879,0.531410377117,0.196991440305,0.983693468429,-3.08533811625,0.169667487887,-2.34371614681,0.0453465168184
0,0.259862071264,0.903714021672,0.254137390119,0.798208900347,-0.196070291764,1.28859406241,-0.367863040584,0.527619884784,0.198515000314,0.986631209606,-3.08499776197,0.1632983731,-2.33712238526,0.0456297051879
0,0.265150426754,0.885911655312,0.254224658579,0.823795420257,-0.196140099874,1.28527789422,-0.367863040584,0.522815813947,0.200932242929,0.98923595021,-3.08399529859,0.159319169718,-2.32786782294,0.0461720694111
0,0.269810442674,0.866137085007,0.254189754524,0.855316062287,-0.196297176444,1.27545176191,-0.367863040584,0.517154514857,0.203396113882,0.991025054731,-3.08303004599,0.154381196241,-2.31735597116,0.0468746978236
0,0.273650171689,0.845193120668,0.254189754524,0.893311847612,-0.196401905254,1.25935974418,-0.367863040584,0.511306993987,0.205670886774,0.992112361766,-3.0806880479,0.151676543298,-2.30625001769,0.0476696929332
0,0.276268175554,0.824109540108,0.254207198229,0.933349744862,-0.196401905254,1.23883476166,-0.367845596879,0.499115755501,0.209133626396,0.991077061844,-3.07442302368,0.150539351005,-2.28398193858,0.048543532715
0,0.278030955169,0.803898677437,0.254224658579,0.973282846722,-0.196367001199,1.21858887842,-0.367845596879,0.493142493422,0.209994111674,0.989762318355,-3.07147939461,0.150227239591,-2.27428065412,0.0493110056981
0,0.279217776264,0.784071709438,0.254556272069,1.01382687774,-0.196262272389,1.20080402234,-0.367845596879,0.486562572259,0.210291725572,0.987920268928,-3.0701800074,0.146856866642,-2.26519940177,0.0499415614281
0,0.280247504144,0.762394710008,0.254608636474,1.05684924646,-0.196262272389,1.18603852515,-0.367863040584,0.478911938762,0.209843385842,0.986094827713,-3.06970027353,0.139773405488,-2.25626111616,0.0504665225821
0,0.280369676659,0.736878031497,0.254660984234,1.10540426577,-0.196227368334,1.1713951339,-0.367863040584,0.470011603854,0.208430989529,0.984421769963,-3.06935820653,0.13070350056,-2.24746460583,0.0508802602389
0,0.280387153654,0.712652852957,0.254748252694,1.15067813746,-0.196140099874,1.15865430493,-0.367845596879,0.470011603854,0.208430989529,0.984421769963,-3.06935820653,0.13070350056,-2.24746460583,0.0511367453654
0,0.280369676659,0.686804544312,0.254852981504,1.19532363629,-0.195441968839,1.14655915936,-0.367845596879,0.452688591572,0.204976773925,0.982356224382,-3.06865347129,0.114147242011,-2.23208285757,0.0511830957174
0,0.280369676659,0.658949077733,0.254922789614,1.2383460716,-0.194098071174,1.13594752768,-0.367845596879,0.443994877776,0.203039165583,0.983047371039,-3.06730248743,0.108400708589,-2.22521392595,0.0510011167782
0,0.280422041064,0.630919040943,0.255202038699,1.28196172603,-0.191410259199,1.12526612118,-0.367845596879,0.434870675346,0.201124119265,0.983467779125,-3.06730757527,0.102775051633,-2.21882531807,0.0505909279058
0,0.280369676659,0.602784341923,0.256179435464,1.32086518324,-0.187099300474,1.11713296037,-0.367845596879,0.426221145471,0.199593427136,0.985138382793,-3.06787924895,0.0997944341462,-2.21357430115,0.0500252549338
0,0.280369676659,0.574702040598,0.256912470554,1.35880857087,-0.178896248329,1.1097501452,-0.367845596879,0.417314449177,0.198336379743,0.986827230189,-3.07153598668,0.0981053239549,-2.21047736301,0.0493180936472
0,0.280387153654,0.548330087903,0.257034643069,1.39277279635,-0.16727234912,1.10252445653,-0.367863040584,0.409105840986,0.197485645394,0.988693488387,-3.07723246787,0.0993689926444,-2.21007631607,0.0485128395903
0,0.280404597359,0.522935548618,0.257121911529,1.42577695227,-0.155299392715,1.09486247549,-0.367863040584,0.401094272398,0.196650712724,0.990242821275,-3.08314653818,0.101130081077,-2.2103095797,0.0476664475166
0,0.280544213579,0.498274044423,0.258273828569,1.45953158698,-0.145438289764,1.08802081465,-0.367880484289,0.39265529867,0.195677554676,0.991115253183,-3.08856858374,0.100344174147,-2.20890520789,0.0467698324313
0,0.280509326169,0.476021103118,0.261101256764,1.49042385615,-0.138509327175,1.08332586139,-0.367880484289,0.384538620561,0.194802365808,0.991678626871,-3.09299826859,0.0975910533201,-2.20564645064,0.0458326640595
0,0.280474405469,0.454344103689,0.263946145309,1.5215257161,-0.134669606482,1.07697289061,-0.367863040584,0.376791343808,0.193536644384,0.991840847043,-3.09443016364,0.094570979507,-2.20104755183,0.044943297205
0,0.280369676659,0.434447360869,0.266215075334,1.55187696409,-0.13262756946,1.06751320926,-0.367863040584,0.369874630703,0.192059990046,0.991403179229,-3.09364206093,0.0928554695072,-2.19629622926,0.0439912509889
0,0.280334789249,0.417238413379,0.270002439944,1.57840591014,-0.131702545422,1.05887378152,-0.367863040584,0.363586327913,0.191234967129,0.990929023298,-3.09268941117,0.0916516097608,-2.19015281008,0.0429994259898
0,0.280352232954,0.400134194699,0.274854453134,1.60460329262,-0.13114403893,1.05290477199,-0.367863040584,0.363586327913,0.191234967129,0.990929023298,-3.09268941117,0.0916516097608,-2.19015281008,0.0420831569845
0,0.280404597359,0.384338952984,0.278397472714,1.62725773875,-0.131091682847,1.04974573031,-0.367863040584,0.350811125248,0.189209359011,0.990244981596,-3.09181744772,0.0837749254545,-2.17723479449,0.0411832579739
0,0.280334789249,0.368561188264,0.280683863089,1.6475385094,-0.130794973412,1.04733716742,-0.367863040584,0.345552352131,0.187712998655,0.990625964213,-3.09016807191,0.0804800622895,-2.17306675903,0.040398432946
0,0.280212616734,0.355069780629,0.280980572524,1.66359550656,-0.130777521385,1.04548713599,-0.367863040584,0.345552352131,0.187712998655,0.990625964213,-3.09016807191,0.0804800622895,-2.17306675903,0.0396548587663
0,0.280125331629,0.342451057594,0.280910731124,1.67748828586,-0.130794973412,1.04541729459,-0.367863040584,0.338188012882,0.184143267445,0.991999591242,-3.0852146501,0.0753099962973,-2.16974683833,0.0390469918056
0,0.279828655484,0.332136168639,0.280753671199,1.68820457977,-0.130794973412,1.04541729459,-0.367863040584,0.338188012882,0.184143267445,0.991999591242,-3.0852146501,0.0753099962973,-2.16974683833,0.0385249995435
0,0.278449837119,0.323776039924,0.280544213579,1.69441800091,-0.130794973412,1.04541729459,-0.367863040584,0.335544346703,0.182628194723,0.992791325463,-3.08299915106,0.0735021589594,-2.16904413063,0.038109109893
0,0.276163446744,0.316934345794,0.280299868549,1.69722803533,-0.130794973412,1.04538240718,-0.367845596879,0.3340568671,0.180123195041,0.995841721209,-3.07686467023,0.0769544211529,-2.17189808665,0.0378121492997
0,0.272445890244,0.313094600134,0.280073000514,1.69735014127,-0.130777521385,1.04538240718,-0.367845596879,0.334760525065,0.178802383905,0.997223353599,-3.0744135687,0.0797574878501,-2.17563627182,0.0376063353434
0,0.265516944299,0.310878051159,0.279462104649,1.69663454988,-0.130760069357,1.04534751977,-0.367828153174,0.336302460784,0.176382441436,0.998237096285,-3.07255536929,0.0820314323753,-2.18308047213,0.0375154590722
0,0.255359115269,0.310947859269,0.279060699694,1.69604119759,-0.130707704952,1.04526023466,-0.367845596879,0.33830806479,0.172915352423,0.998374343689,-3.07227104598,0.082535727413,-2.19364827393,0.037478568513
0,0.244276287169,0.311314376814,0.278868702424,1.69586662738,-0.13065534887,1.0447715446,-0.367845596879,0.33830806479,0.172915352423,0.998374343689,-3.07227104598,0.082535727413,-2.19364827393,0.0374910824758
0,0.231116493024,0.312221948824,0.278763990259,1.69546515585,-0.129957217835,1.03908176751,-0.367828153174,0.340344363143,0.169164325103,0.998292330873,-3.07225426723,0.0828474580102,-2.20493175506,0.0374950862389
0,0.219178440674,0.314595591014,0.278798894314,1.69394675455,-0.126396746227,1.02747531201,-0.367845596879,0.343423429151,0.16527599098,0.998166660715,-3.07115980542,0.0880308139373,-2.21824129676,0.037419683738
0,0.205756857794,0.320756614459,0.278711625854,1.68825704404,-0.11583750392,1.01192444861,-0.367863040584,0.347173838195,0.162802494713,0.997930150381,-3.07083153158,0.0996148530663,-2.23132317335,0.0372845723854
0,0.194813645914,0.330041758889,0.278781433964,1.67965250372,-0.103026783615,0.999899144447,-0.367863040584,0.352350963595,0.161354020696,0.997576761378,-3.07567787094,0.118089521011,-2.24980037515,0.0372270201671
0,0.184132239414,0.345313389844,0.278798894314,1.66680687936,-0.0904429646347,0.991992818381,-0.367880484289,0.357244476308,0.161002597881,0.996860244004,-3.08461684694,0.134237408243,-2.26770260274,0.0373508406672
0,0.174532925199,0.367042753679,0.278781433964,1.64856822063,-0.0832173009322,0.990264892887,-0.367897961284,0.362670688873,0.160676957776,0.995017658015,-3.09698643358,0.145551757183,-2.28647306016,0.0377646224096
0,0.166469505919,0.391180647114,0.278763990259,1.62903792878,-0.0811403598547,0.990456906802,-0.367880484289,0.368804461188,0.159970753928,0.992050428772,-3.10892378485,0.14910266255,-2.30260448383,0.0385430126089
0,0.15854570286,0.420571991984,0.278763990259,1.59985607482,-0.0814719733447,0.991416843217,-0.367897961284,0.375041810998,0.15901144997,0.988327831133,-3.11809450869,0.148418798283,-2.31491273862,0.0394420721103
0,0.15854570286,0.420571991984,0.278763990259,1.59985607482,-0.0814719733447,0.991416843217,-0.367897961284,0.383873239177,0.158446319975,0.985147553908,-3.12488230481,0.150875468424,-2.32682884501,0.0406181346243
0,0.152227619489,0.449387361689,0.278798894314,1.56751504602,-0.0821351920023,0.995518377611,-0.367880484289,0.392843289067,0.158292864065,0.982819789503,-3.13088417371,0.153570949047,-2.33734456653,0.0418587979223
0,0.147096357214,0.477469729593,0.278798894314,1.5303744683,-0.0841946810523,1.00373882353,-0.367880484289,0.402402296605,0.158286692373,0.981878388363,-3.13475698429,0.156870683815,-2.34640818499,0.0431684019462
0,0.14257594087,0.507018134389,0.278798894314,1.48845165221,-0.0877551526597,1.01489147638,-0.367863040584,0.412737961139,0.158227335496,0.981432761081,-3.13732739351,0.16007932982,-2.35480557637,0.0445460037103
0,0.138858392692,0.534123122173,0.278763990259,1.44703496988,-0.0911236436422,1.02709135076,-0.367863040584,0.422589644574,0.158140263641,0.981657590671,-3.13904672368,0.163748590285,-2.36252840282,0.04577570327
0,0.13575170709,0.560163444733,0.278763990259,1.40457113262,-0.0941430607847,1.03971007379,-0.367863040584,0.432454235729,0.158155879808,0.982488628112,-3.14010805784,0.168857399572,-2.37003983979,0.0468774856151
0,0.132767194002,0.585453221918,0.278746529909,1.36428895692,-0.0983318469947,1.05007736044,-0.367863040584,0.442013598818,0.157830637209,0.982892480897,-3.13962635948,0.174215519353,-2.37685139771,0.0478007371677
0,0.130027025945,0.610376548138,0.278763990259,1.3237973236,-0.10431833352,1.06049697821,-0.367863040584,0.451565354877,0.157152235893,0.98336495401,-3.13717041355,0.179357822196,-2.38274377621,0.0485969920648
0,0.127827912352,0.634462110458,0.278746529909,1.28510332401,-0.11205013931,1.06883966322,-0.367863040584,0.460865806952,0.156282346733,0.983582099465,-3.13246265826,0.184805297038,-2.38729268478,0.0492235753585
0,0.12611748882,0.656191441003,0.278729086204,1.25161047804,-0.121003678572,1.07327276117,-0.367845596879,0.4693235306,0.155299224664,0.983303787428,-3.12575020208,0.190582618372,-2.39026547385,0.0496520335599
0,0.124302353122,0.678008056653,0.278763990259,1.21988037839,-0.128159525842,1.07725212305,-0.367828153174,0.477197224989,0.15433456312,0.98235837306,-3.12118135447,0.195616919764,-2.39421517214,0.0500086977212
0,0.122522113157,0.697730295842,0.278694182149,1.19219948202,-0.132330860025,1.08000975978,-0.367845596879,0.484008737736,0.153564265072,0.981131695177,-3.11911032348,0.200682157605,-2.39908962308,0.05026199016
0,0.120619700677,0.716387869807,0.278746529909,1.16340152273,-0.132994087005,1.08370982264,-0.367828153174,0.490721646962,0.153132461813,0.980707008379,-3.1195546579,0.207882386248,-2.40582197907,0.0504156419779
0,0.119223438607,0.734486912313,0.278676721799,1.13746592898,-0.133081355465,1.08681653321,-0.367828153174,0.496641004213,0.152833026779,0.979603185733,-3.12101187557,0.213591343345,-2.41211177701,0.0505266795957
0,0.117792272482,0.751783144907,0.278694182149,1.11084969783,-0.13304645141,1.08953921595,-0.367845596879,0.502735051627,0.152510821351,0.979077663978,-3.12172322398,0.220955857043,-2.41846881647,0.0505338412359
0,0.117094141447,0.769445828468,0.278729086204,1.08313384747,-0.133133711547,1.09191289143,-0.367845596879,0.508971774671,0.152488215662,0.978664455496,-3.12196879011,0.22925837092,-2.42428236278,0.0504565499083
0,0.116099300977,0.785729793532,0.278676721799,1.05594164116,-0.133343152522,1.09343129272,-0.367845596879,0.51523291858,0.152206715553,0.978777553088,-3.12112012886,0.238901957386,-2.43021466055,0.0502725088915
0,0.116064396922,0.801298100633,0.278729086204,1.02960464246,-0.135577178492,1.09379781027,-0.367828153174,0.521353108218,0.152132859529,0.978984791888,-3.11790888535,0.248771976224,-2.43406158716,0.0500074343357
0,0.116186569437,0.815574907762,0.278711625854,1.00553652384,-0.14020229868,1.09435634173,-0.367828153174,0.526957861147,0.151667365426,0.979076486496,-3.11255933514,0.256619035194,-2.43630812869,0.0497135412458
0,0.116099300977,0.828839380783,0.278711625854,0.981974605572,-0.14735814595,1.09652055959,-0.367828153174,0.532307433841,0.150583169687,0.979432245628,-3.10497320474,0.262464441627,-2.43749468757,0.0493780415276
0,0.116099300977,0.840341107478,0.278711625854,0.962583996517,-0.15732397771,1.09891167877,-0.367793232474,0.536743210526,0.149062010738,0.979324598775,-3.09538194144,0.26478950498,-2.43675177165,0.0490849781487
0,0.11608184895,0.851319256702,0.278694182149,0.945025975187,-0.171286615054,1.10385091049,-0.367758311774,0.540524919091,0.146773177358,0.978744778791,-3.08331831466,0.262067235776,-2.43422018758,0.0488390155926
0,0.116064396922,0.861232740702,0.278711625854,0.930312875692,-0.18784977927,1.1097501452,-0.367758311774,0.543613131555,0.144037658634,0.977760266232,-3.06968356778,0.255777054056,-2.43031955033,0.0486473465158
0,0.116012032517,0.868999450547,0.278729086204,0.919561627792,-0.201498263474,1.11694087988,-0.367740868069,0.545474196751,0.141616177349,0.976626113342,-3.05967996375,0.247446926096,-2.42734558268,0.0485429312267
0,0.116221473492,0.875579322652,0.278763990259,0.911794917947,-0.212476379409,1.12662752913,-0.367758311774,0.546103471814,0.139585559222,0.975080957192,-3.0536982291,0.236014891691,-2.42510387361,0.0485397938033
0,0.116186569437,0.881077085828,0.278763990259,0.907920284877,-0.218951555994,1.13547628133,-0.367758311774,0.545792027323,0.138109564006,0.972913250098,-3.0525890043,0.224370566299,-2.42444586428,0.0486368141535
0,0.116273837897,0.884986672887,0.278781433964,0.906803288537,-0.222721460254,1.14259730777,-0.367758311774,0.544993804051,0.137203497428,0.970816321789,-3.05357846414,0.214165389785,-2.42408403782,0.0487733970038
0,0.11623892552,0.887360281787,0.278798894314,0.906663672317,-0.224065374564,1.14881059575,-0.367775788769,0.544046716737,0.136640621676,0.969304236686,-3.05599064642,0.206075853218,-2.42438504723,0.0488984377507
0,0.116518182927,0.887307950672,0.279008335289,0.906052743163,-0.224152643024,1.15216165135,-0.367775788769,0.543615292173,0.136669933737,0.969417659694,-3.05702642309,0.203608102937,-2.42431250076,0.0489145584673
0,0.11681488404,0.886243285447,0.279287601019,0.906035299457,-0.224100278619,1.15368005264,-0.367775788769,0.543351024153,0.136862295685,0.969974285671,-3.05720636275,0.20323134907,-2.42389649457,0.0489066841673
0,0.117024325015,0.884305968912,0.279427217239,0.906122584562,-0.224117722324,1.15774669963,-0.367775788769,0.542721128795,0.13680688618,0.970879735332,-3.05772613617,0.20102501268,-2.42369981637,0.0489124629589
0,0.117216313962,0.881042198417,0.279462104649,0.906785844832,-0.224152643024,1.1674332823,-0.367775788769,0.541132154159,0.136392683779,0.972126776793,-3.05973714833,0.194120564444,-2.42378228959,0.0489719834311
0,0.117251218017,0.876504371657,0.279549389754,0.907204693492,-0.224135182674,1.18010433645,-0.367775788769,0.539179559737,0.13575532249,0.974062672636,-3.06210775746,0.18574992746,-2.42412913224,0.0490203045744
0,0.117687551995,0.871530185952,0.279619197864,0.907449038522,-0.224135182674,1.19493960846,-0.367793232474,0.5368762279,0.135201061984,0.976232258105,-3.06492437166,0.175864991992,-2.42418860997,0.0490662932352
0,0.119397975527,0.865910183682,0.279758814084,0.908478749758,-0.224204990784,1.20844849309,-0.367793232474,0.534430043876,0.135414650415,0.97856347439,-3.06716511353,0.167049333039,-2.42264938313,0.0491024087184
0,0.12184143415,0.860185519182,0.281015459934,0.911498175222,-0.224344623649,1.22003750489,-0.367810676179,0.531623590222,0.136511577337,0.98044515857,-3.07005816544,0.158774891278,-2.41928356249,0.0491793155175
0,0.125925508195,0.853239129532,0.282394278299,0.920888081752,-0.224431892109,1.22766453194,-0.367793232474,0.527761606815,0.13872468748,0.981099615936,-3.07343018952,0.149557811404,-2.41291309461,0.0494128734595
0,0.13041100384,0.845210564373,0.282464086409,0.936473832557,-0.224379527704,1.22892127766,-0.367828153174,0.523538155805,0.140993730275,0.980493361148,-3.07557901763,0.141093075494,-2.40541904397,0.0497727582944
0,0.135612082547,0.834180084033,0.282533894519,0.958220673387,-0.224327163299,1.22841514389,-0.367828153174,0.518089707113,0.143626977181,0.979609711834,-3.0778114327,0.131212166085,-2.39596588608,0.0502243317991
0,0.140149934275,0.821735931207,0.282603702629,0.981730260542,-0.224344623649,1.22769955251,-0.367845596879,0.512330155596,0.145793747513,0.978924897021,-3.07978687709,0.121060395408,-2.38677127735,0.0506514891325
0,0.144338737129,0.806848261502,0.282656067034,1.00623467152,-0.224309719594,1.22708862335,-0.367845596879,0.506363339757,0.147653616489,0.979194049751,-3.08081146748,0.111899491243,-2.37769404355,0.0509963080868
0,0.147375606299,0.790337461692,0.282690987734,1.03045985006,-0.224292259244,1.22689660944,-0.367828153174,0.500546438424,0.148791878484,0.980343765376,-3.08088324725,0.103865073255,-2.36981784053,0.0512397836519
0,0.149801612894,0.771540271507,0.282708431439,1.05571473984,-0.224292259244,1.2267745035,-0.367828153174,0.494554110192,0.149489579604,0.98229437877,-3.07999276815,0.0966327673008,-2.36232869831,0.0513934122349
0,0.151983274459,0.749828384667,0.282743352139,1.08484432926,-0.224257355189,1.22623348233,-0.367810676179,0.487708631266,0.149897466738,0.984473722241,-3.07879598335,0.0886348011555,-2.35442095091,0.0514918579361
0,0.153082827095,0.727051832602,0.282743352139,1.11608567227,-0.224239894839,1.22211450423,-0.367810676179,0.480997608464,0.149818144115,0.986500418349,-3.07643431941,0.0828342875491,-2.34713845049,0.0514920157182
0,0.154042763509,0.702320520297,0.282882968359,1.15299934867,-0.224065374564,1.21497603408,-0.367828153174,0.473280689019,0.149628654903,0.987712619614,-3.07428766847,0.0763567003565,-2.33894260679,0.0514920157182
0,0.15385076624,0.678182560283,0.282882968359,1.19132689729,-0.223384687234,1.20652862026,-0.367828153174,0.465429558925,0.148790401717,0.988083995677,-3.07295565718,0.0693924563511,-2.33209301651,0.0514185149514
0,0.15378095813,0.654254124468,0.283005140874,1.22839770019,-0.222180405789,1.19614388991,-0.367793232474,0.457990528559,0.14816779572,0.98862889592,-3.07102751799,0.0653337430331,-2.32548900257,0.0509286847206
0,0.153746054074,0.629348241953,0.283005140874,1.26771993947,-0.218043983984,1.18349027946,-0.367810676179,0.450023654009,0.147840121734,0.988832600556,-3.07111472373,0.0630555799691,-2.31960477646,0.0509286847206
0,0.153746054074,0.607008048833,0.282952776469,1.30353399665,-0.209352241779,1.17106357034,-0.367828153174,0.450023654009,0.147840121734,0.988832600556,-3.07111472373,0.0630555799691,-2.31960477646,0.0504578747236
0,0.153746054074,0.583777760698,0.283005140874,1.33863259561,-0.197152384049,1.15860197381,-0.367863040584,0.442445629481,0.148146726641,0.988707909031,-3.07535607649,0.0632061258936,-2.3162428659,0.0499211930149
0,0.153728593725,0.563427215228,0.282952776469,1.36866972375,-0.186436073494,1.14863602554,-0.367863040584,0.434711444298,0.148878380705,0.989065496797,-3.08177829985,0.0659064126889,-2.31451145683,0.0492540490848
0,0.153676245964,0.542832291438,0.282935332764,1.39921298566,-0.176941471445,1.14017130117,-0.367863040584,0.427909939652,0.14932758019,0.989464456674,-3.0873487933,0.0679061844681,-2.31361870555,0.0486043984204
0,0.15369368967,0.523179893648,0.282970220174,1.42888366284,-0.17039648675,1.13264893636,-0.367880484289,0.420764191784,0.149349060666,0.989707172466,-3.09238231315,0.0677433476509,-2.31255181763,0.0479028005188
0,0.15369368967,0.504801585413,0.282970220174,1.45848443204,-0.165736470829,1.12245608676,-0.367863040584,0.41381191018,0.148886231445,0.989690275665,-3.09535263054,0.0656701383041,-2.3105963623,0.0471808726281
0,0.153641341909,0.485445863769,0.282935332764,1.49291977072,-0.162158547194,1.10844113494,-0.367863040584,0.407338638934,0.148245837289,0.989093872207,-3.09641759146,0.0644383161992,-2.30809214401,0.0464011590481
0,0.153588977504,0.466142539818,0.282900412064,1.52751210276,-0.159924521224,1.09229685268,-0.367863040584,0.393274945177,0.146102970117,0.98575316209,-3.09471628257,0.0623351932058,-2.30075107905,0.0454500211939
0,0.153554073449,0.445791994349,0.282882968359,1.56268060969,-0.15748105428,1.0760478416,-0.367863040584,0.386160016611,0.144835343506,0.98420452539,-3.09264090666,0.0623435349485,-2.29696557852,0.0443915067251
0,0.15327480772,0.426226848374,0.282848047659,1.5946200338,-0.15214035103,1.0620153795,-0.367863040584,0.379369467258,0.143832684671,0.983126965665,-3.09293447254,0.0635129011858,-2.2954139089,0.0432262326368
0,0.153082827095,0.406958411834,0.281818303134,1.6242033593,-0.14133675537,1.0513863707,-0.367880484289,0.372423847613,0.143069865547,0.982413832582,-3.09789767302,0.0649287957681,-2.29787902239,0.0420962341095
0,0.15196581411,0.387567802779,0.281504149994,1.65188438882,-0.12671090769,1.04356726316,-0.367897961284,0.365345491135,0.142585091584,0.982176963647,-3.10635766255,0.0669144395869,-2.30307667285,0.0410291988394
0,0.147166165324,0.369625820199,0.281137632449,1.67436413159,-0.111753429875,1.03726662349,-0.367915404989,0.359984446083,0.141104417029,0.982743834164,-3.11433371765,0.0710825734853,-2.31298568356,0.0400010002846
0,0.139120198072,0.352312177189,0.280631498684,1.69527327509,-0.0981049539922,1.03222259639,-0.367915404989,0.355408005575,0.138301203704,0.983419153278,-3.12133834007,0.0744945220226,-2.32604215938,0.0390969357226
0,0.128805300795,0.336726359804,0.280456961764,1.71347704641,-0.0904080522573,1.03035512125,-0.367915404989,0.351690922903,0.134083522412,0.984102101822,-3.1245531784,0.0741946451614,-2.33851587878,0.0382473339509
0,0.115942224407,0.323130256649,0.280195173029,1.7288707833,-0.0889070696997,1.02951735735,-0.367915404989,0.349243311224,0.128362425716,0.984757337364,-3.12303526006,0.0719486366266,-2.35081889678,0.0375338835139
0,0.0999899144447,0.310459169209,0.280090444219,1.74244944275,-0.0889943381597,1.02562528058,-0.367897961284,0.348137331851,0.121834755348,0.985577710018,-3.11897851912,0.0730057150489,-2.36541220632,0.0369325386365
0,0.0829904079297,0.300598049614,0.280055523519,1.75145532145,-0.0889419820772,1.01730003927,-0.367915404989,0.348997297926,0.115701182564,0.986698412934,-3.11338927108,0.0802345737569,-2.38130705227,0.0363271639162
0,0.0657989124673,0.292290285304,0.280090444219,1.7584715525,-0.0888547136172,0.998991539147,-0.367880484289,0.351885628211,0.110301489949,0.987983614196,-3.1044027828,0.0973999165548,-2.39720344846,0.0357866445878
