GitHatake/ROS1EARs/catkin_ws/src/torobo_robot/torobo_EARs2021/scripts/arm/2021_kaiya_csv/test_manipulability.csv
time,joint_1,joint_2,joint_3,joint_4,joint_5,joint_6,joint_7,x,y,z,roll,pitch,yaw,manipulability
0.0,0.390988666489,0.376589686844,0.0696909975648,1.32767195667,-0.173974427029,1.37423732833,0.370358855289,0.389422971644,0.156720005097,1.0764740399,-3.02662581793,0.110793386465,-3.02201700775,0.045889098117
0.02,0.391233011519,0.382401636449,0.0697084495923,1.33186070959,-0.173974427029,1.37423732833,0.370376332284,0.388958032722,0.156620816754,1.07274804007,-3.02367991823,0.101240897378,-3.02135390967,0.0461069347379
0.04,0.391233011519,0.382401636449,0.0697084495923,1.33186070959,-0.173974427029,1.37423732833,0.370376332284,0.388958032722,0.156620816754,1.07274804007,-3.02367991823,0.101240897378,-3.02135390967,0.0461069347379
0.06,0.391250455224,0.388562659894,0.0697084495923,1.3344961738,-0.173974427029,1.3741501098,0.370376332284,0.388835418618,0.156563587223,1.06936086857,-3.02118311791,0.0928974515261,-3.02101277975,0.0463179017189
0.08,0.391250455224,0.388562659894,0.0697084495923,1.3344961738,-0.173974427029,1.3741501098,0.370376332284,0.388835418618,0.156563587223,1.06936086857,-3.02118311791,0.0928974515261,-3.02101277975,0.0463179017189
0.1,0.391163203409,0.395107644589,0.069638637321,1.33760288437,-0.174166407654,1.3741501098,0.370393775989,0.388835418618,0.156563587223,1.06936086857,-3.02118311791,0.0928974515261,-3.02101277975,0.0463179017189
0.12,0.391163203409,0.395107644589,0.069638637321,1.33760288437,-0.174166407654,1.3741501098,0.370393775989,0.388643320184,0.156364015992,1.06568015387,-3.01819860349,0.0837297844767,-3.02080611006,0.0465436575273
0.14,0.391163203409,0.395107644589,0.069638637321,1.33760288437,-0.174166407654,1.3741501098,0.370393775989,0.388643320184,0.156364015992,1.06568015387,-3.01819860349,0.0837297844767,-3.02080611006,0.0465436575273
0.16,0.391145726414,0.400954481604,0.0696211852935,1.34034301082,-0.174253676114,1.37420244092,0.370393775989,0.388423065737,0.156224800557,1.06240726491,-3.01562435299,0.0754898066561,-3.02055425563,0.0467435143352
0.18,0.391198090819,0.406958411834,0.0696735455372,1.34261202406,-0.174201311709,1.37427221574,0.370393775989,0.388423065737,0.156224800557,1.06240726491,-3.01562435299,0.0754898066561,-3.02055425563,0.0467435143352
0.2,0.391198090819,0.406958411834,0.0696735455372,1.34261202406,-0.174201311709,1.37427221574,0.370393775989,0.388247892474,0.156190501118,1.05921269414,-3.01331738573,0.0674734112939,-3.02024599132,0.0469425829733
0.22,0.391145726414,0.412072247049,0.069638637321,1.34416531277,-0.174201311709,1.37432454685,0.370446140394,0.388247892474,0.156190501118,1.05921269414,-3.01331738573,0.0674734112939,-3.02024599132,0.0469425829733
0.24,0.391145726414,0.412072247049,0.069638637321,1.34416531277,-0.174201311709,1.37432454685,0.370446140394,0.388188303088,0.156117666138,1.05660991834,-3.01141317887,0.0610396418336,-3.02022436907,0.0471081785669
0.26,0.391198090819,0.416295920669,0.0696909975648,1.34559649554,-0.174131503599,1.37432454685,0.370463584099,0.388188303088,0.156117666138,1.05660991834,-3.01141317887,0.0610396418336,-3.02022436907,0.0471081785669
0.28,0.391198090819,0.416295920669,0.0696909975648,1.34559649554,-0.174131503599,1.37432454685,0.370463584099,0.388072459494,0.156117324735,1.05441670716,-3.00990292515,0.055590722144,-3.02002622176,0.0472450625332
0.3,0.391302819629,0.419751671789,0.0699877069997,1.34706256572,-0.173660257244,1.37423732833,0.370481027804,0.388072459494,0.156117324735,1.05441670716,-3.00990292515,0.055590722144,-3.02002622176,0.0472450625332
0.32,0.391302819629,0.419751671789,0.0699877069997,1.34706256572,-0.173660257244,1.37423732833,0.370481027804,0.387845761588,0.156263329435,1.05252677006,-3.00908638112,0.0507719617479,-3.01966048062,0.0473578432339
0.34,0.391233011519,0.422806017954,0.0698131700798,1.3479178399,-0.172473436149,1.37421988462,0.370515948504,0.387745849197,0.156327751793,1.05097030854,-3.00902982945,0.0466726819364,-3.02012677466,0.0474551760393
0.36,0.391233011519,0.422806017954,0.0698131700798,1.3479178399,-0.172473436149,1.37421988462,0.370515948504,0.387745849197,0.156327751793,1.05097030854,-3.00902982945,0.0466726819364,-3.02012677466,0.0474551760393
0.38,0.391267898929,0.426122152853,0.0698480741348,1.34875553723,-0.169837988579,1.37418499721,0.370515948504,0.387500384477,0.156719562621,1.04927724067,-3.01033348671,0.0418538845437,-3.02061504283,0.0475595192661
0.4,0.391267898929,0.426122152853,0.0698480741348,1.34875553723,-0.169837988579,1.37418499721,0.370515948504,0.387500384477,0.156719562621,1.04927724067,-3.01033348671,0.0418538845437,-3.02061504283,0.0475595192661
0.42,0.391285375924,0.428757583779,0.0700226110548,1.35137355774,-0.168546438675,1.37420244092,0.370550869204,0.386928337907,0.156771889962,1.04738114826,-3.01002844506,0.0363893008496,-3.02065173288,0.0476556743254
0.44,0.391285375924,0.428757583779,0.0700226110548,1.35137355774,-0.168546438675,1.37420244092,0.370550869204,0.386928337907,0.156771889962,1.04738114826,-3.01002844506,0.0363893008496,-3.02065173288,0.0476556743254
0.46,0.391233011519,0.430467998989,0.0698655261623,1.35564952918,-0.168528994969,1.37409777868,0.370585756614,0.386135888847,0.15633616884,1.04542225325,-3.00816132339,0.0308160503425,-3.02068377444,0.0477343288055
0.48,0.391233011519,0.430467998989,0.0698655261623,1.35564952918,-0.168528994969,1.37409777868,0.370585756614,0.386135888847,0.15633616884,1.04542225325,-3.00816132339,0.0308160503425,-3.02068377444,0.0477343288055
0.5,0.391302819629,0.430991609749,0.0699004385397,1.36247387947,-0.168110113019,1.37374863827,0.370620677314,0.384707938667,0.155826100871,1.04321685181,-3.00631202641,0.0240531983653,-3.02041068316,0.0477899860008
0.52,0.391302819629,0.430991609749,0.0699004385397,1.36247387947,-0.168110113019,1.37374863827,0.370620677314,0.384707938667,0.155826100871,1.04321685181,-3.00631202641,0.0240531983653,-3.02041068316,0.0477899860008
0.54,0.391267898929,0.431009053454,0.0700575151098,1.37022314561,-0.163223195774,1.37292838465,0.370707929129,0.38277091495,0.155901624671,1.04086615416,-3.00861705873,0.0158785049092,-3.02119365248,0.0478294691172
0.56,0.391267898929,0.431009053454,0.0700575151098,1.37022314561,-0.163223195774,1.37292838465,0.370707929129,0.38277091495,0.155901624671,1.04086615416,-3.00861705873,0.0158785049092,-3.02119365248,0.0478294691172
0.58,0.391267898929,0.431026497159,0.0699004385397,1.3765761164,-0.15032520701,1.37067681511,0.370777737239,0.380748562241,0.157295378406,1.03876082092,-3.01909056031,0.00775563233603,-3.02403983108,0.0478507493896
0.6,0.391267898929,0.431026497159,0.0699004385397,1.3765761164,-0.15032520701,1.37067681511,0.370777737239,0.380748562241,0.157295378406,1.03876082092,-3.01909056031,0.00775563233603,-3.02403983108,0.0478507493896
0.62,0.391267898929,0.430974166043,0.0698829865122,1.38015407332,-0.136519654557,1.36853017411,0.371057002969,0.379218316875,0.159128317324,1.03749366434,-3.03131037641,0.00190484666285,-3.02730026306,0.0478547643522
0.64,0.391267898929,0.430974166043,0.0698829865122,1.38015407332,-0.136519654557,1.36853017411,0.371057002969,0.379218316875,0.159128317324,1.03749366434,-3.03131037641,0.00190484666285,-3.02730026306,0.0478547643522
0.66,0.391250455224,0.430974166043,0.0698655261623,1.3830163057,-0.126972704747,1.36648806219,0.371353712404,0.378163989822,0.160394944688,1.03650729277,-3.03979897551,-0.00203379231157,-3.02961935881,0.0478561166259
0.68,0.391250455224,0.430974166043,0.0698655261623,1.3830163057,-0.126972704747,1.36648806219,0.371353712404,0.378163989822,0.160394944688,1.03650729277,-3.03979897551,-0.00203379231157,-3.02961935881,0.0478561166259
0.7,0.391285375924,0.430991609749,0.0698829865122,1.38518052356,-0.123639126142,1.36446352713,0.371423520514,0.377727413009,0.160849252754,1.03581902821,-3.04284744331,-0.00331617235823,-3.03018280591,0.0478536980838
0.72,0.391285375924,0.430991609749,0.0698829865122,1.38518052356,-0.123639126142,1.36446352713,0.371423520514,0.377727413009,0.160849252754,1.03581902821,-3.04284744331,-0.00331617235823,-3.03018280591,0.0478536980838
0.74,0.391250455224,0.431009053454,0.0698306221073,1.3878857626,-0.123831106767,1.36093790132,0.371510772329,0.377689432518,0.160801139369,1.03502125673,-3.0430171913,-0.00253156014037,-3.02990620131,0.0478433237819
0.76,0.391250455224,0.431009053454,0.0698306221073,1.3878857626,-0.123831106767,1.36093790132,0.371510772329,0.377689432518,0.160801139369,1.03502125673,-3.0430171913,-0.00253156014037,-3.02990620131,0.0478433237819
0.78,0.391233011519,0.431061417859,0.0698655261623,1.39156851491,-0.123883471172,1.35381700804,0.371807481764,0.377948607905,0.160994906633,1.0339073861,-3.04431818027,0.000596422532152,-3.02941950807,0.0478130024637
0.8,0.391233011519,0.431061417859,0.0698655261623,1.39156851491,-0.123883471172,1.35381700804,0.371807481764,0.377948607905,0.160994906633,1.0339073861,-3.04431818027,0.000596422532152,-3.02941950807,0.0478130024637
0.82,0.391285375924,0.431061417859,0.0698655261623,1.3956700493,-0.124860851292,1.34475879822,0.373535373969,0.378465438876,0.161178297695,1.03270225541,-3.04535218894,0.00562390355533,-3.02990073941,0.0477658358356
0.84,0.391285375924,0.431061417859,0.0698655261623,1.3956700493,-0.124860851292,1.34475879822,0.373535373969,0.378465438876,0.161178297695,1.03270225541,-3.04535218894,0.00562390355533,-3.02990073941,0.0477658358356
0.86,0.391215567813,0.431096338558,0.0698306221073,1.39907343602,-0.129136914285,1.33737598305,0.374896715339,0.379161550774,0.160761559192,1.0317463106,-3.04300457688,0.0107821709969,-3.02946280206,0.0477245140748
0.88,0.391215567813,0.431096338558,0.0698306221073,1.39907343602,-0.129136914285,1.33737598305,0.374896715339,0.379161550774,0.160761559192,1.0317463106,-3.04300457688,0.0107821709969,-3.02946280206,0.0477245140748
0.9,0.391233011519,0.431131225969,0.0698306221073,1.40090595717,-0.135053576055,1.33390282151,0.375036364849,0.379727515373,0.160000970593,1.03128893781,-3.03827709709,0.0142098203615,-3.02761332302,0.047704517777
0.92,0.391233011519,0.431131225969,0.0698306221073,1.40090595717,-0.135053576055,1.33390282151,0.375036364849,0.379727515373,0.160000970593,1.03128893781,-3.03827709709,0.0142098203615,-3.02761332302,0.047704517777
0.94,0.391267898929,0.431096338558,0.0698480741348,1.4029829565,-0.139364543102,1.3296092732,0.375088695964,0.380230111776,0.159528140055,1.03076501706,-3.03525240376,0.0176817898217,-3.02594940551,0.04767627163
0.96,0.391267898929,0.431096338558,0.0698480741348,1.4029829565,-0.139364543102,1.3296092732,0.375088695964,0.380230111776,0.159528140055,1.03076501706,-3.03525240376,0.0176817898217,-3.02594940551,0.04767627163
0.98,0.391180647114,0.431235954779,0.0697782618635,1.40572308295,-0.141005158524,1.32128409848,0.375123616664,0.381015880754,0.159624368632,1.02992221578,-3.03582071382,0.0232158397097,-3.02475672825,0.0476223351624
1.0,0.391180647114,0.431235954779,0.0697782618635,1.40572308295,-0.141005158524,1.32128409848,0.375123616664,0.381015880754,0.159624368632,1.02992221578,-3.03582071382,0.0232158397097,-3.02475672825,0.0476223351624
1.02,0.391233011519,0.431218511073,0.0696735455372,1.40980717364,-0.141389119775,1.31105636147,0.375123616664,0.38166149643,0.159959083545,1.02873747772,-3.03780520157,0.0289815137527,-3.02353822288,0.0475473561971
1.04,0.391233011519,0.431218511073,0.0696735455372,1.40980717364,-0.141389119775,1.31105636147,0.375123616664,0.38166149643,0.159959083545,1.02873747772,-3.03780520157,0.0289815137527,-3.02353822288,0.0475473561971
1.06,0.391233011519,0.431270842189,0.0696735455372,1.41591579939,-0.142191979619,1.30191093313,0.375123616664,0.381705267915,0.159956081362,1.02695655097,-3.03837368395,0.0318908303641,-3.02218110604,0.047480682328
1.08,0.391233011519,0.431270842189,0.0696735455372,1.41591579939,-0.142191979619,1.30191093313,0.375123616664,0.381705267915,0.159956081362,1.02695655097,-3.03837368395,0.0318908303641,-3.02218110604,0.047480682328
1.1,0.391233011519,0.431462856103,0.0696735455372,1.42293203044,-0.144251468669,1.29683201861,0.375123616664,0.381020340889,0.159350594596,1.02488909917,-3.03599901373,0.0304465782199,-3.02078553928,0.0474486154486
1.12,0.391233011519,0.431480299809,0.0696909975648,1.43062896546,-0.146921820294,1.29341118819,0.375123616664,0.381020340889,0.159350594596,1.02488909917,-3.03599901373,0.0304465782199,-3.02078553928,0.0474486154486
1.14,0.391233011519,0.431480299809,0.0696909975648,1.43062896546,-0.146921820294,1.29341118819,0.375123616664,0.379957986053,0.158452977211,1.02271929216,-3.03231437288,0.0271794673345,-3.0193077346,0.0474215216142
1.16,0.391198090819,0.431619916029,0.0696560893485,1.43738340777,-0.14711380092,1.2885417313,0.375106172959,0.379957986053,0.158452977211,1.02271929216,-3.03231437288,0.0271794673345,-3.0193077346,0.0474215216142
1.18,0.391198090819,0.431619916029,0.0696560893485,1.43738340777,-0.14711380092,1.2885417313,0.375106172959,0.379140371491,0.15808862022,1.02072635037,-3.03166020876,0.0252286778413,-3.01854543407,0.0473798847268
1.2,0.391215567813,0.431811896654,0.0696735455372,1.44469631497,-0.14720106938,1.27964051483,0.375123616664,0.378757955348,0.158039048643,1.01854452434,-3.03240089739,0.0263905064834,-3.01732021379,0.0472954743576
1.22,0.391215567813,0.431811896654,0.0696735455372,1.44469631497,-0.14720106938,1.27964051483,0.375123616664,0.378757955348,0.158039048643,1.01854452434,-3.03240089739,0.0263905064834,-3.01732021379,0.0472954743576
1.24,0.391198090819,0.432841641179,0.069638637321,1.45010679304,-0.147288337839,1.27168179107,0.375088695964,0.378693131212,0.158083406266,1.01656655479,-3.03317877773,0.027669438605,-3.01628883937,0.0472390781871
1.26,0.391198090819,0.432841641179,0.069638637321,1.45010679304,-0.147288337839,1.27168179107,0.375088695964,0.378693131212,0.158083406266,1.01656655479,-3.03317877773,0.027669438605,-3.01628883937,0.0472390781871
1.28,0.391128282709,0.435320012179,0.069394292291,1.45293427117,-0.1481784495,1.2668995527,0.375106172959,0.378872797837,0.157943985349,1.01475169163,-3.03245652492,0.0273361020292,-3.01568946243,0.0472554160787
1.3,0.391128282709,0.435320012179,0.069394292291,1.45293427117,-0.1481784495,1.2668995527,0.375106172959,0.378872797837,0.157943985349,1.01475169163,-3.03245652492,0.0273361020292,-3.01568946243,0.0472554160787
1.32,0.391128282709,0.439665891604,0.0694466525348,1.45356251087,-0.15271630955,1.26272824348,0.375053808554,0.379723996248,0.157607594667,1.01286124324,-3.02858722112,0.0278160217748,-3.01357004455,0.0473311483225
1.34,0.391128282709,0.439665891604,0.0694466525348,1.45356251087,-0.15271630955,1.26272824348,0.375053808554,0.379723996248,0.157607594667,1.01286124324,-3.02858722112,0.0278160217748,-3.01357004455,0.0473311483225
1.36,0.391163203409,0.445512728619,0.0694815565898,1.45356251087,-0.157131997084,1.25836492035,0.375053808554,0.380742591847,0.157382457195,1.01052639,-3.0247171323,0.0275737482104,-3.01147976219,0.0474470231299
1.38,0.391163203409,0.445512728619,0.0694815565898,1.45356251087,-0.157131997084,1.25836492035,0.375053808554,0.380742591847,0.157382457195,1.01052639,-3.0247171323,0.0275737482104,-3.01147976219,0.0474470231299
1.4,0.391163203409,0.451062889489,0.0694641045623,1.45331816584,-0.16118115043,1.25518843496,0.375053808554,0.381614764081,0.157104244576,1.00837550805,-3.02089155057,0.0266313745448,-3.00970601911,0.0475671616725
1.42,0.391163203409,0.451062889489,0.0694641045623,1.45331816584,-0.16118115043,1.25518843496,0.375053808554,0.381614764081,0.157104244576,1.00837550805,-3.02089155057,0.0266313745448,-3.00970601911,0.0475671616725
1.44,0.391163203409,0.454571005014,0.0694641045623,1.45289938376,-0.163135927314,1.25450773099,0.375018887854,0.381978950523,0.156935444715,1.00708120376,-3.01862539619,0.0248635078849,-3.00890151047,0.0476576616309
1.46,0.391163203409,0.454571005014,0.0694641045623,1.45289938376,-0.163135927314,1.25450773099,0.375018887854,0.381978950523,0.156935444715,1.00708120376,-3.01862539619,0.0248635078849,-3.00890151047,0.0476576616309
1.48,0.391163203409,0.456525765254,0.0694641045623,1.45063037051,-0.163135927314,1.25450773099,0.375036364849,0.382535107439,0.157184640029,1.00690997846,-3.0188415644,0.0251280141033,-3.00899354074,0.0477168291377
1.5,0.391163203409,0.456525765254,0.0694641045623,1.45063037051,-0.163135927314,1.25450773099,0.375036364849,0.382535107439,0.157184640029,1.00690997846,-3.0188415644,0.0251280141033,-3.00899354074,0.0477168291377
1.52,0.391163203409,0.456997011609,0.0694815565898,1.44832660301,-0.163135927314,1.25421105484,0.375036364849,0.383138144935,0.157466505203,1.00736097214,-3.01956293717,0.0271295586514,-3.00903072626,0.0477314321016
1.54,0.391163203409,0.456997011609,0.0694815565898,1.44832660301,-0.163135927314,1.25421105484,0.375036364849,0.383138144935,0.157466505203,1.00736097214,-3.01956293717,0.0271295586514,-3.00903072626,0.0477314321016
1.56,0.391163203409,0.456979567903,0.0694466525348,1.44515011762,-0.163135927314,1.25199450587,0.375036364849,0.384243558691,0.15798189534,1.00825694881,-3.02135897725,0.0322106409381,-3.00893941414,0.0477132263703
1.58,0.391145726414,0.457049376013,0.0694466525348,1.44160704811,-0.163188291719,1.24728204232,0.375053808554,0.384243558691,0.15798189534,1.00825694881,-3.02135897725,0.0322106409381,-3.00893941414,0.0477132263703
1.6,0.391145726414,0.457049376013,0.0694466525348,1.44160704811,-0.163188291719,1.24728204232,0.375053808554,0.385808491348,0.158738980546,1.00922452312,-3.02411931456,0.0398761931619,-3.00858346306,0.0476698626441
1.62,0.391198090819,0.457136627829,0.0694815565898,1.43911126669,-0.163048658854,1.2415748881,0.375018887854,0.385808491348,0.158738980546,1.00922452312,-3.02411931456,0.0398761931619,-3.00858346306,0.0476698626441
1.64,0.391198090819,0.457136627829,0.0694815565898,1.43911126669,-0.163048658854,1.2415748881,0.375018887854,0.387235285716,0.159529970392,1.00989458181,-3.02708544561,0.0473834986077,-3.00801042569,0.0476127977415
1.66,0.391163203409,0.457171548528,0.069429196346,1.43865746404,-0.163170831369,1.23293546037,0.375018887854,0.387235285716,0.159529970392,1.00989458181,-3.02708544561,0.0473834986077,-3.00801042569,0.0476127977415
1.68,0.391163203409,0.457171548528,0.069429196346,1.43865746404,-0.163170831369,1.23293546037,0.375018887854,0.388651432675,0.160242684012,1.01002229431,-3.03020488308,0.0558115124033,-3.00716011481,0.04751686404
1.7,0.391180647114,0.457258800344,0.0693244758586,1.43865746404,-0.163223195774,1.22532587703,0.375018887854,0.389798530783,0.160834600278,1.01000597601,-3.03283200502,0.0627927381154,-3.00643400851,0.0474310394426
1.72,0.391180647114,0.457258800344,0.0693244758586,1.43865746404,-0.163223195774,1.22532587703,0.375018887854,0.389798530783,0.160834600278,1.01000597601,-3.03283200502,0.0627927381154,-3.00643400851,0.0474310394426
1.74,0.391128282709,0.457311164749,0.0692197595323,1.43865746404,-0.163362811995,1.21965347706,0.375018887854,0.390675201906,0.161227593834,1.0100073538,-3.03468888324,0.0680439491224,-3.00595459924,0.0473651611224
1.76,0.391128282709,0.457311164749,0.0692197595323,1.43865746404,-0.163362811995,1.21965347706,0.375018887854,0.390675201906,0.161227593834,1.0100073538,-3.03468888324,0.0680439491224,-3.00595459924,0.0473651611224
1.78,0.391163203409,0.457293721043,0.0683296395498,1.43865746404,-0.16406094303,1.21792561815,0.374984000444,0.391107417604,0.160977052157,1.01003600585,-3.03430265189,0.0699679729514,-3.00621970665,0.047345283521
1.8,0.391163203409,0.457293721043,0.0683296395498,1.43865746404,-0.16406094303,1.21792561815,0.374984000444,0.391107417604,0.160977052157,1.01003600585,-3.03430265189,0.0699679729514,-3.00621970665,0.047345283521
1.82,0.391110839004,0.457363529154,0.0681900150073,1.43865746404,-0.166678946894,1.21789073074,0.374966523449,0.391341907107,0.160548345049,1.01005939643,-3.03188024589,0.070742865691,-3.00537156774,0.0473463394961
1.84,0.391110839004,0.457363529154,0.0681900150073,1.43865746404,-0.166678946894,1.21789073074,0.374966523449,0.391341907107,0.160548345049,1.01005939643,-3.03188024589,0.070742865691,-3.00537156774,0.0473463394961
1.86,0.391075918304,0.457660238588,0.0682249190623,1.43860513292,-0.17057102367,1.21785584333,0.374966523449,0.391660222602,0.160017510895,1.01002946916,-3.02834476248,0.0717134208171,-3.00388053224,0.0473531728078
1.88,0.391075918304,0.457660238588,0.0682249190623,1.43860513292,-0.17057102367,1.21785584333,0.374966523449,0.391660222602,0.160017510895,1.01002946916,-3.02834476248,0.0717134208171,-3.00388053224,0.0473531728078
1.9,0.391267898929,0.459248481284,0.0682947354948,1.43797676007,-0.172438532094,1.21783839962,0.374949079744,0.391924014296,0.159930818936,1.0095786759,-3.0264940256,0.0713435318947,-3.00289697471,0.0473979896058
1.92,0.391267898929,0.459248481284,0.0682947354948,1.43797676007,-0.172438532094,1.21783839962,0.374949079744,0.391924014296,0.159930818936,1.0095786759,-3.0264940256,0.0713435318947,-3.00289697471,0.0473979896058
1.94,0.391128282709,0.462634424294,0.068277279306,1.43530640844,-0.1724559758,1.21794306185,0.374931636039,0.392591647867,0.160151053535,1.00891707803,-3.02640956488,0.0705122909647,-3.0031182943,0.0474981248782
1.96,0.391128282709,0.462634424294,0.068277279306,1.43530640844,-0.1724559758,1.21794306185,0.374931636039,0.392591647867,0.160151053535,1.00891707803,-3.02640956488,0.0705122909647,-3.0031182943,0.0474981248782
1.98,0.391215567813,0.466962826724,0.0682249190623,1.42951190254,-0.172508340204,1.21825731486,0.374949079744,0.393954347544,0.160761357705,1.0087559629,-3.02693530033,0.0715635573567,-3.00333442793,0.0476297139953
2.0,0.391215567813,0.466962826724,0.0682249190623,1.42951190254,-0.172508340204,1.21825731486,0.374949079744,0.393954347544,0.160761357705,1.0087559629,-3.02693530033,0.0715635573567,-3.00333442793,0.0476297139953
2.02,0.391075918304,0.471081804824,0.068242375251,1.42204186884,-0.172490896499,1.21996773007,0.374914192334,0.395530425452,0.161376774753,1.00915807666,-3.0276211782,0.0730847098847,-3.00393558548,0.0477704522291
2.04,0.391075918304,0.471081804824,0.068242375251,1.42204186884,-0.172490896499,1.21996773007,0.374914192334,0.395530425452,0.161376774753,1.00915807666,-3.0276211782,0.0730847098847,-3.00393558548,0.0477704522291
2.06,0.391215567813,0.474851742373,0.0682598272785,1.41497330668,-0.172473436149,1.22293475784,0.374914192334,0.396772887241,0.161952057038,1.00958419842,-3.0278237631,0.0734037338664,-3.00441268125,0.0479125923984
2.08,0.391215567813,0.474851742373,0.0682598272785,1.41497330668,-0.172473436149,1.22293475784,0.374914192334,0.396772887241,0.161952057038,1.00958419842,-3.0278237631,0.0734037338664,-3.00441268125,0.0479125923984
2.1,0.391075918304,0.477679153924,0.0682074670348,1.40956282861,-0.172473436149,1.2241739267,0.374896715339,0.397924162594,0.162353159939,1.00993865386,-3.02832153613,0.0746675125731,-3.00495131406,0.0480053941505
2.12,0.391075918304,0.477679153924,0.0682074670348,1.40956282861,-0.172473436149,1.2241739267,0.374896715339,0.397924162594,0.162353159939,1.00993865386,-3.02832153613,0.0746675125731,-3.00495131406,0.0480053941505
2.14,0.390918858379,0.479599026753,0.068120202736,1.40499004786,-0.17254324426,1.22588434191,0.374914192334,0.398812445352,0.162594316287,1.01043784344,-3.02854377809,0.0756068259027,-3.0055679492,0.0480765437425
2.16,0.390918858379,0.479599026753,0.068120202736,1.40499004786,-0.17254324426,1.22588434191,0.374914192334,0.398812445352,0.162594316287,1.01043784344,-3.02854377809,0.0756068259027,-3.0055679492,0.0480765437425
2.18,0.391093395298,0.481693436503,0.0681376547635,1.40128998499,-0.172403628039,1.22797878495,0.374914192334,0.399350275813,0.162909356218,1.01060052304,-3.02854838821,0.0751147747073,-3.00581456098,0.0481566774432
2.2,0.391093395298,0.481693436503,0.0681376547635,1.40128998499,-0.172403628039,1.22797878495,0.374914192334,0.399350275813,0.162909356218,1.01060052304,-3.02854838821,0.0751147747073,-3.00581456098,0.0481566774432
2.22,0.391058474599,0.483927429184,0.0681376547635,1.39893375322,-0.172421071745,1.22825801739,0.374914192334,0.399886815059,0.163121748154,1.0103222858,-3.02860000748,0.0749390057413,-3.00595937871,0.0482210786592
2.24,0.391058474599,0.483927429184,0.0681376547635,1.39893375322,-0.172421071745,1.22825801739,0.374914192334,0.399886815059,0.163121748154,1.0103222858,-3.02860000748,0.0749390057413,-3.00595937871,0.0482210786592
2.26,0.390849016979,0.485184075033,0.0678060412735,1.39680442277,-0.172682877124,1.22899105248,0.374896715339,0.400391564181,0.163049970009,1.01040239847,-3.02829353932,0.0751853653011,-3.0065062766,0.0482629834958
2.28,0.390849016979,0.485184075033,0.0678060412735,1.39680442277,-0.172682877124,1.22899105248,0.374896715339,0.400391564181,0.163049970009,1.01040239847,-3.02829353932,0.0751853653011,-3.0065062766,0.0482629834958
2.3,0.390796685864,0.485288803843,0.0678234933011,1.39556525392,-0.172735241529,1.23223731269,0.374879271634,0.400213927009,0.162889653941,1.01070422733,-3.02744889802,0.0732719376063,-3.00691646176,0.0483007067152
2.32,0.390796685864,0.485620400689,0.067910761761,1.39394205723,-0.172351263634,1.23511712193,0.374879271634,0.400213927009,0.162889653941,1.01070422733,-3.02744889802,0.0732719376063,-3.00691646176,0.0483007067152
2.34,0.390936302084,0.485620400689,0.067910761761,1.39394205723,-0.172351263634,1.23511712193,0.374879271634,0.400107708829,0.162962343354,1.01101294231,-3.02722538785,0.0717030285664,-3.00723243439,0.0483396416035
2.36,0.391093395298,0.486004395228,0.067910761761,1.39340103606,-0.172316359579,1.23389539678,0.374896715339,0.400107708829,0.162962343354,1.01101294231,-3.02722538785,0.0717030285664,-3.00723243439,0.0483396416035
2.38,0.391093395298,0.486004395228,0.067910761761,1.39340103606,-0.172316359579,1.23389539678,0.374896715339,0.400391119256,0.163188245112,1.01100919283,-3.02776732621,0.0729662663094,-3.00699807764,0.0483361079634
2.4,0.390761765164,0.486039282639,0.0678234933011,1.39333126124,-0.172438532094,1.23323213651,0.374896715339,0.400391119256,0.163188245112,1.01100919283,-3.02776732621,0.0729662663094,-3.00699807764,0.0483361079634
2.42,0.390761765164,0.486039282639,0.0678234933011,1.39333126124,-0.172438532094,1.23323213651,0.374896715339,0.400582330642,0.16306982204,1.01102012091,-3.02786781903,0.0736596947205,-3.00729179366,0.04832966838
2.44,0.390552340834,0.486144011448,0.0675616962435,1.39299969768,-0.17278758929,1.23324971338,0.374879271634,0.400582330642,0.16306982204,1.01102012091,-3.02786781903,0.0736596947205,-3.00729179366,0.04832966838
2.46,0.390552340834,0.486144011448,0.0675616962435,1.39299969768,-0.17278758929,1.23324971338,0.374879271634,0.40075710633,0.162878584376,1.01107907476,-3.02750236556,0.0739928187894,-3.00759565351,0.0483326164704
2.48,0.389732020639,0.486370912773,0.067788589246,1.39259822615,-0.172578148315,1.23277846702,0.374879271634,0.401008554888,0.162739868324,1.01109556243,-3.02803113651,0.0744994804243,-3.00826814541,0.0483327907929
2.5,0.389732020639,0.486370912773,0.067788589246,1.39259822615,-0.172578148315,1.23277846702,0.374879271634,0.401008554888,0.162739868324,1.01109556243,-3.02803113651,0.0744994804243,-3.00826814541,0.0483327907929
2.52,0.388335758569,0.487086504158,0.0676140564873,1.39230155,-0.172700337474,1.22811833459,0.374914192334,0.402036968176,0.16251652589,1.01089871738,-3.02942350809,0.0784598991619,-3.00931473223,0.0483004066886
2.54,0.388335758569,0.487086504158,0.0676140564873,1.39230155,-0.172700337474,1.22811833459,0.374914192334,0.402036968176,0.16251652589,1.01089871738,-3.02942350809,0.0784598991619,-3.00931473223,0.0483004066886
2.56,0.386380998329,0.489774299488,0.0675093359998,1.39109726855,-0.172979586559,1.2201946314,0.374896715339,0.403868663875,0.162433823018,1.01013720243,-3.03164889602,0.0844272557254,-3.01042861822,0.0482843500471
2.58,0.386380998329,0.489774299488,0.0675093359998,1.39109726855,-0.172979586559,1.2201946314,0.374896715339,0.403868663875,0.162433823018,1.01013720243,-3.03164889602,0.0844272557254,-3.01042861822,0.0482843500471
2.6,0.383379016569,0.494399411353,0.0673871634848,1.38629758648,-0.173084298724,1.21501092149,0.374896715339,0.406314275596,0.162085883901,1.00956790114,-3.03366877442,0.0893551556633,-3.01314739952,0.0483475596377
2.62,0.383379016569,0.494399411353,0.0673871634848,1.38629758648,-0.173084298724,1.21501092149,0.374896715339,0.406314275596,0.162085883901,1.00956790114,-3.03366877442,0.0893551556633,-3.01314739952,0.0483475596377
2.64,0.380516684319,0.502235929309,0.067334803241,1.37591285613,-0.173066855019,1.21459213941,0.374896715339,0.409346935924,0.162005786124,1.00919208972,-3.03504625434,0.0920315758777,-3.01646441791,0.0485443685348
2.66,0.380516684319,0.502235929309,0.067334803241,1.37591285613,-0.173066855019,1.21459213941,0.374896715339,0.409346935924,0.162005786124,1.00919208972,-3.03504625434,0.0920315758777,-3.01646441791,0.0485443685348
2.68,0.377427450744,0.512777719589,0.0672824429973,1.36100780929,-0.17311920278,1.21520293541,0.374914192334,0.413342817189,0.162171321834,1.00893275608,-3.03670911836,0.0954576083327,-3.02032454818,0.0488094331759
2.7,0.377427450744,0.512777719589,0.0672824429973,1.36100780929,-0.17311920278,1.21520293541,0.374914192334,0.413342817189,0.162171321834,1.00893275608,-3.03670911836,0.0954576083327,-3.02032454818,0.0488094331759
2.72,0.374652370309,0.523878041328,0.0672998950248,1.3444096578,-0.17311920278,1.21549961155,0.374896715339,0.417709078641,0.1626557658,1.00890325422,-3.03894438168,0.100214587781,-3.02387750808,0.0490651440623
2.74,0.374652370309,0.523878041328,0.0672998950248,1.3444096578,-0.17311920278,1.21549961155,0.374896715339,0.417709078641,0.1626557658,1.00890325422,-3.03894438168,0.100214587781,-3.02387750808,0.0490651440623
2.76,0.372086747494,0.534733984748,0.0671428142936,1.32645023152,-0.173241375295,1.21551705526,0.374914192334,0.422417426835,0.163261785134,1.00937217641,-3.04157171868,0.106822894194,-3.02744365534,0.0492845720294
2.78,0.372086747494,0.534733984748,0.0671428142936,1.32645023152,-0.173241375295,1.21551705526,0.374914192334,0.422417426835,0.163261785134,1.00937217641,-3.04157171868,0.106822894194,-3.02744365534,0.0492845720294
2.8,0.369276779649,0.545432834953,0.0671079102385,1.30711195358,-0.174899442744,1.21556951953,0.374914192334,0.427552560259,0.163675602607,1.01034238747,-3.04330910514,0.115315305377,-3.03068402412,0.049467028802
2.82,0.369276779649,0.545432834953,0.0671079102385,1.30711195358,-0.174899442744,1.21556951953,0.374914192334,0.427552560259,0.163675602607,1.01034238747,-3.04330910514,0.115315305377,-3.03068402412,0.049467028802
2.84,0.366850739764,0.554560919458,0.0669508295073,1.29063604118,-0.181165178354,1.21553449896,0.374914192334,0.43228818714,0.163251290049,1.01126145464,-3.04028128893,0.124121723746,-3.03174149298,0.0496000377839
2.86,0.366850739764,0.554560919458,0.0669508295073,1.29063604118,-0.181165178354,1.21553449896,0.374914192334,0.43228818714,0.163251290049,1.01126145464,-3.04028128893,0.124121723746,-3.03174149298,0.0496000377839
2.88,0.364564382679,0.563462102638,0.0668635652085,1.27512006519,-0.188373390029,1.21546472414,0.374914192334,0.436816896305,0.162657052887,1.01201362699,-3.0361557527,0.132543551331,-3.0321920112,0.0497160767536
2.9,0.364564382679,0.563462102638,0.0668635652085,1.27512006519,-0.188373390029,1.21546472414,0.374914192334,0.436816896305,0.162657052887,1.01201362699,-3.0361557527,0.132543551331,-3.0321920112,0.0497160767536
2.92,0.362749238659,0.571333541293,0.066881017236,1.26297258851,-0.193731553629,1.21546472414,0.374896715339,0.44031572937,0.162226173827,1.01216992305,-3.03295686362,0.138108936844,-3.03257933268,0.0498229033367
2.94,0.362749238659,0.571333541293,0.066881017236,1.26297258851,-0.193731553629,1.21546472414,0.374896715339,0.44031572937,0.162226173827,1.01216992305,-3.03295686362,0.138108936844,-3.03257933268,0.0498229033367
2.96,0.360986459044,0.578943191213,0.0666890324498,1.25304166081,-0.195529237299,1.21541239303,0.374879271634,0.443070502369,0.162029037121,1.01167662176,-3.03233208276,0.140813077413,-3.03428762197,0.0499388316286
2.98,0.360986459044,0.578943191213,0.0666890324498,1.25304166081,-0.195529237299,1.21541239303,0.374879271634,0.443070502369,0.162029037121,1.01167662176,-3.03233208276,0.140813077413,-3.03428762197,0.0499388316286
3.0,0.358542975454,0.586064084493,0.0668112049648,1.24506549334,-0.195616505759,1.21541239303,0.374861827929,0.445309244216,0.161693197703,1.01075874735,-3.03296120757,0.141519913716,-3.03697070204,0.0500580069648
3.02,0.358542975454,0.586064084493,0.0668112049648,1.24506549334,-0.195616505759,1.21541239303,0.374861827929,0.445309244216,0.161693197703,1.01075874735,-3.03296120757,0.141519913716,-3.03697070204,0.0500580069648
3.04,0.355052336924,0.592329836748,0.0667239365048,1.23783980467,-0.195773582329,1.21509827318,0.374879271634,0.447615494913,0.160745054246,1.0100118701,-3.03351267443,0.142685052387,-3.04080929545,0.0501531559196
3.06,0.355052336924,0.592329836748,0.0667239365048,1.23783980467,-0.195773582329,1.21509827318,0.374879271634,0.447615494913,0.160745054246,1.0100118701,-3.03351267443,0.142685052387,-3.04080929545,0.0501531559196
3.08,0.350828630014,0.598194117469,0.0667413885323,1.23043967895,-0.195913215194,1.21474913276,0.374879271634,0.450059939755,0.159507296771,1.00950073881,-3.03430141812,0.144415654441,-3.04531969285,0.0502295729714
3.1,0.350828630014,0.598194117469,0.0667413885323,1.23043967895,-0.195913215194,1.21474913276,0.374879271634,0.450059939755,0.159507296771,1.00950073881,-3.03430141812,0.144415654441,-3.04531969285,0.0502295729714
3.12,0.345348310544,0.603883894558,0.0664795914748,1.22225405387,-0.196279732739,1.21267226658,0.374879271634,0.453185290971,0.157740155818,1.00934280364,-3.0356169942,0.148770533164,-3.05110905065,0.0502670547004
3.14,0.345348310544,0.603883894558,0.0664795914748,1.22225405387,-0.196279732739,1.21267226658,0.374879271634,0.453185290971,0.157740155818,1.00934280364,-3.0356169942,0.148770533164,-3.05110905065,0.0502670547004
3.16,0.338611311934,0.609957699478,0.0665319517185,1.21323073146,-0.198705739334,1.20520223288,0.374879271634,0.45760112205,0.155662804489,1.00940232201,-3.03723899349,0.159123393783,-3.05664687892,0.0502369129293
3.18,0.338611311934,0.609957699478,0.0665319517185,1.21323073146,-0.198705739334,1.20520223288,0.374879271634,0.45760112205,0.155662804489,1.00940232201,-3.03723899349,0.159123393783,-3.05664687892,0.0502369129293
3.2,0.331246040334,0.616555015288,0.066549403746,1.20537680309,-0.201969493184,1.19436369988,0.374861827929,0.462402122904,0.153265909214,1.00894155672,-3.03872806033,0.171229329512,-3.06203555536,0.0501924786471
3.22,0.331246040334,0.624915144003,0.0666017639898,1.19734817135,-0.202911985894,1.1837695119,0.374844350934,0.462402122904,0.153265909214,1.00894155672,-3.03872806033,0.171229329512,-3.06203555536,0.0501924786471
3.24,0.323653867409,0.624915144003,0.0666017639898,1.19734817135,-0.202911985894,1.1837695119,0.374844350934,0.467067568438,0.15103982427,1.00762164078,-3.04191403947,0.180864830301,-3.06854280565,0.050193724419
3.26,0.317073962014,0.633519617748,0.066636672206,1.18626542648,-0.202719988624,1.17944120934,0.374844350934,0.467067568438,0.15103982427,1.00762164078,-3.04191403947,0.180864830301,-3.06854280565,0.050193724419
3.28,0.317073962014,0.633519617748,0.066636672206,1.18626542648,-0.202719988624,1.17944120934,0.374844350934,0.47123262521,0.149155762609,1.00696914339,-3.04483253852,0.187039441422,-3.07543165431,0.0502223566766
3.3,0.311768179464,0.642769841478,0.0666890324498,1.17052254917,-0.202353471079,1.17961564639,0.374826907229,0.47123262521,0.149155762609,1.00696914339,-3.04483253852,0.187039441422,-3.07543165431,0.0502223566766
3.32,0.311768179464,0.642769841478,0.0666890324498,1.17052254917,-0.202353471079,1.17961564639,0.374826907229,0.475546978981,0.147871380032,1.00734802739,-3.04761068277,0.192803137527,-3.08194345576,0.0502350036769
3.34,0.307666645069,0.651513931443,0.0670730020223,1.15226631358,-0.201009573414,1.17959820269,0.374826907229,0.475546978981,0.147871380032,1.00734802739,-3.04761068277,0.192803137527,-3.08194345576,0.0502350036769
3.36,0.307666645069,0.651513931443,0.0670730020223,1.15226631358,-0.201009573414,1.17959820269,0.374826907229,0.480149968523,0.147563975017,1.00875207469,-3.05248983298,0.201281554541,-3.08774159691,0.0501637334583
3.38,0.304978849739,0.659839172748,0.0671079102385,1.1328059297,-0.201079381524,1.17951098416,0.374826907229,0.480149968523,0.147563975017,1.00875207469,-3.05248983298,0.201281554541,-3.08774159691,0.0501637334583
3.4,0.304978849739,0.659839172748,0.0671079102385,1.1328059297,-0.201079381524,1.17951098416,0.374826907229,0.484912754979,0.147637402258,1.0107961583,-3.05635167894,0.211851735379,-3.0919601105,0.0500281708704
3.42,0.302657538664,0.669804987863,0.067090458211,1.11301391569,-0.201096841874,1.17954587157,0.374792019819,0.489646045758,0.147845220526,1.01211634082,-3.05987627729,0.221022537694,-3.09583843997,0.0499061827017
3.44,0.302657538664,0.669804987863,0.067090458211,1.11301391569,-0.201096841874,1.17954587157,0.374792019819,0.489646045758,0.147845220526,1.01211634082,-3.05987627729,0.221022537694,-3.09583843997,0.0499061827017
3.46,0.300336260879,0.681900133428,0.0671079102385,1.09416439439,-0.201096841874,1.17959820269,0.374792019819,0.494143754747,0.147965926784,1.01202792753,-3.06260055265,0.22721052218,-3.09955023474,0.0498383397719
3.48,0.300336260879,0.681900133428,0.0671079102385,1.09416439439,-0.201096841874,1.17959820269,0.374792019819,0.494143754747,0.147965926784,1.01202792753,-3.06260055265,0.22721052218,-3.09955023474,0.0498383397719
3.5,0.298294215534,0.697171764383,0.0670380979673,1.07425014129,-0.201166649984,1.17968555437,0.374774542824,0.498821199943,0.148211956137,1.01061198981,-3.06468649577,0.231341786858,-3.10295180297,0.0498080387187
3.52,0.298294215534,0.697171764383,0.0670380979673,1.07425014129,-0.201166649984,1.17968555437,0.374774542824,0.498821199943,0.148211956137,1.01061198981,-3.06468649577,0.231341786858,-3.10295180297,0.0498080387187
3.54,0.296391819699,0.713577835383,0.067003189751,1.05154343062,-0.201288822499,1.18094216693,0.374774542824,0.503854843241,0.148585584889,1.0094300674,-3.06691279217,0.235959904764,-3.1065509344,0.0497153241416
3.56,0.296391819699,0.713577835383,0.067003189751,1.05154343062,-0.201288822499,1.18094216693,0.374774542824,0.503854843241,0.148585584889,1.0094300674,-3.06691279217,0.235959904764,-3.1065509344,0.0497153241416
3.58,0.294663927494,0.729006592842,0.0668635652085,1.02414176669,-0.202528007999,1.18795839798,0.374792019819,0.508987738248,0.148692181209,1.01009277573,-3.06773503909,0.241004531401,-3.11065215286,0.0494804167103
3.6,0.294663927494,0.729006592842,0.0668635652085,1.02414176669,-0.202528007999,1.18795839798,0.374792019819,0.508987738248,0.148692181209,1.01009277573,-3.06773503909,0.241004531401,-3.11065215286,0.0494804167103
3.62,0.292761531659,0.744836688678,0.0666192160173,0.991224829302,-0.202493103944,1.20141481834,0.374774542824,0.51415480664,0.148688012737,1.01207333496,-3.06912106072,0.24453596814,-3.11660576549,0.0490893646895
3.64,0.292761531659,0.744836688678,0.0666192160173,0.991224829302,-0.202493103944,1.20141481834,0.374774542824,0.51415480664,0.148688012737,1.01207333496,-3.06912106072,0.24453596814,-3.11660576549,0.0490893646895
3.66,0.290998752044,0.761871132537,0.0667064844773,0.961205211441,-0.202423279189,1.21551705526,0.374774542824,0.518464699702,0.148613999775,1.01237828667,-3.06931550247,0.243472642664,-3.12189883229,0.0487351790553
3.68,0.290998752044,0.761871132537,0.0667064844773,0.961205211441,-0.202423279189,1.21551705526,0.374774542824,0.518464699702,0.148613999775,1.01237828667,-3.06931550247,0.243472642664,-3.12189883229,0.0487351790553
3.7,0.289777026894,0.781959889272,0.066427231231,0.931377474337,-0.202650180514,1.22909571471,0.374757099119,0.522709285517,0.14861663457,1.01093005106,-3.06825121215,0.239924814842,-3.1264820646,0.0483771601203
3.72,0.289777026894,0.781959889272,0.066427231231,0.931377474337,-0.202650180514,1.22909571471,0.374757099119,0.522709285517,0.14861663457,1.01093005106,-3.06825121215,0.239924814842,-3.1264820646,0.0483771601203
3.74,0.288310923424,0.801071199308,0.0661130739298,0.905511721987,-0.203016698059,1.24021348015,0.374757099119,0.526488547885,0.148355600482,1.00871036137,-3.06686254028,0.235901294258,-3.13071265285,0.0480319786037
3.76,0.288310923424,0.801071199308,0.0661130739298,0.905511721987,-0.203016698059,1.24021348015,0.374757099119,0.526488547885,0.148355600482,1.00871036137,-3.06686254028,0.235901294258,-3.13071265285,0.0480319786037
3.78,0.287124118974,0.819920787187,0.0660432574973,0.878930378252,-0.207572001814,1.25183737936,0.374774542824,0.53040957006,0.147665580191,1.00688647308,-3.06173008972,0.233641954177,-3.13325097738,0.0475844991034
3.8,0.287124118974,0.819920787187,0.0660432574973,0.878930378252,-0.207572001814,1.25183737936,0.374774542824,0.53040957006,0.147665580191,1.00688647308,-3.06173008972,0.233641954177,-3.13325097738,0.0475844991034
3.82,0.286181626264,0.836065069452,0.0659908972536,0.855734910948,-0.216560453454,1.2621523349,0.374774542824,0.53399320093,0.146313639981,1.00553669254,-3.05243371456,0.233418434511,-3.1337612747,0.0471266050309
3.84,0.286181626264,0.836065069452,0.0659908972536,0.855734910948,-0.216560453454,1.2621523349,0.374774542824,0.53399320093,0.146313639981,1.00553669254,-3.05243371456,0.233418434511,-3.1337612747,0.0471266050309
3.86,0.285570763689,0.850446605392,0.0660083534423,0.834459383052,-0.226508824864,1.27244971357,0.374792019819,0.537137782366,0.144888145073,1.00452565433,-3.04213324948,0.233385290078,-3.13363802868,0.0466537253629
3.88,0.285570763689,0.850446605392,0.0660083534423,0.834459383052,-0.226508824864,1.27244971357,0.374792019819,0.537137782366,0.144888145073,1.00452565433,-3.04213324948,0.233385290078,-3.13363802868,0.0466537253629
3.9,0.284645747974,0.863135103248,0.0660432574973,0.814684812747,-0.237940743449,1.28546990814,0.374792019819,0.539641262729,0.142800510253,1.00390780652,-3.02945775437,0.231508313877,-3.13370175256,0.0461788482971
3.92,0.284645747974,0.863135103248,0.0660432574973,0.814684812747,-0.237940743449,1.28546990814,0.374792019819,0.539641262729,0.142800510253,1.00390780652,-3.02945775437,0.231508313877,-3.13370175256,0.0461788482971
3.94,0.284296674134,0.874479770017,0.0660432574973,0.800006600662,-0.249267916579,1.29519137822,0.374792019819,0.541561855126,0.140971778924,1.00245909595,-3.01672248049,0.229117378373,-3.13255939099,0.0458421645332
3.96,0.284296674134,0.874479770017,0.0660432574973,0.800006600662,-0.249267916579,1.29519137822,0.374792019819,0.541561855126,0.140971778924,1.00245909595,-3.01672248049,0.229117378373,-3.13255939099,0.0458421645332
3.98,0.283616003449,0.885318236443,0.0660432574973,0.787894011392,-0.257296431804,1.30264396822,0.374792019819,0.543184615727,0.139469287703,1.00040965377,-3.00727614269,0.225831731056,-3.13239794843,0.0455759338438
4.0,0.283616003449,0.885318236443,0.0660432574973,0.787894011392,-0.257296431804,1.30264396822,0.374792019819,0.543184615727,0.139469287703,1.00040965377,-3.00727614269,0.225831731056,-3.13239794843,0.0455759338438
4.02,0.282690987734,0.895074660517,0.0660083534423,0.779045192617,-0.260507837894,1.30704217876,0.374792019819,0.544418170466,0.138580598471,0.997814506825,-3.00276225072,0.221801353235,-3.13337157912,0.0454057885046
4.04,0.282690987734,0.895074660517,0.0660083534423,0.779045192617,-0.260507837894,1.30704217876,0.374792019819,0.544418170466,0.138580598471,0.997814506825,-3.00276225072,0.221801353235,-3.13337157912,0.0454057885046
4.06,0.280910731124,0.903940922997,0.0660083534423,0.772692155258,-0.261572503119,1.3099045443,0.374809463524,0.545401439069,0.137537240457,0.994862539398,-3.00032651912,0.216997356726,-3.13544780211,0.0453159507573
4.08,0.280910731124,0.903940922997,0.0660083534423,0.772692155258,-0.261572503119,1.3099045443,0.374809463524,0.545401439069,0.137537240457,0.994862539398,-3.00032651912,0.216997356726,-3.13544780211,0.0453159507573
4.1,0.277629516924,0.911829805357,0.0660083534423,0.766950047052,-0.262497518834,1.31041067806,0.374826907229,0.546823439169,0.135807589777,0.992307033359,-2.99889588833,0.214682238438,-3.13874520839,0.0452155545662
4.12,0.277629516924,0.911829805357,0.0660083534423,0.766950047052,-0.262497518834,1.31041067806,0.374826907229,0.546823439169,0.135807589777,0.992307033359,-2.99889588833,0.214682238438,-3.13874520839,0.0452155545662
4.14,0.274016689234,0.918601691377,0.0660083534423,0.761434773593,-0.262654595404,1.31042812177,0.374809463524,0.548276720345,0.134023949495,0.990283951828,-2.99860063166,0.213431740276,3.14063171407,0.0450956122297
4.16,0.274016689234,0.918601691377,0.0660083534423,0.761434773593,-0.262654595404,1.31042812177,0.374809463524,0.548276720345,0.134023949495,0.990283951828,-2.99860063166,0.213431740276,3.14063171407,0.0450956122297
4.18,0.269688270159,0.923488591977,0.0660083534423,0.757158735568,-0.262689499459,1.31046300918,0.374792019819,0.54959162145,0.131806643542,0.988911709335,-2.99854710396,0.212764853258,3.13610346387,0.0449925012494
4.2,0.269688270159,0.923488591977,0.0660083534423,0.757158735568,-0.262689499459,1.31046300918,0.374792019819,0.54959162145,0.131806643542,0.988911709335,-2.99854710396,0.212764853258,3.13610346387,0.0449925012494
4.22,0.265586752409,0.926508017442,0.065973445226,0.754558225342,-0.262846592674,1.310532784,0.374792019819,0.550576872314,0.129608376851,0.988052262321,-2.99832806755,0.212320753537,3.13189281462,0.0449298395538
4.24,0.265586752409,0.926508017442,0.065973445226,0.754558225342,-0.262846592674,1.310532784,0.374792019819,0.550576872314,0.129608376851,0.988052262321,-2.99832806755,0.212320753537,3.13189281462,0.0449298395538
4.26,0.261240889629,0.927555238962,0.066060713686,0.753755348852,-0.262829132324,1.31051534029,0.374792019819,0.551266230449,0.127276840547,0.987718758796,-2.99838238364,0.212066905548,3.12754723576,0.0449124383349
4.28,0.261240889629,0.927555238962,0.066060713686,0.753755348852,-0.262829132324,1.31051534029,0.374792019819,0.551266230449,0.127276840547,0.987718758796,-2.99838238364,0.212066905548,3.12754723576,0.0449124383349
4.3,0.257209179989,0.928515175377,0.0660258054698,0.753772792558,-0.262811671974,1.31063757939,0.374792019819,0.55173782042,0.125031724875,0.987167300568,-2.99805807773,0.2110160847,3.12353641677,0.0449334316697
4.32,0.257209179989,0.928515175377,0.0660258054698,0.753772792558,-0.262811671974,1.31063757939,0.374792019819,0.55173782042,0.125031724875,0.987167300568,-2.99805807773,0.2110160847,3.12353641677,0.0449334316697
4.34,0.253666160409,0.928567506492,0.0660083534423,0.753668063748,-0.262933844489,1.31121348797,0.374774542824,0.552113228748,0.123021944038,0.987161990823,-2.99774694897,0.210574332476,3.11995371195,0.0449324314365
4.36,0.253666160409,0.928567506492,0.0660083534423,0.753668063748,-0.262933844489,1.31121348797,0.374774542824,0.552113228748,0.123021944038,0.987161990823,-2.99774694897,0.210574332476,3.11995371195,0.0449324314365
4.38,0.250280217399,0.928619904187,0.0660258054698,0.753528447528,-0.262881496729,1.31152760782,0.374757099119,0.552498927545,0.121152999312,0.987167856048,-2.99773106165,0.210344470498,3.11652028852,0.0449284371309
4.4,0.250280217399,0.928619904187,0.0660258054698,0.753528447528,-0.262881496729,1.31152760782,0.374757099119,0.552498927545,0.121152999312,0.987167856048,-2.99773106165,0.210344470498,3.11652028852,0.0449284371309
4.42,0.247156079769,0.928567506492,0.0660781657135,0.753563334938,-0.262776767919,1.31276690983,0.374739655414,0.552663615357,0.119388465118,0.987151809125,-2.99745476828,0.209173673206,3.11323593038,0.0449355185342
4.44,0.247156079769,0.928567506492,0.0660781657135,0.753563334938,-0.262776767919,1.31276690983,0.374739655414,0.552663615357,0.119388465118,0.987151809125,-2.99745476828,0.209173673206,3.11323593038,0.0449355185342
4.46,0.244171558359,0.928619904187,0.0660781657135,0.753580778643,-0.262759324214,1.31630984619,0.374722178419,0.552450696599,0.117539755326,0.987031628379,-2.99625116557,0.205836097706,3.10978278574,0.0449554905739
4.48,0.244171558359,0.928619904187,0.0660781657135,0.753580778643,-0.262759324214,1.31630984619,0.374722178419,0.552450696599,0.117539755326,0.987031628379,-2.99625116557,0.205836097706,3.10978278574,0.0449554905739
4.5,0.242077165254,0.928532619082,0.0660956177411,0.753528447528,-0.262741863864,1.31913732432,0.374722178419,0.55225627309,0.116234655362,0.987031032623,-2.99536701441,0.203357085512,3.10728926496,0.044965247117
4.52,0.242077165254,0.928532619082,0.0660956177411,0.753528447528,-0.262741863864,1.31913732432,0.374722178419,0.55225627309,0.116234655362,0.987031032623,-2.99536701441,0.203357085512,3.10728926496,0.044965247117
4.54,0.240750711294,0.928532619082,0.0660781657135,0.753528447528,-0.262794228269,1.32084773953,0.374722178419,0.552142026049,0.115392323228,0.986993869074,-2.99472459041,0.201802703157,3.10573373021,0.0449735662024
4.56,0.240750711294,0.928532619082,0.0660781657135,0.753528447528,-0.262794228269,1.32084773953,0.374722178419,0.552142026049,0.115392323228,0.986993869074,-2.99472459041,0.201802703157,3.10573373021,0.0449735662024
4.58,0.239563890199,0.928235876357,0.0660956177411,0.753231771382,-0.262759324214,1.32556006992,0.374722178419,0.551588439025,0.114498546533,0.987149223889,-2.99335462963,0.198017173313,3.10383551046,0.0449756248811
4.6,0.239563890199,0.928235876357,0.0660956177411,0.753231771382,-0.262759324214,1.32556006992,0.374722178419,0.551588439025,0.114498546533,0.987149223889,-2.99335462963,0.198017173313,3.10383551046,0.0449756248811
4.62,0.239389353279,0.926822203872,0.0661479779848,0.753336433613,-0.262741863864,1.33133713212,0.374687291009,0.550687906519,0.114104494422,0.987783799115,-2.99181159579,0.19393855134,3.1028357303,0.0449781009634
4.64,0.239389353279,0.926822203872,0.0661479779848,0.753336433613,-0.262741863864,1.33133713212,0.374687291009,0.550687906519,0.114104494422,0.987783799115,-2.99181159579,0.19393855134,3.1028357303,0.0449781009634
4.66,0.239494082089,0.921970190682,0.0665319517185,0.753388831307,-0.262375346319,1.33774256717,0.374669814014,0.549674932367,0.114012697623,0.990336863816,-2.99163376015,0.192456368599,3.10186335011,0.0449090324449
4.68,0.239494082089,0.921970190682,0.0665319517185,0.753388831307,-0.262375346319,1.33774256717,0.374669814014,0.549674932367,0.114012697623,0.990336863816,-2.99163376015,0.192456368599,3.10186335011,0.0449090324449
4.7,0.239441717684,0.913767121892,0.0675442400548,0.754278926323,-0.259478093369,1.34636441804,0.374669814014,0.548023559203,0.114295820776,0.994352156193,-2.99430239167,0.190414489119,3.09991045997,0.0448174101574
4.72,0.239441717684,0.913767121892,0.0675442400548,0.754278926323,-0.259478093369,1.34636441804,0.374669814014,0.548023559203,0.114295820776,0.994352156193,-2.99430239167,0.190414489119,3.09991045997,0.0448174101574
4.74,0.239441717684,0.903522074337,0.0679456658161,0.755867169018,-0.250350025509,1.35769164111,0.374669814014,0.545525122127,0.115192730844,0.999021208835,-3.00190574134,0.185282737347,3.09573146334,0.0447219923638
4.76,0.239441717684,0.903522074337,0.0679456658161,0.755867169018,-0.250350025509,1.35769164111,0.374669814014,0.545525122127,0.115192730844,0.999021208835,-3.00190574134,0.185282737347,3.09573146334,0.0447219923638
4.78,0.239476621739,0.891409485067,0.0680503863035,0.760422506062,-0.234624608549,1.3689663999,0.374634926604,0.542140628105,0.116937952479,1.00357539833,-3.01515173429,0.177014224388,3.09029589586,0.0447195107647
4.8,0.239476621739,0.891409485067,0.0680503863035,0.760422506062,-0.234624608549,1.3689663999,0.374634926604,0.542140628105,0.116937952479,1.00357539833,-3.01515173429,0.177014224388,3.09029589586,0.0447195107647
4.82,0.239459178034,0.879925202077,0.0679631220048,0.767979758288,-0.217694910144,1.37559873628,0.374634926604,0.538862852992,0.118926240324,1.00689614584,-3.02978048547,0.16914191655,3.08564462743,0.0448475789276
4.84,0.239459178034,0.879925202077,0.0679631220048,0.767979758288,-0.217694910144,1.37559873628,0.374634926604,0.538862852992,0.118926240324,1.00689614584,-3.02978048547,0.16914191655,3.08564462743,0.0448475789276
4.86,0.239476621739,0.867289035337,0.068032934276,0.781890047873,-0.202126586399,1.37846110181,0.374634926604,0.535026496155,0.12074172673,1.00894863796,-3.04268552938,0.160223101075,3.08267784485,0.0452215904749
4.88,0.239476621739,0.867289035337,0.068032934276,0.781890047873,-0.202126586399,1.37846110181,0.374634926604,0.535026496155,0.12074172673,1.00894863796,-3.04268552938,0.160223101075,3.08267784485,0.0452215904749
4.9,0.239511525794,0.855787308642,0.0680678424923,0.800390561912,-0.191567335769,1.37830397531,0.374634926604,0.53102674077,0.121743002496,1.00910453122,-3.04991758571,0.150371167721,3.08174363877,0.0457988339284
4.92,0.239511525794,0.855787308642,0.0680678424923,0.800390561912,-0.191567335769,1.37830397531,0.374634926604,0.53102674077,0.121743002496,1.00910453122,-3.04991758571,0.150371167721,3.08174363877,0.0457988339284
4.94,0.239511525794,0.844128522022,0.068120202736,0.819013181888,-0.188635178764,1.37793739119,0.374634926604,0.527366372061,0.121515425378,1.00947919394,-3.04999186128,0.143334643934,3.08251322689,0.0463465493138
4.96,0.239511525794,0.844128522022,0.068120202736,0.819013181888,-0.188635178764,1.37793739119,0.374634926604,0.527366372061,0.121515425378,1.00947919394,-3.04999186128,0.143334643934,3.08251322689,0.0463465493138
4.98,0.239476621739,0.832242767498,0.0679980260598,0.835157530732,-0.189054060714,1.37554640516,0.374634926604,0.524645410652,0.120865966398,1.01084868906,-3.04839259984,0.141899556237,3.08380671607,0.0467489495223
5.0,0.239476621739,0.832242767498,0.0679980260598,0.835157530732,-0.189054060714,1.37554640516,0.374634926604,0.524645410652,0.120865966398,1.01084868906,-3.04839259984,0.141899556237,3.08380671607,0.0467489495223
5.02,0.239459178034,0.821421744778,0.0679980260598,0.849643728902,-0.189176233229,1.37027547673,0.374652370309,0.524645410652,0.120865966398,1.01084868906,-3.04839259984,0.141899556237,3.08380671607,0.0467489495223
5.04,0.239459178034,0.821421744778,0.0679980260598,0.849643728902,-0.189176233229,1.37027547673,0.374652370309,0.522652728851,0.120521986642,1.01218333491,-3.04842670224,0.143548228514,3.08522944625,0.0470772249011
5.06,0.239511525794,0.810495993247,0.068032934276,0.863239832057,-0.189123885469,1.36774467475,0.374652370309,0.520342895305,0.120134333367,1.01378083892,-3.04800726332,0.143527638376,3.08638333902,0.0473545909394
5.08,0.239511525794,0.810495993247,0.068032934276,0.863239832057,-0.189123885469,1.36774467475,0.374652370309,0.520342895305,0.120134333367,1.01378083892,-3.04800726332,0.143527638376,3.08638333902,0.0473545909394
5.1,0.239511525794,0.801298100633,0.068155106791,0.875684051462,-0.189088964769,1.36774467475,0.374634926604,0.517840386098,0.119653785771,1.01475646556,-3.04661347147,0.140579506464,3.08728972334,0.0476200626671
5.12,0.239511525794,0.801298100633,0.068155106791,0.875684051462,-0.189088964769,1.36774467475,0.374634926604,0.517840386098,0.119653785771,1.01475646556,-3.04661347147,0.140579506464,3.08728972334,0.0476200626671
5.14,0.239476621739,0.791314841812,0.0682598272785,0.888878749662,-0.189123885469,1.36786691384,0.374634926604,0.515152697359,0.119089692167,1.01589570103,-3.04507298508,0.137593393937,3.08817114596,0.0478806647629
5.16,0.239476621739,0.791314841812,0.0682598272785,0.888878749662,-0.189123885469,1.36786691384,0.374634926604,0.515152697359,0.119089692167,1.01589570103,-3.04507298508,0.137593393937,3.08817114596,0.0478806647629
5.18,0.239476621739,0.781942378988,0.0682947354948,0.901427631297,-0.189106425119,1.36786691384,0.374634926604,0.512594234799,0.118552829123,1.01689830977,-3.04361307565,0.134741194333,3.08899818816,0.0481167089344
5.2,0.239476621739,0.781942378988,0.0682947354948,0.901427631297,-0.189106425119,1.36786691384,0.374634926604,0.512594234799,0.118552829123,1.01689830977,-3.04361307565,0.134741194333,3.08899818816,0.0481167089344
5.22,0.239511525794,0.772814327773,0.0685216284972,0.912685012962,-0.189054060714,1.36908863899,0.374634926604,0.510054461003,0.118089156701,1.01814093422,-3.04224397845,0.131689907269,3.08974013099,0.0483008848131
5.24,0.239511525794,0.772814327773,0.0685216284972,0.912685012962,-0.189054060714,1.36908863899,0.374634926604,0.510054461003,0.118089156701,1.01814093422,-3.04224397845,0.131689907269,3.08974013099,0.0483008848131
5.26,0.239511525794,0.763319759012,0.0684343600373,0.925094344957,-0.189071521064,1.37268403962,0.374634926604,0.506916997666,0.117298579407,1.01916915717,-3.03947163267,0.125795233725,3.09012258272,0.0485121916117
5.28,0.239511525794,0.763319759012,0.0684343600373,0.925094344957,-0.189071521064,1.37268403962,0.374634926604,0.506916997666,0.117298579407,1.01916915717,-3.03947163267,0.125795233725,3.09012258272,0.0485121916117
5.3,0.239563890199,0.754907232603,0.0686787050673,0.935287061397,-0.189071521064,1.37853087664,0.374634926604,0.503817646632,0.11662598189,1.0202844926,-3.03656716128,0.118797657316,3.09036772775,0.0486661190003
5.32,0.239563890199,0.754907232603,0.0686787050673,0.935287061397,-0.189071521064,1.37853087664,0.374634926604,0.503817646632,0.11662598189,1.0202844926,-3.03656716128,0.118797657316,3.09036772775,0.0486661190003
5.34,0.239546446494,0.745534836358,0.0687485173386,0.947120351647,-0.189036617009,1.38565176992,0.374617482899,0.500178281335,0.115710170285,1.02136656273,-3.03284415269,0.110020724094,3.09039354542,0.048843097912
5.36,0.239546446494,0.745534836358,0.0687485173386,0.947120351647,-0.189036617009,1.38565176992,0.374617482899,0.500178281335,0.115710170285,1.02136656273,-3.03284415269,0.110020724094,3.09039354542,0.048843097912
5.38,0.239563890199,0.737541225188,0.068818333771,0.958325402197,-0.189036617009,1.3895787341,0.374634926604,0.497180069927,0.115002921066,1.02196530646,-3.03003253371,0.10348797851,3.09071238495,0.0490156349013
5.4,0.239563890199,0.737541225188,0.068818333771,0.958325402197,-0.189036617009,1.3895787341,0.374634926604,0.497180069927,0.115002921066,1.02196530646,-3.03003253371,0.10348797851,3.09071238495,0.0490156349013
5.42,0.239546446494,0.728884420327,0.0688706940148,0.972480036811,-0.189036617009,1.39190007847,0.374634926604,0.493827975217,0.114214458838,1.02200551825,-3.02697360094,0.0963024091003,3.09136327387,0.0492520005258
5.44,0.239546446494,0.728884420327,0.0688706940148,0.972480036811,-0.189036617009,1.39190007847,0.374634926604,0.493827975217,0.114214458838,1.02200551825,-3.02697360094,0.0963024091003,3.09136327387,0.0492520005258
5.46,0.239546446494,0.721135154187,0.0689230500973,0.988432305162,-0.189036617009,1.39198729699,0.374634926604,0.490461243825,0.113464203537,1.02105153168,-3.02384577184,0.0886203864859,3.09240719556,0.0495492762282
5.48,0.239546446494,0.721135154187,0.0689230500973,0.988432305162,-0.189036617009,1.39198729699,0.374634926604,0.490461243825,0.113464203537,1.02105153168,-3.02384577184,0.0886203864859,3.09240719556,0.0495492762282
5.5,0.239633698309,0.712513236737,0.069062678801,1.00736911157,-0.189001712954,1.39196985329,0.374634926604,0.486435587924,0.112639906887,1.01963120523,-3.02009772546,0.0790317351185,3.09376871721,0.0498922417027
5.52,0.239633698309,0.712513236737,0.069062678801,1.00736911157,-0.189001712954,1.39196985329,0.374634926604,0.486435587924,0.112639906887,1.01963120523,-3.02009772546,0.0790317351185,3.09376871721,0.0498922417027
5.54,0.239947868094,0.701465312692,0.0691150390448,1.03005844511,-0.188966792254,1.39177783937,0.374652370309,0.48156052287,0.111691015003,1.01829235409,-3.01580110809,0.0684126282037,3.09546112213,0.0502460709131
5.56,0.239947868094,0.701465312692,0.0691150390448,1.03005844511,-0.188966792254,1.39177783937,0.374652370309,0.48156052287,0.111691015003,1.01829235409,-3.01580110809,0.0684126282037,3.09546112213,0.0502460709131
5.58,0.240454018504,0.689405054538,0.069184851316,1.05074055413,-0.188792271979,1.391376501,0.374669814014,0.477044140077,0.110940763436,1.0180434044,-3.01267715935,0.0607978683168,3.09714926652,0.0504765688311
5.6,0.240454018504,0.689405054538,0.069184851316,1.05074055413,-0.188792271979,1.391376501,0.374669814014,0.477044140077,0.110940763436,1.0180434044,-3.01267715935,0.0607978683168,3.09714926652,0.0504765688311
5.62,0.240471462209,0.675302817617,0.0709476350923,1.07089915227,-0.188687543169,1.38847924805,0.374669814014,0.4728849702,0.110689625006,1.01891960855,-3.01214631367,0.0576651092205,3.09984779974,0.0505928364516
5.64,0.240471462209,0.675302817617,0.0709476350923,1.07089915227,-0.188687543169,1.38847924805,0.374669814014,0.4728849702,0.110689625006,1.01891960855,-3.01214631367,0.0576651092205,3.09984779974,0.0505928364516
5.66,0.240279481584,0.658914123743,0.0744557422948,1.09187800402,-0.188739907574,1.38081720043,0.374669814014,0.469118063741,0.111141578107,1.02061646444,-3.01453008093,0.060127335329,3.10429886816,0.0506119693094
5.68,0.240279481584,0.658914123743,0.0744557422948,1.09187800402,-0.188739907574,1.38081720043,0.374669814014,0.469118063741,0.111141578107,1.02061646444,-3.01453008093,0.060127335329,3.10429886816,0.0506119693094
5.7,0.240436558154,0.643084027908,0.0771784583248,1.11126861307,-0.188687543169,1.3723348992,0.374669814014,0.465800082752,0.111607342551,1.02246195521,-3.01713000904,0.064437851648,3.1085219437,0.0505688766658
5.72,0.240436558154,0.643084027908,0.0771784583248,1.11126861307,-0.188687543169,1.3723348992,0.374669814014,0.465800082752,0.111607342551,1.02246195521,-3.01713000904,0.064437851648,3.1085219437,0.0505688766658
5.74,0.240419097804,0.625211820148,0.0802676918997,1.13240459133,-0.188687543169,1.36748288601,0.374669814014,0.461424402407,0.111793543348,1.0246937017,-3.01848414773,0.0657057896151,3.11256151682,0.0504799224049
5.76,0.240419097804,0.625211820148,0.0802676918997,1.13240459133,-0.188687543169,1.36748288601,0.374669814014,0.461424402407,0.111793543348,1.0246937017,-3.01848414773,0.0657057896151,3.11256151682,0.0504799224049
5.78,0.240244577529,0.609032650473,0.0832522049872,1.15348803873,-0.188722447224,1.36507432312,0.374669814014,0.456674739309,0.1117126267,1.02606459706,-3.01834676771,0.0631946150436,3.11616424444,0.0504126982264
5.8,0.240244577529,0.609032650473,0.0832522049872,1.15348803873,-0.188722447224,1.36507432312,0.374669814014,0.456674739309,0.1117126267,1.02606459706,-3.01834676771,0.0631946150436,3.11616424444,0.0504126982264
5.82,0.240506366264,0.593970477138,0.0862018140197,1.17533967495,-0.188687543169,1.36359080924,0.374669814014,0.451533330117,0.111712660352,1.02662456291,-3.01729815802,0.0580365474406,3.12016407371,0.0503619184217
5.84,0.240506366264,0.593970477138,0.0862018140197,1.17533967495,-0.188687543169,1.36359080924,0.374669814014,0.451533330117,0.111712660352,1.02662456291,-3.01729815802,0.0580365474406,3.12016407371,0.0503619184217
5.86,0.240366750044,0.581456416333,0.0901113511447,1.19499207274,-0.188687543169,1.36008276029,0.374669814014,0.447166046694,0.112101948512,1.02661589996,-3.01744803592,0.0542638695943,3.12470472132,0.050303957231
5.88,0.240366750044,0.581456416333,0.0901113511447,1.19499207274,-0.188687543169,1.36008276029,0.374669814014,0.447166046694,0.112101948512,1.02661589996,-3.01744803592,0.0542638695943,3.12470472132,0.050303957231
5.9,0.240227117179,0.568349003238,0.0958360322896,1.21675622411,-0.188774811629,1.35371221265,0.374669814014,0.442566757105,0.113158891358,1.02623291064,-3.01887977457,0.0515319001887,3.13126240444,0.0502119518594
5.92,0.240227117179,0.568349003238,0.0958360322896,1.21675622411,-0.188774811629,1.35371221265,0.374669814014,0.442566757105,0.113158891358,1.02623291064,-3.01887977457,0.0515319001887,3.13126240444,0.0502119518594
5.94,0.240384193749,0.556445871588,0.10199703909,1.23867763515,-0.188757351279,1.34784793193,0.374669814014,0.437738648365,0.114459900492,1.02522610956,-3.01999398998,0.0469772204617,3.13849690185,0.050121575875
5.96,0.240384193749,0.556445871588,0.10199703909,1.23867763515,-0.188757351279,1.34784793193,0.374669814014,0.437738648365,0.114459900492,1.02522610956,-3.01999398998,0.0469772204617,3.13849690185,0.050121575875
5.98,0.240244577529,0.545712100683,0.108210410295,1.26007533556,-0.188757351279,1.3445493406,0.374704734714,0.43261737334,0.115493068092,1.02383116182,-3.01998043734,0.03946626253,-3.1379691427,0.0500364010326
6.0,0.240244577529,0.545712100683,0.108210410295,1.26007533556,-0.188757351279,1.3445493406,0.374704734714,0.43261737334,0.115493068092,1.02383116182,-3.01998043734,0.03946626253,-3.1379691427,0.0500364010326
6.02,0.240366750044,0.534576891533,0.114004907872,1.28283444392,-0.188722447224,1.34228032735,0.374722178419,0.426965439643,0.116301704148,1.0222131259,-3.01897144913,0.0301918716339,-3.13128431266,0.0499255672516
6.04,0.240366750044,0.534576891533,0.114004907872,1.28283444392,-0.188722447224,1.34228032735,0.374722178419,0.426965439643,0.116301704148,1.0222131259,-3.01897144913,0.0301918716339,-3.13128431266,0.0499255672516
6.06,0.240419097804,0.525012481373,0.119031457982,1.30414492581,-0.188722447224,1.33981943335,0.374722178419,0.421735361007,0.11686504632,1.02031442208,-3.01764411141,0.0210703126935,-3.12530404349,0.0498117248122
6.08,0.240419097804,0.525012481373,0.119031457982,1.30414492581,-0.188722447224,1.33981943335,0.374722178419,0.421735361007,0.11686504632,1.02031442208,-3.01764411141,0.0210703126935,-3.12530404349,0.0498117248122
6.1,0.240331845989,0.515727336943,0.122871178675,1.32618844278,-0.188809715684,1.33339668774,0.374722178419,0.417045949561,0.117099853774,1.01806112263,-3.01674658404,0.0148271541083,-3.11991520987,0.0496556990559
6.12,0.240331845989,0.515727336943,0.122871178675,1.32618844278,-0.188809715684,1.33339668774,0.374722178419,0.417045949561,0.117099853774,1.01806112263,-3.01674658404,0.0148271541083,-3.11991520987,0.0496556990559
6.14,0.240331845989,0.507960627098,0.124162720257,1.34514269289,-0.188844619739,1.32419879513,0.374757099119,0.413738367595,0.116835698722,1.01599084174,-3.01631919738,0.0128533982079,-3.1165506052,0.0494786763054
6.16,0.240331845989,0.507960627098,0.124162720257,1.34514269289,-0.188844619739,1.32419879513,0.374757099119,0.413738367595,0.116835698722,1.01599084174,-3.01631919738,0.0128533982079,-3.1165506052,0.0494786763054
6.18,0.240279481584,0.500542991093,0.124127816202,1.36154883047,-0.188896984144,1.31510556475,0.374739655414,0.411136808595,0.116226943064,1.0144764891,-3.01594739463,0.012985775903,-3.11451347106,0.0492762917017
6.2,0.240279481584,0.500542991093,0.124127816202,1.36154883047,-0.188896984144,1.31510556475,0.374739655414,0.411136808595,0.116226943064,1.0144764891,-3.01594739463,0.012985775903,-3.11451347106,0.0492762917017
6.22,0.240227117179,0.492915897468,0.124110364175,1.37832141902,-0.189472942664,1.30765297475,0.374739655414,0.408190485725,0.115395896744,1.012959886,-3.0144526842,0.0116212425192,-3.11249962777,0.0490589157369
6.24,0.240227117179,0.492915897468,0.124110364175,1.37832141902,-0.189472942664,1.30765297475,0.374739655414,0.408190485725,0.115395896744,1.012959886,-3.0144526842,0.0116212425192,-3.11249962777,0.0490589157369
6.26,0.240262021234,0.486266183963,0.124162720257,1.39210953609,-0.189455482315,1.30341189072,0.374722178419,0.405402350781,0.114703442788,1.01186981448,-3.013096944,0.00896047036445,-3.11107050831,0.0488682715352
6.28,0.240262021234,0.486266183963,0.124162720257,1.39210953609,-0.189455482315,1.30341189072,0.374722178419,0.405402350781,0.114703442788,1.01186981448,-3.013096944,0.00896047036445,-3.11107050831,0.0488682715352
6.3,0.240227117179,0.480035352409,0.124127816202,1.40423956906,-0.189455482315,1.29978160268,0.374757099119,0.402933168588,0.114019490888,1.01106565298,-3.01189981049,0.00691553224165,-3.11001819986,0.0486797051913
6.32,0.240227117179,0.480035352409,0.124127816202,1.40423956906,-0.189455482315,1.29978160268,0.374757099119,0.402933168588,0.114019490888,1.01106565298,-3.01189981049,0.00691553224165,-3.11001819986,0.0486797051913
6.34,0.240139848719,0.475165895513,0.124092912147,1.41431004641,-0.189734748044,1.29693668084,0.374757099119,0.400873515479,0.113366976751,1.01027360907,-3.01053053887,0.00484754475563,-3.10911924635,0.0485253926492
6.36,0.240139848719,0.475165895513,0.124092912147,1.41431004641,-0.189734748044,1.29693668084,0.374757099119,0.400873515479,0.113366976751,1.01027360907,-3.01053053887,0.00484754475563,-3.10911924635,0.0485253926492
6.38,0.240035136554,0.471151646223,0.124110364175,1.42350793902,-0.190869204734,1.29508671599,0.374739655414,0.398923905473,0.112592869032,1.00939214505,-3.00815415221,0.00211047571074,-3.10808035617,0.0483966427132
6.4,0.240035136554,0.471151646223,0.124110364175,1.42350793902,-0.190869204734,1.29508671599,0.374739655414,0.398923905473,0.112592869032,1.00939214505,-3.00815415221,0.00211047571074,-3.10808035617,0.0483966427132
6.42,0.240052580259,0.468481261309,0.12405799977,1.43073362769,-0.194272591449,1.29499936431,0.374757099119,0.397334040197,0.111533076903,1.00856384293,-3.00341465537,-0.000981405482492,-3.10662962914,0.0483165217578
6.44,0.240052580259,0.468481261309,0.12405799977,1.43073362769,-0.194272591449,1.29499936431,0.374757099119,0.397334040197,0.111533076903,1.00856384293,-3.00341465537,-0.000981405482492,-3.10662962914,0.0483165217578
6.46,0.239895503689,0.468044935654,0.124040547742,1.43511439453,-0.198461394304,1.2949819206,0.374774542824,0.39652176381,0.110510652397,1.00762350227,-2.99839834928,-0.00339173442361,-3.10523909898,0.0482988227045
6.48,0.239895503689,0.468044935654,0.124040547742,1.43511439453,-0.198461394304,1.2949819206,0.374774542824,0.39652176381,0.110510652397,1.00762350227,-2.99839834928,-0.00339173442361,-3.10523909898,0.0482988227045
6.5,0.239947868094,0.468167108169,0.124023095715,1.43953004877,-0.206245564499,1.29491214578,0.374774542824,0.395920550853,0.109039262448,1.00653078945,-2.99007500425,-0.00523944093103,-3.10245256109,0.0482935743749
6.52,0.239947868094,0.468167108169,0.124023095715,1.43953004877,-0.206245564499,1.29491214578,0.374774542824,0.395920550853,0.109039262448,1.00653078945,-2.99007500425,-0.00523944093103,-3.10245256109,0.0482935743749
6.54,0.239947868094,0.468202028868,0.12398819166,1.44405049841,-0.215076922924,1.29492958949,0.374809463524,0.39535518118,0.107373556983,1.00548487063,-2.98077863809,-0.00688060962416,-3.0994167323,0.0482845267176
6.56,0.239947868094,0.468202028868,0.12398819166,1.44405049841,-0.215076922924,1.29492958949,0.374809463524,0.39535518118,0.107373556983,1.00548487063,-2.98077863809,-0.00688060962416,-3.0994167323,0.0482845267176
6.58,0.239668619009,0.468236916279,0.123708934252,1.44816947651,-0.223471955694,1.2949644769,0.374861827929,0.394913469561,0.105607553575,1.00455297124,-2.97189584052,-0.00829287666029,-3.09704102797,0.0482757072261
6.6,0.239668619009,0.468236916279,0.123708934252,1.44816947651,-0.223471955694,1.2949644769,0.374861827929,0.394913469561,0.105607553575,1.00455297124,-2.97189584052,-0.00829287666029,-3.09704102797,0.0482757072261
6.62,0.239476621739,0.468306757678,0.123429685167,1.45068270163,-0.229772595359,1.29492958949,0.374879271634,0.394743498976,0.104314960752,1.00400148462,-2.96539521711,-0.00880463950717,-3.09528906734,0.0482704406729
6.64,0.239476621739,0.468306757678,0.123429685167,1.45068270163,-0.229772595359,1.29492958949,0.374879271634,0.394743498976,0.104314960752,1.00400148462,-2.96539521711,-0.00880463950717,-3.09528906734,0.0482704406729
6.66,0.239441717684,0.468271836978,0.123447137195,1.4516602149,-0.236317580054,1.29494703319,0.374914192334,0.394931993723,0.103270058613,1.00392499759,-2.95927009536,-0.00776214457058,-3.09312827406,0.0482651331654
6.68,0.239441717684,0.468271836978,0.123447137195,1.4516602149,-0.236317580054,1.29494703319,0.374914192334,0.394931993723,0.103270058613,1.00392499759,-2.95927009536,-0.00776214457058,-3.09312827406,0.0482651331654
6.7,0.239284641114,0.468254393273,0.123447137195,1.45146820099,-0.244066846194,1.29485981467,0.374914192334,0.395533343333,0.102094152199,1.00419796978,-2.95244047021,-0.00518848130305,-3.09070172871,0.0482619563125
6.72,0.239284641114,0.468254393273,0.123447137195,1.45146820099,-0.244066846194,1.29485981467,0.374914192334,0.395533343333,0.102094152199,1.00419796978,-2.95244047021,-0.00518848130305,-3.09070172871,0.0482619563125
6.74,0.238237436239,0.468359088794,0.123464589222,1.45145075728,-0.248744322464,1.29454556166,0.374914192334,0.396007287507,0.101025253562,1.00429008485,-2.94836827235,-0.00361340181446,-3.09011377324,0.0482605294445
6.76,0.238237436239,0.468359088794,0.123464589222,1.45145075728,-0.248744322464,1.29454556166,0.374914192334,0.396007287507,0.101025253562,1.00429008485,-2.94836827235,-0.00361340181446,-3.09011377324,0.0482605294445
6.78,0.234223186949,0.468690718928,0.123516953627,1.45145075728,-0.249302837279,1.28946664714,0.374896715339,0.397229663952,0.0997201487392,1.00410912397,-2.94969182129,0.000855343403179,-3.09297124787,0.0482238824552
6.8,0.234223186949,0.468690718928,0.123516953627,1.45145075728,-0.249302837279,1.28946664714,0.374896715339,0.397229663952,0.0997201487392,1.00410912397,-2.94969182129,0.000855343403179,-3.09297124787,0.0482238824552
6.82,0.227730566659,0.468777970744,0.12348204125,1.45113650428,-0.249198108469,1.27885514862,0.374896715339,0.399595355983,0.0978854738971,1.00404116088,-2.953720116,0.0107391396808,-3.0976850625,0.0481289557823
6.84,0.227730566659,0.468777970744,0.12348204125,1.45113650428,-0.249198108469,1.27885514862,0.374896715339,0.399595355983,0.0978854738971,1.00404116088,-2.953720116,0.0107391396808,-3.0976850625,0.0481289557823
6.86,0.219789319894,0.468795447738,0.123551857682,1.45096206722,-0.249006127844,1.26960479173,0.374896715339,0.401829625048,0.0953941465411,1.00399202395,-2.95733356034,0.0192865488907,-3.104049909,0.0480401477878
6.88,0.209875835894,0.468917620253,0.123778750685,1.45085727184,-0.248273092754,1.26295514481,0.374826907229,0.401829625048,0.0953941465411,1.00399202395,-2.95733356034,0.0192865488907,-3.104049909,0.0480401477878
6.9,0.209875835894,0.468917620253,0.123778750685,1.45085727184,-0.248273092754,1.26295514481,0.374826907229,0.403759226852,0.0920390426047,1.00389817999,-2.9605073204,0.0251084449376,-3.11283893552,0.0479766703184
6.92,0.200084541054,0.468935063958,0.123761298657,1.45000213081,-0.244415903389,1.25717808261,0.374774542824,0.403759226852,0.0920390426047,1.00389817999,-2.9605073204,0.0251084449376,-3.11283893552,0.0479766703184
6.94,0.200084541054,0.468935063958,0.123761298657,1.45000213081,-0.244415903389,1.25717808261,0.374774542824,0.40553600833,0.0890705528493,1.00398054015,-2.96628552942,0.0300778945815,-3.12309466484,0.0479214038509
6.96,0.190764492569,0.469109600878,0.123796202712,1.44701752618,-0.234188282894,1.25250063963,0.374739655414,0.40553600833,0.0890705528493,1.00398054015,-2.96628552942,0.0300778945815,-3.12309466484,0.0479214038509
6.98,0.190764492569,0.469109600878,0.123796202712,1.44701752618,-0.234188282894,1.25250063963,0.374739655414,0.40725068788,0.0872953805107,1.00443643921,-2.97798622993,0.0340687739422,-3.1355429368,0.047887792278
7.0,0.182386903504,0.469214329688,0.124040547742,1.44026321702,-0.221988425164,1.25176760454,0.374722178419,0.40725068788,0.0872953805107,1.00443643921,-2.97798622993,0.0340687739422,-3.1355429368,0.047887792278
7.02,0.182386903504,0.469214329688,0.124040547742,1.44026321702,-0.221988425164,1.25176760454,0.374722178419,0.409112819549,0.0862446954508,1.00597290057,-2.99125871032,0.0374726832496,3.13471433758,0.0478994548627
7.04,0.17451546485,0.469249217099,0.123970739632,1.42970391646,-0.211027752934,1.25178504825,0.374669814014,0.409112819549,0.0862446954508,1.00597290057,-2.99125871032,0.0374726832496,3.13471433758,0.0478994548627
7.06,0.17451546485,0.469249217099,0.123970739632,1.42970391646,-0.211027752934,1.25178504825,0.374669814014,0.411891385679,0.0852585487603,1.00868012053,-3.0042011598,0.0442086413427,3.12216125217,0.0479173018375
7.08,0.167394521635,0.469563370239,0.12398819166,1.41771343312,-0.202388375134,1.25173271713,0.374669814014,0.415092699184,0.0843076809369,1.01177528454,-3.01556767489,0.0527404342032,3.11113460636,0.0479317539231
7.1,0.167394521635,0.469563370239,0.12398819166,1.41771343312,-0.202388375134,1.25173271713,0.374669814014,0.415092699184,0.0843076809369,1.01177528454,-3.01556767489,0.0527404342032,3.11113460636,0.0479317539231
7.12,0.161547667975,0.471587971878,0.123953287605,1.403750879,-0.195337256674,1.25171527343,0.374652370309,0.418759118177,0.0836858921217,1.01479026968,-3.0257916346,0.0618828748954,3.10177753577,0.0479813409118
7.14,0.161547667975,0.471587971878,0.123953287605,1.403750879,-0.195337256674,1.25171527343,0.374652370309,0.418759118177,0.0836858921217,1.01479026968,-3.0257916346,0.0618828748954,3.10177753577,0.0479813409118
7.16,0.1564164057,0.478220208389,0.123953287605,1.3880428891,-0.191357894794,1.25181993566,0.374634926604,0.422962891761,0.082950893624,1.01643604163,-3.03286219788,0.0689744219589,3.09413759846,0.0481464640729
7.18,0.1564164057,0.478220208389,0.123953287605,1.3880428891,-0.191357894794,1.25181993566,0.374634926604,0.422962891761,0.082950893624,1.01643604163,-3.03286219788,0.0689744219589,3.09413759846,0.0481464640729
7.2,0.152349792004,0.489634683268,0.124092912147,1.36999624429,-0.190624859704,1.25188971048,0.374634926604,0.427851609739,0.0822974031003,1.01676655527,-3.03682960586,0.0746245778579,3.08865400429,0.0484258615147
7.22,0.152349792004,0.489634683268,0.124092912147,1.36999624429,-0.190624859704,1.25188971048,0.374634926604,0.427851609739,0.0822974031003,1.01676655527,-3.03682960586,0.0746245778579,3.08865400429,0.0484258615147
7.24,0.149068577804,0.507698838363,0.12398819166,1.34797017102,-0.190799396624,1.25328600584,0.374617482899,0.433551487491,0.0818235288014,1.01532674081,-3.0392472585,0.0766178032138,3.0836884092,0.0488767570723
7.26,0.149068577804,0.507698838363,0.12398819166,1.34797017102,-0.190799396624,1.25328600584,0.374617482899,0.433551487491,0.0818235288014,1.01532674081,-3.0392472585,0.0766178032138,3.0836884092,0.0488767570723
7.28,0.146328401425,0.527578137478,0.12398819166,1.32357042227,-0.190834300679,1.25778901177,0.374617482899,0.439243929162,0.0815291298143,1.01367303852,-3.04107099244,0.0761576862144,3.07877667132,0.0493671483259
7.3,0.146328401425,0.527578137478,0.12398819166,1.32357042227,-0.190834300679,1.25778901177,0.374617482899,0.439243929162,0.0815291298143,1.01367303852,-3.04107099244,0.0761576862144,3.07877667132,0.0493671483259
7.32,0.143884951124,0.549377276133,0.124092912147,1.29021725909,-0.190764492569,1.27210070631,0.374634926604,0.445449239413,0.081240466861,1.01363734565,-3.0418982886,0.073178541975,3.07249116946,0.0498865353009
7.34,0.143884951124,0.549377276133,0.124092912147,1.29021725909,-0.190764492569,1.27210070631,0.374634926604,0.445449239413,0.081240466861,1.01363734565,-3.0418982886,0.073178541975,3.07249116946,0.0498865353009
7.36,0.14217451927,0.569274052243,0.124127816202,1.25264032243,-0.190712128164,1.29074083657,0.374634926604,0.451784002368,0.0811206461467,1.01559015018,-3.04285627212,0.0720427437662,3.06605067007,0.0502444525233
7.38,0.14217451927,0.569274052243,0.124127816202,1.25264032243,-0.190712128164,1.29074083657,0.374634926604,0.451784002368,0.0811206461467,1.01559015018,-3.04285627212,0.0720427437662,3.06605067007,0.0502444525233
7.4,0.1411796788,0.589903830153,0.124337257177,1.21052549243,-0.190677224109,1.30866537544,0.374634926604,0.459085665288,0.081508816724,1.01847958444,-3.04546790836,0.0750999838949,3.06007228615,0.0504282111762
7.42,0.1411796788,0.589903830153,0.124337257177,1.21052549243,-0.190677224109,1.30866537544,0.374634926604,0.459085665288,0.081508816724,1.01847958444,-3.04546790836,0.0750999838949,3.06007228615,0.0504282111762
7.44,0.14053391217,0.610219488213,0.124354709205,1.17226785179,-0.190677224109,1.3196783455,0.374634926604,0.466425537518,0.0820802982146,1.02032775823,-3.04929801556,0.0812237079341,3.05518655692,0.0504795340827
7.46,0.14053391217,0.610219488213,0.124354709205,1.17226785179,-0.190677224109,1.3196783455,0.374634926604,0.466425537518,0.0820802982146,1.02032775823,-3.04929801556,0.0812237079341,3.05518655692,0.0504795340827
7.48,0.14002776176,0.631721917433,0.124284892772,1.14079954087,-0.190712128164,1.32494927393,0.374617482899,0.473044392779,0.0826498193253,1.01952268813,-3.05264488446,0.0851089532306,3.05149706183,0.0505547079156
7.5,0.14002776176,0.631721917433,0.124284892772,1.14079954087,-0.190712128164,1.32494927393,0.374617482899,0.473044392779,0.0826498193253,1.01952268813,-3.05264488446,0.0851089532306,3.05149706183,0.0505547079156
7.52,0.13995795365,0.653014955613,0.124284892772,1.11238560941,-0.190729588514,1.328823907,0.374600005904,0.479064831061,0.0833661188594,1.01780175973,-3.05558143576,0.0875916134642,3.04864840813,0.0506046321985
7.54,0.13995795365,0.653014955613,0.124284892772,1.11238560941,-0.190729588514,1.328823907,0.374600005904,0.479064831061,0.0833661188594,1.01780175973,-3.05558143576,0.0875916134642,3.04864840813,0.0506046321985
7.56,0.14004522211,0.673348057377,0.12431980515,1.09048170866,-0.190729588514,1.33236684335,0.374600005904,0.483579114058,0.0839483006974,1.01447639421,-3.05674615181,0.0851688718133,3.04659874744,0.0507144320563
7.58,0.14004522211,0.673348057377,0.12431980515,1.09048170866,-0.190729588514,1.33236684335,0.374600005904,0.483579114058,0.0839483006974,1.01447639421,-3.05674615181,0.0851688718133,3.04659874744,0.0507144320563
7.6,0.140010318054,0.692302307488,0.124284892772,1.0677924417,-0.190729588514,1.33912128567,0.374600005904,0.48767473662,0.0842874786989,1.01194806196,-3.05726317971,0.0818605087388,3.04398325021,0.0507358973751
7.62,0.140010318054,0.692302307488,0.124284892772,1.0677924417,-0.190729588514,1.33912128567,0.374600005904,0.48767473662,0.0842874786989,1.01194806196,-3.05726317971,0.0818605087388,3.04398325021,0.0507358973751
7.64,0.14002776176,0.707957899693,0.12431980515,1.04602815716,-0.190764492569,1.34770838229,0.374600005904,0.491173509267,0.0845318431976,1.01069072132,-3.05758703903,0.079187172304,3.04134666032,0.0506479242759
7.66,0.14002776176,0.707957899693,0.12431980515,1.04602815716,-0.190764492569,1.34770838229,0.374600005904,0.491173509267,0.0845318431976,1.01069072132,-3.05758703903,0.079187172304,3.04134666032,0.0506479242759
7.68,0.14002776176,0.721868189277,0.124284892772,1.02243135148,-0.190799396624,1.35756940201,0.374600005904,0.494803910929,0.0847074858421,1.01079927031,-3.05841947126,0.0787582526502,3.03829431937,0.0504181076663
7.7,0.14002776176,0.721868189277,0.124284892772,1.02243135148,-0.190799396624,1.35756940201,0.374600005904,0.494803910929,0.0847074858421,1.01079927031,-3.05841947126,0.0787582526502,3.03829431937,0.0504181076663
7.72,0.139975413999,0.734504356018,0.124249988717,0.995815053757,-0.190834300679,1.37011835023,0.374600005904,0.498573169518,0.0847836700675,1.01240718655,-3.05959920888,0.0799023014546,3.03460826982,0.050017318489
7.74,0.139975413999,0.734504356018,0.124249988717,0.995815053757,-0.190834300679,1.37011835023,0.374600005904,0.498573169518,0.0847836700675,1.01240718655,-3.05959920888,0.0799023014546,3.03460826982,0.050017318489
7.76,0.139975413999,0.745918797608,0.124249988717,0.966598245807,-0.190869204734,1.38497106594,0.374600005904,0.502402941479,0.0848221968705,1.0153830189,-3.06116907358,0.0825131704774,3.03048544503,0.0494387490342
7.78,0.139975413999,0.745918797608,0.124249988717,0.966598245807,-0.190869204734,1.38497106594,0.374600005904,0.502402941479,0.0848221968705,1.0153830189,-3.06116907358,0.0825131704774,3.03048544503,0.0494387490342
7.8,0.140010318054,0.757123848157,0.124284892772,0.935007762377,-0.190799396624,1.39853228169,0.374617482899,0.506797034683,0.0849739130477,1.01918640816,-3.06422709255,0.0886855418422,3.02616945577,0.0486926104989
7.82,0.140010318054,0.757123848157,0.124284892772,0.935007762377,-0.190799396624,1.39853228169,0.374617482899,0.506797034683,0.0849739130477,1.01918640816,-3.06422709255,0.0886855418422,3.02616945577,0.0486926104989
7.84,0.139992857705,0.768869919882,0.124284892772,0.904447056762,-0.190781936274,1.40807931472,0.374617482899,0.511521136685,0.0851824322898,1.02242735787,-3.06822213629,0.0970894270766,3.02217117637,0.0479110909097
7.86,0.139992857705,0.768869919882,0.124284892772,0.904447056762,-0.190781936274,1.40807931472,0.374617482899,0.511521136685,0.0851824322898,1.02242735787,-3.06822213629,0.0970894270766,3.02217117637,0.0479110909097
7.88,0.139975413999,0.782989600508,0.124267440745,0.875841111387,-0.190799396624,1.4119713915,0.374617482899,0.516717554199,0.0855419036746,1.02388280027,-3.07295559632,0.106614473007,3.01877766753,0.0471887051871
7.9,0.139975413999,0.782989600508,0.124267440745,0.875841111387,-0.190799396624,1.4119713915,0.374617482899,0.516717554199,0.0855419036746,1.02388280027,-3.07295559632,0.106614473007,3.01877766753,0.0471887051871
7.92,0.13995795365,0.798680146702,0.124249988717,0.852034848087,-0.190834300679,1.41232039876,0.374600005904,0.521515878826,0.0859308320262,1.02303863344,-3.07688167516,0.113420329335,3.01620383001,0.0466357272914
7.94,0.13995795365,0.798680146702,0.124249988717,0.852034848087,-0.190834300679,1.41232039876,0.374600005904,0.521515878826,0.0859308320262,1.02303863344,-3.07688167516,0.113420329335,3.01620383001,0.0466357272914
7.96,0.139923049594,0.817058421648,0.124215084662,0.830916380117,-0.190869204734,1.41420538418,0.374617482899,0.525530008664,0.0861738090338,1.01985763153,-3.07858839648,0.113699854565,3.01385581396,0.0462167668786
7.98,0.139923049594,0.817058421648,0.124215084662,0.830916380117,-0.190869204734,1.41420538418,0.374617482899,0.525530008664,0.0861738090338,1.01985763153,-3.07858839648,0.113699854565,3.01385581396,0.0462167668786
8.0,0.139975413999,0.837286794602,0.124215084662,0.808715736638,-0.191706968634,1.41785311592,0.374617482899,0.529429034092,0.0862609280068,1.01594111081,-3.07877876527,0.111847962846,3.01156034549,0.0457518297121
8.02,0.139975413999,0.837286794602,0.124215084662,0.808715736638,-0.191706968634,1.41785311592,0.374617482899,0.529429034092,0.0862609280068,1.01594111081,-3.07877876527,0.111847962846,3.01156034549,0.0457518297121
8.04,0.139975413999,0.855665136127,0.124215084662,0.785293434588,-0.194272591449,1.42120417152,0.374617482899,0.533575124801,0.0860331438825,1.01335493894,-3.07833946796,0.113808197239,3.00927891994,0.0451377200644
8.06,0.139975413999,0.855665136127,0.124215084662,0.785293434588,-0.194272591449,1.42120417152,0.374617482899,0.533575124801,0.0860331438825,1.01335493894,-3.07833946796,0.113808197239,3.00927891994,0.0451377200644
8.08,0.13995795365,0.874584498827,0.124197632635,0.757507809407,-0.198531202414,1.42514857941,0.374634926604,0.538423259088,0.0855054217977,1.01179290541,-3.07742588201,0.119374970282,3.00658128096,0.0442787695715
8.1,0.13995795365,0.874584498827,0.124197632635,0.757507809407,-0.198531202414,1.42514857941,0.374634926604,0.538423259088,0.0855054217977,1.01179290541,-3.07742588201,0.119374970282,3.00658128096,0.0442787695715
8.12,0.140010318054,0.891217471152,0.124215084662,0.730542437843,-0.205512512764,1.42958167736,0.374634926604,0.543017606991,0.084509434317,1.01120711584,-3.07411345597,0.126874995753,3.00436561735,0.043344439613
8.14,0.140010318054,0.891217471152,0.124215084662,0.730542437843,-0.205512512764,1.42958167736,0.374634926604,0.543017606991,0.084509434317,1.01120711584,-3.07411345597,0.126874995753,3.00436561735,0.043344439613
8.16,0.139975413999,0.907955172287,0.124215084662,0.706038026863,-0.213122162684,1.4365455773,0.374634926604,0.546685915616,0.0831963103742,1.00971765708,-3.06837912281,0.129855874569,3.00223734922,0.0424779624883
8.18,0.139975413999,0.907955172287,0.124215084662,0.706038026863,-0.213122162684,1.4365455773,0.374634926604,0.546685915616,0.0831963103742,1.00971765708,-3.06837912281,0.129855874569,3.00223734922,0.0424779624883
8.2,0.13985322484,0.925059390967,0.124215084662,0.685320963848,-0.219248265429,1.44300334346,0.374634926604,0.54962767297,0.0820380865437,1.00676628818,-3.06277426123,0.128905163579,3.00027366633,0.0417634729067
8.22,0.13985322484,0.925059390967,0.124215084662,0.685320963848,-0.219248265429,1.44300334346,0.374634926604,0.54962767297,0.0820380865437,1.00676628818,-3.06277426123,0.128905163579,3.00027366633,0.0417634729067
8.24,0.140010318054,0.941709873577,0.124215084662,0.667815340213,-0.223681396669,1.44595292753,0.374634926604,0.552414970044,0.0814019908587,1.00303042637,-3.05899414513,0.1280609219,2.99897071425,0.0411695756652
8.26,0.140010318054,0.941709873577,0.124215084662,0.667815340213,-0.223681396669,1.44595292753,0.374634926604,0.552414970044,0.0814019908587,1.00303042637,-3.05899414513,0.1280609219,2.99897071425,0.0411695756652
8.28,0.1399404933,0.956667318102,0.124197632635,0.650850737753,-0.226561189269,1.4472444275,0.374652370309,0.555282628196,0.0809305515274,1.00001963077,-3.05752032615,0.129340318391,2.99729179535,0.0405424013883
8.3,0.1399404933,0.956667318102,0.124197632635,0.650850737753,-0.226561189269,1.4472444275,0.374652370309,0.555282628196,0.0809305515274,1.00001963077,-3.05752032615,0.129340318391,2.99729179535,0.0405424013883
8.32,0.139765973024,0.969530386167,0.12381365474,0.635806008123,-0.230453282689,1.44752365994,0.374652370309,0.557998844231,0.0801299525746,0.99758508804,-3.05505691415,0.1322217243,2.99578026139,0.0399556903172
8.34,0.139765973024,0.969530386167,0.12381365474,0.635806008123,-0.230453282689,1.44752365994,0.374652370309,0.557998844231,0.0801299525746,0.99758508804,-3.05505691415,0.1322217243,2.99578026139,0.0399556903172
8.36,0.139905589245,0.981503359217,0.12381365474,0.621738658613,-0.238481781269,1.44792513148,0.374669814014,0.560592724553,0.078930660418,0.995412571329,-3.04884225124,0.136298553528,2.99548220368,0.0393859443026
8.38,0.139905589245,0.981503359217,0.12381365474,0.621738658613,-0.238481781269,1.44792513148,0.374669814014,0.560592724553,0.078930660418,0.995412571329,-3.04884225124,0.136298553528,2.99548220368,0.0393859443026
8.4,0.139888145539,0.991451730627,0.123796202712,0.612453480893,-0.247313156339,1.44944353277,0.374652370309,0.562187991526,0.0774376128214,0.992873942763,-3.0403448787,0.137100288377,2.99571942859,0.0390334361027
8.42,0.139888145539,0.991451730627,0.123796202712,0.612453480893,-0.247313156339,1.44944353277,0.374652370309,0.562187991526,0.0774376128214,0.992873942763,-3.0403448787,0.137100288377,2.99571942859,0.0390334361027
8.44,0.13985322484,1.00073690835,0.123796202712,0.604739102163,-0.255586016594,1.45478423602,0.374652370309,0.562839285296,0.0758751194555,0.990145909992,-3.03067906639,0.133333851811,2.99565301248,0.0387494770279
8.46,0.13985322484,1.00073690835,0.123796202712,0.604739102163,-0.255586016594,1.45478423602,0.374652370309,0.562839285296,0.0758751194555,0.990145909992,-3.03067906639,0.133333851811,2.99565301248,0.0387494770279
8.48,0.13962634016,1.00782291422,0.123796202712,0.597565811188,-0.261013988304,1.46263829755,0.374652370309,0.562905993354,0.0745722445538,0.988394613665,-3.02325521072,0.127860960414,2.99461049639,0.0384529862531
8.5,0.13978341673,1.01293671614,0.123796202712,0.590724150348,-0.264295202504,1.46935785245,0.374652370309,0.562905993354,0.0745722445538,0.988394613665,-3.02325521072,0.127860960414,2.99461049639,0.0384529862531
8.52,0.13978341673,1.01293671614,0.123796202712,0.590724150348,-0.264295202504,1.46935785245,0.374652370309,0.563017131901,0.0738810668555,0.987621942191,-3.01870574131,0.124276857132,2.99366713262,0.0381386886841
8.54,0.139661244215,1.01647978566,0.123796202712,0.583044659029,-0.266825937909,1.4737909504,0.374652370309,0.563017131901,0.0738810668555,0.987621942191,-3.01870574131,0.124276857132,2.99366713262,0.0381386886841
8.56,0.139661244215,1.01647978566,0.123796202712,0.583044659029,-0.266825937909,1.4737909504,0.374652370309,0.563665209255,0.0732464698641,0.988008989796,-3.01641035016,0.124833490585,2.99238555866,0.0377485381381
8.58,0.139661244215,1.01805058465,0.123778750685,0.577023318383,-0.271992104239,1.47745612586,0.374652370309,0.563665209255,0.0732464698641,0.988008989796,-3.01641035016,0.124833490585,2.99238555866,0.0377485381381
8.6,0.139661244215,1.01805058465,0.123778750685,0.577023318383,-0.271992104239,1.47745612586,0.374652370309,0.564259604379,0.0722720915716,0.989084702528,-3.01187509908,0.127368983479,2.99183400317,0.0374207940031
8.62,0.139643800509,1.01822508828,0.12381365474,0.574003892918,-0.278188031739,1.48311094896,0.374652370309,0.56405703542,0.0710570058933,0.990032586518,-3.00507325307,0.12695677361,2.99154450968,0.0372425255559
8.64,0.139643800509,1.01822508828,0.12381365474,0.574003892918,-0.278188031739,1.48311094896,0.374652370309,0.56405703542,0.0710570058933,0.990032586518,-3.00507325307,0.12695677361,2.99154450968,0.0372425255559
8.66,0.1395390717,1.01822508828,0.123831106767,0.573619931668,-0.283999964699,1.4916281376,0.374634926604,0.562921823198,0.0697389128507,0.99023018613,-2.99675421373,0.121490604396,2.9910703295,0.037210342274
8.68,0.1395390717,1.01822508828,0.123831106767,0.573619931668,-0.283999964699,1.4916281376,0.374634926604,0.562921823198,0.0697389128507,0.99023018613,-2.99675421373,0.121490604396,2.9910703295,0.037210342274
8.7,0.139661244215,1.01822508828,0.123831106767,0.573253414123,-0.291731787134,1.49942986801,0.374634926604,0.561952472147,0.0682584163625,0.990505864108,-2.98686233733,0.117356028331,2.99105057261,0.0371776797056
8.72,0.139661244215,1.01822508828,0.123831106767,0.573253414123,-0.291731787134,1.49942986801,0.374634926604,0.561952472147,0.0682584163625,0.990505864108,-2.98686233733,0.117356028331,2.99105057261,0.0371776797056
8.74,0.139888145539,1.01819020087,0.123866019145,0.572363252528,-0.298852713704,1.50553849376,0.374652370309,0.561323167335,0.0670127003641,0.990974321084,-2.97836732692,0.115090416357,2.99113587431,0.0371150866037
8.76,0.139888145539,1.01819020087,0.123866019145,0.572363252528,-0.298852713704,1.50553849376,0.374652370309,0.561323167335,0.0670127003641,0.990974321084,-2.97836732692,0.115090416357,2.99113587431,0.0371150866037
8.78,0.139888145539,1.01810291576,0.123831106767,0.571926960163,-0.304455238979,1.50976213409,0.374652370309,0.560894082272,0.0659354518312,0.991310045677,-2.9717625595,0.11367224941,2.99109123616,0.0370805413196
8.8,0.139888145539,1.01810291576,0.123831106767,0.571926960163,-0.304455238979,1.50976213409,0.374652370309,0.560894082272,0.0659354518312,0.991310045677,-2.9717625595,0.11367224941,2.99109123616,0.0370805413196
8.82,0.13929472667,1.01803307436,0.123778750685,0.571752389953,-0.308870926514,1.51269427445,0.374652370309,0.560631936549,0.064761173303,0.991531977845,-2.96661774563,0.112770413837,2.99051570996,0.0370635122166
8.84,0.13929472667,1.01803307436,0.123778750685,0.571752389953,-0.308870926514,1.51269427445,0.374652370309,0.560631936549,0.064761173303,0.991531977845,-2.96661774563,0.112770413837,2.99051570996,0.0370635122166
8.86,0.137846100195,1.01796329954,0.123918375227,0.571787343943,-0.310511533614,1.51512028105,0.374634926604,0.560369076751,0.0636364711638,0.991598910566,-2.96434852964,0.111118565349,2.98894771501,0.0370595132379
8.88,0.137846100195,1.01796329954,0.123918375227,0.571787343943,-0.310511533614,1.51512028105,0.374634926604,0.560369076751,0.0636364711638,0.991598910566,-2.96434852964,0.111118565349,2.98894771501,0.0370595132379
8.9,0.136030964497,1.01771895451,0.123918375227,0.571525488629,-0.310459169209,1.51806986511,0.374652370309,0.560039826888,0.0625222011842,0.991795676974,-2.96353577978,0.108879677781,2.98657575095,0.0370345386264
8.92,0.136030964497,1.01771895451,0.123918375227,0.571525488629,-0.310459169209,1.51806986511,0.374652370309,0.560039826888,0.0625222011842,0.991795676974,-2.96353577978,0.108879677781,2.98657575095,0.0370345386264
8.94,0.13304645141,1.01639250055,0.123918375227,0.571700058838,-0.310476612914,1.5207577936,0.374652370309,0.559765316738,0.0607543088959,0.992473606083,-2.96290611147,0.107531905882,2.98313037798,0.0370187261
8.96,0.13304645141,1.01639250055,0.123918375227,0.571700058838,-0.310476612914,1.5207577936,0.374652370309,0.559765316738,0.0607543088959,0.992473606083,-2.96290611147,0.107531905882,2.98313037798,0.0370187261
8.98,0.128648215902,1.01307633236,0.12407546012,0.571473157513,-0.310354440399,1.52595881405,0.374652370309,0.559229299264,0.058184491286,0.994371387789,-2.96237818991,0.106074807924,2.9777865003,0.0369430740664
9.0,0.123534405655,1.00820687547,0.124092912147,0.571630217438,-0.308958178329,1.53082827095,0.374634926604,0.559229299264,0.058184491286,0.994371387789,-2.96237818991,0.106074807924,2.9777865003,0.0369430740664
9.02,0.123534405655,1.00820687547,0.124092912147,0.571630217438,-0.308958178329,1.53082827095,0.374634926604,0.558682440222,0.0553991983251,0.996982363069,-2.96336740694,0.105631799661,2.97161062593,0.0368654466302
9.04,0.11805406954,1.00345959109,0.124215084662,0.572066576383,-0.304175973249,1.53517415037,0.374617482899,0.558682440222,0.0553991983251,0.996982363069,-2.96336740694,0.105631799661,2.97161062593,0.0368654466302
9.06,0.11805406954,1.00345959109,0.124215084662,0.572066576383,-0.304175973249,1.53517415037,0.374617482899,0.55806217297,0.0530191338611,0.999323011172,-2.96767729037,0.104064311601,2.96492028034,0.0368057888179
9.08,0.11805406954,1.00345959109,0.124215084662,0.572066576383,-0.304175973249,1.53517415037,0.374617482899,0.55806217297,0.0530191338611,0.999323011172,-2.96767729037,0.104064311601,2.96492028034,0.0368057888179
9.1,0.112085043365,0.998764637822,0.124249988717,0.572607597558,-0.291574693919,1.54259185295,0.374600005904,0.55668709139,0.0515368236291,1.00133400516,-2.97812979982,0.0967598917972,2.95658146989,0.0367429354201
9.12,0.112085043365,0.998764637822,0.124249988717,0.572607597558,-0.291574693919,1.54259185295,0.374600005904,0.55668709139,0.0515368236291,1.00133400516,-2.97812979982,0.0967598917972,2.95658146989,0.0367429354201
9.14,0.1066221676,0.994698057417,0.124441977665,0.572834498883,-0.275360603544,1.55573415346,0.374565118494,0.554264196827,0.0508314955724,1.00298243964,-2.98996714866,0.0825009701241,2.94795825242,0.0366501468945
9.16,0.101543253085,0.990771026652,0.124511785775,0.573270857828,-0.258553077654,1.57287332613,0.374565118494,0.554264196827,0.0508314955724,1.00298243964,-2.98996714866,0.0825009701241,2.94795825242,0.0366501468945
9.18,0.101543253085,0.990771026652,0.124511785775,0.573270857828,-0.258553077654,1.57287332613,0.374565118494,0.551105084853,0.0503261422907,1.00452352851,-3.00065282627,0.0639806217997,2.93954647092,0.0365489470271
9.2,0.0971973819822,0.987786555177,0.124546698152,0.574213350538,-0.244922053799,1.5840957538,0.374565118494,0.551105084853,0.0503261422907,1.00452352851,-3.00065282627,0.0639806217997,2.93954647092,0.0365489470271
9.22,0.0971973819822,0.987786555177,0.124546698152,0.574213350538,-0.244922053799,1.5840957538,0.374565118494,0.548908585684,0.0498960159192,1.00554175337,-3.00992907279,0.050643842462,2.93328804467,0.0365074176708
9.24,0.0930085957722,0.984156267137,0.124581602207,0.577093093203,-0.237120439899,1.58845907693,0.374565118494,0.548908585684,0.0498960159192,1.00554175337,-3.00992907279,0.050643842462,2.93328804467,0.0365074176708
9.26,0.0930085957722,0.984156267137,0.124581602207,0.577093093203,-0.237120439899,1.58845907693,0.374565118494,0.54769506313,0.0487997140049,1.00650304309,-3.01570123953,0.0445585085115,2.92864431407,0.0365927217507
9.28,0.0892037791347,0.979216968842,0.124668870667,0.582032391498,-0.235252931474,1.58913978091,0.374565118494,0.546890073183,0.0470587520415,1.00770567325,-3.01695088093,0.0433653375367,2.92527794683,0.0367883970907
9.3,0.0892037791347,0.979216968842,0.124668870667,0.582032391498,-0.235252931474,1.58913978091,0.374565118494,0.546890073183,0.0470587520415,1.00770567325,-3.01695088093,0.0433653375367,2.92527794683,0.0367883970907
