GitHatake/ROS1EARs/catkin_ws/src/torobo_robot/torobo_EARs2021/scripts/arm/2021_kaiya_csv/test_manipulability_20220119_4_pvt_1.csv
time,joint_1,joint_2,joint_3,joint_4,joint_5,joint_6,joint_7,x,y,z,roll,pitch,yaw,manipulability
0.0,-0.0370358863611,0.173642813539,0.245986702379,0.803183086052,-0.389924001264,1.60268355295,-0.657046648608,0.390191681179,0.00110352778734,1.33406269252,-2.54055349676,0.261370271626,-2.33684335021,0.0241582800817
0.02,-0.0370358863611,0.173642813539,0.245986702379,0.803183086052,-0.389924001264,1.60266597609,-0.657046648608,0.390194165594,0.00110393917978,1.33406430093,-2.54054065586,0.261381749889,-2.33683520316,0.024158302636
0.04,-0.0370358863611,0.173642813539,0.245986702379,0.803183086052,-0.389924001264,1.60266597609,-0.657046648608,0.390194165594,0.00110393917978,1.33406430093,-2.54054065586,0.261381749889,-2.33683520316,0.024158302636
0.06,-0.0370358863611,0.173642813539,0.245986702379,0.803183086052,-0.389924001264,1.60268355295,-0.657046648608,0.390191681179,0.00110352778734,1.33406269252,-2.54055349676,0.261370271626,-2.33684335021,0.0241582800817
0.08,-0.0370358863611,0.173642813539,0.245986702379,0.803183086052,-0.389924001264,1.60268355295,-0.657046648608,0.390191681179,0.00110352778734,1.33406269252,-2.54055349676,0.261370271626,-2.33684335021,0.0241582800817
0.1,-0.0370358863611,0.173642813539,0.245986702379,0.803183086052,-0.389924001264,1.60268355295,-0.657046648608,0.390191681179,0.00110352778734,1.33406269252,-2.54055349676,0.261370271626,-2.33684335021,0.0241582800817
0.12,-0.0370358863611,0.173642813539,0.245986702379,0.803183086052,-0.389924001264,1.60268355295,-0.657046648608,0.390191681179,0.00110352778734,1.33406269252,-2.54055349676,0.261370271626,-2.33684335021,0.0241582800817
0.14,-0.0370358863611,0.173642813539,0.245986702379,0.803183086052,-0.389924001264,1.60268355295,-0.657046648608,0.390191681179,0.00110352778734,1.33406269252,-2.54055349676,0.261370271626,-2.33684335021,0.0241582800817
0.16,-0.0370358863611,0.173642813539,0.245986702379,0.803183086052,-0.389941444969,1.60268355295,-0.657064092313,0.390191625828,0.00110067845284,1.33406350681,-2.5405375773,0.26135193891,-2.33683516644,0.0241582801988
0.18,-0.0370358863611,0.173642813539,0.245986702379,0.803183086052,-0.389941444969,1.60268355295,-0.657064092313,0.390191625828,0.00110067845284,1.33406350681,-2.5405375773,0.26135193891,-2.33683516644,0.0241582801988
0.2,-0.0370358863611,0.173660257244,0.245986702379,0.803183086052,-0.389924001264,1.60266597609,-0.657064092313,0.390199901699,0.00110372664086,1.33405749983,-2.54055027526,0.261360265724,-2.3368237909,0.0241588710038
0.22,-0.0370358863611,0.173660257244,0.245986702379,0.803183086052,-0.389924001264,1.60266597609,-0.657064092313,0.390199901699,0.00110372664086,1.33405749983,-2.54055027526,0.261360265724,-2.3368237909,0.0241588710038
0.24,-0.0370358863611,0.173642813539,0.245986702379,0.803183086052,-0.389941444969,1.60266597609,-0.657064092313,0.390194110243,0.00110108984368,1.33406511522,-2.5405247363,0.261363416893,-2.33682701935,0.0241583027531
0.26,-0.0370358863611,0.173642813539,0.245986702379,0.803183086052,-0.389941444969,1.60266597609,-0.657064092313,0.390194110243,0.00110108984368,1.33406511522,-2.5405247363,0.261363416893,-2.33682701935,0.0241583027531
0.28,-0.0370358863611,0.173642813539,0.245986702379,0.803183086052,-0.389941444969,1.60266597609,-0.657064092313,0.390194110243,0.00110108984368,1.33406511522,-2.5405247363,0.261363416893,-2.33682701935,0.0241583027531
0.3,-0.0370358863611,0.173642813539,0.245986702379,0.803183086052,-0.389941444969,1.60268355295,-0.657046648608,0.390191625828,0.00110067845284,1.33406350681,-2.54054142534,0.261361803523,-2.3368500587,0.0241582801988
0.32,-0.0370358863611,0.173642813539,0.245986702379,0.803183086052,-0.389941444969,1.60268355295,-0.657046648608,0.390191625828,0.00110067845284,1.33406350681,-2.54054142534,0.261361803523,-2.3368500587,0.0241582801988
0.34,-0.0370358863611,0.173660257244,0.245986702379,0.803183086052,-0.389941444969,1.60268355295,-0.657046648608,0.390197361919,0.00110046591443,1.33405670575,-2.54055489268,0.261350183595,-2.33685353854,0.0241588485647
0.36,-0.0370358863611,0.173660257244,0.245986702379,0.803183086052,-0.389941444969,1.60268355295,-0.657046648608,0.390197361919,0.00110046591443,1.33405670575,-2.54055489268,0.261350183595,-2.33685353854,0.0241588485647
0.38,-0.0370358863611,0.173642813539,0.245986702379,0.803183086052,-0.389941444969,1.60268355295,-0.657046648608,0.390191625828,0.00110067845284,1.33406350681,-2.54054142534,0.261361803523,-2.3368500587,0.0241582801988
0.4,-0.0370358863611,0.173642813539,0.245986702379,0.803183086052,-0.389941444969,1.60268355295,-0.657046648608,0.390191625828,0.00110067845284,1.33406350681,-2.54054142534,0.261361803523,-2.3368500587,0.0241582801988
0.42,-0.0370358863611,0.173642813539,0.245986702379,0.803183086052,-0.389941444969,1.60268355295,-0.657046648608,0.390191625828,0.00110067845284,1.33406350681,-2.54054142534,0.261361803523,-2.3368500587,0.0241582801988
0.44,-0.0370358863611,0.173660257244,0.245986702379,0.803183086052,-0.389924001264,1.60268355295,-0.657064092313,0.390197417256,0.00110331524946,1.33405589146,-2.54056311616,0.261348787539,-2.33683193767,0.0241588484476
0.46,-0.0370358863611,0.173660257244,0.245986702379,0.803183086052,-0.389924001264,1.60268355295,-0.657064092313,0.390197417256,0.00110331524946,1.33405589146,-2.54056311616,0.261348787539,-2.33683193767,0.0241588484476
0.48,-0.0370358863611,0.173660257244,0.245986702379,0.803183086052,-0.389924001264,1.60268355295,-0.657064092313,0.390197417256,0.00110331524946,1.33405589146,-2.54056311616,0.261348787539,-2.33683193767,0.0241588484476
0.5,-0.0370358863611,0.173660257244,0.245986702379,0.803183086052,-0.389924001264,1.60268355295,-0.657064092313,0.390197417256,0.00110331524946,1.33405589146,-2.54056311616,0.261348787539,-2.33683193767,0.0241588484476
0.52,-0.0370358863611,0.173642813539,0.245986702379,0.803183086052,-0.389941444969,1.60268355295,-0.657064092313,0.390191625828,0.00110067845284,1.33406350681,-2.5405375773,0.26135193891,-2.33683516644,0.0241582801988
0.54,-0.0370358863611,0.173642813539,0.245986702379,0.803183086052,-0.389941444969,1.60268355295,-0.657064092313,0.390191625828,0.00110067845284,1.33406350681,-2.5405375773,0.26135193891,-2.33683516644,0.0241582801988
0.56,-0.0370358863611,0.173642813539,0.245986702379,0.803183086052,-0.389941444969,1.60268355295,-0.657064092313,0.390191625828,0.00110067845284,1.33406350681,-2.5405375773,0.26135193891,-2.33683516644,0.0241582801988
0.58,-0.0370358863611,0.173642813539,0.245986702379,0.803200529757,-0.389924001264,1.60268355295,-0.657064092313,0.39019225175,0.00110389546595,1.33405690809,-2.5405598258,0.261346016799,-2.33683035357,0.0241589528467
0.6,-0.0370358863611,0.173642813539,0.245986702379,0.803200529757,-0.389924001264,1.60268355295,-0.657064092313,0.39019225175,0.00110389546595,1.33405690809,-2.5405598258,0.261346016799,-2.33683035357,0.0241589528467
0.62,-0.0370358863611,0.173642813539,0.245986702379,0.803183086052,-0.389924001264,1.60268355295,-0.657046648608,0.390191681179,0.00110352778734,1.33406269252,-2.54055349676,0.261370271626,-2.33684335021,0.0241582800817
0.64,-0.0370358863611,0.173642813539,0.245986702379,0.803183086052,-0.389924001264,1.60268355295,-0.657046648608,0.390191681179,0.00110352778734,1.33406269252,-2.54055349676,0.261370271626,-2.33684335021,0.0241582800817
0.66,-0.0370358863611,0.173642813539,0.245986702379,0.803183086052,-0.389941444969,1.60268355295,-0.657064092313,0.390191625828,0.00110067845284,1.33406350681,-2.5405375773,0.26135193891,-2.33683516644,0.0241582801988
0.68,-0.0370358863611,0.173642813539,0.245986702379,0.803183086052,-0.389941444969,1.60268355295,-0.657064092313,0.390191625828,0.00110067845284,1.33406350681,-2.5405375773,0.26135193891,-2.33683516644,0.0241582801988
0.7,-0.0370358863611,0.173642813539,0.245986702379,0.803183086052,-0.389941444969,1.60268355295,-0.657064092313,0.390191625828,0.00110067845284,1.33406350681,-2.5405375773,0.26135193891,-2.33683516644,0.0241582801988
0.72,-0.0370358863611,0.173642813539,0.245986702379,0.803183086052,-0.389941444969,1.60268355295,-0.657046648608,0.390191625828,0.00110067845284,1.33406350681,-2.54054142534,0.261361803523,-2.3368500587,0.0241582801988
0.74,-0.0370358863611,0.173642813539,0.245986702379,0.803183086052,-0.389941444969,1.60268355295,-0.657046648608,0.390191625828,0.00110067845284,1.33406350681,-2.54054142534,0.261361803523,-2.3368500587,0.0241582801988
0.76,-0.0370358863611,0.173660257244,0.245986702379,0.803200529757,-0.389924001264,1.60268355295,-0.657046648608,0.390197987726,0.0011036829318,1.33405010702,-2.54057714118,0.261344261228,-2.33684872581,0.0241595212148
0.78,-0.0370358863611,0.173660257244,0.245986702379,0.803200529757,-0.389924001264,1.60268355295,-0.657046648608,0.390197987726,0.0011036829318,1.33405010702,-2.54057714118,0.261344261228,-2.33684872581,0.0241595212148
0.8,-0.0370358863611,0.173660257244,0.245986702379,0.803183086052,-0.389924001264,1.60268355295,-0.657046648608,0.390197417256,0.00110331524946,1.33405589146,-2.54056696421,0.261358651786,-2.33684683019,0.0241588484476
0.82,-0.0370358863611,0.173660257244,0.245986702379,0.803183086052,-0.389924001264,1.60268355295,-0.657046648608,0.390197417256,0.00110331524946,1.33405589146,-2.54056696421,0.261358651786,-2.33684683019,0.0241588484476
0.84,-0.0370358863611,0.173660257244,0.245986702379,0.803183086052,-0.389924001264,1.60268355295,-0.657046648608,0.390197417256,0.00110331524946,1.33405589146,-2.54056696421,0.261358651786,-2.33684683019,0.0241588484476
0.86,-0.0370358863611,0.173660257244,0.245986702379,0.803200529757,-0.389941444969,1.60268355295,-0.657046648608,0.390197932405,0.00110083359963,1.33405092132,-2.54056506953,0.261335792972,-2.33685543405,0.024159521332
0.88,-0.0370358863611,0.173660257244,0.245986702379,0.803200529757,-0.389941444969,1.60268355295,-0.657046648608,0.390197932405,0.00110083359963,1.33405092132,-2.54056506953,0.261335792972,-2.33685543405,0.024159521332
0.9,-0.0370358863611,0.173660257244,0.245986702379,0.803200529757,-0.389941444969,1.60268355295,-0.657064092313,0.390197932405,0.00110083359963,1.33405092132,-2.54056122183,0.261325928698,-2.33684054164,0.024159521332
0.92,-0.0370358863611,0.173660257244,0.245986702379,0.803200529757,-0.389941444969,1.60268355295,-0.657064092313,0.390197932405,0.00110083359963,1.33405092132,-2.54056122183,0.261325928698,-2.33684054164,0.024159521332
0.94,-0.0370358863611,0.173642813539,0.245986702379,0.803183086052,-0.389941444969,1.60268355295,-0.657064092313,0.390191625828,0.00110067845284,1.33406350681,-2.5405375773,0.26135193891,-2.33683516644,0.0241582801988
0.96,-0.0370358863611,0.173642813539,0.245986702379,0.803183086052,-0.389941444969,1.60268355295,-0.657064092313,0.390191625828,0.00110067845284,1.33406350681,-2.5405375773,0.26135193891,-2.33683516644,0.0241582801988
0.98,-0.0370358863611,0.173642813539,0.245986702379,0.803183086052,-0.389941444969,1.60268355295,-0.657064092313,0.390191625828,0.00110067845284,1.33406350681,-2.5405375773,0.26135193891,-2.33683516644,0.0241582801988
1.0,-0.0370358863611,0.173642813539,0.245986702379,0.803183086052,-0.389924001264,1.60268355295,-0.657046648608,0.390191681179,0.00110352778734,1.33406269252,-2.54055349676,0.261370271626,-2.33684335021,0.0241582800817
1.02,-0.0370358863611,0.173642813539,0.245986702379,0.803183086052,-0.389924001264,1.60268355295,-0.657046648608,0.390191681179,0.00110352778734,1.33406269252,-2.54055349676,0.261370271626,-2.33684335021,0.0241582800817
1.04,-0.0370358863611,0.173660257244,0.245986702379,0.803183086052,-0.389941444969,1.60268355295,-0.657064092313,0.390197361919,0.00110046591443,1.33405670575,-2.54055104479,0.261340319176,-2.33683864618,0.0241588485647
1.06,-0.0370358863611,0.173660257244,0.245986702379,0.803183086052,-0.389941444969,1.60268355295,-0.657064092313,0.390197361919,0.00110046591443,1.33405670575,-2.54055104479,0.261340319176,-2.33683864618,0.0241588485647
1.08,-0.0370358863611,0.173660257244,0.245986702379,0.803183086052,-0.389924001264,1.60266597609,-0.657064092313,0.390199901699,0.00110372664086,1.33405749983,-2.54055027526,0.261360265724,-2.3368237909,0.0241588710038
1.1,-0.0370358863611,0.173660257244,0.245986702379,0.803183086052,-0.389924001264,1.60266597609,-0.657064092313,0.390199901699,0.00110372664086,1.33405749983,-2.54055027526,0.261360265724,-2.3368237909,0.0241588710038
1.12,-0.0370358863611,0.173642813539,0.245986702379,0.803183086052,-0.389924001264,1.60268355295,-0.657046648608,0.390199901699,0.00110372664086,1.33405749983,-2.54055027526,0.261360265724,-2.3368237909,0.0241588710038
1.14,-0.0370358863611,0.173642813539,0.245986702379,0.803183086052,-0.389924001264,1.60268355295,-0.657046648608,0.390191681179,0.00110352778734,1.33406269252,-2.54055349676,0.261370271626,-2.33684335021,0.0241582800817
1.16,-0.0370358863611,0.173642813539,0.245986702379,0.803183086052,-0.389924001264,1.60268355295,-0.657046648608,0.390191681179,0.00110352778734,1.33406269252,-2.54055349676,0.261370271626,-2.33684335021,0.0241582800817
1.18,-0.0370358863611,0.173642813539,0.245986702379,0.803183086052,-0.389924001264,1.60266597609,-0.657064092313,0.390194165594,0.00110393917978,1.33406430093,-2.54053680752,0.261371885265,-2.33682031083,0.024158302636
1.2,-0.0370358863611,0.173642813539,0.245986702379,0.803183086052,-0.389924001264,1.60266597609,-0.657064092313,0.390194165594,0.00110393917978,1.33406430093,-2.54053680752,0.261371885265,-2.33682031083,0.024158302636
1.22,-0.0370358863611,0.173642813539,0.245986702379,0.803183086052,-0.389924001264,1.60268355295,-0.657064092313,0.390191681179,0.00110352778734,1.33406269252,-2.54054964856,0.261360407186,-2.33682845779,0.0241582800817
1.24,-0.0370358863611,0.173642813539,0.245986702379,0.803183086052,-0.389924001264,1.60268355295,-0.657064092313,0.390191681179,0.00110352778734,1.33406269252,-2.54054964856,0.261360407186,-2.33682845779,0.0241582800817
1.26,-0.0370358863611,0.173660257244,0.245986702379,0.803183086052,-0.389924001264,1.60268355295,-0.657046648608,0.390191681179,0.00110352778734,1.33406269252,-2.54054964856,0.261360407186,-2.33682845779,0.0241582800817
1.28,-0.0370358863611,0.173660257244,0.245986702379,0.803183086052,-0.389924001264,1.60268355295,-0.657046648608,0.390197417256,0.00110331524946,1.33405589146,-2.54056696421,0.261358651786,-2.33684683019,0.0241588484476
1.3,-0.0370358863611,0.173660257244,0.245986702379,0.803183086052,-0.389924001264,1.60268355295,-0.657046648608,0.390197417256,0.00110331524946,1.33405589146,-2.54056696421,0.261358651786,-2.33684683019,0.0241588484476
1.32,-0.0370184343336,0.173642813539,0.245986702379,0.803183086052,-0.389924001264,1.60268355295,-0.657064092313,0.390191661861,0.00111033742313,1.33406269252,-2.54054964856,0.261360407186,-2.33681100576,0.0241582800817
1.34,-0.0370184343336,0.173642813539,0.245986702379,0.803183086052,-0.389924001264,1.60268355295,-0.657064092313,0.390191661861,0.00111033742313,1.33406269252,-2.54054964856,0.261360407186,-2.33681100576,0.0241582800817
1.36,-0.0370358863611,0.173642813539,0.245986702379,0.803183086052,-0.389924001264,1.60266597609,-0.657064092313,0.390194165594,0.00110393917978,1.33406430093,-2.54053680752,0.261371885265,-2.33682031083,0.024158302636
1.38,-0.0370358863611,0.173642813539,0.245986702379,0.803183086052,-0.389924001264,1.60266597609,-0.657064092313,0.390194165594,0.00110393917978,1.33406430093,-2.54053680752,0.261371885265,-2.33682031083,0.024158302636
1.4,-0.0370358863611,0.173642813539,0.245986702379,0.803183086052,-0.389941444969,1.60266597609,-0.657046648608,0.390194165594,0.00110393917978,1.33406430093,-2.54053680752,0.261371885265,-2.33682031083,0.024158302636
1.42,-0.0370358863611,0.173642813539,0.245986702379,0.803183086052,-0.389941444969,1.60266597609,-0.657046648608,0.390194110243,0.00110108984368,1.33406511522,-2.54052858448,0.261373281692,-2.33684191153,0.0241583027531
1.44,-0.0370358863611,0.173642813539,0.245986702379,0.803183086052,-0.389941444969,1.60266597609,-0.657046648608,0.390194110243,0.00110108984368,1.33406511522,-2.54052858448,0.261373281692,-2.33684191153,0.0241583027531
1.46,-0.0370533383887,0.173642813539,0.245986702379,0.803252860873,-0.389906557559,1.60256131385,-0.657046648608,0.390211315583,0.00110389926524,1.33404992583,-2.54051697502,0.261401004728,-2.33680501909,0.0241611277181
1.48,-0.0370533383887,0.173642813539,0.245986702379,0.803252860873,-0.389906557559,1.60256131385,-0.657046648608,0.390211315583,0.00110389926524,1.33404992583,-2.54051697502,0.261401004728,-2.33680501909,0.0241611277181
1.5,-0.0370533383887,0.173625353189,0.245986702379,0.804352413508,-0.389819272454,1.60236929994,-0.657046648608,0.390268766439,0.00114600410536,1.33370553899,-2.54106518314,0.260673377957,-2.33679834395,0.0242032026286
1.52,-0.0370533383887,0.173625353189,0.245986702379,0.804352413508,-0.389819272454,1.60236929994,-0.657046648608,0.390268766439,0.00114600410536,1.33370553899,-2.54106518314,0.260673377957,-2.33679834395,0.0242032026286
1.54,-0.0370533383887,0.1736951613,0.245986702379,0.806254842632,-0.389190966174,1.60200284897,-0.657046648608,0.390268766439,0.00114600410536,1.33370553899,-2.54106518314,0.260673377957,-2.33679834395,0.0242032026286
1.56,-0.0370533383887,0.1736951613,0.245986702379,0.806254842632,-0.389190966174,1.60200284897,-0.657046648608,0.390406373126,0.00129623668753,1.33305124769,-2.54239674455,0.259602578433,-2.33660719499,0.0242792631379
1.58,-0.0370533383887,0.1736951613,0.245986702379,0.806254842632,-0.389190966174,1.60200284897,-0.657046648608,0.390406373126,0.00129623668753,1.33305124769,-2.54239674455,0.259602578433,-2.33660719499,0.0242792631379
1.6,-0.0371056986324,0.173590449134,0.245986702379,0.808262000567,-0.388405566679,1.60100802515,-0.657064092313,0.390578342291,0.00147059399333,1.33247975413,-2.54330259862,0.259040385253,-2.33608032269,0.0243544051181
1.62,-0.0371056986324,0.173590449134,0.245986702379,0.808262000567,-0.388405566679,1.60100802515,-0.657064092313,0.390578342291,0.00147059399333,1.33247975413,-2.54330259862,0.259040385253,-2.33608032269,0.0243544051181
1.64,-0.0372104191199,0.173660257244,0.245986702379,0.810914908487,-0.387218762229,1.59947204699,-0.657046648608,0.390903641436,0.00171394897362,1.33165535739,-2.54461434013,0.258401773101,-2.33533907612,0.0244606731156
1.66,-0.0372104191199,0.173660257244,0.245986702379,0.810914908487,-0.387218762229,1.59947204699,-0.657046648608,0.390903641436,0.00171394897362,1.33165535739,-2.54461434013,0.258401773101,-2.33533907612,0.0244606731156
1.68,-0.0373325916349,0.173590449134,0.245986702379,0.813951777657,-0.385368697509,1.59793620199,-0.657046648608,0.390903641436,0.00171394897362,1.33165535739,-2.54461434013,0.258401773101,-2.33533907612,0.0244606731156
1.7,-0.0373325916349,0.173590449134,0.245986702379,0.813951777657,-0.385368697509,1.59793620199,-0.657046648608,0.391193983407,0.00206819739674,1.33072571948,-2.54650372075,0.257858834685,-2.33436703151,0.0245769902823
1.72,-0.0373325916349,0.173590449134,0.245986702379,0.813951777657,-0.385368697509,1.59793620199,-0.657046648608,0.391193983407,0.00206819739674,1.33072571948,-2.54650372075,0.257858834685,-2.33436703151,0.0245769902823
1.74,-0.0375420326099,0.173503180674,0.245986702379,0.817215548152,-0.383588474189,1.59610354769,-0.657046648608,0.391524219105,0.00238846745674,1.32975613711,-2.5482530296,0.257307289567,-2.33339957948,0.0247016067646
1.76,-0.0375420326099,0.173503180674,0.245986702379,0.817215548152,-0.383588474189,1.59610354769,-0.657046648608,0.391524219105,0.00238846745674,1.32975613711,-2.5482530296,0.257307289567,-2.33339957948,0.0247016067646
1.78,-0.0378910981274,0.173433372564,0.245986702379,0.820479252068,-0.381668601359,1.59388699871,-0.657064092313,0.391911898571,0.00268551000796,1.32880638437,-2.54983583988,0.257062269029,-2.33233953998,0.0248269859916
1.8,-0.0378910981274,0.173433372564,0.245986702379,0.820479252068,-0.381668601359,1.59388699871,-0.657064092313,0.391911898571,0.00268551000796,1.32880638437,-2.54983583988,0.257062269029,-2.33233953998,0.0248269859916
1.82,-0.0383972443761,0.173258835644,0.245986702379,0.824528455347,-0.379713841119,1.59160067491,-0.657046648608,0.391911898571,0.00268551000796,1.32880638437,-2.54983583988,0.257062269029,-2.33233953998,0.0248269859916
1.84,-0.0383972443761,0.173258835644,0.245986702379,0.824528455347,-0.379713841119,1.59160067491,-0.657046648608,0.39229370179,0.00294481194606,1.32763816978,-2.55178696139,0.256331695001,-2.33149380187,0.0249788031289
1.86,-0.0383972443761,0.173258835644,0.245986702379,0.824528455347,-0.379713841119,1.59160067491,-0.657046648608,0.39229370179,0.00294481194606,1.32763816978,-2.55178696139,0.256331695001,-2.33149380187,0.0249788031289
1.88,-0.0385543251073,0.173049394669,0.245969258674,0.828891778477,-0.377654352069,1.58945390076,-0.657064092313,0.392646713096,0.00335489631494,1.32635876027,-2.55406863396,0.255313779764,-2.3303461803,0.0251410385801
1.9,-0.0385543251073,0.173049394669,0.245969258674,0.828891778477,-0.377654352069,1.58945390076,-0.657064092313,0.392646713096,0.00335489631494,1.32635876027,-2.55406863396,0.255313779764,-2.3303461803,0.0251410385801
1.92,-0.0386939496499,0.17278758929,0.245986702379,0.833813566488,-0.375385405399,1.58674866172,-0.657046648608,0.393069955458,0.00384207423338,1.32495057704,-2.55640134245,0.254379181621,-2.32890770059,0.025322781091
1.94,-0.0386939496499,0.17278758929,0.245986702379,0.833813566488,-0.375385405399,1.58674866172,-0.657046648608,0.393069955458,0.00384207423338,1.32495057704,-2.55640134245,0.254379181621,-2.32890770059,0.025322781091
1.96,-0.0389033906249,0.172403628039,0.245986702379,0.839154336317,-0.373046683909,1.58418297233,-0.657064092313,0.393069955458,0.00384207423338,1.32495057704,-2.55640134245,0.254379181621,-2.32890770059,0.025322781091
1.98,-0.0389033906249,0.172403628039,0.245986702379,0.839154336317,-0.373046683909,1.58418297233,-0.657064092313,0.393437022119,0.00431258348704,1.32343065438,-2.55903794264,0.253115331644,-2.32759626375,0.0255158059176
2.0,-0.0389033906249,0.172403628039,0.245986702379,0.839154336317,-0.373046683909,1.58418297233,-0.657064092313,0.393437022119,0.00431258348704,1.32343065438,-2.55903794264,0.253115331644,-2.32759626375,0.0255158059176
2.02,-0.0392175479261,0.172106918604,0.245986702379,0.844582258093,-0.370463584099,1.58112872603,-0.657064092313,0.393895699219,0.00479343594922,1.32187570573,-2.5616281049,0.252192119671,-2.32613721542,0.0257147185077
2.04,-0.0392175479261,0.172106918604,0.245986702379,0.844582258093,-0.370463584099,1.58112872603,-0.657064092313,0.393895699219,0.00479343594922,1.32187570573,-2.5616281049,0.252192119671,-2.32613721542,0.0257147185077
2.06,-0.0395142531999,0.171757844765,0.245969258674,0.850097531552,-0.367583808144,1.57798712805,-0.657046648608,0.394343291507,0.00532725875693,1.3203021828,-2.56439019714,0.251462930162,-2.32456441144,0.0259145713403
2.08,-0.0395142531999,0.171757844765,0.245969258674,0.850097531552,-0.367583808144,1.57798712805,-0.657046648608,0.394343291507,0.00532725875693,1.3203021828,-2.56439019714,0.251462930162,-2.32456441144,0.0259145713403
2.1,-0.0399505871774,0.171548420434,0.245986702379,0.855525519907,-0.364512018274,1.5747756221,-0.657064092313,0.394834539489,0.00584645651471,1.31869682284,-2.56730510849,0.25086050989,-2.32300664776,0.0259145713403
2.12,-0.0399505871774,0.171548420434,0.245986702379,0.855525519907,-0.364512018274,1.5747756221,-0.657064092313,0.394834539489,0.00584645651471,1.31869682284,-2.56730510849,0.25086050989,-2.32300664776,0.0261147638461
2.14,-0.0399505871774,0.171548420434,0.245986702379,0.855525519907,-0.364512018274,1.5747756221,-0.657064092313,0.394834539489,0.00584645651471,1.31869682284,-2.56730510849,0.25086050989,-2.32300664776,0.0261147638461
2.16,-0.0405789059411,0.171216806944,0.245951798324,0.862000663202,-0.361684573434,1.57133734797,-0.657046648608,0.395329584684,0.00625668887048,1.31681195859,-2.57042991184,0.249540950969,-2.32181266993,0.026349810386
2.18,-0.0405789059411,0.171216806944,0.245951798324,0.862000663202,-0.361684573434,1.57133734797,-0.657046648608,0.395329584684,0.00625668887048,1.31681195859,-2.57042991184,0.249540950969,-2.32181266993,0.026349810386
2.2,-0.0408057989436,0.170885193454,0.245969258674,0.868493316782,-0.358176457909,1.56772450364,-0.657046648608,0.395833301408,0.00695783338783,1.31490087925,-2.57394152809,0.248691799985,-2.31986766819,0.0265841275037
2.22,-0.0408057989436,0.170885193454,0.245969258674,0.868493316782,-0.358176457909,1.56772450364,-0.657046648608,0.395833301408,0.00695783338783,1.31490087925,-2.57394152809,0.248691799985,-2.31986766819,0.0265841275037
2.24,-0.0409977837299,0.170623388074,0.245986702379,0.875142963708,-0.355331569364,1.56426878581,-0.657046648608,0.396326417767,0.00756013873208,1.31291950069,-2.57726284707,0.247243785482,-2.31823311079,0.0268252617854
2.26,-0.0409977837299,0.170623388074,0.245986702379,0.875142963708,-0.355331569364,1.56426878581,-0.657046648608,0.396326417767,0.00756013873208,1.31291950069,-2.57726284707,0.247243785482,-2.31823311079,0.0268252617854
2.28,-0.0409977837299,0.170623388074,0.245986702379,0.875142963708,-0.355331569364,1.56426878581,-0.657046648608,0.396326417767,0.00756013873208,1.31291950069,-2.57726284707,0.247243785482,-2.31823311079,0.0268252617854
2.3,-0.0414166615186,0.170187062419,0.245986702379,0.881879962317,-0.351683837619,1.56039415274,-0.657046648608,0.396813221791,0.00821117777156,1.31097273396,-2.58078644074,0.24655581611,-2.31639385431,0.0270627171999
2.32,-0.0414166615186,0.170187062419,0.245986702379,0.881879962317,-0.351683837619,1.56039415274,-0.657046648608,0.396813221791,0.00821117777156,1.31097273396,-2.58078644074,0.24655581611,-2.31639385431,0.0270627171999
2.34,-0.0420449802824,0.169872892634,0.245969258674,0.889210379797,-0.348402623419,1.55660673819,-0.657064092313,0.39731917079,0.0087166412496,1.30877807456,-2.58457968379,0.245070947506,-2.31503690356,0.0273247092782
2.36,-0.0420449802824,0.169872892634,0.245969258674,0.889210379797,-0.348402623419,1.55660673819,-0.657064092313,0.39731917079,0.0087166412496,1.30877807456,-2.58457968379,0.245070947506,-2.31503690356,0.0273247092782
2.38,-0.0425336745036,0.1695761832,0.245986702379,0.896994533347,-0.345051601109,1.55274968198,-0.657064092313,0.397825012536,0.00930698413923,1.3064180085,-2.58868971078,0.243329933307,-2.31354690589,0.0276020167308
2.4,-0.0425336745036,0.1695761832,0.245986702379,0.896994533347,-0.345051601109,1.55274968198,-0.657064092313,0.397825012536,0.00930698413923,1.3064180085,-2.58868971078,0.243329933307,-2.31354690589,0.0276020167308
2.42,-0.0425336745036,0.1695761832,0.245986702379,0.896994533347,-0.345051601109,1.55274968198,-0.657064092313,0.397825012536,0.00930698413923,1.3064180085,-2.58868971078,0.243329933307,-2.31354690589,0.0276020167308
2.44,-0.0428129277498,0.16933183817,0.245986702379,0.904132936912,-0.341246776149,1.54810699326,-0.657046648608,0.398435899692,0.0100573814286,1.30429888035,-2.5922388131,0.242881556277,-2.31137412378,0.0278554929288
2.46,-0.0428129277498,0.16933183817,0.245986702379,0.904132936912,-0.341246776149,1.54810699326,-0.657046648608,0.398435899692,0.0100573814286,1.30429888035,-2.5922388131,0.242881556277,-2.31137412378,0.0278554929288
2.48,-0.0431270850511,0.16875587965,0.245986702379,0.911480731517,-0.337476871889,1.54398801516,-0.657064092313,0.398857192514,0.0107794029519,1.30219083012,-2.59601675379,0.242115230876,-2.30943375848,0.0281036543558
2.5,-0.0431270850511,0.16875587965,0.245986702379,0.911480731517,-0.337476871889,1.54398801516,-0.657064092313,0.398857192514,0.0107794029519,1.30219083012,-2.59601675379,0.242115230876,-2.30943375848,0.0281036543558
2.52,-0.0435808710561,0.16826718959,0.245986702379,0.920172490367,-0.333165913164,1.5396946,-0.657064092313,0.399309956879,0.0115549438157,1.2995708847,-2.60097504109,0.240658181872,-2.30760619262,0.0284011522996
2.54,-0.0435808710561,0.16826718959,0.245986702379,0.920172490367,-0.333165913164,1.5396946,-0.657064092313,0.399309956879,0.0115549438157,1.2995708847,-2.60097504109,0.240658181872,-2.30760619262,0.0284011522996
2.56,-0.0435808710561,0.16826718959,0.245986702379,0.920172490367,-0.333165913164,1.5396946,-0.657064092313,0.399309956879,0.0115549438157,1.2995708847,-2.60097504109,0.240658181872,-2.30760619262,0.0284011522996
2.58,-0.0443488143624,0.167987940504,0.245986702379,0.928305717757,-0.329326167504,1.53515670666,-0.657064092313,0.399846191258,0.0121203820482,1.29709331332,-2.60527188129,0.239461562064,-2.30615036115,0.0286826846867
2.6,-0.0443488143624,0.167987940504,0.245986702379,0.928305717757,-0.329326167504,1.53515670666,-0.657064092313,0.399846191258,0.0121203820482,1.29709331332,-2.60527188129,0.239461562064,-2.30615036115,0.0286826846867
2.62,-0.0447676963123,0.167551614849,0.245986702379,0.936648402767,-0.325154824999,1.53058392592,-0.657064092313,0.400313661367,0.0128825442284,1.29458799228,-2.6098132089,0.238433064438,-2.30426720643,0.0289637658173
2.64,-0.0447676963123,0.167551614849,0.245986702379,0.936648402767,-0.325154824999,1.53058392592,-0.657064092313,0.400313661367,0.0128825442284,1.29458799228,-2.6098132089,0.238433064438,-2.30426720643,0.0289637658173
2.66,-0.0450818536136,0.167254905414,0.245986702379,0.945706679162,-0.321088211304,1.52618571537,-0.657064092313,0.400313661367,0.0128825442284,1.29458799228,-2.6098132089,0.238433064438,-2.30426720643,0.0289637658173
2.68,-0.0450818536136,0.167254905414,0.245986702379,0.945706679162,-0.321088211304,1.52618571537,-0.657064092313,0.40076732796,0.0136684930883,1.29176181238,-2.61497958405,0.236599475679,-2.30252283209,0.0292719961454
2.7,-0.0450818536136,0.167254905414,0.245986702379,0.945706679162,-0.321088211304,1.52618571537,-0.657064092313,0.40076732796,0.0136684930883,1.29176181238,-2.61497958405,0.236599475679,-2.30252283209,0.0292719961454
2.72,-0.0455007355636,0.166818563115,0.245986702379,0.954084251582,-0.316864537684,1.52156060351,-0.657064092313,0.401197125931,0.0144344835257,1.28923267567,-2.61959691598,0.235674694209,-2.30069218626,0.0295482331914
2.74,-0.0455007355636,0.166818563115,0.245986702379,0.954084251582,-0.316864537684,1.52156060351,-0.657064092313,0.401197125931,0.0144344835257,1.28923267567,-2.61959691598,0.235674694209,-2.30069218626,0.0295482331914
2.76,-0.0463559431686,0.166277525294,0.245951798324,0.962775943852,-0.312483737559,1.51620245655,-0.657064092313,0.401684577887,0.0150616474129,1.28668269651,-2.62394527504,0.23518582874,-2.29905253398,0.0298282425446
2.78,-0.0463559431686,0.166277525294,0.245951798324,0.962775943852,-0.312483737559,1.51620245655,-0.657064092313,0.401684577887,0.0150616474129,1.28668269651,-2.62394527504,0.23518582874,-2.29905253398,0.0298282425446
2.8,-0.0468620894174,0.16596335551,0.245969258674,0.972584699042,-0.308085527019,1.5114725493,-0.657046648608,0.402095293983,0.0158376675723,1.28359348992,-2.62966014891,0.233293159037,-2.29748526043,0.0301509988717
2.82,-0.0468620894174,0.16596335551,0.245969258674,0.972584699042,-0.308085527019,1.5114725493,-0.657046648608,0.402095293983,0.0158376675723,1.28359348992,-2.62966014891,0.233293159037,-2.29748526043,0.0301509988717
2.84,-0.0468620894174,0.16596335551,0.245969258674,0.972584699042,-0.308085527019,1.5114725493,-0.657046648608,0.402095293983,0.0158376675723,1.28359348992,-2.62966014891,0.233293159037,-2.29748526043,0.0301509988717
2.86,-0.0471762508798,0.165719010479,0.245986702379,0.981328855586,-0.303181149424,1.50649843017,-0.657064092313,0.402544039648,0.0167646726646,1.28084028494,-2.63499214262,0.232678577278,-2.29542435882,0.0304352623569
2.88,-0.0471762508798,0.165719010479,0.245986702379,0.981328855586,-0.303181149424,1.50649843017,-0.657064092313,0.402544039648,0.0167646726646,1.28084028494,-2.63499214262,0.232678577278,-2.29542435882,0.0304352623569
2.9,-0.0476823971286,0.165177956015,0.245986702379,0.990648854137,-0.298939998809,1.50148929048,-0.657046648608,0.40288989931,0.0175060375834,1.27802702339,-2.63996764287,0.231494163881,-2.29381082573,0.0307253585548
2.92,-0.0476823971286,0.165177956015,0.245986702379,0.990648854137,-0.298939998809,1.50148929048,-0.657046648608,0.40288989931,0.0175060375834,1.27802702339,-2.63996764287,0.231494163881,-2.29381082573,0.0307253585548
2.94,-0.0485027006786,0.164584553789,0.245986702379,1.0002831057,-0.294454503164,1.4966721647,-0.657064092313,0.403162131045,0.0181545004877,1.27509290224,-2.64543212097,0.230117077293,-2.29256934005,0.0310202418183
2.96,-0.0485027006786,0.164584553789,0.245986702379,1.0002831057,-0.294454503164,1.4966721647,-0.657064092313,0.403162131045,0.0181545004877,1.27509290224,-2.64543212097,0.230117077293,-2.29256934005,0.0310202418183
2.98,-0.0485027006786,0.164584553789,0.245986702379,1.0002831057,-0.294454503164,1.4966721647,-0.657064092313,0.403162131045,0.0181545004877,1.27509290224,-2.64543212097,0.230117077293,-2.29256934005,0.0310202418183
3.0,-0.0489739387111,0.164095863729,0.245986702379,1.01007441718,-0.289410509349,1.49096501048,-0.657064092313,0.403548407967,0.0190572346772,1.27210321249,-2.65090237335,0.229536973447,-2.29061556998,0.0313175208684
3.02,-0.0489739387111,0.164095863729,0.245986702379,1.01007441718,-0.289410509349,1.49096501048,-0.657064092313,0.403548407967,0.0190572346772,1.27210321249,-2.65090237335,0.229536973447,-2.29061556998,0.0313175208684
3.04,-0.0494277247161,0.163694425485,0.246004162729,1.02009256341,-0.284680668674,1.48543229332,-0.657081536018,0.40389866509,0.0199122814029,1.26898979584,-2.65650503341,0.228457123811,-2.28885214462,0.0316201404099
3.06,-0.0494277247161,0.163694425485,0.246004162729,1.02009256341,-0.284680668674,1.48543229332,-0.657081536018,0.40389866509,0.0199122814029,1.26898979584,-2.65650503341,0.228457123811,-2.28885214462,0.0316201404099
3.08,-0.0502131242111,0.163397732694,0.245969258674,1.03019806133,-0.280073000514,1.4803533788,-0.657064092313,0.404184375445,0.020575047193,1.26576547194,-2.6625048781,0.226903689529,-2.28778713186,0.0319249628543
3.1,-0.0502131242111,0.163397732694,0.245969258674,1.03019806133,-0.280073000514,1.4803533788,-0.657064092313,0.404184375445,0.020575047193,1.26576547194,-2.6625048781,0.226903689529,-2.28778713186,0.0319249628543
3.12,-0.0502131242111,0.163397732694,0.245969258674,1.03019806133,-0.280073000514,1.4803533788,-0.657064092313,0.404184375445,0.020575047193,1.26576547194,-2.6625048781,0.226903689529,-2.28778713186,0.0319249628543
3.14,-0.0507716265424,0.162874121935,0.245969258674,1.03937844366,-0.275482776059,1.47466353514,-0.657081536018,0.404500890967,0.0213488178732,1.26300072417,-2.66732621516,0.226664684796,-2.28612729427,0.0321859082817
3.16,-0.0507716265424,0.162874121935,0.245969258674,1.03937844366,-0.275482776059,1.47466353514,-0.657081536018,0.404500890967,0.0213488178732,1.26300072417,-2.66732621516,0.226664684796,-2.28612729427,0.0321859082817
3.18,-0.0512952248186,0.162193451249,0.246004162729,1.04992023394,-0.270456225949,1.46932283189,-0.657064092313,0.404635801872,0.0222166355777,1.25976947274,-2.67348683309,0.225518395663,-2.2846488451,0.0324797590826
3.2,-0.0512952248186,0.162193451249,0.246004162729,1.04992023394,-0.270456225949,1.46932283189,-0.657064092313,0.404635801872,0.0222166355777,1.25976947274,-2.67348683309,0.225518395663,-2.2846488451,0.0324797590826
3.22,-0.0519584517986,0.161966549925,0.245986702379,1.05990355934,-0.265359867729,1.46399957234,-0.657064092313,0.404877341046,0.0230050946652,1.25654331992,-2.67974643081,0.224585731757,-2.28342983057,0.0327655818669
3.24,-0.0519584517986,0.161966549925,0.245986702379,1.05990355934,-0.265359867729,1.46399957234,-0.657064092313,0.404877341046,0.0230050946652,1.25654331992,-2.67974643081,0.224585731757,-2.28342983057,0.0327655818669
3.26,-0.0519584517986,0.161966549925,0.245986702379,1.05990355934,-0.265359867729,1.46399957234,-0.657064092313,0.404877341046,0.0230050946652,1.25654331992,-2.67974643081,0.224585731757,-2.28342983057,0.0327655818669
3.28,-0.0525344103186,0.161582588674,0.245951798324,1.06964247313,-0.260664931109,1.45864142539,-0.657064092313,0.405069712708,0.023753037794,1.25347863762,-2.68542606299,0.22376377549,-2.28221132774,0.0330330363456
3.3,-0.0525344103186,0.161582588674,0.245951798324,1.06964247313,-0.260664931109,1.45864142539,-0.657064092313,0.405069712708,0.023753037794,1.25347863762,-2.68542606299,0.22376377549,-2.28221132774,0.0330330363456
3.32,-0.0530405565673,0.161111342319,0.245986702379,1.08095218591,-0.255271863454,1.45262001816,-0.657081536018,0.405215015391,0.0246926304179,1.24991146256,-2.69213224824,0.222691674306,-2.28069831483,0.0333357335276
3.34,-0.0530405565673,0.161111342319,0.245986702379,1.08095218591,-0.255271863454,1.45262001816,-0.657081536018,0.405215015391,0.0246926304179,1.24991146256,-2.69213224824,0.222691674306,-2.28069831483,0.0333357335276
3.36,-0.0537212355748,0.160500479744,0.246004162729,1.09070860998,-0.250419833619,1.44684308912,-0.657081536018,0.405349528957,0.0254477473515,1.24694776445,-2.69752972702,0.222468272573,-2.27945814012,0.0335819371377
3.38,-0.0537212355748,0.160500479744,0.246004162729,1.09070860998,-0.250419833619,1.44684308912,-0.657081536018,0.405349528957,0.0254477473515,1.24694776445,-2.69752972702,0.222468272573,-2.27945814012,0.0335819371377
3.4,-0.0537212355748,0.160500479744,0.246004162729,1.09070860998,-0.250419833619,1.44684308912,-0.657081536018,0.405349528957,0.0254477473515,1.24694776445,-2.69752972702,0.222468272573,-2.27945814012,0.0335819371377
3.42,-0.0543844583936,0.159889617169,0.245969258674,1.10132024166,-0.245672549239,1.44138014678,-0.657064092313,0.405362738251,0.0261614275361,1.24365493154,-2.70363517665,0.221324798557,-2.2785467701,0.0338479319464
3.44,-0.0543844583936,0.159889617169,0.245969258674,1.10132024166,-0.245672549239,1.44138014678,-0.657064092313,0.405362738251,0.0261614275361,1.24365493154,-2.70363517665,0.221324798557,-2.2785467701,0.0338479319464
3.46,-0.0548556964261,0.1596976199,0.245986702379,1.11194925047,-0.240052580259,1.43576021109,-0.657064092313,0.405440430427,0.0271085017011,1.24016622875,-2.71067248863,0.220588563126,-2.27734784143,0.0341199231828
3.48,-0.0548556964261,0.1596976199,0.245986702379,1.11194925047,-0.240052580259,1.43576021109,-0.657064092313,0.405440430427,0.0271085017011,1.24016622875,-2.71067248863,0.220588563126,-2.27734784143,0.0341199231828
3.5,-0.0554316591073,0.159016949214,0.246004162729,1.12201986097,-0.235008586444,1.43024493763,-0.657081536018,0.405401867494,0.0279140633534,1.23708138973,-2.71661412423,0.220188798237,-2.27628325454,0.0343539246428
3.52,-0.0554316591073,0.159016949214,0.246004162729,1.12201986097,-0.235008586444,1.43024493763,-0.657081536018,0.405401867494,0.0279140633534,1.23708138973,-2.71661412423,0.220188798237,-2.27628325454,0.0343539246428
3.54,-0.0554316591073,0.159016949214,0.246004162729,1.12201986097,-0.235008586444,1.43024493763,-0.657081536018,0.405401867494,0.0279140633534,1.23708138973,-2.71661412423,0.220188798237,-2.27628325454,0.0343539246428
3.56,-0.0562170544411,0.15847589475,0.245951798324,1.13312004955,-0.230104208849,1.42476468474,-0.657064092313,0.405301617134,0.0285789619013,1.23357040928,-2.72327455782,0.218831489944,-2.27575699266,0.0346139540931
3.58,-0.0562170544411,0.15847589475,0.245951798324,1.13312004955,-0.230104208849,1.42476468474,-0.657064092313,0.405301617134,0.0285789619013,1.23357040928,-2.72327455782,0.218831489944,-2.27575699266,0.0346139540931
3.6,-0.0567057486623,0.158126837554,0.245969258674,1.14353966732,-0.224780949304,1.4185512636,-0.657081536018,0.405347728446,0.0294715736089,1.23026126807,-2.72949769545,0.218703369112,-2.27458576179,0.034850305371
3.62,-0.0567057486623,0.158126837554,0.245969258674,1.14353966732,-0.224780949304,1.4185512636,-0.657081536018,0.405347728446,0.0294715736089,1.23026126807,-2.72949769545,0.218703369112,-2.27458576179,0.034850305371
3.64,-0.057211894911,0.15772539931,0.246021606434,1.15387206656,-0.219911492409,1.41286141993,-0.657081536018,0.405284026627,0.0302732370908,1.22697875002,-2.73566588177,0.218061111883,-2.27369216656,0.0350773048188
3.66,-0.057211894911,0.15772539931,0.246021606434,1.15387206656,-0.219911492409,1.41286141993,-0.657081536018,0.405284026627,0.0302732370908,1.22697875002,-2.73566588177,0.218061111883,-2.27369216656,0.0350773048188
3.68,-0.057211894911,0.15772539931,0.246021606434,1.15387206656,-0.219911492409,1.41286141993,-0.657081536018,0.405284026627,0.0302732370908,1.22697875002,-2.73566588177,0.218061111883,-2.27369216656,0.0350773048188
3.7,-0.0581020107323,0.157376342114,0.245969258674,1.16409967041,-0.214884942299,1.40764295578,-0.657081536018,0.405147026429,0.0308849815751,1.22367252309,-2.74226196534,0.217238950443,-2.27348889141,0.0352990411199
3.72,-0.0581020107323,0.157376342114,0.245969258674,1.16409967041,-0.214884942299,1.40764295578,-0.657081536018,0.405147026429,0.0308849815751,1.22367252309,-2.74226196534,0.217238950443,-2.27348889141,0.0352990411199
3.74,-0.0585907049535,0.15657348227,0.245951798324,1.17485098489,-0.209422049889,1.40163899226,-0.657064092313,0.404934242483,0.0317675598946,1.22040158215,-2.74865456987,0.217167783785,-2.27263271505,0.0355074227306
3.76,-0.0585907049535,0.15657348227,0.245951798324,1.17485098489,-0.209422049889,1.40163899226,-0.657064092313,0.404934242483,0.0317675598946,1.22040158215,-2.74865456987,0.217167783785,-2.27263271505,0.0355074227306
3.78,-0.0590095827423,0.156067348504,0.246021606434,1.18584651124,-0.204430420479,1.39607138768,-0.657064092313,0.404669034575,0.0326081164781,1.21690629477,-2.75541209213,0.216152112596,-2.27193471856,0.0357244192685
3.8,-0.0590095827423,0.156067348504,0.246021606434,1.18584651124,-0.204430420479,1.39607138768,-0.657064092313,0.404669034575,0.0326081164781,1.21690629477,-2.75541209213,0.216152112596,-2.27193471856,0.0357244192685
3.82,-0.0590095827423,0.156067348504,0.246021606434,1.18584651124,-0.204430420479,1.39607138768,-0.657064092313,0.404669034575,0.0326081164781,1.21690629477,-2.75541209213,0.216152112596,-2.27193471856,0.0357244192685
3.84,-0.059760074021,0.15575317872,0.246021606434,1.19617891048,-0.199264237504,1.38992787452,-0.657081536018,0.404562707457,0.0333279340146,1.21360341996,-2.76165356275,0.216079001598,-2.27147653489,0.0359206549693
3.86,-0.059760074021,0.15575317872,0.246021606434,1.19617891048,-0.199264237504,1.38992787452,-0.657081536018,0.404562707457,0.0333279340146,1.21360341996,-2.76165356275,0.216079001598,-2.27147653489,0.0359206549693
3.88,-0.0604232968398,0.155247044954,0.245986702379,1.20607481761,-0.194516953124,1.38472672091,-0.657081536018,0.404287201397,0.0339688725907,1.21048126602,-2.76778977405,0.215531303876,-2.27128524906,0.0360989873637
3.9,-0.0604232968398,0.155247044954,0.245986702379,1.20607481761,-0.194516953124,1.38472672091,-0.657081536018,0.404287201397,0.0339688725907,1.21048126602,-2.76778977405,0.215531303876,-2.27128524906,0.0360989873637
3.92,-0.0608421787898,0.15484560671,0.245986702379,1.2168610195,-0.189403134554,1.37893234817,-0.657081536018,0.403992864066,0.0347898195638,1.20702768238,-2.77449384991,0.214928740141,-2.27080387574,0.0362887018926
3.94,-0.0608421787898,0.15484560671,0.245986702379,1.2168610195,-0.189403134554,1.37893234817,-0.657081536018,0.403992864066,0.0347898195638,1.20702768238,-2.77449384991,0.214928740141,-2.27080387574,0.0362887018926
3.96,-0.0608421787898,0.15484560671,0.245986702379,1.2168610195,-0.189403134554,1.37893234817,-0.657081536018,0.403992864066,0.0347898195638,1.20702768238,-2.77449384991,0.214928740141,-2.27080387574,0.0362887018926
3.98,-0.061487949581,0.154234744135,0.246021606434,1.22712351076,-0.184184603819,1.37320761709,-0.657064092313,0.403665712222,0.0355444838722,1.20383904288,-2.78083940212,0.214904656342,-2.27053895274,0.0364523274958
4.0,-0.061487949581,0.154234744135,0.246021606434,1.22712351076,-0.184184603819,1.37320761709,-0.657064092313,0.403665712222,0.0355444838722,1.20383904288,-2.78083940212,0.214904656342,-2.27053895274,0.0364523274958
4.02,-0.0622908011035,0.154007859454,0.245951798324,1.23754312853,-0.179367494684,1.36832071649,-0.657081536018,0.403257069964,0.0360929507507,1.20039563577,-2.78785666534,0.213653149761,-2.2709060671,0.0366294239121
4.04,-0.0622908011035,0.154007859454,0.245951798324,1.23754312853,-0.179367494684,1.36832071649,-0.657081536018,0.403257069964,0.0360929507507,1.20039563577,-2.78785666534,0.213653149761,-2.2709060671,0.0366294239121
4.06,-0.062639866621,0.15351915275,0.245986702379,1.2472297112,-0.174393292335,1.36278799933,-0.657081536018,0.4029156153,0.0369097791959,1.1973593174,-2.79389899686,0.213739599723,-2.27050063054,0.0367705635841
4.08,-0.062639866621,0.15351915275,0.245986702379,1.2472297112,-0.174393292335,1.36278799933,-0.657081536018,0.4029156153,0.0369097791959,1.1973593174,-2.79389899686,0.213739599723,-2.27050063054,0.0367705635841
4.1,-0.062639866621,0.15351915275,0.245986702379,1.2472297112,-0.174393292335,1.36278799933,-0.657081536018,0.4029156153,0.0369097791959,1.1973593174,-2.79389899686,0.213739599723,-2.27050063054,0.0367705635841
4.12,-0.0630587444098,0.15278611766,0.246039066784,1.25731776541,-0.169366758869,1.35699349343,-0.657081536018,0.402498133091,0.0377162975263,1.19429317368,-2.79988469963,0.213911713761,-2.27014973666,0.0369025123574
4.14,-0.0630587444098,0.15278611766,0.246039066784,1.25731776541,-0.169366758869,1.35699349343,-0.657081536018,0.402498133091,0.0377162975263,1.19429317368,-2.79988469963,0.213911713761,-2.27014973666,0.0369025123574
4.16,-0.0640361286911,0.152402156409,0.245986702379,1.26761514408,-0.164793994764,1.351722565,-0.657081536018,0.402049458297,0.0381569120823,1.1909897465,-2.8062983131,0.213042163257,-2.27075491212,0.0370455902703
4.18,-0.0640361286911,0.152402156409,0.245986702379,1.26761514408,-0.164793994764,1.351722565,-0.657081536018,0.402049458297,0.0381569120823,1.1909897465,-2.8062983131,0.213042163257,-2.27075491212,0.0370455902703
4.2,-0.0645422749398,0.152018178514,0.245969258674,1.27735405787,-0.159976885629,1.3459280591,-0.657081536018,0.401688059829,0.0388538487039,1.18791524018,-2.81220504009,0.213169779932,-2.2707312331,0.0371661179722
4.22,-0.0645422749398,0.152018178514,0.245969258674,1.27735405787,-0.159976885629,1.3459280591,-0.657081536018,0.401688059829,0.0388538487039,1.18791524018,-2.81220504009,0.213169779932,-2.2707312331,0.0371661179722
4.24,-0.0645422749398,0.152018178514,0.245969258674,1.27735405787,-0.159976885629,1.3459280591,-0.657081536018,0.401688059829,0.0388538487039,1.18791524018,-2.81220504009,0.213169779932,-2.2707312331,0.0371661179722
4.26,-0.0648738884298,0.151512028105,0.246021606434,1.28761668229,-0.15533429677,1.34090160885,-0.657081536018,0.401090706711,0.0395850829296,1.18466093434,-2.81874876438,0.212304198996,-2.27076462642,0.0372897874001
4.28,-0.0648738884298,0.151512028105,0.246021606434,1.28761668229,-0.15533429677,1.34090160885,-0.657081536018,0.401090706711,0.0395850829296,1.18466093434,-2.81874876438,0.212304198996,-2.27076462642,0.0372897874001
4.3,-0.0655545674373,0.151128066854,0.246021606434,1.29698901196,-0.150691724555,1.33592735657,-0.657081536018,0.40059808944,0.040154518091,1.18167512222,-2.82485342711,0.212017919783,-2.27120701036,0.0373951239653
4.32,-0.0655545674373,0.151128066854,0.246021606434,1.29698901196,-0.150691724555,1.33592735657,-0.657081536018,0.40059808944,0.040154518091,1.18167512222,-2.82485342711,0.212017919783,-2.27120701036,0.0373951239653
4.34,-0.066305058716,0.15063936015,0.245969258674,1.30648371388,-0.145822251015,1.33046454738,-0.657081536018,0.400121680168,0.0407235866282,1.17871412883,-2.83081049753,0.212217704339,-2.27171792805,0.0374885429512
4.36,-0.066305058716,0.15063936015,0.245969258674,1.30648371388,-0.145822251015,1.33046454738,-0.657081536018,0.400121680168,0.0407235866282,1.17871412883,-2.83081049753,0.212217704339,-2.27171792805,0.0374885429512
4.38,-0.066305058716,0.15063936015,0.245969258674,1.30648371388,-0.145822251015,1.33046454738,-0.657081536018,0.400121680168,0.0407235866282,1.17871412883,-2.83081049753,0.212217704339,-2.27171792805,0.0374885429512
4.4,-0.0666541242335,0.15032520701,0.245986702379,1.31655419122,-0.14135421572,1.32536818916,-0.657081536018,0.399510618082,0.0413892371062,1.17546714748,-2.83723485396,0.211358944715,-2.27198796857,0.037590969964
4.42,-0.0666541242335,0.15032520701,0.245986702379,1.31655419122,-0.14135421572,1.32536818916,-0.657081536018,0.399510618082,0.0413892371062,1.17546714748,-2.83723485396,0.211358944715,-2.27198796857,0.037590969964
4.44,-0.0670206417786,0.149976149814,0.246021606434,1.32557751363,-0.136397482042,1.31999246535,-0.657081536018,0.399028388245,0.0421462220827,1.17261883647,-2.84315469694,0.211861212928,-2.27217453149,0.0376664785908
4.46,-0.0670206417786,0.149976149814,0.246021606434,1.32557751363,-0.136397482042,1.31999246535,-0.657081536018,0.399028388245,0.0421462220827,1.17261883647,-2.84315469694,0.211861212928,-2.27217453149,0.0376664785908
4.48,-0.0678584015173,0.149347826889,0.245986702379,1.33435662416,-0.13196434248,1.31515789586,-0.657081536018,0.398460308489,0.04258787719,1.16994719518,-2.84863694434,0.211973380418,-2.27298879634,0.0377291846774
4.5,-0.0678584015173,0.149347826889,0.245986702379,1.33435662416,-0.13196434248,1.31515789586,-0.657081536018,0.398460308489,0.04258787719,1.16994719518,-2.84863694434,0.211973380418,-2.27298879634,0.0377291846774
4.52,-0.0678584015173,0.149347826889,0.245986702379,1.33435662416,-0.13196434248,1.31515789586,-0.657081536018,0.398460308489,0.04258787719,1.16994719518,-2.84863694434,0.211973380418,-2.27298879634,0.0377291846774
4.54,-0.0683296395498,0.148946405289,0.245986702379,1.34420020018,-0.127566115295,1.31030588267,-0.657081536018,0.397751641551,0.0431645296181,1.16681196791,-2.85497353316,0.211134946933,-2.27360238737,0.0378057283019
4.56,-0.0683296395498,0.148946405289,0.245986702379,1.34420020018,-0.127566115295,1.31030588267,-0.657081536018,0.397751641551,0.0431645296181,1.16681196791,-2.85497353316,0.211134946933,-2.27360238737,0.0378057283019
4.58,-0.068696161256,0.14859733145,0.246004162729,1.3526301703,-0.123377320762,1.30552377746,-0.657081536018,0.397206007348,0.0437622843232,1.16416172598,-2.86032118827,0.211173669964,-2.27401689878,0.0378587910627
4.6,-0.068696161256,0.14859733145,0.246004162729,1.3526301703,-0.123377320762,1.30552377746,-0.657081536018,0.397206007348,0.0437622843232,1.16416172598,-2.86032118827,0.211173669964,-2.27401689878,0.0378587910627
4.62,-0.0692197595323,0.148230813905,0.245986702379,1.36116480264,-0.119153630497,1.30102077153,-0.657081536018,0.396585894277,0.0442758426528,1.16146769432,-2.86593698799,0.210953122314,-2.27475010527,0.0379096691412
4.64,-0.0692197595323,0.148230813905,0.245986702379,1.36116480264,-0.119153630497,1.30102077153,-0.657081536018,0.396585894277,0.0442758426528,1.16146769432,-2.86593698799,0.210953122314,-2.27475010527,0.0379096691412
4.66,-0.0692197595323,0.148230813905,0.245986702379,1.36116480264,-0.119153630497,1.30102077153,-0.657081536018,0.396585894277,0.0442758426528,1.16146769432,-2.86593698799,0.210953122314,-2.27475010527,0.0379096691412
4.68,-0.0699004385397,0.14802137293,0.245986702379,1.37022314561,-0.11468558688,1.29608153982,-0.657081536018,0.395962551486,0.0447737040951,1.15855107503,-2.87193661029,0.21073161491,-2.27568857023,0.0379604032908
4.7,-0.0699004385397,0.14802137293,0.245986702379,1.37022314561,-0.11468558688,1.29608153982,-0.657081536018,0.395962551486,0.0447737040951,1.15855107503,-2.87193661029,0.21073161491,-2.27568857023,0.0379604032908
4.72,-0.0702669560848,0.147567586925,0.246004162729,1.37798985546,-0.110741137377,1.29156109018,-0.657081536018,0.395398615347,0.0453186565002,1.15617542543,-2.87676358474,0.211000294859,-2.27621337062,0.0379876935456
4.74,-0.0702669560848,0.147567586925,0.246004162729,1.37798985546,-0.110741137377,1.29156109018,-0.657081536018,0.395398615347,0.0453186565002,1.15617542543,-2.87676358474,0.211000294859,-2.27621337062,0.0379876935456
4.76,-0.0707905585222,0.147061436515,0.246004162729,1.38675138913,-0.106465082707,1.28690109091,-0.657081536018,0.394684397331,0.0458360904527,1.15347453912,-2.88236876006,0.210853941061,-2.27706435898,0.0380172591231
4.78,-0.0707905585222,0.147061436515,0.246004162729,1.38675138913,-0.106465082707,1.28690109091,-0.657081536018,0.394684397331,0.0458360904527,1.15347453912,-2.88236876006,0.210853941061,-2.27706435898,0.0380172591231
4.8,-0.0707905585222,0.147061436515,0.246004162729,1.38675138913,-0.106465082707,1.28690109091,-0.657081536018,0.394684397331,0.0458360904527,1.15347453912,-2.88236876006,0.210853941061,-2.27706435898,0.0380172591231
4.82,-0.0713141526373,0.146817091485,0.245986702379,1.39490199365,-0.102869707045,1.28295668302,-0.657081536018,0.39398491878,0.0462163778107,1.15086030387,-2.88772654244,0.210039553874,-2.27802783788,0.0380496095504
4.84,-0.0713141526373,0.146817091485,0.245986702379,1.39490199365,-0.102869707045,1.28295668302,-0.657081536018,0.39398491878,0.0462163778107,1.15086030387,-2.88772654244,0.210039553874,-2.27802783788,0.0380496095504
4.86,-0.0718028426973,0.1465378424,0.246004162729,1.40170876708,-0.0991870629222,1.27885514862,-0.657081536018,0.393485287457,0.046656725933,1.1487455028,-2.89215216683,0.210461640557,-2.27880164823,0.0380614933419
4.88,-0.0718028426973,0.1465378424,0.246004162729,1.40170876708,-0.0991870629222,1.27885514862,-0.657081536018,0.393485287457,0.046656725933,1.1487455028,-2.89215216683,0.210461640557,-2.27880164823,0.0380614933419
4.9,-0.0721170041598,0.146310957719,0.246004162729,1.40966749084,-0.0955044187997,1.27473617052,-0.657081536018,0.392797068979,0.0471397545293,1.14620775439,-2.89736131277,0.209977558065,-2.27958097172,0.0380805797752
4.92,-0.0721170041598,0.146310957719,0.246004162729,1.40966749084,-0.0955044187997,1.27473617052,-0.657081536018,0.392797068979,0.0471397545293,1.14620775439,-2.89736131277,0.209977558065,-2.27958097172,0.0380805797752
4.94,-0.0721170041598,0.146310957719,0.246004162729,1.40966749084,-0.0955044187997,1.27473617052,-0.657081536018,0.392797068979,0.0471397545293,1.14620775439,-2.89736131277,0.209977558065,-2.27958097172,0.0380805797752
4.96,-0.0725009737323,0.146084056395,0.246004162729,1.41743420068,-0.0921184757897,1.27075674206,-0.657081536018,0.39210963166,0.04754222614,1.14373694184,-2.90230488744,0.209344986106,-2.28043429631,0.0380944258707
4.98,-0.0725009737323,0.146084056395,0.246004162729,1.41743420068,-0.0921184757897,1.27075674206,-0.657081536018,0.39210963166,0.04754222614,1.14373694184,-2.90230488744,0.209344986106,-2.28043429631,0.0380944258707
5.0,-0.0730420281973,0.145752442905,0.246004162729,1.4242060867,-0.0885929165597,1.2668995527,-0.657081536018,0.391533408405,0.0479137033424,1.14165237911,-2.9067069374,0.209535951724,-2.28140944728,0.0380944734098
5.02,-0.0730420281973,0.145752442905,0.246004162729,1.4242060867,-0.0885929165597,1.2668995527,-0.657081536018,0.391533408405,0.0479137033424,1.14165237911,-2.9067069374,0.209535951724,-2.28140944728,0.0380944734098
5.04,-0.0735307182573,0.145403385709,0.245986702379,1.4308907542,-0.0849975325748,1.26302491963,-0.657081536018,0.390955573337,0.0483093130809,1.13960825357,-2.91108244147,0.209859817418,-2.28238362424,0.0380895204388
5.06,-0.0735307182573,0.145403385709,0.245986702379,1.4308907542,-0.0849975325748,1.26302491963,-0.657081536018,0.390955573337,0.0483093130809,1.13960825357,-2.91108244147,0.209859817418,-2.28238362424,0.0380895204388
5.08,-0.0735307182573,0.145403385709,0.245986702379,1.4308907542,-0.0849975325748,1.26302491963,-0.657081536018,0.390955573337,0.0483093130809,1.13960825357,-2.91108244147,0.209859817418,-2.28238362424,0.0380895204388
5.1,-0.0738448797198,0.1448972353,0.246004162729,1.43766264021,-0.0816814059973,1.25935974418,-0.657098979723,0.390294599274,0.0487322083801,1.13758895525,-2.91530263208,0.209870167035,-2.28314260523,0.038079296853
5.12,-0.0738448797198,0.1448972353,0.246004162729,1.43766264021,-0.0816814059973,1.25935974418,-0.657098979723,0.390294599274,0.0487322083801,1.13758895525,-2.91530263208,0.209870167035,-2.28314260523,0.038079296853
5.14,-0.0740717727223,0.144687794325,0.245986702379,1.44431228714,-0.0788190654248,1.25604370915,-0.657098979723,0.389634642511,0.0490894819764,1.13548625439,-2.9195567341,0.209238902497,-2.28391913499,0.0380767976068
5.16,-0.0740717727223,0.144687794325,0.245986702379,1.44431228714,-0.0788190654248,1.25604370915,-0.657098979723,0.389634642511,0.0490894819764,1.13548625439,-2.9195567341,0.209238902497,-2.28391913499,0.0380767976068
5.18,-0.0744033862123,0.14447835335,0.245986702379,1.45005446193,-0.0755203991972,1.25271009725,-0.657081536018,0.389109142902,0.0494939863458,1.13370213109,-2.92356120628,0.209602810204,-2.28481321656,0.0380652907796
5.2,-0.0744033862123,0.14447835335,0.245986702379,1.45005446193,-0.0755203991972,1.25271009725,-0.657081536018,0.389109142902,0.0494939863458,1.13370213109,-2.92356120628,0.209602810204,-2.28481321656,0.0380652907796
5.22,-0.0744033862123,0.14447835335,0.245986702379,1.45005446193,-0.0755203991972,1.25271009725,-0.657081536018,0.389109142902,0.0494939863458,1.13370213109,-2.92356120628,0.209602810204,-2.28481321656,0.0380652907796
5.24,-0.0748048078123,0.14432127678,0.246004162729,1.45543005259,-0.0731642007123,1.2498128443,-0.657098979723,0.388601700805,0.0497182515123,1.13201293955,-2.92690359714,0.209276643258,-2.28562541763,0.0380555046576
5.26,-0.0748048078123,0.14432127678,0.246004162729,1.45543005259,-0.0731642007123,1.2498128443,-0.657098979723,0.388601700805,0.0497182515123,1.13201293955,-2.92690359714,0.209276643258,-2.28562541763,0.0380555046576
5.28,-0.0752935061947,0.144181643915,0.246004162729,1.4612768896,-0.0702844081123,1.24686326024,-0.657098979723,0.388006939146,0.0499770667657,1.13015398986,-2.93094811331,0.20894823425,-2.28672006889,0.0380455287175
5.3,-0.0752935061947,0.144181643915,0.246004162729,1.4612768896,-0.0702844081123,1.24686326024,-0.657098979723,0.388006939146,0.0499770667657,1.13015398986,-2.93094811331,0.20894823425,-2.28672006889,0.0380455287175
5.32,-0.0756076593348,0.14398966329,0.245986702379,1.46661759285,-0.0679282137885,1.24448958476,-0.657081536018,0.387397493938,0.0502042277315,1.12846873421,-2.93458165921,0.208264471319,-2.28763061994,0.0380363378232
5.34,-0.0756076593348,0.14398966329,0.245986702379,1.46661759285,-0.0679282137885,1.24448958476,-0.657081536018,0.387397493938,0.0502042277315,1.12846873421,-2.93458165921,0.208264471319,-2.28763061994,0.0380363378232
5.36,-0.0756076593348,0.14398966329,0.245986702379,1.46661759285,-0.0679282137885,1.24448958476,-0.657081536018,0.387397493938,0.0502042277315,1.12846873421,-2.93458165921,0.208264471319,-2.28763061994,0.0380363378232
5.38,-0.0757996482823,0.143762778609,0.246004162729,1.47166161996,-0.0656592879248,1.24174945831,-0.657098979723,0.386880581588,0.0504918998459,1.1269209578,-2.93768476298,0.208054888505,-2.2882526278,0.0380179964806
5.4,-0.0757996482823,0.143762778609,0.246004162729,1.47166161996,-0.0656592879248,1.24174945831,-0.657098979723,0.386880581588,0.0504918998459,1.1269209578,-2.93768476298,0.208054888505,-2.2882526278,0.0380179964806
5.42,-0.0759916372297,0.14357078134,0.246004162729,1.47597261197,-0.0634950783873,1.23930600801,-0.657098979723,0.386445782141,0.0507586485918,1.12560246785,-2.94045298178,0.208095529004,-2.28888545043,0.0379995700732
5.44,-0.0759916372297,0.14357078134,0.246004162729,1.47597261197,-0.0634950783873,1.23930600801,-0.657098979723,0.386445782141,0.0507586485918,1.12560246785,-2.94045298178,0.208095529004,-2.28888545043,0.0379995700732
5.46,-0.0762010782047,0.143466069174,0.245986702379,1.47984724504,-0.0616275741236,1.23714179015,-0.657098979723,0.386058503659,0.0509627828709,1.12439138962,-2.94295418454,0.208014532981,-2.28952052098,0.0379839580165
5.48,-0.0762010782047,0.143466069174,0.245986702379,1.47984724504,-0.0616275741236,1.23714179015,-0.657098979723,0.386058503659,0.0509627828709,1.12439138962,-2.94295418454,0.208014532981,-2.28952052098,0.0379839580165
5.5,-0.0762010782047,0.143466069174,0.245986702379,1.47984724504,-0.0616275741236,1.23714179015,-0.657098979723,0.386058503659,0.0509627828709,1.12439138962,-2.94295418454,0.208014532981,-2.28952052098,0.0379839580165
5.52,-0.0763930588298,0.143221724144,0.246004162729,1.48400111055,-0.0596029932898,1.23461098817,-0.657098979723,0.385652710766,0.0512170376886,1.12315496862,-2.94541305768,0.208187481558,-2.29009513453,0.0379595023483
5.54,-0.0763930588298,0.143221724144,0.246004162729,1.48400111055,-0.0596029932898,1.23461098817,-0.657098979723,0.385652710766,0.0512170376886,1.12315496862,-2.94541305768,0.208187481558,-2.29009513453,0.0379595023483
5.56,-0.0766548642097,0.142959918765,0.246004162729,1.48789318733,-0.0577354931873,1.23277846702,-0.657098979723,0.38518381951,0.0513967113895,1.12198441716,-2.94801191849,0.207929137615,-2.2908156142,0.0379413853108
5.58,-0.0766548642097,0.142959918765,0.246004162729,1.48789318733,-0.0577354931873,1.23277846702,-0.657098979723,0.38518381951,0.0513967113895,1.12198441716,-2.94801191849,0.207929137615,-2.2908156142,0.0379413853108
5.6,-0.0770213817547,0.142855206599,0.245986702379,1.49155836278,-0.0559028971398,1.23096325642,-0.657098979723,0.384774521853,0.0515254772793,1.12083317223,-2.95057448432,0.207713507481,-2.29166644944,0.0379258310612
5.62,-0.0770213817547,0.142855206599,0.245986702379,1.49155836278,-0.0559028971398,1.23096325642,-0.657098979723,0.384774521853,0.0515254772793,1.12083317223,-2.95057448432,0.207713507481,-2.29166644944,0.0379258310612
5.64,-0.0770213817547,0.142855206599,0.245986702379,1.49155836278,-0.0559028971398,1.23096325642,-0.657098979723,0.384774521853,0.0515254772793,1.12083317223,-2.95057448432,0.207713507481,-2.29166644944,0.0379258310612
5.66,-0.0774053513273,0.142802842194,0.245986702379,1.49456041111,-0.0546811636673,1.22934005974,-0.657098979723,0.38447338064,0.051562879158,1.11988591771,-2.95239279397,0.20744799025,-2.29236204522,0.0379112526179
5.68,-0.0774053513273,0.142802842194,0.245986702379,1.49456041111,-0.0546811636673,1.22934005974,-0.657098979723,0.38447338064,0.051562879158,1.11988591771,-2.95239279397,0.20744799025,-2.29236204522,0.0379112526179
5.7,-0.0775100718148,0.142767938139,0.245986702379,1.49698641771,-0.0535641548436,1.22778677103,-0.657098979723,0.384253749831,0.0516990331659,1.11912900212,-2.9538158542,0.207497807879,-2.29271663298,0.037896008197
5.72,-0.0775100718148,0.142767938139,0.245986702379,1.49698641771,-0.0535641548436,1.22778677103,-0.657098979723,0.384253749831,0.0516990331659,1.11912900212,-2.9538158542,0.207497807879,-2.29271663298,0.037896008197
5.74,-0.0775798882472,0.142733034084,0.246004162729,1.499115615,-0.0524645980473,1.22703629224,-0.657098979723,0.38395516289,0.0518344440079,1.11843801232,-2.9555505406,0.207143737623,-2.29311098763,0.0378898452129
5.76,-0.0775798882472,0.142733034084,0.246004162729,1.499115615,-0.0524645980473,1.22703629224,-0.657098979723,0.38395516289,0.0518344440079,1.11843801232,-2.9555505406,0.207143737623,-2.29311098763,0.0378898452129
5.78,-0.0775798882472,0.142733034084,0.246004162729,1.499115615,-0.0524645980473,1.22703629224,-0.657098979723,0.38395516289,0.0518344440079,1.11843801232,-2.9555505406,0.207143737623,-2.29311098763,0.0378898452129
5.8,-0.0776147923022,0.142715573735,0.246004162729,1.50045957924,-0.0516268383086,1.22576223597,-0.657098979723,0.383891636053,0.0519645855615,1.11803704473,-2.9562486263,0.207628884527,-2.29327750985,0.0378756535701
5.82,-0.0776147923022,0.142715573735,0.246004162729,1.50045957924,-0.0516268383086,1.22576223597,-0.657098979723,0.383891636053,0.0519645855615,1.11803704473,-2.9562486263,0.207628884527,-2.29327750985,0.0378756535701
5.84,-0.0776496963573,0.142715573735,0.246004162729,1.50210021963,-0.0508588950023,1.22497673661,-0.657116490007,0.383698268693,0.0520640153097,1.11750463303,-2.95740650749,0.207445989617,-2.29351726574,0.0378685811284
5.86,-0.0776496963573,0.142715573735,0.246004162729,1.50210021963,-0.0508588950023,1.22497673661,-0.657116490007,0.383698268693,0.0520640153097,1.11750463303,-2.95740650749,0.207445989617,-2.29351726574,0.0378685811284
5.88,-0.0776671483848,0.142698113385,0.246004162729,1.50306015605,-0.0503003885098,1.22448804655,-0.657116490007,0.383584383339,0.0521414229,1.1172009261,-2.9581397117,0.207442310454,-2.29368393229,0.0378635287359
5.9,-0.0776671483848,0.142698113385,0.246004162729,1.50306015605,-0.0503003885098,1.22448804655,-0.657116490007,0.383584383339,0.0521414229,1.1172009261,-2.9581397117,0.207442310454,-2.29368393229,0.0378635287359
5.92,-0.0776671483848,0.142698113385,0.246004162729,1.50306015605,-0.0503003885098,1.22448804655,-0.657116490007,0.383584383339,0.0521414229,1.1172009261,-2.9581397117,0.207442310454,-2.29368393229,0.0378635287359
5.94,-0.0776846087347,0.142715573735,0.246004162729,1.50368839575,-0.0499862312086,1.22422625781,-0.657116490007,0.383505278006,0.052179739832,1.11698873251,-2.95863962096,0.207345076167,-2.29380083169,0.0378616556555
5.96,-0.0776846087347,0.142715573735,0.246004162729,1.50368839575,-0.0499862312086,1.22422625781,-0.657116490007,0.383505278006,0.052179739832,1.11698873251,-2.95863962096,0.207345076167,-2.29380083169,0.0378616556555
5.98,-0.0777020607622,0.142698113385,0.245986702379,1.50370583946,-0.0498989627486,1.22412159558,-0.657116490007,0.383516460941,0.0521832330882,1.11699373652,-2.95863716502,0.207476236466,-2.29383908764,0.0378600385053
6.0,-0.0777020607622,0.142698113385,0.245986702379,1.50370583946,-0.0498989627486,1.22412159558,-0.657116490007,0.383516460941,0.0521832330882,1.11699373652,-2.95863716502,0.207476236466,-2.29383908764,0.0378600385053
6.02,-0.0777020607622,0.142715573735,0.246004162729,1.50372328316,-0.0498640586936,1.22408670817,-0.657116490007,0.383518953678,0.0521955924766,1.11698283964,-2.9586694842,0.207503219913,-2.29382981927,0.0378599042389
6.04,-0.0777020607622,0.142715573735,0.246004162729,1.50372328316,-0.0498640586936,1.22408670817,-0.657116490007,0.383518953678,0.0521955924766,1.11698283964,-2.9586694842,0.207503219913,-2.29382981927,0.0378599042389
6.06,-0.0777020607622,0.142715573735,0.246004162729,1.50372328316,-0.0498640586936,1.22408670817,-0.657116490007,0.383518953678,0.0521955924766,1.11698283964,-2.9586694842,0.207503219913,-2.29382981927,0.0378599042389
6.08,-0.0777020607622,0.142698113385,0.245986702379,1.50374072687,-0.0498640586936,1.22406926447,-0.657116490007,0.38351752489,0.0521895599731,1.11698402551,-2.95865374686,0.207511783483,-2.29384299243,0.0378594185726
6.1,-0.0777020607622,0.142698113385,0.245986702379,1.50374072687,-0.0498640586936,1.22406926447,-0.657116490007,0.38351752489,0.0521895599731,1.11698402551,-2.95865374686,0.207511783483,-2.29384299243,0.0378594185726
6.12,-0.0777020607622,0.142698113385,0.246004162729,1.50384552225,-0.0498640586936,1.22405182076,-0.657116490007,0.383500102763,0.0521944424385,1.11694885405,-2.95871154237,0.20744603369,-2.2938337224,0.0378592225663
6.14,-0.0777020607622,0.142698113385,0.246004162729,1.50384552225,-0.0498640586936,1.22405182076,-0.657116490007,0.383500102763,0.0521944424385,1.11694885405,-2.95871154237,0.20744603369,-2.2938337224,0.0378592225663
6.16,-0.0777020607622,0.142715573735,0.245986702379,1.5039850719,-0.0498466025049,1.22405182076,-0.657116490007,0.383476784772,0.0521880773464,1.11689382751,-2.95882793291,0.207336204881,-2.29387138553,0.0378600413478
6.18,-0.0777020607622,0.142715573735,0.245986702379,1.5039850719,-0.0498466025049,1.22405182076,-0.657116490007,0.383476784772,0.0521880773464,1.11689382751,-2.95882793291,0.207336204881,-2.29387138553,0.0378600413478
6.2,-0.0777020607622,0.142715573735,0.245986702379,1.5039850719,-0.0498466025049,1.22405182076,-0.657116490007,0.383476784772,0.0521880773464,1.11689382751,-2.95882793291,0.207336204881,-2.29387138553,0.0378600413478
6.22,-0.0777020607622,0.142698113385,0.246004162729,1.5040025156,-0.0498466025049,1.22403437706,-0.657116490007,0.383473508974,0.0521947460487,1.11689541901,-2.95881524919,0.207348736628,-2.29385062445,0.0378592610148
6.24,-0.0777020607622,0.142698113385,0.246004162729,1.5040025156,-0.0498466025049,1.22403437706,-0.657116490007,0.383473508974,0.0521947460487,1.11689541901,-2.95881524919,0.207348736628,-2.29385062445,0.0378592610148
6.26,-0.0777020607622,0.142715573735,0.245986702379,1.50402009246,-0.0498466025049,1.22403437706,-0.657116490007,0.383473140277,0.05218791463,1.11688254348,-2.95883928986,0.207322611856,-2.2938722474,0.0378598736177
6.28,-0.0777020607622,0.142715573735,0.245986702379,1.50402009246,-0.0498466025049,1.22403437706,-0.657116490007,0.383473140277,0.05218791463,1.11688254348,-2.95883928986,0.207322611856,-2.2938722474,0.0378598736177
6.3,-0.0777020607622,0.142698113385,0.245986702379,1.50405497987,-0.0498291504773,1.22401680019,-0.657116490007,0.383467123435,0.052190659697,1.11687787415,-2.95885006071,0.207330664918,-2.29387424101,0.0378592681915
6.32,-0.0777020607622,0.142698113385,0.245986702379,1.50405497987,-0.0498291504773,1.22401680019,-0.657116490007,0.383467123435,0.052190659697,1.11687787415,-2.95885006071,0.207330664918,-2.29387424101,0.0378592681915
6.34,-0.0777020607622,0.142698113385,0.245986702379,1.50405497987,-0.0498291504773,1.22401680019,-0.657116490007,0.383467123435,0.052190659697,1.11687787415,-2.95885006071,0.207330664918,-2.29387424101,0.0378592681915
6.36,-0.0777020607622,0.142715573735,0.246004162729,1.5041247547,-0.0498291504773,1.22401680019,-0.657116490007,0.38345528343,0.052195551022,1.11684738652,-2.95891074916,0.20726800434,-2.2938670323,0.0378596736608
6.38,-0.0777020607622,0.142715573735,0.246004162729,1.5041247547,-0.0498291504773,1.22401680019,-0.657116490007,0.38345528343,0.052195551022,1.11684738652,-2.95891074916,0.20726800434,-2.2938670323,0.0378596736608
6.4,-0.0777020607622,0.142715573735,0.245986702379,1.50415964211,-0.0498291504773,1.22401680019,-0.657116490007,0.38344977446,0.0521885469653,1.11683514059,-2.95893167647,0.20723894924,-2.29388741304,0.0378598791653
6.42,-0.0777020607622,0.142715573735,0.245986702379,1.50415964211,-0.0498291504773,1.22401680019,-0.657116490007,0.38344977446,0.0521885469653,1.11683514059,-2.95893167647,0.20723894924,-2.29388741304,0.0378598791653
6.44,-0.0777020607622,0.142715573735,0.246004162729,1.50417708581,-0.0498291504773,1.22401680019,-0.657116490007,0.383445634451,0.0521945702036,1.11682932243,-2.9589444297,0.207227397552,-2.29387215003,0.0378597610647
6.46,-0.0777020607622,0.142715573735,0.246004162729,1.50417708581,-0.0498291504773,1.22401680019,-0.657116490007,0.383445634451,0.0521945702036,1.11682932243,-2.9589444297,0.207227397552,-2.29387215003,0.0378597610647
6.48,-0.0777020607622,0.142715573735,0.246004162729,1.50417708581,-0.0498291504773,1.22401680019,-0.657116490007,0.383445634451,0.0521945702036,1.11682932243,-2.9589444297,0.207227397552,-2.29387215003,0.0378597610647
6.5,-0.0777020607622,0.142733034084,0.245986702379,1.50419452952,-0.0498291504773,1.22399935649,-0.657116490007,0.383448099139,0.0521882348373,1.11681729887,-2.95895720074,0.207214956853,-2.29389119354,0.0378601465304
6.52,-0.0777020607622,0.142733034084,0.245986702379,1.50419452952,-0.0498291504773,1.22399935649,-0.657116490007,0.383448099139,0.0521882348373,1.11681729887,-2.95895720074,0.207214956853,-2.29389119354,0.0378601465304
6.54,-0.0777020607622,0.14283774625,0.246004162729,1.50424686063,-0.0498291504773,1.22399935649,-0.657116490007,0.383449194445,0.0521926954226,1.11675983284,-2.95907788554,0.207113348619,-2.29389692054,0.0378626999608
6.56,-0.0777020607622,0.14283774625,0.246004162729,1.50424686063,-0.0498291504773,1.22399935649,-0.657116490007,0.383449194445,0.0521926954226,1.11675983284,-2.95907788554,0.207113348619,-2.29389692054,0.0378626999608
6.58,-0.0777020607622,0.14323916785,0.246004162729,1.50457855734,-0.0498291504773,1.22398191278,-0.657116490007,0.383435455032,0.0521834911313,1.11649434132,-2.9596078059,0.206628057767,-2.29399398904,0.0378730389949
6.6,-0.0777020607622,0.14323916785,0.246004162729,1.50457855734,-0.0498291504773,1.22398191278,-0.657116490007,0.383435455032,0.0521834911313,1.11649434132,-2.9596078059,0.206628057767,-2.29399398904,0.0378730389949
6.62,-0.0777020607622,0.14323916785,0.246004162729,1.50457855734,-0.0498291504773,1.22398191278,-0.657116490007,0.383435455032,0.0521834911313,1.11649434132,-2.9596078059,0.206628057767,-2.29399398904,0.0378730389949
6.64,-0.0777020607622,0.14407693175,0.245986702379,1.50477057126,-0.0498291504773,1.22398191278,-0.657116490007,0.383493841986,0.0521663039483,1.11611101591,-2.96041345836,0.205972993788,-2.29416960532,0.0378944178689
6.66,-0.0777020607622,0.14407693175,0.245986702379,1.50477057126,-0.0498291504773,1.22398191278,-0.657116490007,0.383493841986,0.0521663039483,1.11611101591,-2.96041345836,0.205972993788,-2.29416960532,0.0378944178689
6.68,-0.0777020607622,0.145071772219,0.245986702379,1.50477057126,-0.0498291504773,1.22398191278,-0.657116490007,0.383603859547,0.0521577381111,1.1157346254,-2.96122509014,0.205374297898,-2.29433536218,0.0379192875756
6.7,-0.0777020607622,0.145071772219,0.245986702379,1.50477057126,-0.0498291504773,1.22398191278,-0.657116490007,0.383603859547,0.0521577381111,1.1157346254,-2.96122509014,0.205374297898,-2.29433536218,0.0379192875756
6.72,-0.0777020607622,0.147235973435,0.245986702379,1.50485778979,-0.0498116984498,1.22396446908,-0.657116490007,0.383828012551,0.0521408196757,1.1148861654,-2.96304875694,0.204028226005,-2.29470404804,0.0379733941071
6.74,-0.0777020607622,0.147235973435,0.245986702379,1.50485778979,-0.0498116984498,1.22396446908,-0.657116490007,0.383828012551,0.0521408196757,1.1148861654,-2.96304875694,0.204028226005,-2.29470404804,0.0379733941071
6.76,-0.0777020607622,0.147235973435,0.245986702379,1.50485778979,-0.0498116984498,1.22396446908,-0.657116490007,0.383828012551,0.0521408196757,1.1148861654,-2.96304875694,0.204028226005,-2.29470404804,0.0379733941071
6.78,-0.0777020607622,0.14966198003,0.245986702379,1.5048926772,-0.0498116984498,1.22394702537,-0.657116490007,0.38408897439,0.0521200569489,1.11395609235,-2.96503729666,0.202553496711,-2.29510402716,0.0380341299314
6.8,-0.0777020607622,0.14966198003,0.245986702379,1.5048926772,-0.0498116984498,1.22394702537,-0.657116490007,0.38408897439,0.0521200569489,1.11395609235,-2.96503729666,0.202553496711,-2.29510402716,0.0380341299314
6.82,-0.0777020607622,0.15369368967,0.245986702379,1.50492756461,-0.0497942422611,1.22392958167,-0.657116490007,0.384519633275,0.05208879558,1.11241643019,-2.96834573728,0.200120814547,-2.29576555802,0.0381355413406
6.84,-0.0777020607622,0.15369368967,0.245986702379,1.50492756461,-0.0497942422611,1.22392958167,-0.657116490007,0.384519633275,0.05208879558,1.11241643019,-2.96834573728,0.200120814547,-2.29576555802,0.0381355413406
6.86,-0.0777020607622,0.161582588674,0.246004162729,1.50510213482,-0.0497942422611,1.22389469426,-0.657116490007,0.385324065074,0.0520280737276,1.10936284102,-2.97485222807,0.195253529598,-2.29701914011,0.0383352086307
6.88,-0.0777020607622,0.161582588674,0.246004162729,1.50510213482,-0.0497942422611,1.22389469426,-0.657116490007,0.385324065074,0.0520280737276,1.10936284102,-2.97485222807,0.195253529598,-2.29701914011,0.0383352086307
6.9,-0.0777020607622,0.161582588674,0.246004162729,1.50510213482,-0.0497942422611,1.22389469426,-0.657116490007,0.385324065074,0.0520280737276,1.10936284102,-2.97485222807,0.195253529598,-2.29701914011,0.0383352086307
6.92,-0.0777020607622,0.172019650144,0.245986702379,1.50541625467,-0.0497942422611,1.22382491944,-0.657116490007,0.386340436375,0.0519350868668,1.10528585776,-2.98347532909,0.188750468248,-2.29866853875,0.0386018770601
6.94,-0.0777020607622,0.172019650144,0.245986702379,1.50541625467,-0.0497942422611,1.22382491944,-0.657116490007,0.386340436375,0.0519350868668,1.10528585776,-2.98347532909,0.188750468248,-2.29866853875,0.0386018770601
6.96,-0.0777195127897,0.179856184744,0.245969258674,1.50527670502,-0.0497942422611,1.22380747573,-0.657133933713,0.387144492429,0.0518648732544,1.10234357434,-2.98971509376,0.18412033671,-2.29984864933,0.0388040134802
6.98,-0.0777195127897,0.179856184744,0.245969258674,1.50527670502,-0.0497942422611,1.22380747573,-0.657133933713,0.387144492429,0.0518648732544,1.10234357434,-2.98971509376,0.18412033671,-2.29984864933,0.0388040134802
7.0,-0.0776671483848,0.189542750774,0.246004162729,1.50531159243,-0.0497942422611,1.22373756775,-0.657133933713,0.388066560699,0.0518274191683,1.09863079808,-2.99752465083,0.178275245407,-2.30116743947,0.0390549352876
7.02,-0.0776671483848,0.189542750774,0.246004162729,1.50531159243,-0.0497942422611,1.22373756775,-0.657133933713,0.388066560699,0.0518274191683,1.09863079808,-2.99752465083,0.178275245407,-2.30116743947,0.0390549352876
7.04,-0.0776671483848,0.189542750774,0.246004162729,1.50531159243,-0.0497942422611,1.22373756775,-0.657133933713,0.388066560699,0.0518274191683,1.09863079808,-2.99752465083,0.178275245407,-2.30116743947,0.0390549352876
7.06,-0.0777020607622,0.197571265999,0.245986702379,1.50517190964,-0.0497767902336,1.22363290552,-0.657133933713,0.388851455797,0.0517582473481,1.09560423266,-3.00385709793,0.173594587642,-2.30233625542,0.0392642161309
7.08,-0.0777020607622,0.197571265999,0.245986702379,1.50517190964,-0.0497767902336,1.22363290552,-0.657133933713,0.388851455797,0.0517582473481,1.09560423266,-3.00385709793,0.173594587642,-2.30233625542,0.0392642161309
7.1,-0.0777195127897,0.206210643799,0.245951798324,1.50515446593,-0.0497767902336,1.22286498302,-0.657151377418,0.389749643635,0.0517009664103,1.09231914535,-3.0103119232,0.168944158413,-2.30347145379,0.0394826499439
7.12,-0.0777195127897,0.206210643799,0.245951798324,1.50515446593,-0.0497767902336,1.22286498302,-0.657151377418,0.389749643635,0.0517009664103,1.09231914535,-3.0103119232,0.168944158413,-2.30347145379,0.0394826499439
7.14,-0.0776671483848,0.214989654464,0.246004162729,1.50525926132,-0.0497593382061,1.22026440622,-0.657151377418,0.390897851276,0.0517560296219,1.08899654144,-3.01582419055,0.16557325566,-2.30428689968,0.0396817618152
7.16,-0.0776671483848,0.214989654464,0.246004162729,1.50525926132,-0.0497593382061,1.22026440622,-0.657151377418,0.390897851276,0.0517560296219,1.08899654144,-3.01582419055,0.16557325566,-2.30428689968,0.0396817618152
7.18,-0.0776671483848,0.214989654464,0.246004162729,1.50525926132,-0.0497593382061,1.22026440622,-0.657151377418,0.390897851276,0.0517560296219,1.08899654144,-3.01582419055,0.16557325566,-2.30428689968,0.0396817618152
7.2,-0.0777020607622,0.222808728714,0.245986702379,1.50522424075,-0.0497418820174,1.21480146387,-0.657151377418,0.392447258653,0.0518422487673,1.08617640476,-3.01866827434,0.165130313203,-2.30483156047,0.0398193774396
7.22,-0.0777020607622,0.222808728714,0.245986702379,1.50522424075,-0.0497418820174,1.21480146387,-0.657151377418,0.392447258653,0.0518422487673,1.08617640476,-3.01866827434,0.165130313203,-2.30483156047,0.0398193774396
7.24,-0.0775973402747,0.234537340089,0.245986702379,1.50545114208,-0.0496197095024,1.19928548789,-0.657151377418,0.395860047231,0.0522601433452,1.08208304293,-3.01859854786,0.1700623665,-2.30481719725,0.0399261135695
7.26,-0.0775973402747,0.234537340089,0.245986702379,1.50545114208,-0.0496197095024,1.19928548789,-0.657151377418,0.395860047231,0.0522601433452,1.08208304293,-3.01859854786,0.1700623665,-2.30481719725,0.0399261135695
7.28,-0.0774751677597,0.245567820429,0.246039066784,1.50541625467,-0.0492357399298,1.18122139937,-0.657151377418,0.399634948178,0.0528257344495,1.07841629836,-3.01641350161,0.177794303482,-2.30449821313,0.0399713494727
7.3,-0.0774751677597,0.245567820429,0.246039066784,1.50541625467,-0.0492357399298,1.18122139937,-0.657151377418,0.399634948178,0.0528257344495,1.07841629836,-3.01641350161,0.177794303482,-2.30449821313,0.0399713494727
7.32,-0.0774751677597,0.245567820429,0.246039066784,1.50541625467,-0.0492357399298,1.18122139937,-0.657151377418,0.399634948178,0.0528257344495,1.07841629836,-3.01641350161,0.177794303482,-2.30449821313,0.0399713494727
7.34,-0.0774577157322,0.251816112334,0.246073970839,1.50534647985,-0.0483281679198,1.17129047167,-0.657168821123,0.401699289022,0.0532263642054,1.07633789197,-3.01587213288,0.182392938916,-2.30461458796,0.0399974972649
7.36,-0.0774577157322,0.251816112334,0.246073970839,1.50534647985,-0.0483281679198,1.17129047167,-0.657168821123,0.401699289022,0.0532263642054,1.07633789197,-3.01587213288,0.182392938916,-2.30461458796,0.0399974972649
7.38,-0.0774402553823,0.257802582214,0.247121175714,1.50529414873,-0.0452738425611,1.16244158631,-0.657168821123,0.403440053186,0.0543046629005,1.07433884286,-3.01766551483,0.187792788176,-2.30460609838,0.0400223592057
7.4,-0.0774402553823,0.257802582214,0.247121175714,1.50529414873,-0.0452738425611,1.16244158631,-0.657168821123,0.403440053186,0.0543046629005,1.07433884286,-3.01766551483,0.187792788176,-2.30460609838,0.0400223592057
7.42,-0.0772482747572,0.264138125934,0.249425009794,1.50529414873,-0.0408232509711,1.15565225659,-0.657168821123,0.404726440715,0.0560769322349,1.07213599017,-3.02238511884,0.192423227685,-2.30405302634,0.0400768157723
7.44,-0.0772482747572,0.264138125934,0.249425009794,1.50529414873,-0.0408232509711,1.15565225659,-0.657168821123,0.404726440715,0.0560769322349,1.07213599017,-3.02238511884,0.192423227685,-2.30405302634,0.0400768157723
7.46,-0.0772482747572,0.264138125934,0.249425009794,1.50529414873,-0.0408232509711,1.15565225659,-0.657168821123,0.404726440715,0.0560769322349,1.07213599017,-3.02238511884,0.192423227685,-2.30405302634,0.0400768157723
7.48,-0.0768642968623,0.269426481424,0.253631239709,1.50517190964,-0.0372453273361,1.15240599638,-0.657168821123,0.405277697417,0.0584146150515,1.07029992963,-3.02805529329,0.194882984156,-2.30148509346,0.0401414552042
7.5,-0.0768642968623,0.269426481424,0.253631239709,1.50517190964,-0.0372453273361,1.15240599638,-0.657168821123,0.405277697417,0.0584146150515,1.07029992963,-3.02805529329,0.194882984156,-2.30148509346,0.0401414552042
7.52,-0.0756425717122,0.277140826864,0.261555042769,1.50538136726,-0.0367566331149,1.15120171493,-0.657186264828,0.40536176386,0.0619341658482,1.06738989146,-3.03538975851,0.192986261004,-2.29415131162,0.0402749681823
7.54,-0.0756425717122,0.277140826864,0.261555042769,1.50538136726,-0.0367566331149,1.15120171493,-0.657186264828,0.40536176386,0.0619341658482,1.06738989146,-3.03538975851,0.192986261004,-2.29415131162,0.0402749681823
7.56,-0.0749269886497,0.282621179624,0.269478829184,1.50538136726,-0.0367740893036,1.15120171493,-0.657186264828,0.405158323491,0.065148453411,1.06540671007,-3.04117892336,0.191433310343,-2.28692259044,0.0403642127681
7.58,-0.0749269886497,0.282621179624,0.269478829184,1.50538136726,-0.0367740893036,1.15120171493,-0.657186264828,0.405158323491,0.065148453411,1.06540671007,-3.04117892336,0.191433310343,-2.28692259044,0.0403642127681
7.6,-0.0749269886497,0.282621179624,0.269478829184,1.50538136726,-0.0367740893036,1.15120171493,-0.657186264828,0.405158323491,0.065148453411,1.06540671007,-3.04117892336,0.191433310343,-2.28692259044,0.0403642127681
7.62,-0.0747699037573,0.286007089344,0.272952040654,1.50538136726,-0.0368439015749,1.15120171493,-0.657186264828,0.405128140437,0.066478918287,1.06414846368,-3.04448249703,0.19015166056,-2.28404375858,0.0404306836988
7.64,-0.0747699037573,0.286007089344,0.272952040654,1.50538136726,-0.0368439015749,1.15120171493,-0.657186264828,0.405128140437,0.066478918287,1.06414846368,-3.04448249703,0.19015166056,-2.28404375858,0.0404306836988
7.66,-0.0748222681622,0.289497761164,0.275151162569,1.50532903614,-0.0373500478236,1.15118427123,-0.657203708533,0.405221786924,0.0671849261519,1.06283055811,-3.04726922681,0.188327362248,-2.28239305999,0.0405104995984
7.68,-0.0748222681622,0.289497761164,0.275151162569,1.50532903614,-0.0373500478236,1.15118427123,-0.657203708533,0.405221786924,0.0671849261519,1.06283055811,-3.04726922681,0.188327362248,-2.28239305999,0.0405104995984
7.7,-0.0745255587273,0.292761531659,0.277367728189,1.50529414873,-0.0374373121224,1.15116682752,-0.657203708533,0.405255175194,0.0681032939878,1.06160169121,-3.05022460869,0.186889880361,-2.28050914817,0.0405838393155
7.72,-0.0745255587273,0.292761531659,0.277367728189,1.50529414873,-0.0374373121224,1.15116682752,-0.657203708533,0.405255175194,0.0681032939878,1.06160169121,-3.05022460869,0.186889880361,-2.28050914817,0.0405838393155
7.74,-0.0745255587273,0.292761531659,0.277367728189,1.50529414873,-0.0374373121224,1.15116682752,-0.657203708533,0.405255175194,0.0681032939878,1.06160169121,-3.05022460869,0.186889880361,-2.28050914817,0.0405838393155
7.76,-0.0737227072048,0.296356898999,0.278449837119,1.50522424075,-0.0374373121224,1.15116682752,-0.657203708533,0.40534471806,0.0688172832762,1.06022037405,-3.05331562975,0.185064885714,-2.27924791288,0.0406765004455
7.78,-0.0737227072048,0.296356898999,0.278449837119,1.50522424075,-0.0374373121224,1.15116682752,-0.657203708533,0.40534471806,0.0688172832762,1.06022037405,-3.05331562975,0.185064885714,-2.27924791288,0.0406765004455
7.8,-0.0734259977698,0.302517922444,0.279741370379,1.50532903614,-0.0375420326099,1.15116682752,-0.657203708533,0.405547949201,0.069375077835,1.05776330102,-3.05857471518,0.181575419509,-2.27864424646,0.0408397839543
7.82,-0.0734259977698,0.302517922444,0.279741370379,1.50532903614,-0.0375420326099,1.15116682752,-0.657203708533,0.405547949201,0.069375077835,1.05776330102,-3.05857471518,0.181575419509,-2.27864424646,0.0408397839543
7.84,-0.0732863732273,0.308137891424,0.280055523519,1.50538136726,-0.0380307226699,1.15116682752,-0.657203708533,0.405809445408,0.0694519175029,1.0555070251,-3.06287903182,0.177990880904,-2.27885993102,0.0409963706446
7.86,-0.0732863732273,0.308137891424,0.280055523519,1.50538136726,-0.0380307226699,1.15116682752,-0.657203708533,0.405809445408,0.0694519175029,1.0555070251,-3.06287903182,0.177990880904,-2.27885993102,0.0409963706446
7.88,-0.0732863732273,0.308137891424,0.280055523519,1.50538136726,-0.0380307226699,1.15116682752,-0.657203708533,0.405809445408,0.0694519175029,1.0555070251,-3.06287903182,0.177990880904,-2.27885993102,0.0409963706446
7.9,-0.0733038252548,0.311837987574,0.280090444219,1.50524181761,-0.0391477356549,1.15116682752,-0.657203708533,0.406060037217,0.0692772680219,1.05406575469,-3.06494424099,0.175257669932,-2.27896161483,0.0411014971946
7.92,-0.0733038252548,0.311837987574,0.280090444219,1.50524181761,-0.0391477356549,1.15116682752,-0.657203708533,0.406060037217,0.0692772680219,1.05406575469,-3.06494424099,0.175257669932,-2.27896161483,0.0411014971946
7.94,-0.0731467486848,0.317946613324,0.280125331629,1.50524181761,-0.0402647444786,1.15113194011,-0.657221152238,0.406378958213,0.0691641207554,1.05161585988,-3.06903948534,0.171013442051,-2.27919919034,0.0412743523126
7.96,-0.0731467486848,0.317946613324,0.280125331629,1.50524181761,-0.0402647444786,1.15113194011,-0.657221152238,0.406378958213,0.0691641207554,1.05161585988,-3.06903948534,0.171013442051,-2.27919919034,0.0412743523126
7.98,-0.0730245761698,0.323968020549,0.280177696034,1.50513702223,-0.0403694649661,1.1510970527,-0.657238662522,0.406674037235,0.0692004374834,1.04924033782,-3.07379256946,0.16749894722,-2.2797964225,0.0414452215525
8.0,-0.0730245761698,0.323968020549,0.280177696034,1.50513702223,-0.0403694649661,1.1510970527,-0.657238662522,0.406674037235,0.0692004374834,1.04924033782,-3.07379256946,0.16749894722,-2.2797964225,0.0414452215525
8.02,-0.0730245761698,0.323968020549,0.280177696034,1.50513702223,-0.0403694649661,1.1510970527,-0.657238662522,0.406674037235,0.0692004374834,1.04924033782,-3.07379256946,0.16749894722,-2.2797964225,0.0414452215525
8.04,-0.0730245761698,0.330809714679,0.280317345544,1.50510213482,-0.0403869169936,1.15113194011,-0.657221152238,0.406960586872,0.0692277732148,1.04651336804,-3.07938729258,0.163459802313,-2.28060008508,0.0416398761119
8.06,-0.0730245761698,0.330809714679,0.280317345544,1.50510213482,-0.0403869169936,1.15113194011,-0.657221152238,0.406960586872,0.0692277732148,1.04651336804,-3.07938729258,0.163459802313,-2.28060008508,0.0416398761119
8.08,-0.0730071241422,0.339990130299,0.280404597359,1.50524181761,-0.0404916374811,1.15116682752,-0.657221152238,0.40727992962,0.0692211415528,1.04278898348,-3.08690587401,0.157822522209,-2.28166175272,0.0419014628327
8.1,-0.0730071241422,0.339990130299,0.280404597359,1.50524181761,-0.0404916374811,1.15116682752,-0.657221152238,0.40727992962,0.0692211415528,1.04278898348,-3.08690587401,0.157822522209,-2.28166175272,0.0419014628327
8.12,-0.0730071241422,0.348612081039,0.280474405469,1.50532903614,-0.0405789059411,1.15116682752,-0.657238662522,0.407566377008,0.0692095650753,1.03930326637,-3.09391189552,0.152584371862,-2.28263075427,0.0421471857202
8.14,-0.0730071241422,0.348612081039,0.280474405469,1.50532903614,-0.0405789059411,1.15116682752,-0.657238662522,0.407566377008,0.0692095650753,1.03930326637,-3.09391189552,0.152584371862,-2.28263075427,0.0421471857202
8.16,-0.0730071241422,0.348612081039,0.280474405469,1.50532903614,-0.0405789059411,1.15116682752,-0.657238662522,0.407566377008,0.0692095650753,1.03930326637,-3.09391189552,0.152584371862,-2.28263075427,0.0421471857202
8.18,-0.0730245761698,0.352294700194,0.280491849174,1.50513702223,-0.0407185304836,1.15113194011,-0.657238662522,0.407747894741,0.0691832828054,1.03788487186,-3.09665546374,0.150490092459,-2.28302881651,0.0422526743847
8.2,-0.0730245761698,0.352294700194,0.280491849174,1.50513702223,-0.0407185304836,1.15113194011,-0.657238662522,0.407747894741,0.0691832828054,1.03788487186,-3.09665546374,0.150490092459,-2.28302881651,0.0422526743847
8.22,-0.0730071241422,0.355872623829,0.280509326169,1.5050498037,-0.0408930632424,1.1508176871,-0.657238662522,0.407939568936,0.0691737275797,1.03648153553,-3.09917847522,0.148576374654,-2.28334979684,0.0423506710756
8.24,-0.0730071241422,0.355872623829,0.280509326169,1.5050498037,-0.0408930632424,1.1508176871,-0.657238662522,0.407939568936,0.0691737275797,1.03648153553,-3.09917847522,0.148576374654,-2.28334979684,0.0423506710756
8.26,-0.0730071241422,0.359520388864,0.280526769874,1.5049101209,-0.0411548644611,1.14715251165,-0.657238662522,0.408699012789,0.0692534052628,1.03514526456,-3.0995927319,0.149261819855,-2.28354784703,0.0424009843652
8.28,-0.0730071241422,0.359520388864,0.280526769874,1.5049101209,-0.0411548644611,1.14715251165,-0.657238662522,0.408699012789,0.0692534052628,1.03514526456,-3.0995927319,0.149261819855,-2.28354784703,0.0424009843652
8.3,-0.0730071241422,0.359520388864,0.280526769874,1.5049101209,-0.0411548644611,1.14715251165,-0.657238662522,0.408699012789,0.0692534052628,1.03514526456,-3.0995927319,0.149261819855,-2.28354784703,0.0424009843652
8.32,-0.0730071241422,0.362487416634,0.280561690574,1.50468321958,-0.0414864779511,1.14076465346,-0.657221152238,0.409906585108,0.0694201652005,1.03417534982,-3.09767489351,0.152540876104,-2.28354645626,0.0423904575054
8.34,-0.0730071241422,0.362487416634,0.280561690574,1.50468321958,-0.0414864779511,1.14076465346,-0.657221152238,0.409906585108,0.0694201652005,1.03417534982,-3.09767489351,0.152540876104,-2.28354645626,0.0423904575054
8.36,-0.0729547597373,0.368770612594,0.280596577984,1.50468321958,-0.0416435545211,1.13106062708,-0.657221152238,0.411682275488,0.0697307055435,1.03187793972,-3.09667924302,0.156384166676,-2.28383919729,0.0424219485285
8.38,-0.0729547597373,0.368770612594,0.280596577984,1.50468321958,-0.0416435545211,1.13106062708,-0.657221152238,0.411682275488,0.0697307055435,1.03187793972,-3.09667924302,0.156384166676,-2.28383919729,0.0424219485285
8.4,-0.0729896721147,0.373395724459,0.280561690574,1.50457855734,-0.0418180872799,1.12526612118,-0.657221152238,0.412795006988,0.0698559714667,1.03017844544,-3.09665302751,0.158175941217,-2.28421408673,0.0424655464865
8.42,-0.0729896721147,0.373395724459,0.280561690574,1.50457855734,-0.0418180872799,1.12526612118,-0.657221152238,0.412795006988,0.0698559714667,1.03017844544,-3.09665302751,0.158175941217,-2.28421408673,0.0424655464865
8.44,-0.0729722200872,0.374460389684,0.280596577984,1.50419452952,-0.0420275282549,1.1247076563,-0.657221152238,0.413015026877,0.0698672713446,1.02987867097,-3.09677798239,0.158172162582,-2.28419642606,0.0424888887838
8.46,-0.0729722200872,0.374460389684,0.280596577984,1.50419452952,-0.0420275282549,1.1247076563,-0.657221152238,0.413015026877,0.0698672713446,1.02987867097,-3.09677798239,0.158172162582,-2.28419642606,0.0424888887838
8.48,-0.0729722200872,0.374460389684,0.280596577984,1.50419452952,-0.0420275282549,1.1247076563,-0.657221152238,0.413015026877,0.0698672713446,1.02987867097,-3.09677798239,0.158172162582,-2.28419642606,0.0424888887838
8.5,-0.0729373077098,0.375141060369,0.280631498684,1.50396762819,-0.0420798884986,1.12467276889,-0.657221152238,0.413092664374,0.0698906463333,1.0296740123,-3.09713444888,0.157950603652,-2.28419513947,0.0425087072616
8.52,-0.0729373077098,0.375141060369,0.280631498684,1.50396762819,-0.0420798884986,1.12467276889,-0.657221152238,0.413092664374,0.0698906463333,1.0296740123,-3.09713444888,0.157950603652,-2.28419513947,0.0425087072616
8.54,-0.0729722200872,0.375367961694,0.280631498684,1.50375817057,-0.0421497007699,1.12465532519,-0.657221152238,0.41315943443,0.0698694167951,1.02964662914,-3.09712278952,0.157952582145,-2.28423036335,0.0425158943532
8.56,-0.0729722200872,0.375367961694,0.280631498684,1.50375817057,-0.0421497007699,1.12465532519,-0.657221152238,0.41315943443,0.0698694167951,1.02964662914,-3.09712278952,0.157952582145,-2.28423036335,0.0425158943532
8.58,-0.0729547597373,0.375333040994,0.280666386094,1.50349638184,-0.0422718732849,1.12465532519,-0.657221152238,0.413225952999,0.069875852081,1.02974241779,-3.09684357657,0.158118488866,-2.28412777466,0.0425157446705
8.6,-0.0729547597373,0.375333040994,0.280666386094,1.50349638184,-0.0422718732849,1.12465532519,-0.657221152238,0.413225952999,0.069875852081,1.02974241779,-3.09684357657,0.158118488866,-2.28412777466,0.0425157446705
8.62,-0.0729547597373,0.375333040994,0.280666386094,1.50349638184,-0.0422718732849,1.12465532519,-0.657221152238,0.413225952999,0.069875852081,1.02974241779,-3.09684357657,0.158118488866,-2.28412777466,0.0425157446705
8.64,-0.0729373077098,0.375385405399,0.280788558609,1.50347893813,-0.0423591417449,1.12463774832,-0.657221152238,0.413228045243,0.0699166020914,1.02973063653,-3.09682348629,0.158100910067,-2.28397113025,0.0425161007862
8.66,-0.0729373077098,0.375385405399,0.280788558609,1.50347893813,-0.0423591417449,1.12463774832,-0.657221152238,0.413228045243,0.0699166020914,1.02973063653,-3.09682348629,0.158100910067,-2.28397113025,0.0425161007862
8.68,-0.0729722200872,0.375402882394,0.280823479309,1.50318226199,-0.0424987662874,1.12462030462,-0.657221152238,0.413311853027,0.0698998400236,1.02981626433,-3.09654067126,0.158266581842,-2.28391989641,0.0425173343526
8.7,-0.0729722200872,0.375402882394,0.280823479309,1.50318226199,-0.0424987662874,1.12462030462,-0.657221152238,0.413311853027,0.0698998400236,1.02981626433,-3.09654067126,0.158266581842,-2.28391989641,0.0425173343526
8.72,-0.0729547597373,0.375455213509,0.280858366719,1.50037222756,-0.0426383949911,1.12465532519,-0.657221152238,0.414027418871,0.0699446944628,1.03066953488,-3.09474883728,0.160332038113,-2.28382907201,0.0425309632407
8.74,-0.0729547597373,0.375455213509,0.280858366719,1.50037222756,-0.0426383949911,1.12465532519,-0.657221152238,0.414027418871,0.0699446944628,1.03066953488,-3.09474883728,0.160332038113,-2.28382907201,0.0425309632407
8.76,-0.0729547597373,0.375455213509,0.280858366719,1.50037222756,-0.0426383949911,1.12465532519,-0.657221152238,0.414027418871,0.0699446944628,1.03066953488,-3.09474883728,0.160332038113,-2.28382907201,0.0425309632407
8.78,-0.0729373077098,0.375507577914,0.280910731124,1.4957645594,-0.0426732990461,1.12463774832,-0.657221152238,0.415202362102,0.070042002792,1.03209009599,-3.09188605489,0.163907236652,-2.28376038638,0.0425499513543
8.8,-0.0729373077098,0.375507577914,0.280910731124,1.4957645594,-0.0426732990461,1.12463774832,-0.657221152238,0.415202362102,0.070042002792,1.03209009599,-3.09188605489,0.163907236652,-2.28376038638,0.0425499513543
8.82,-0.0729547597373,0.375751922944,0.280893287419,1.49145370054,-0.0427082072624,1.12465532519,-0.657203708533,0.416302636839,0.0700905696019,1.03334038248,-3.0893724379,0.167088564615,-2.28382473362,0.0425730444786
8.84,-0.0729547597373,0.375751922944,0.280893287419,1.49145370054,-0.0427082072624,1.12465532519,-0.657203708533,0.416302636839,0.0700905696019,1.03334038248,-3.0893724379,0.167088564615,-2.28382473362,0.0425730444786
8.86,-0.0729373077098,0.375751922944,0.280928208119,1.48557184296,-0.0427431113174,1.12467276889,-0.657203708533,0.417779658232,0.0701964010797,1.03519258418,-3.08568417646,0.171656790529,-2.28374082768,0.0425920541519
8.88,-0.0729373077098,0.375751922944,0.280928208119,1.48557184296,-0.0427431113174,1.12467276889,-0.657203708533,0.417779658232,0.0701964010797,1.03519258418,-3.08568417646,0.171656790529,-2.28374082768,0.0425920541519
8.9,-0.0729373077098,0.375751922944,0.280928208119,1.48557184296,-0.0427431113174,1.12467276889,-0.657203708533,0.417779658232,0.0701964010797,1.03519258418,-3.08568417646,0.171656790529,-2.28374082768,0.0425920541519
8.92,-0.0729547597373,0.375821764344,0.280928208119,1.47991701986,-0.0428129277498,1.12462030462,-0.657221152238,0.41920899688,0.0702650245128,1.03695299644,-3.08211031027,0.176029705959,-2.28368271643,0.042609113899
8.94,-0.0729547597373,0.375821764344,0.280928208119,1.47991701986,-0.0428129277498,1.12462030462,-0.657221152238,0.41920899688,0.0702650245128,1.03695299644,-3.08211031027,0.176029705959,-2.28368271643,0.042609113899
8.96,-0.0729547597373,0.376048632379,0.280910731124,1.47417484508,-0.0428827400211,1.12462030462,-0.657221152238,0.420646940579,0.0703307864318,1.03868167642,-3.07863821299,0.180331055235,-2.28364961652,0.042629599415
8.98,-0.0729547597373,0.376048632379,0.280910731124,1.47417484508,-0.0428827400211,1.12462030462,-0.657221152238,0.420646940579,0.0703307864318,1.03868167642,-3.07863821299,0.180331055235,-2.28364961652,0.042629599415
9.0,-0.0729547597373,0.379050614139,0.280945651824,1.46440104388,-0.0429351002649,1.12458541721,-0.657221152238,0.423166410759,0.0704648541044,1.04055483103,-3.07490168501,0.186174513548,-2.28392379442,0.0427360684456
9.02,-0.0729547597373,0.379050614139,0.280945651824,1.46440104388,-0.0429351002649,1.12458541721,-0.657221152238,0.423166410759,0.0704648541044,1.04055483103,-3.07490168501,0.186174513548,-2.28392379442,0.0427360684456
9.04,-0.0729547597373,0.379050614139,0.280945651824,1.46440104388,-0.0429351002649,1.12458541721,-0.657221152238,0.423166410759,0.0704648541044,1.04055483103,-3.07490168501,0.186174513548,-2.28392379442,0.0427360684456
9.06,-0.0729722200872,0.386869688389,0.280910731124,1.4531786162,-0.0430572727799,1.12444586757,-0.657238662522,0.426225935153,0.0705535085195,1.04088037105,-3.07404493309,0.190287421998,-2.28493654214,0.0429821622914
9.08,-0.0729722200872,0.386869688389,0.280910731124,1.4531786162,-0.0430572727799,1.12444586757,-0.657238662522,0.426225935153,0.0705535085195,1.04088037105,-3.07404493309,0.190287421998,-2.28493654214,0.0429821622914
9.1,-0.0730245761698,0.394985472074,0.280875843714,1.44487088518,-0.0431968973224,1.12446331127,-0.657221152238,0.428552904628,0.070573120617,1.04012455962,-3.07534790851,0.191809029478,-2.28612710482,0.0432335807249
9.12,-0.0730245761698,0.394985472074,0.280875843714,1.44487088518,-0.0431968973224,1.12446331127,-0.657221152238,0.428552904628,0.070573120617,1.04012455962,-3.07534790851,0.191809029478,-2.28612710482,0.0432335807249
9.14,-0.0729722200872,0.405125824109,0.280893287419,1.43497484488,-0.0432841657824,1.12453308609,-0.657221152238,0.431310353486,0.0706681964218,1.03900054905,-3.07738528161,0.193351905318,-2.28749051248,0.0435451125183
