GitHatake/ROS1EARs/catkin_ws/src/torobo_robot/torobo_EARs2021/scripts/arm/2021_kaiya_csv/test_manipulability_20220119_2_pvt_1.csv
time,joint_1,joint_2,joint_3,joint_4,joint_5,joint_6,joint_7,x,y,z,roll,pitch,yaw,manipulability
0.0,0.583987151738,0.443837234108,0.265185330809,1.30096844042,-0.270648206574,1.16359353664,-0.657273549933,0.350682470242,0.307301228805,1.06541049903,-2.86820777155,0.0966250640703,-1.58417052934,0.0447382148463
0.02,0.583969708033,0.443837234108,0.265185330809,1.30096844042,-0.270648206574,1.16361098035,-0.657273549933,0.350686055674,0.307292845648,1.06540978569,-2.86821879032,0.0966117674,-1.5841917189,0.0447384579377
0.04,0.583969708033,0.443837234108,0.265185330809,1.30096844042,-0.270648206574,1.16361098035,-0.657273549933,0.350686055674,0.307292845648,1.06540978569,-2.86821879032,0.0966117674,-1.5841917189,0.0447384579377
0.06,0.583987151738,0.443837234108,0.265185330809,1.30096844042,-0.270648206574,1.16359353664,-0.657273549933,0.350682470242,0.307301228805,1.06541049903,-2.86820777155,0.0966250640703,-1.58417052934,0.0447382148463
0.08,0.583987151738,0.443837234108,0.265185330809,1.30096844042,-0.270648206574,1.16359353664,-0.657273549933,0.350682470242,0.307301228805,1.06541049903,-2.86820777155,0.0966250640703,-1.58417052934,0.0447382148463
0.1,0.583987151738,0.443837234108,0.265185330809,1.30096844042,-0.270630746224,1.16361098035,-0.657273549933,0.350678640802,0.307300704156,1.06540936651,-2.86823187183,0.0966230658803,-1.58417830748,0.0447384673796
0.12,0.583987151738,0.443837234108,0.265185330809,1.30096844042,-0.270630746224,1.16361098035,-0.657273549933,0.350678640802,0.307300704156,1.06540936651,-2.86823187183,0.0966230658803,-1.58417830748,0.0447384673796
0.14,0.583987151738,0.443837234108,0.265185330809,1.30096844042,-0.270648206574,1.16361098035,-0.657273549933,0.350678640802,0.307300704156,1.06540936651,-2.86823187183,0.0966230658803,-1.58417830748,0.0447384673796
0.16,0.583987151738,0.443837234108,0.265185330809,1.30096844042,-0.270648206574,1.16361098035,-0.657273549933,0.350680695295,0.307298962865,1.06540978569,-2.86821879032,0.0966117674,-1.5841742752,0.0447384579377
0.18,0.583987151738,0.443837234108,0.265185330809,1.30096844042,-0.270648206574,1.16361098035,-0.657273549933,0.350680695295,0.307298962865,1.06540978569,-2.86821879032,0.0966117674,-1.5841742752,0.0447384579377
0.2,0.583987151738,0.443837234108,0.265185330809,1.30096844042,-0.270630746224,1.16361098035,-0.657273549933,0.350678640802,0.307300704156,1.06540936651,-2.86823187183,0.0966230658803,-1.58417830748,0.0447384673796
0.22,0.583987151738,0.443837234108,0.265185330809,1.30096844042,-0.270630746224,1.16361098035,-0.657273549933,0.350678640802,0.307300704156,1.06540936651,-2.86823187183,0.0966230658803,-1.58417830748,0.0447384673796
0.24,0.583987151738,0.443837234108,0.265185330809,1.30096844042,-0.270630746224,1.16361098035,-0.657273549933,0.350678640802,0.307300704156,1.06540936651,-2.86823187183,0.0966230658803,-1.58417830748,0.0447384673796
0.26,0.583987151738,0.443837234108,0.265185330809,1.30096844042,-0.270630746224,1.16361098035,-0.657273549933,0.350678640802,0.307300704156,1.06540936651,-2.86823187183,0.0966230658803,-1.58417830748,0.0447384673796
0.28,0.583987151738,0.443837234108,0.265185330809,1.30096844042,-0.270630746224,1.16361098035,-0.657273549933,0.350678640802,0.307300704156,1.06540936651,-2.86823187183,0.0966230658803,-1.58417830748,0.0447384673796
0.3,0.583987151738,0.443837234108,0.265185330809,1.30096844042,-0.270630746224,1.16361098035,-0.657273549933,0.350678640802,0.307300704156,1.06540936651,-2.86823187183,0.0966230658803,-1.58417830748,0.0447384673796
0.32,0.583987151738,0.443837234108,0.265185330809,1.30096844042,-0.270630746224,1.16361098035,-0.657273549933,0.350678640802,0.307300704156,1.06540936651,-2.86823187183,0.0966230658803,-1.58417830748,0.0447384673796
0.34,0.583987151738,0.443837234108,0.265167870459,1.30096844042,-0.270648206574,1.16361098035,-0.657273549933,0.350685291213,0.30729381094,1.06540931321,-2.86821455337,0.0966055682504,-1.58418963513,0.0447385709905
0.36,0.583987151738,0.443837234108,0.265167870459,1.30096844042,-0.270648206574,1.16361098035,-0.657273549933,0.350685291213,0.30729381094,1.06540931321,-2.86821455337,0.0966055682504,-1.58418963513,0.0447385709905
0.38,0.583987151738,0.443837234108,0.265185330809,1.30096844042,-0.270648206574,1.16361098035,-0.657273549933,0.350680695295,0.307298962865,1.06540978569,-2.86821879032,0.0966117674,-1.5841742752,0.0447384579377
0.4,0.583987151738,0.443837234108,0.265185330809,1.30096844042,-0.270648206574,1.16361098035,-0.657273549933,0.350680695295,0.307298962865,1.06540978569,-2.86821879032,0.0966117674,-1.5841742752,0.0447384579377
0.42,0.583987151738,0.443837234108,0.265185330809,1.30096844042,-0.270648206574,1.16361098035,-0.657273549933,0.350680695295,0.307298962865,1.06540978569,-2.86821879032,0.0966117674,-1.5841742752,0.0447384579377
0.44,0.583987151738,0.443837234108,0.265185330809,1.30096844042,-0.270648206574,1.16361098035,-0.657273549933,0.350680695295,0.307298962865,1.06540978569,-2.86821879032,0.0966117674,-1.5841742752,0.0447384579377
0.46,0.583987151738,0.443837234108,0.265185330809,1.30096844042,-0.270648206574,1.16361098035,-0.657273549933,0.350680695295,0.307298962865,1.06540978569,-2.86821879032,0.0966117674,-1.5841742752,0.0447384579377
0.48,0.583969708033,0.443837234108,0.265185330809,1.30096844042,-0.270648206574,1.16361098035,-0.657273549933,0.350686055674,0.307292845648,1.06540978569,-2.86821879032,0.0966117674,-1.5841917189,0.0447384579377
0.5,0.583969708033,0.443837234108,0.265185330809,1.30096844042,-0.270648206574,1.16361098035,-0.657273549933,0.350686055674,0.307292845648,1.06540978569,-2.86821879032,0.0966117674,-1.5841917189,0.0447384579377
0.52,0.583987151738,0.443837234108,0.265185330809,1.30096844042,-0.270648206574,1.16361098035,-0.657273549933,0.350680695295,0.307298962865,1.06540978569,-2.86821879032,0.0966117674,-1.5841742752,0.0447384579377
0.54,0.583987151738,0.443837234108,0.265185330809,1.30096844042,-0.270648206574,1.16361098035,-0.657273549933,0.350680695295,0.307298962865,1.06540978569,-2.86821879032,0.0966117674,-1.5841742752,0.0447384579377
0.56,0.583987151738,0.443819790403,0.265185330809,1.30096844042,-0.270648206574,1.16361098035,-0.657273549933,0.350680695295,0.307298962865,1.06540978569,-2.86821879032,0.0966117674,-1.5841742752,0.0447384579377
0.58,0.583987151738,0.443819790403,0.265185330809,1.30096844042,-0.270648206574,1.16361098035,-0.657273549933,0.350679816106,0.307298381825,1.06541784456,-2.86820429992,0.0966215788782,-1.58417287736,0.0447378890586
0.6,0.583987151738,0.443819790403,0.265185330809,1.30096844042,-0.270648206574,1.16361098035,-0.657273549933,0.350679816106,0.307298381825,1.06541784456,-2.86820429992,0.0966215788782,-1.58417287736,0.0447378890586
0.62,0.583969708033,0.443819790403,0.265185330809,1.30096844042,-0.270648206574,1.16361098035,-0.657273549933,0.350685176475,0.307292264623,1.06541784456,-2.86820429992,0.0966215788782,-1.58419032107,0.0447378890586
0.64,0.583969708033,0.443819790403,0.265185330809,1.30096844042,-0.270648206574,1.16361098035,-0.657273549933,0.350685176475,0.307292264623,1.06541784456,-2.86820429992,0.0966215788782,-1.58419032107,0.0447378890586
0.66,0.583987151738,0.443837234108,0.265185330809,1.30096844042,-0.270648206574,1.16359353664,-0.657273549933,0.350682470242,0.307301228805,1.06541049903,-2.86820777155,0.0966250640703,-1.58417052934,0.0447382148463
0.68,0.583987151738,0.443837234108,0.265185330809,1.30096844042,-0.270648206574,1.16359353664,-0.657273549933,0.350682470242,0.307301228805,1.06541049903,-2.86820777155,0.0966250640703,-1.58417052934,0.0447382148463
0.7,0.583987151738,0.443837234108,0.265185330809,1.30096844042,-0.270630746224,1.16361098035,-0.657273549933,0.350682470242,0.307301228805,1.06541049903,-2.86820777155,0.0966250640703,-1.58417052934,0.0447382148463
0.72,0.583987151738,0.443837234108,0.265185330809,1.30096844042,-0.270630746224,1.16361098035,-0.657273549933,0.350678640802,0.307300704156,1.06540936651,-2.86823187183,0.0966230658803,-1.58417830748,0.0447384673796
0.74,0.583987151738,0.443837234108,0.265185330809,1.30096844042,-0.270630746224,1.16361098035,-0.657273549933,0.350678640802,0.307300704156,1.06540936651,-2.86823187183,0.0966230658803,-1.58417830748,0.0447384673796
0.76,0.583969708033,0.443837234108,0.265185330809,1.30096844042,-0.270648206574,1.16359353664,-0.657273549933,0.35068783066,0.307295111557,1.06541049903,-2.86820777155,0.0966250640703,-1.58418797305,0.0447382148463
0.78,0.583969708033,0.443837234108,0.265185330809,1.30096844042,-0.270648206574,1.16359353664,-0.657273549933,0.35068783066,0.307295111557,1.06541049903,-2.86820777155,0.0966250640703,-1.58418797305,0.0447382148463
0.8,0.583987151738,0.443837234108,0.265185330809,1.30096844042,-0.270630746224,1.16361098035,-0.657273549933,0.350678640802,0.307300704156,1.06540936651,-2.86823187183,0.0966230658803,-1.58417830748,0.0447384673796
0.82,0.583987151738,0.443837234108,0.265185330809,1.30096844042,-0.270630746224,1.16361098035,-0.657273549933,0.350678640802,0.307300704156,1.06540936651,-2.86823187183,0.0966230658803,-1.58417830748,0.0447384673796
0.84,0.583987151738,0.443837234108,0.265185330809,1.30096844042,-0.270648206574,1.16361098035,-0.657273549933,0.350680695295,0.307298962865,1.06540978569,-2.86821879032,0.0966117674,-1.5841742752,0.0447384579377
0.86,0.583987151738,0.443837234108,0.265185330809,1.30096844042,-0.270648206574,1.16361098035,-0.657273549933,0.350680695295,0.307298962865,1.06540978569,-2.86821879032,0.0966117674,-1.5841742752,0.0447384579377
0.88,0.583987151738,0.443837234108,0.265185330809,1.30096844042,-0.270648206574,1.16361098035,-0.657273549933,0.350680695295,0.307298962865,1.06540978569,-2.86821879032,0.0966117674,-1.5841742752,0.0447384579377
0.9,0.583987151738,0.443837234108,0.265185330809,1.30096844042,-0.270648206574,1.16361098035,-0.657273549933,0.350680695295,0.307298962865,1.06540978569,-2.86821879032,0.0966117674,-1.5841742752,0.0447384579377
0.92,0.583987151738,0.443837234108,0.265185330809,1.30096844042,-0.270648206574,1.16361098035,-0.657273549933,0.350680695295,0.307298962865,1.06540978569,-2.86821879032,0.0966117674,-1.5841742752,0.0447384579377
0.94,0.583987151738,0.443837234108,0.265185330809,1.30096844042,-0.270630746224,1.16361098035,-0.657273549933,0.350678640802,0.307300704156,1.06540936651,-2.86823187183,0.0966230658803,-1.58417830748,0.0447384673796
0.96,0.583987151738,0.443837234108,0.265185330809,1.30096844042,-0.270630746224,1.16361098035,-0.657273549933,0.350678640802,0.307300704156,1.06540936651,-2.86823187183,0.0966230658803,-1.58417830748,0.0447384673796
0.98,0.583987151738,0.443837234108,0.265185330809,1.30096844042,-0.270648206574,1.16359353664,-0.657273549933,0.350682470242,0.307301228805,1.06541049903,-2.86820777155,0.0966250640703,-1.58417052934,0.0447382148463
1.0,0.583987151738,0.443837234108,0.265185330809,1.30096844042,-0.270648206574,1.16359353664,-0.657273549933,0.350682470242,0.307301228805,1.06541049903,-2.86820777155,0.0966250640703,-1.58417052934,0.0447382148463
1.02,0.583987151738,0.443837234108,0.265185330809,1.30096844042,-0.270648206574,1.16359353664,-0.657273549933,0.350682470242,0.307301228805,1.06541049903,-2.86820777155,0.0966250640703,-1.58417052934,0.0447382148463
1.04,0.583987151738,0.443837234108,0.265185330809,1.30096844042,-0.270648206574,1.16361098035,-0.657273549933,0.350680695295,0.307298962865,1.06540978569,-2.86821879032,0.0966117674,-1.5841742752,0.0447384579377
1.06,0.583987151738,0.443837234108,0.265185330809,1.30096844042,-0.270648206574,1.16361098035,-0.657273549933,0.350680695295,0.307298962865,1.06540978569,-2.86821879032,0.0966117674,-1.5841742752,0.0447384579377
1.08,0.583987151738,0.443837234108,0.265185330809,1.30096844042,-0.270630746224,1.16361098035,-0.657273549933,0.350678640802,0.307300704156,1.06540936651,-2.86823187183,0.0966230658803,-1.58417830748,0.0447384673796
1.1,0.583987151738,0.443837234108,0.265185330809,1.30096844042,-0.270630746224,1.16361098035,-0.657273549933,0.350678640802,0.307300704156,1.06540936651,-2.86823187183,0.0966230658803,-1.58417830748,0.0447384673796
1.12,0.583987151738,0.443837234108,0.265185330809,1.30096844042,-0.270648206574,1.16361098035,-0.657273549933,0.350680695295,0.307298962865,1.06540978569,-2.86821879032,0.0966117674,-1.5841742752,0.0447384579377
1.14,0.583987151738,0.443837234108,0.265185330809,1.30096844042,-0.270648206574,1.16361098035,-0.657273549933,0.350680695295,0.307298962865,1.06540978569,-2.86821879032,0.0966117674,-1.5841742752,0.0447384579377
1.16,0.583987151738,0.443837234108,0.265185330809,1.30096844042,-0.270648206574,1.16361098035,-0.657273549933,0.350680695295,0.307298962865,1.06540978569,-2.86821879032,0.0966117674,-1.5841742752,0.0447384579377
1.18,0.583987151738,0.443837234108,0.265185330809,1.30096844042,-0.270648206574,1.16359353664,-0.657273549933,0.350682470242,0.307301228805,1.06541049903,-2.86820777155,0.0966250640703,-1.58417052934,0.0447382148463
1.2,0.583987151738,0.443837234108,0.265185330809,1.30096844042,-0.270648206574,1.16359353664,-0.657273549933,0.350682470242,0.307301228805,1.06541049903,-2.86820777155,0.0966250640703,-1.58417052934,0.0447382148463
1.22,0.583987151738,0.443837234108,0.265185330809,1.30096844042,-0.270648206574,1.16361098035,-0.657273549933,0.350680695295,0.307298962865,1.06540978569,-2.86821879032,0.0966117674,-1.5841742752,0.0447384579377
1.24,0.583987151738,0.443837234108,0.265185330809,1.30096844042,-0.270648206574,1.16361098035,-0.657273549933,0.350680695295,0.307298962865,1.06540978569,-2.86821879032,0.0966117674,-1.5841742752,0.0447384579377
1.26,0.583987151738,0.443837234108,0.265185330809,1.30096844042,-0.270648206574,1.16361098035,-0.657273549933,0.350680695295,0.307298962865,1.06540978569,-2.86821879032,0.0966117674,-1.5841742752,0.0447384579377
1.28,0.583987151738,0.443837234108,0.265185330809,1.30096844042,-0.270648206574,1.16361098035,-0.657273549933,0.350680695295,0.307298962865,1.06540978569,-2.86821879032,0.0966117674,-1.5841742752,0.0447384579377
1.3,0.583987151738,0.443837234108,0.265185330809,1.30096844042,-0.270648206574,1.16361098035,-0.657273549933,0.350680695295,0.307298962865,1.06540978569,-2.86821879032,0.0966117674,-1.5841742752,0.0447384579377
1.32,0.583987151738,0.443837234108,0.265185330809,1.30096844042,-0.270648206574,1.16361098035,-0.657273549933,0.350680695295,0.307298962865,1.06540978569,-2.86821879032,0.0966117674,-1.5841742752,0.0447384579377
1.34,0.583987151738,0.443837234108,0.265185330809,1.30096844042,-0.270648206574,1.16361098035,-0.657273549933,0.350680695295,0.307298962865,1.06540978569,-2.86821879032,0.0966117674,-1.5841742752,0.0447384579377
1.36,0.583987151738,0.443837234108,0.265185330809,1.30096844042,-0.270648206574,1.16361098035,-0.657273549933,0.350680695295,0.307298962865,1.06540978569,-2.86821879032,0.0966117674,-1.5841742752,0.0447384579377
1.38,0.583987151738,0.443837234108,0.265185330809,1.30096844042,-0.270648206574,1.16361098035,-0.657273549933,0.350680695295,0.307298962865,1.06540978569,-2.86821879032,0.0966117674,-1.5841742752,0.0447384579377
1.4,0.583987151738,0.443837234108,0.265185330809,1.30096844042,-0.270648206574,1.16361098035,-0.657273549933,0.350680695295,0.307298962865,1.06540978569,-2.86821879032,0.0966117674,-1.5841742752,0.0447384579377
1.42,0.583987151738,0.443837234108,0.265185330809,1.30096844042,-0.270648206574,1.16361098035,-0.657273549933,0.350680695295,0.307298962865,1.06540978569,-2.86821879032,0.0966117674,-1.5841742752,0.0447384579377
1.44,0.583987151738,0.443837234108,0.265185330809,1.30096844042,-0.270648206574,1.16361098035,-0.657273549933,0.350680695295,0.307298962865,1.06540978569,-2.86821879032,0.0966117674,-1.5841742752,0.0447384579377
1.46,0.583987151738,0.443837234108,0.265185330809,1.30096844042,-0.270648206574,1.16361098035,-0.657273549933,0.350680695295,0.307298962865,1.06540978569,-2.86821879032,0.0966117674,-1.5841742752,0.0447384579377
1.48,0.583987151738,0.443837234108,0.265185330809,1.30096844042,-0.270648206574,1.16361098035,-0.657273549933,0.350680695295,0.307298962865,1.06540978569,-2.86821879032,0.0966117674,-1.5841742752,0.0447384579377
1.5,0.583969708033,0.443837234108,0.265185330809,1.30096844042,-0.270648206574,1.16361098035,-0.657273549933,0.350686055674,0.307292845648,1.06540978569,-2.86821879032,0.0966117674,-1.5841917189,0.0447384579377
1.52,0.583969708033,0.443837234108,0.265185330809,1.30096844042,-0.270648206574,1.16361098035,-0.657273549933,0.350686055674,0.307292845648,1.06540978569,-2.86821879032,0.0966117674,-1.5841917189,0.0447384579377
1.54,0.583987151738,0.443837234108,0.265185330809,1.30096844042,-0.270630746224,1.16361098035,-0.657273549933,0.350678640802,0.307300704156,1.06540936651,-2.86823187183,0.0966230658803,-1.58417830748,0.0447384673796
1.56,0.583987151738,0.443837234108,0.265185330809,1.30096844042,-0.270630746224,1.16361098035,-0.657273549933,0.350678640802,0.307300704156,1.06540936651,-2.86823187183,0.0966230658803,-1.58417830748,0.0447384673796
1.58,0.583987151738,0.443837234108,0.265185330809,1.30096844042,-0.270630746224,1.16361098035,-0.657273549933,0.350678640802,0.307300704156,1.06540936651,-2.86823187183,0.0966230658803,-1.58417830748,0.0447384673796
1.6,0.583987151738,0.443837234108,0.265185330809,1.30096844042,-0.270648206574,1.16361098035,-0.657273549933,0.350678640802,0.307300704156,1.06540936651,-2.86823187183,0.0966230658803,-1.58417830748,0.0447384673796
1.62,0.583987151738,0.443837234108,0.265185330809,1.30096844042,-0.270648206574,1.16361098035,-0.657273549933,0.350680695295,0.307298962865,1.06540978569,-2.86821879032,0.0966117674,-1.5841742752,0.0447384579377
1.64,0.583987151738,0.443837234108,0.265185330809,1.30096844042,-0.270648206574,1.16361098035,-0.657273549933,0.350680695295,0.307298962865,1.06540978569,-2.86821879032,0.0966117674,-1.5841742752,0.0447384579377
1.66,0.583987151738,0.443837234108,0.265185330809,1.30096844042,-0.270648206574,1.16361098035,-0.657273549933,0.350680695295,0.307298962865,1.06540978569,-2.86821879032,0.0966117674,-1.5841742752,0.0447384579377
1.68,0.583987151738,0.443837234108,0.265185330809,1.30096844042,-0.270648206574,1.16361098035,-0.657273549933,0.350680695295,0.307298962865,1.06540978569,-2.86821879032,0.0966117674,-1.5841742752,0.0447384579377
1.7,0.583969708033,0.443837234108,0.265185330809,1.30096844042,-0.270648206574,1.16361098035,-0.657273549933,0.350686055674,0.307292845648,1.06540978569,-2.86821879032,0.0966117674,-1.5841917189,0.0447384579377
1.72,0.583969708033,0.443837234108,0.265185330809,1.30096844042,-0.270648206574,1.16361098035,-0.657273549933,0.350686055674,0.307292845648,1.06540978569,-2.86821879032,0.0966117674,-1.5841917189,0.0447384579377
1.74,0.583987151738,0.443837234108,0.265185330809,1.30096844042,-0.270648206574,1.16361098035,-0.657273549933,0.350680695295,0.307298962865,1.06540978569,-2.86821879032,0.0966117674,-1.5841742752,0.0447384579377
1.76,0.583987151738,0.443837234108,0.265185330809,1.30096844042,-0.270648206574,1.16361098035,-0.657273549933,0.350680695295,0.307298962865,1.06540978569,-2.86821879032,0.0966117674,-1.5841742752,0.0447384579377
1.78,0.583987151738,0.443837234108,0.265185330809,1.30096844042,-0.270648206574,1.16361098035,-0.657273549933,0.350680695295,0.307298962865,1.06540978569,-2.86821879032,0.0966117674,-1.5841742752,0.0447384579377
1.8,0.583987151738,0.443837234108,0.265185330809,1.30096844042,-0.270630746224,1.16361098035,-0.657273549933,0.350678640802,0.307300704156,1.06540936651,-2.86823187183,0.0966230658803,-1.58417830748,0.0447384673796
1.82,0.583987151738,0.443837234108,0.265185330809,1.30096844042,-0.270648206574,1.16359353664,-0.657273549933,0.350678640802,0.307300704156,1.06540936651,-2.86823187183,0.0966230658803,-1.58417830748,0.0447384673796
1.84,0.583987151738,0.443837234108,0.265185330809,1.30096844042,-0.270648206574,1.16359353664,-0.657273549933,0.350682470242,0.307301228805,1.06541049903,-2.86820777155,0.0966250640703,-1.58417052934,0.0447382148463
1.86,0.583987151738,0.443837234108,0.265185330809,1.30096844042,-0.270648206574,1.16359353664,-0.657273549933,0.350682470242,0.307301228805,1.06541049903,-2.86820777155,0.0966250640703,-1.58417052934,0.0447382148463
1.88,0.583969708033,0.443837234108,0.265185330809,1.30096844042,-0.270648206574,1.16359353664,-0.657273549933,0.35068783066,0.307295111557,1.06541049903,-2.86820777155,0.0966250640703,-1.58418797305,0.0447382148463
1.9,0.583969708033,0.443837234108,0.265185330809,1.30096844042,-0.270648206574,1.16359353664,-0.657273549933,0.35068783066,0.307295111557,1.06541049903,-2.86820777155,0.0966250640703,-1.58418797305,0.0447382148463
1.92,0.583969708033,0.443837234108,0.265185330809,1.30096844042,-0.270630746224,1.16361098035,-0.657273549933,0.350684001212,0.307294586974,1.06540936651,-2.86823187183,0.0966230658803,-1.58419575119,0.0447384673796
1.94,0.583969708033,0.443837234108,0.265185330809,1.30096844042,-0.270630746224,1.16361098035,-0.657273549933,0.350684001212,0.307294586974,1.06540936651,-2.86823187183,0.0966230658803,-1.58419575119,0.0447384673796
1.96,0.583987151738,0.443837234108,0.265185330809,1.30096844042,-0.270648206574,1.16361098035,-0.657273549933,0.350680695295,0.307298962865,1.06540978569,-2.86821879032,0.0966117674,-1.5841742752,0.0447384579377
1.98,0.583987151738,0.443837234108,0.265185330809,1.30096844042,-0.270648206574,1.16361098035,-0.657273549933,0.350680695295,0.307298962865,1.06540978569,-2.86821879032,0.0966117674,-1.5841742752,0.0447384579377
2.0,0.583987151738,0.443837234108,0.265185330809,1.30096844042,-0.270648206574,1.16361098035,-0.657273549933,0.350680695295,0.307298962865,1.06540978569,-2.86821879032,0.0966117674,-1.5841742752,0.0447384579377
2.02,0.583987151738,0.443837234108,0.265185330809,1.30096844042,-0.270648206574,1.16361098035,-0.657273549933,0.350680695295,0.307298962865,1.06540978569,-2.86821879032,0.0966117674,-1.5841742752,0.0447384579377
2.04,0.583987151738,0.443837234108,0.265185330809,1.30096844042,-0.270648206574,1.16361098035,-0.657273549933,0.350680695295,0.307298962865,1.06540978569,-2.86821879032,0.0966117674,-1.5841742752,0.0447384579377
2.06,0.583987151738,0.443837234108,0.265185330809,1.30096844042,-0.270630746224,1.16361098035,-0.657273549933,0.350678640802,0.307300704156,1.06540936651,-2.86823187183,0.0966230658803,-1.58417830748,0.0447384673796
2.08,0.583987151738,0.443837234108,0.265185330809,1.30096844042,-0.270630746224,1.16361098035,-0.657273549933,0.350678640802,0.307300704156,1.06540936651,-2.86823187183,0.0966230658803,-1.58417830748,0.0447384673796
2.1,0.583987151738,0.443837234108,0.265185330809,1.30096844042,-0.270648206574,1.16361098035,-0.657273549933,0.350680695295,0.307298962865,1.06540978569,-2.86821879032,0.0966117674,-1.5841742752,0.0447384579377
2.12,0.583987151738,0.443837234108,0.265185330809,1.30096844042,-0.270648206574,1.16361098035,-0.657273549933,0.350680695295,0.307298962865,1.06540978569,-2.86821879032,0.0966117674,-1.5841742752,0.0447384579377
2.14,0.583987151738,0.443837234108,0.265185330809,1.30096844042,-0.270648206574,1.16361098035,-0.657273549933,0.350680695295,0.307298962865,1.06540978569,-2.86821879032,0.0966117674,-1.5841742752,0.0447384579377
2.16,0.583987151738,0.443837234108,0.265185330809,1.30096844042,-0.270648206574,1.16361098035,-0.657273549933,0.350680695295,0.307298962865,1.06540978569,-2.86821879032,0.0966117674,-1.5841742752,0.0447384579377
2.18,0.583987151738,0.443837234108,0.265185330809,1.30096844042,-0.270648206574,1.16361098035,-0.657273549933,0.350680695295,0.307298962865,1.06540978569,-2.86821879032,0.0966117674,-1.5841742752,0.0447384579377
2.2,0.583987151738,0.443837234108,0.265185330809,1.30096844042,-0.270630746224,1.16361098035,-0.657273549933,0.350678640802,0.307300704156,1.06540936651,-2.86823187183,0.0966230658803,-1.58417830748,0.0447384673796
2.22,0.583987151738,0.443837234108,0.265185330809,1.30096844042,-0.270630746224,1.16361098035,-0.657273549933,0.350678640802,0.307300704156,1.06540936651,-2.86823187183,0.0966230658803,-1.58417830748,0.0447384673796
2.24,0.583987151738,0.443837234108,0.265167870459,1.30096844042,-0.270648206574,1.16359353664,-0.657273549933,0.350687066193,0.307296076857,1.06541002654,-2.86820353461,0.0966188649049,-1.58418588923,0.0447383278981
2.26,0.583987151738,0.443837234108,0.265167870459,1.30096844042,-0.270648206574,1.16359353664,-0.657273549933,0.350687066193,0.307296076857,1.06541002654,-2.86820353461,0.0966188649049,-1.58418588923,0.0447383278981
2.28,0.583987151738,0.443837234108,0.265167870459,1.30096844042,-0.270648206574,1.16359353664,-0.657273549933,0.350687066193,0.307296076857,1.06541002654,-2.86820353461,0.0966188649049,-1.58418588923,0.0447383278981
2.3,0.583969708033,0.443837234108,0.265185330809,1.30096844042,-0.270648206574,1.16361098035,-0.657273549933,0.350686055674,0.307292845648,1.06540978569,-2.86821879032,0.0966117674,-1.5841917189,0.0447384579377
2.32,0.583969708033,0.443837234108,0.265185330809,1.30096844042,-0.270648206574,1.16361098035,-0.657273549933,0.350686055674,0.307292845648,1.06540978569,-2.86821879032,0.0966117674,-1.5841917189,0.0447384579377
2.34,0.583987151738,0.443837234108,0.265185330809,1.30096844042,-0.270648206574,1.16361098035,-0.657273549933,0.350680695295,0.307298962865,1.06540978569,-2.86821879032,0.0966117674,-1.5841742752,0.0447384579377
2.36,0.583987151738,0.443837234108,0.265185330809,1.30096844042,-0.270648206574,1.16361098035,-0.657273549933,0.350680695295,0.307298962865,1.06540978569,-2.86821879032,0.0966117674,-1.5841742752,0.0447384579377
2.38,0.583987151738,0.443837234108,0.265185330809,1.30096844042,-0.270648206574,1.16361098035,-0.657273549933,0.350680695295,0.307298962865,1.06540978569,-2.86821879032,0.0966117674,-1.5841742752,0.0447384579377
2.4,0.583987151738,0.443837234108,0.265185330809,1.30096844042,-0.270648206574,1.16361098035,-0.657273549933,0.350680695295,0.307298962865,1.06540978569,-2.86821879032,0.0966117674,-1.5841742752,0.0447384579377
2.42,0.583987151738,0.443837234108,0.265185330809,1.30096844042,-0.270648206574,1.16361098035,-0.657273549933,0.350680695295,0.307298962865,1.06540978569,-2.86821879032,0.0966117674,-1.5841742752,0.0447384579377
2.44,0.583987151738,0.443837234108,0.265185330809,1.30096844042,-0.270630746224,1.16361098035,-0.657273549933,0.350678640802,0.307300704156,1.06540936651,-2.86823187183,0.0966230658803,-1.58417830748,0.0447384673796
2.46,0.583987151738,0.443837234108,0.265185330809,1.30096844042,-0.270630746224,1.16361098035,-0.657273549933,0.350678640802,0.307300704156,1.06540936651,-2.86823187183,0.0966230658803,-1.58417830748,0.0447384673796
2.48,0.583987151738,0.443837234108,0.265185330809,1.30096844042,-0.270648206574,1.16361098035,-0.657273549933,0.350680695295,0.307298962865,1.06540978569,-2.86821879032,0.0966117674,-1.5841742752,0.0447384579377
2.5,0.583987151738,0.443837234108,0.265185330809,1.30096844042,-0.270648206574,1.16361098035,-0.657273549933,0.350680695295,0.307298962865,1.06540978569,-2.86821879032,0.0966117674,-1.5841742752,0.0447384579377
2.52,0.583987151738,0.443837234108,0.265185330809,1.30096844042,-0.270648206574,1.16361098035,-0.657273549933,0.350680695295,0.307298962865,1.06540978569,-2.86821879032,0.0966117674,-1.5841742752,0.0447384579377
2.54,0.583987151738,0.443837234108,0.265185330809,1.30096844042,-0.270648206574,1.16361098035,-0.657273549933,0.350680695295,0.307298962865,1.06540978569,-2.86821879032,0.0966117674,-1.5841742752,0.0447384579377
2.56,0.583987151738,0.443837234108,0.265185330809,1.30096844042,-0.270648206574,1.16361098035,-0.657273549933,0.350680695295,0.307298962865,1.06540978569,-2.86821879032,0.0966117674,-1.5841742752,0.0447384579377
2.58,0.583987151738,0.443837234108,0.265185330809,1.30096844042,-0.270648206574,1.16361098035,-0.657273549933,0.350680695295,0.307298962865,1.06540978569,-2.86821879032,0.0966117674,-1.5841742752,0.0447384579377
2.6,0.583987151738,0.443837234108,0.265185330809,1.30096844042,-0.270648206574,1.16361098035,-0.657273549933,0.350680695295,0.307298962865,1.06540978569,-2.86821879032,0.0966117674,-1.5841742752,0.0447384579377
2.62,0.583987151738,0.443837234108,0.265185330809,1.30096844042,-0.270648206574,1.16361098035,-0.657273549933,0.350680695295,0.307298962865,1.06540978569,-2.86821879032,0.0966117674,-1.5841742752,0.0447384579377
2.64,0.583987151738,0.443837234108,0.265185330809,1.30096844042,-0.270648206574,1.16361098035,-0.657273549933,0.350680695295,0.307298962865,1.06540978569,-2.86821879032,0.0966117674,-1.5841742752,0.0447384579377
2.66,0.583987151738,0.443837234108,0.265185330809,1.30096844042,-0.270648206574,1.16361098035,-0.657273549933,0.350680695295,0.307298962865,1.06540978569,-2.86821879032,0.0966117674,-1.5841742752,0.0447384579377
2.68,0.583987151738,0.443837234108,0.265185330809,1.30096844042,-0.270648206574,1.16361098035,-0.657273549933,0.350680695295,0.307298962865,1.06540978569,-2.86821879032,0.0966117674,-1.5841742752,0.0447384579377
2.7,0.583987151738,0.443837234108,0.265185330809,1.30096844042,-0.270648206574,1.16361098035,-0.657273549933,0.350680695295,0.307298962865,1.06540978569,-2.86821879032,0.0966117674,-1.5841742752,0.0447384579377
2.72,0.583987151738,0.443837234108,0.265185330809,1.30096844042,-0.270648206574,1.16359353664,-0.657273549933,0.350682470242,0.307301228805,1.06541049903,-2.86820777155,0.0966250640703,-1.58417052934,0.0447382148463
2.74,0.583987151738,0.443837234108,0.265185330809,1.30096844042,-0.270648206574,1.16359353664,-0.657273549933,0.350682470242,0.307301228805,1.06541049903,-2.86820777155,0.0966250640703,-1.58417052934,0.0447382148463
2.76,0.583987151738,0.443837234108,0.265185330809,1.30096844042,-0.270648206574,1.16361098035,-0.657273549933,0.350680695295,0.307298962865,1.06540978569,-2.86821879032,0.0966117674,-1.5841742752,0.0447384579377
2.78,0.583987151738,0.443837234108,0.265185330809,1.30096844042,-0.270648206574,1.16361098035,-0.657273549933,0.350680695295,0.307298962865,1.06540978569,-2.86821879032,0.0966117674,-1.5841742752,0.0447384579377
2.8,0.583987151738,0.443837234108,0.265185330809,1.30096844042,-0.270648206574,1.16361098035,-0.657273549933,0.350680695295,0.307298962865,1.06540978569,-2.86821879032,0.0966117674,-1.5841742752,0.0447384579377
2.82,0.583987151738,0.443837234108,0.265185330809,1.30096844042,-0.270648206574,1.16361098035,-0.657273549933,0.350680695295,0.307298962865,1.06540978569,-2.86821879032,0.0966117674,-1.5841742752,0.0447384579377
2.84,0.583987151738,0.443837234108,0.265185330809,1.30096844042,-0.270648206574,1.16361098035,-0.657273549933,0.350680695295,0.307298962865,1.06540978569,-2.86821879032,0.0966117674,-1.5841742752,0.0447384579377
2.86,0.583987151738,0.443837234108,0.265185330809,1.30096844042,-0.270630746224,1.16361098035,-0.657273549933,0.350678640802,0.307300704156,1.06540936651,-2.86823187183,0.0966230658803,-1.58417830748,0.0447384673796
2.88,0.583987151738,0.443837234108,0.265185330809,1.30096844042,-0.270630746224,1.16361098035,-0.657273549933,0.350678640802,0.307300704156,1.06540936651,-2.86823187183,0.0966230658803,-1.58417830748,0.0447384673796
2.9,0.583987151738,0.443837234108,0.265185330809,1.30096844042,-0.270648206574,1.16361098035,-0.657273549933,0.350680695295,0.307298962865,1.06540978569,-2.86821879032,0.0966117674,-1.5841742752,0.0447384579377
2.92,0.583987151738,0.443837234108,0.265185330809,1.30096844042,-0.270648206574,1.16361098035,-0.657273549933,0.350680695295,0.307298962865,1.06540978569,-2.86821879032,0.0966117674,-1.5841742752,0.0447384579377
2.94,0.583987151738,0.443837234108,0.265185330809,1.30096844042,-0.270648206574,1.16361098035,-0.657273549933,0.350680695295,0.307298962865,1.06540978569,-2.86821879032,0.0966117674,-1.5841742752,0.0447384579377
2.96,0.583987151738,0.443837234108,0.265185330809,1.30096844042,-0.270648206574,1.16361098035,-0.657273549933,0.350680695295,0.307298962865,1.06540978569,-2.86821879032,0.0966117674,-1.5841742752,0.0447384579377
2.98,0.583987151738,0.443837234108,0.265185330809,1.30096844042,-0.270648206574,1.16361098035,-0.657273549933,0.350680695295,0.307298962865,1.06540978569,-2.86821879032,0.0966117674,-1.5841742752,0.0447384579377
3.0,0.583987151738,0.443837234108,0.265185330809,1.30096844042,-0.270648206574,1.16359353664,-0.657273549933,0.350682470242,0.307301228805,1.06541049903,-2.86820777155,0.0966250640703,-1.58417052934,0.0447382148463
3.02,0.583987151738,0.443837234108,0.265185330809,1.30096844042,-0.270648206574,1.16359353664,-0.657273549933,0.350682470242,0.307301228805,1.06541049903,-2.86820777155,0.0966250640703,-1.58417052934,0.0447382148463
3.04,0.583987151738,0.443837234108,0.265185330809,1.30096844042,-0.270630746224,1.16361098035,-0.657273549933,0.350678640802,0.307300704156,1.06540936651,-2.86823187183,0.0966230658803,-1.58417830748,0.0447384673796
3.06,0.583987151738,0.443837234108,0.265185330809,1.30096844042,-0.270630746224,1.16361098035,-0.657273549933,0.350678640802,0.307300704156,1.06540936651,-2.86823187183,0.0966230658803,-1.58417830748,0.0447384673796
3.08,0.583987151738,0.443837234108,0.265185330809,1.30096844042,-0.270648206574,1.16361098035,-0.657273549933,0.350680695295,0.307298962865,1.06540978569,-2.86821879032,0.0966117674,-1.5841742752,0.0447384579377
3.1,0.583987151738,0.443837234108,0.265185330809,1.30096844042,-0.270648206574,1.16361098035,-0.657273549933,0.350680695295,0.307298962865,1.06540978569,-2.86821879032,0.0966117674,-1.5841742752,0.0447384579377
3.12,0.583987151738,0.443837234108,0.265185330809,1.30096844042,-0.270630746224,1.16361098035,-0.657273549933,0.350680695295,0.307298962865,1.06540978569,-2.86821879032,0.0966117674,-1.5841742752,0.0447384579377
3.14,0.583987151738,0.443837234108,0.265185330809,1.30096844042,-0.270630746224,1.16361098035,-0.657273549933,0.350678640802,0.307300704156,1.06540936651,-2.86823187183,0.0966230658803,-1.58417830748,0.0447384673796
3.16,0.583987151738,0.443837234108,0.265185330809,1.30096844042,-0.270630746224,1.16361098035,-0.657273549933,0.350678640802,0.307300704156,1.06540936651,-2.86823187183,0.0966230658803,-1.58417830748,0.0447384673796
3.18,0.583987151738,0.443837234108,0.265185330809,1.30096844042,-0.270648206574,1.16361098035,-0.657273549933,0.350680695295,0.307298962865,1.06540978569,-2.86821879032,0.0966117674,-1.5841742752,0.0447384579377
3.2,0.583987151738,0.443837234108,0.265185330809,1.30096844042,-0.270648206574,1.16361098035,-0.657273549933,0.350680695295,0.307298962865,1.06540978569,-2.86821879032,0.0966117674,-1.5841742752,0.0447384579377
3.22,0.583969708033,0.443837234108,0.265185330809,1.30096844042,-0.270648206574,1.16361098035,-0.657273549933,0.350686055674,0.307292845648,1.06540978569,-2.86821879032,0.0966117674,-1.5841917189,0.0447384579377
3.24,0.583969708033,0.443837234108,0.265185330809,1.30096844042,-0.270648206574,1.16361098035,-0.657273549933,0.350686055674,0.307292845648,1.06540978569,-2.86821879032,0.0966117674,-1.5841917189,0.0447384579377
3.26,0.583987151738,0.443837234108,0.265185330809,1.30096844042,-0.270630746224,1.16361098035,-0.657273549933,0.350686055674,0.307292845648,1.06540978569,-2.86821879032,0.0966117674,-1.5841917189,0.0447384579377
3.28,0.583987151738,0.443837234108,0.265185330809,1.30096844042,-0.270630746224,1.16361098035,-0.657273549933,0.350678640802,0.307300704156,1.06540936651,-2.86823187183,0.0966230658803,-1.58417830748,0.0447384673796
3.3,0.583987151738,0.443837234108,0.265185330809,1.30096844042,-0.270630746224,1.16361098035,-0.657273549933,0.350678640802,0.307300704156,1.06540936651,-2.86823187183,0.0966230658803,-1.58417830748,0.0447384673796
3.32,0.583987151738,0.443837234108,0.265185330809,1.30096844042,-0.270630746224,1.16361098035,-0.657273549933,0.350678640802,0.307300704156,1.06540936651,-2.86823187183,0.0966230658803,-1.58417830748,0.0447384673796
3.34,0.583987151738,0.443837234108,0.265185330809,1.30096844042,-0.270630746224,1.16361098035,-0.657273549933,0.350678640802,0.307300704156,1.06540936651,-2.86823187183,0.0966230658803,-1.58417830748,0.0447384673796
3.36,0.583969708033,0.443819790403,0.265185330809,1.30096844042,-0.270630746224,1.16361098035,-0.657273549933,0.350683122019,0.307294005953,1.06541742537,-2.86821738145,0.0966328774166,-1.58419435319,0.0447378985
3.38,0.583969708033,0.443819790403,0.265185330809,1.30096844042,-0.270630746224,1.16361098035,-0.657273549933,0.350683122019,0.307294005953,1.06541742537,-2.86821738145,0.0966328774166,-1.58419435319,0.0447378985
3.4,0.583969708033,0.443837234108,0.265185330809,1.30096844042,-0.270648206574,1.16359353664,-0.657273549933,0.350683122019,0.307294005953,1.06541742537,-2.86821738145,0.0966328774166,-1.58419435319,0.0447378985
3.42,0.583969708033,0.443837234108,0.265185330809,1.30096844042,-0.270648206574,1.16359353664,-0.657273549933,0.35068783066,0.307295111557,1.06541049903,-2.86820777155,0.0966250640703,-1.58418797305,0.0447382148463
3.44,0.583969708033,0.443837234108,0.265185330809,1.30096844042,-0.270648206574,1.16359353664,-0.657273549933,0.35068783066,0.307295111557,1.06541049903,-2.86820777155,0.0966250640703,-1.58418797305,0.0447382148463
3.46,0.583969708033,0.443837234108,0.265185330809,1.30096844042,-0.270630746224,1.16359353664,-0.657273549933,0.350685776214,0.30729685287,1.06541007986,-2.86822085303,0.0966363625994,-1.58419200551,0.0447382242888
3.48,0.583969708033,0.443837234108,0.265185330809,1.30096844042,-0.270630746224,1.16359353664,-0.657273549933,0.350685776214,0.30729685287,1.06541007986,-2.86822085303,0.0966363625994,-1.58419200551,0.0447382242888
3.5,0.583987151738,0.443837234108,0.265185330809,1.30096844042,-0.270648206574,1.16361098035,-0.657273549933,0.350680695295,0.307298962865,1.06540978569,-2.86821879032,0.0966117674,-1.5841742752,0.0447384579377
3.52,0.583987151738,0.443837234108,0.265185330809,1.30096844042,-0.270648206574,1.16361098035,-0.657273549933,0.350680695295,0.307298962865,1.06540978569,-2.86821879032,0.0966117674,-1.5841742752,0.0447384579377
3.54,0.583987151738,0.443837234108,0.265185330809,1.30096844042,-0.270648206574,1.16361098035,-0.657273549933,0.350680695295,0.307298962865,1.06540978569,-2.86821879032,0.0966117674,-1.5841742752,0.0447384579377
3.56,0.583987151738,0.443837234108,0.265185330809,1.30096844042,-0.270648206574,1.16361098035,-0.657273549933,0.350680695295,0.307298962865,1.06540978569,-2.86821879032,0.0966117674,-1.5841742752,0.0447384579377
3.58,0.583987151738,0.443837234108,0.265185330809,1.30096844042,-0.270648206574,1.16361098035,-0.657273549933,0.350680695295,0.307298962865,1.06540978569,-2.86821879032,0.0966117674,-1.5841742752,0.0447384579377
3.6,0.583969708033,0.443837234108,0.265185330809,1.30096844042,-0.270630746224,1.16361098035,-0.657273549933,0.350684001212,0.307294586974,1.06540936651,-2.86823187183,0.0966230658803,-1.58419575119,0.0447384673796
3.62,0.583969708033,0.443837234108,0.265185330809,1.30096844042,-0.270630746224,1.16361098035,-0.657273549933,0.350684001212,0.307294586974,1.06540936651,-2.86823187183,0.0966230658803,-1.58419575119,0.0447384673796
3.64,0.583969708033,0.443837234108,0.265185330809,1.30096844042,-0.270648206574,1.16361098035,-0.657273549933,0.350686055674,0.307292845648,1.06540978569,-2.86821879032,0.0966117674,-1.5841917189,0.0447384579377
3.66,0.583969708033,0.443837234108,0.265185330809,1.30096844042,-0.270648206574,1.16361098035,-0.657273549933,0.350686055674,0.307292845648,1.06540978569,-2.86821879032,0.0966117674,-1.5841917189,0.0447384579377
3.68,0.583987151738,0.443837234108,0.265185330809,1.30096844042,-0.270648206574,1.16361098035,-0.657273549933,0.350686055674,0.307292845648,1.06540978569,-2.86821879032,0.0966117674,-1.5841917189,0.0447384579377
3.7,0.583987151738,0.443837234108,0.265185330809,1.30096844042,-0.270648206574,1.16361098035,-0.657273549933,0.350680695295,0.307298962865,1.06540978569,-2.86821879032,0.0966117674,-1.5841742752,0.0447384579377
3.72,0.583987151738,0.443837234108,0.265185330809,1.30096844042,-0.270648206574,1.16361098035,-0.657273549933,0.350680695295,0.307298962865,1.06540978569,-2.86821879032,0.0966117674,-1.5841742752,0.0447384579377
3.74,0.583987151738,0.443837234108,0.265185330809,1.30096844042,-0.270648206574,1.16361098035,-0.657273549933,0.350680695295,0.307298962865,1.06540978569,-2.86821879032,0.0966117674,-1.5841742752,0.0447384579377
3.76,0.583987151738,0.443837234108,0.265185330809,1.30096844042,-0.270648206574,1.16361098035,-0.657273549933,0.350680695295,0.307298962865,1.06540978569,-2.86821879032,0.0966117674,-1.5841742752,0.0447384579377
3.78,0.583969708033,0.443837234108,0.265167870459,1.30096844042,-0.270648206574,1.16361098035,-0.657273549933,0.350690651503,0.307287693643,1.06540931321,-2.86821455337,0.0966055682504,-1.58420707884,0.0447385709905
3.8,0.583969708033,0.443837234108,0.265167870459,1.30096844042,-0.270648206574,1.16361098035,-0.657273549933,0.350690651503,0.307287693643,1.06540931321,-2.86821455337,0.0966055682504,-1.58420707884,0.0447385709905
3.82,0.583987151738,0.443837234108,0.265185330809,1.30096844042,-0.270648206574,1.16361098035,-0.657273549933,0.350690651503,0.307287693643,1.06540931321,-2.86821455337,0.0966055682504,-1.58420707884,0.0447385709905
3.84,0.583987151738,0.443837234108,0.265185330809,1.30096844042,-0.270648206574,1.16361098035,-0.657273549933,0.350680695295,0.307298962865,1.06540978569,-2.86821879032,0.0966117674,-1.5841742752,0.0447384579377
3.86,0.583987151738,0.443837234108,0.265185330809,1.30096844042,-0.270648206574,1.16361098035,-0.657273549933,0.350680695295,0.307298962865,1.06540978569,-2.86821879032,0.0966117674,-1.5841742752,0.0447384579377
3.88,0.583969708033,0.443837234108,0.265185330809,1.30096844042,-0.270648206574,1.16361098035,-0.657273549933,0.350686055674,0.307292845648,1.06540978569,-2.86821879032,0.0966117674,-1.5841917189,0.0447384579377
3.9,0.583969708033,0.443837234108,0.265185330809,1.30096844042,-0.270648206574,1.16361098035,-0.657273549933,0.350686055674,0.307292845648,1.06540978569,-2.86821879032,0.0966117674,-1.5841917189,0.0447384579377
3.92,0.583969708033,0.443837234108,0.265185330809,1.30096844042,-0.270648206574,1.16361098035,-0.657273549933,0.350686055674,0.307292845648,1.06540978569,-2.86821879032,0.0966117674,-1.5841917189,0.0447384579377
3.94,0.583969708033,0.443837234108,0.265185330809,1.30096844042,-0.270648206574,1.16361098035,-0.657273549933,0.350686055674,0.307292845648,1.06540978569,-2.86821879032,0.0966117674,-1.5841917189,0.0447384579377
3.96,0.583987151738,0.443837234108,0.265185330809,1.30096844042,-0.270648206574,1.16361098035,-0.657273549933,0.350680695295,0.307298962865,1.06540978569,-2.86821879032,0.0966117674,-1.5841742752,0.0447384579377
3.98,0.583987151738,0.443837234108,0.265185330809,1.30096844042,-0.270648206574,1.16361098035,-0.657273549933,0.350680695295,0.307298962865,1.06540978569,-2.86821879032,0.0966117674,-1.5841742752,0.0447384579377
4.0,0.583987151738,0.443837234108,0.265185330809,1.30096844042,-0.270648206574,1.16361098035,-0.657273549933,0.350680695295,0.307298962865,1.06540978569,-2.86821879032,0.0966117674,-1.5841742752,0.0447384579377
4.02,0.583969708033,0.443837234108,0.265185330809,1.30096844042,-0.270630746224,1.16361098035,-0.657273549933,0.350684001212,0.307294586974,1.06540936651,-2.86823187183,0.0966230658803,-1.58419575119,0.0447384673796
4.04,0.583969708033,0.443837234108,0.265185330809,1.30096844042,-0.270630746224,1.16361098035,-0.657273549933,0.350684001212,0.307294586974,1.06540936651,-2.86823187183,0.0966230658803,-1.58419575119,0.0447384673796
4.06,0.583987151738,0.443837234108,0.265185330809,1.30096844042,-0.270630746224,1.16361098035,-0.657273549933,0.350678640802,0.307300704156,1.06540936651,-2.86823187183,0.0966230658803,-1.58417830748,0.0447384673796
4.08,0.583987151738,0.443837234108,0.265185330809,1.30096844042,-0.270630746224,1.16361098035,-0.657273549933,0.350678640802,0.307300704156,1.06540936651,-2.86823187183,0.0966230658803,-1.58417830748,0.0447384673796
4.1,0.583987151738,0.443837234108,0.265185330809,1.30096844042,-0.270648206574,1.16359353664,-0.657273549933,0.350682470242,0.307301228805,1.06541049903,-2.86820777155,0.0966250640703,-1.58417052934,0.0447382148463
4.12,0.583987151738,0.443837234108,0.265185330809,1.30096844042,-0.270648206574,1.16359353664,-0.657273549933,0.350682470242,0.307301228805,1.06541049903,-2.86820777155,0.0966250640703,-1.58417052934,0.0447382148463
4.14,0.583987151738,0.443837234108,0.265185330809,1.30096844042,-0.270648206574,1.16359353664,-0.657273549933,0.350682470242,0.307301228805,1.06541049903,-2.86820777155,0.0966250640703,-1.58417052934,0.0447382148463
4.16,0.583987151738,0.443819790403,0.265185330809,1.30096844042,-0.270648206574,1.16361098035,-0.657273549933,0.350679816106,0.307298381825,1.06541784456,-2.86820429992,0.0966215788782,-1.58417287736,0.0447378890586
4.18,0.583987151738,0.443819790403,0.265185330809,1.30096844042,-0.270648206574,1.16361098035,-0.657273549933,0.350679816106,0.307298381825,1.06541784456,-2.86820429992,0.0966215788782,-1.58417287736,0.0447378890586
4.2,0.583987151738,0.443837234108,0.265185330809,1.30096844042,-0.270648206574,1.16361098035,-0.657273549933,0.350680695295,0.307298962865,1.06540978569,-2.86821879032,0.0966117674,-1.5841742752,0.0447384579377
4.22,0.583987151738,0.443837234108,0.265185330809,1.30096844042,-0.270648206574,1.16361098035,-0.657273549933,0.350680695295,0.307298962865,1.06540978569,-2.86821879032,0.0966117674,-1.5841742752,0.0447384579377
4.24,0.583987151738,0.443837234108,0.265185330809,1.30096844042,-0.270648206574,1.16361098035,-0.657273549933,0.350680695295,0.307298962865,1.06540978569,-2.86821879032,0.0966117674,-1.5841742752,0.0447384579377
4.26,0.583987151738,0.443837234108,0.265185330809,1.30096844042,-0.270648206574,1.16361098035,-0.657273549933,0.350680695295,0.307298962865,1.06540978569,-2.86821879032,0.0966117674,-1.5841742752,0.0447384579377
4.28,0.583987151738,0.443837234108,0.265185330809,1.30096844042,-0.270648206574,1.16361098035,-0.657273549933,0.350680695295,0.307298962865,1.06540978569,-2.86821879032,0.0966117674,-1.5841742752,0.0447384579377
4.3,0.583969708033,0.443837234108,0.265185330809,1.30096844042,-0.270648206574,1.16361098035,-0.657273549933,0.350686055674,0.307292845648,1.06540978569,-2.86821879032,0.0966117674,-1.5841917189,0.0447384579377
4.32,0.583969708033,0.443837234108,0.265185330809,1.30096844042,-0.270648206574,1.16361098035,-0.657273549933,0.350686055674,0.307292845648,1.06540978569,-2.86821879032,0.0966117674,-1.5841917189,0.0447384579377
4.34,0.583987151738,0.443837234108,0.265185330809,1.30096844042,-0.270648206574,1.16361098035,-0.657273549933,0.350680695295,0.307298962865,1.06540978569,-2.86821879032,0.0966117674,-1.5841742752,0.0447384579377
4.36,0.583987151738,0.443837234108,0.265185330809,1.30096844042,-0.270648206574,1.16361098035,-0.657273549933,0.350680695295,0.307298962865,1.06540978569,-2.86821879032,0.0966117674,-1.5841742752,0.0447384579377
4.38,0.583987151738,0.443837234108,0.265167870459,1.30096844042,-0.270630746224,1.16361098035,-0.657273549933,0.35068323675,0.307295552261,1.06540889401,-2.86822763484,0.0966168667477,-1.58419366737,0.0447385804325
4.4,0.583987151738,0.443837234108,0.265167870459,1.30096844042,-0.270630746224,1.16361098035,-0.657273549933,0.35068323675,0.307295552261,1.06540889401,-2.86822763484,0.0966168667477,-1.58419366737,0.0447385804325
4.42,0.583987151738,0.443837234108,0.265167870459,1.30096844042,-0.270630746224,1.16361098035,-0.657273549933,0.35068323675,0.307295552261,1.06540889401,-2.86822763484,0.0966168667477,-1.58419366737,0.0447385804325
4.44,0.583987151738,0.443837234108,0.265185330809,1.30096844042,-0.270648206574,1.16361098035,-0.657273549933,0.350680695295,0.307298962865,1.06540978569,-2.86821879032,0.0966117674,-1.5841742752,0.0447384579377
4.46,0.583987151738,0.443837234108,0.265185330809,1.30096844042,-0.270648206574,1.16361098035,-0.657273549933,0.350680695295,0.307298962865,1.06540978569,-2.86821879032,0.0966117674,-1.5841742752,0.0447384579377
4.48,0.583987151738,0.443837234108,0.265185330809,1.30096844042,-0.270648206574,1.16361098035,-0.657273549933,0.350680695295,0.307298962865,1.06540978569,-2.86821879032,0.0966117674,-1.5841742752,0.0447384579377
4.5,0.583987151738,0.443837234108,0.265185330809,1.30096844042,-0.270648206574,1.16361098035,-0.657273549933,0.350680695295,0.307298962865,1.06540978569,-2.86821879032,0.0966117674,-1.5841742752,0.0447384579377
4.52,0.583969708033,0.443837234108,0.265185330809,1.30096844042,-0.270648206574,1.16359353664,-0.657273549933,0.35068783066,0.307295111557,1.06541049903,-2.86820777155,0.0966250640703,-1.58418797305,0.0447382148463
4.54,0.583969708033,0.443837234108,0.265185330809,1.30096844042,-0.270648206574,1.16359353664,-0.657273549933,0.35068783066,0.307295111557,1.06541049903,-2.86820777155,0.0966250640703,-1.58418797305,0.0447382148463
4.56,0.583969708033,0.443837234108,0.265185330809,1.30096844042,-0.270648206574,1.16359353664,-0.657273549933,0.35068783066,0.307295111557,1.06541049903,-2.86820777155,0.0966250640703,-1.58418797305,0.0447382148463
4.58,0.583987151738,0.443837234108,0.265185330809,1.30096844042,-0.270648206574,1.16361098035,-0.657273549933,0.350680695295,0.307298962865,1.06540978569,-2.86821879032,0.0966117674,-1.5841742752,0.0447384579377
4.6,0.583987151738,0.443837234108,0.265185330809,1.30096844042,-0.270648206574,1.16361098035,-0.657273549933,0.350680695295,0.307298962865,1.06540978569,-2.86821879032,0.0966117674,-1.5841742752,0.0447384579377
4.62,0.583987151738,0.443837234108,0.265185330809,1.30096844042,-0.270648206574,1.16361098035,-0.657273549933,0.350680695295,0.307298962865,1.06540978569,-2.86821879032,0.0966117674,-1.5841742752,0.0447384579377
4.64,0.583987151738,0.443837234108,0.265185330809,1.30096844042,-0.270648206574,1.16361098035,-0.657273549933,0.350680695295,0.307298962865,1.06540978569,-2.86821879032,0.0966117674,-1.5841742752,0.0447384579377
4.66,0.583969708033,0.443837234108,0.265185330809,1.30096844042,-0.270648206574,1.16361098035,-0.657273549933,0.350686055674,0.307292845648,1.06540978569,-2.86821879032,0.0966117674,-1.5841917189,0.0447384579377
4.68,0.583969708033,0.443837234108,0.265185330809,1.30096844042,-0.270648206574,1.16361098035,-0.657273549933,0.350686055674,0.307292845648,1.06540978569,-2.86821879032,0.0966117674,-1.5841917189,0.0447384579377
4.7,0.583969708033,0.443837234108,0.265185330809,1.30096844042,-0.270648206574,1.16361098035,-0.657273549933,0.350686055674,0.307292845648,1.06540978569,-2.86821879032,0.0966117674,-1.5841917189,0.0447384579377
4.72,0.583969708033,0.443837234108,0.265185330809,1.30096844042,-0.270630746224,1.16361098035,-0.657273549933,0.350684001212,0.307294586974,1.06540936651,-2.86823187183,0.0966230658803,-1.58419575119,0.0447384673796
4.74,0.583969708033,0.443837234108,0.265185330809,1.30096844042,-0.270630746224,1.16361098035,-0.657273549933,0.350684001212,0.307294586974,1.06540936651,-2.86823187183,0.0966230658803,-1.58419575119,0.0447384673796
4.76,0.583969708033,0.443837234108,0.265185330809,1.30096844042,-0.270630746224,1.16361098035,-0.657273549933,0.350684001212,0.307294586974,1.06540936651,-2.86823187183,0.0966230658803,-1.58419575119,0.0447384673796
4.78,0.583969708033,0.443837234108,0.265185330809,1.30096844042,-0.270630746224,1.16361098035,-0.657273549933,0.350684001212,0.307294586974,1.06540936651,-2.86823187183,0.0966230658803,-1.58419575119,0.0447384673796
4.8,0.583969708033,0.443837234108,0.265185330809,1.30096844042,-0.270648206574,1.16359353664,-0.657273549933,0.35068783066,0.307295111557,1.06541049903,-2.86820777155,0.0966250640703,-1.58418797305,0.0447382148463
4.82,0.583969708033,0.443837234108,0.265185330809,1.30096844042,-0.270648206574,1.16359353664,-0.657273549933,0.35068783066,0.307295111557,1.06541049903,-2.86820777155,0.0966250640703,-1.58418797305,0.0447382148463
4.84,0.583969708033,0.443837234108,0.265185330809,1.30096844042,-0.270648206574,1.16359353664,-0.657273549933,0.35068783066,0.307295111557,1.06541049903,-2.86820777155,0.0966250640703,-1.58418797305,0.0447382148463
4.86,0.583987151738,0.443837234108,0.265185330809,1.30096844042,-0.270648206574,1.16361098035,-0.657273549933,0.350680695295,0.307298962865,1.06540978569,-2.86821879032,0.0966117674,-1.5841742752,0.0447384579377
4.88,0.583987151738,0.443837234108,0.265185330809,1.30096844042,-0.270648206574,1.16361098035,-0.657273549933,0.350680695295,0.307298962865,1.06540978569,-2.86821879032,0.0966117674,-1.5841742752,0.0447384579377
4.9,0.583987151738,0.443837234108,0.265185330809,1.30096844042,-0.270648206574,1.16361098035,-0.657273549933,0.350680695295,0.307298962865,1.06540978569,-2.86821879032,0.0966117674,-1.5841742752,0.0447384579377
4.92,0.583987151738,0.443837234108,0.265185330809,1.30096844042,-0.270648206574,1.16361098035,-0.657273549933,0.350680695295,0.307298962865,1.06540978569,-2.86821879032,0.0966117674,-1.5841742752,0.0447384579377
4.94,0.583987151738,0.443837234108,0.265185330809,1.30096844042,-0.270630746224,1.16359353664,-0.657273549933,0.350680415765,0.307302970082,1.06541007986,-2.86822085303,0.0966363625994,-1.5841745618,0.0447382242888
4.96,0.583987151738,0.443837234108,0.265185330809,1.30096844042,-0.270630746224,1.16359353664,-0.657273549933,0.350680415765,0.307302970082,1.06541007986,-2.86822085303,0.0966363625994,-1.5841745618,0.0447382242888
4.98,0.583987151738,0.443837234108,0.265185330809,1.30096844042,-0.270630746224,1.16359353664,-0.657273549933,0.350680415765,0.307302970082,1.06541007986,-2.86822085303,0.0966363625994,-1.5841745618,0.0447382242888
5.0,0.583987151738,0.443837234108,0.265185330809,1.30096844042,-0.270630746224,1.16359353664,-0.657273549933,0.350680415765,0.307302970082,1.06541007986,-2.86822085303,0.0966363625994,-1.5841745618,0.0447382242888
5.02,0.583987151738,0.443837234108,0.265185330809,1.30096844042,-0.270630746224,1.16359353664,-0.657273549933,0.350680415765,0.307302970082,1.06541007986,-2.86822085303,0.0966363625994,-1.5841745618,0.0447382242888
5.04,0.583987151738,0.443837234108,0.265185330809,1.30096844042,-0.270630746224,1.16361098035,-0.657273549933,0.350678640802,0.307300704156,1.06540936651,-2.86823187183,0.0966230658803,-1.58417830748,0.0447384673796
5.06,0.583987151738,0.443837234108,0.265185330809,1.30096844042,-0.270630746224,1.16361098035,-0.657273549933,0.350678640802,0.307300704156,1.06540936651,-2.86823187183,0.0966230658803,-1.58417830748,0.0447384673796
5.08,0.583987151738,0.443837234108,0.265185330809,1.30096844042,-0.270648206574,1.16361098035,-0.657273549933,0.350680695295,0.307298962865,1.06540978569,-2.86821879032,0.0966117674,-1.5841742752,0.0447384579377
5.1,0.583987151738,0.443837234108,0.265185330809,1.30096844042,-0.270648206574,1.16361098035,-0.657273549933,0.350680695295,0.307298962865,1.06540978569,-2.86821879032,0.0966117674,-1.5841742752,0.0447384579377
5.12,0.583987151738,0.443837234108,0.265185330809,1.30096844042,-0.270648206574,1.16361098035,-0.657273549933,0.350680695295,0.307298962865,1.06540978569,-2.86821879032,0.0966117674,-1.5841742752,0.0447384579377
5.14,0.583952264328,0.443837234108,0.265185330809,1.30096844042,-0.270648206574,1.16361098035,-0.657273549933,0.350691415947,0.307286728337,1.06540978569,-2.86821879032,0.0966117674,-1.58420916261,0.0447384579377
5.16,0.583952264328,0.443837234108,0.265185330809,1.30096844042,-0.270648206574,1.16361098035,-0.657273549933,0.350691415947,0.307286728337,1.06540978569,-2.86821879032,0.0966117674,-1.58420916261,0.0447384579377
5.18,0.583899933213,0.443837234108,0.265185330809,1.30096844042,-0.270648206574,1.16361098035,-0.657273549933,0.350707496124,0.307268375843,1.06540978569,-2.86821879032,0.0966117674,-1.58426149372,0.0447384579377
5.2,0.583899933213,0.443837234108,0.265185330809,1.30096844042,-0.270648206574,1.16361098035,-0.657273549933,0.350707496124,0.307268375843,1.06540978569,-2.86821879032,0.0966117674,-1.58426149372,0.0447384579377
5.22,0.583830091813,0.443837234108,0.265167870459,1.30096844042,-0.270630746224,1.16359353664,-0.657273549933,0.350733271592,0.307242735812,1.06540960735,-2.86821661606,0.096630163451,-1.58434698156,0.0447383373405
5.24,0.583830091813,0.443837234108,0.265167870459,1.30096844042,-0.270630746224,1.16359353664,-0.657273549933,0.350733271592,0.307242735812,1.06540960735,-2.86821661606,0.096630163451,-1.58434698156,0.0447383373405
5.26,0.583830091813,0.443837234108,0.265167870459,1.30096844042,-0.270630746224,1.16359353664,-0.657273549933,0.350733271592,0.307242735812,1.06540960735,-2.86821661606,0.096630163451,-1.58434698156,0.0447383373405
5.28,0.583725363003,0.443837234108,0.265132966404,1.30096844042,-0.270578398464,1.16362842405,-0.657273549933,0.350764922177,0.307196392439,1.0654059797,-2.86826940306,0.096625051465,-1.5845019961,0.0447390777935
5.3,0.583725363003,0.443837234108,0.265132966404,1.30096844042,-0.270578398464,1.16362842405,-0.657273549933,0.350764922177,0.307196392439,1.0654059797,-2.86826940306,0.096625051465,-1.5845019961,0.0447390777935
5.32,0.583638077898,0.443854677814,0.264906081724,1.30095099671,-0.270386401194,1.16382043797,-0.657273549933,0.350813108856,0.30709581459,1.06538519901,-2.86848230596,0.0965254378234,-1.58487665404,0.0447437257121
5.34,0.583638077898,0.443854677814,0.264906081724,1.30095099671,-0.270386401194,1.16382043797,-0.657273549933,0.350813108856,0.30709581459,1.06538519901,-2.86848230596,0.0965254378234,-1.58487665404,0.0447437257121
5.36,0.583463574268,0.443889598513,0.264522103829,1.30095099671,-0.269932615189,1.16450114194,-0.657273549933,0.350846668545,0.306879360587,1.06532005401,-2.86918796841,0.0961441084987,-1.5856423262,0.0447570630421
5.38,0.583463574268,0.443889598513,0.264522103829,1.30095099671,-0.269932615189,1.16450114194,-0.657273549933,0.350846668545,0.306879360587,1.06532005401,-2.86918796841,0.0961441084987,-1.5856423262,0.0447570630421
5.4,0.583463574268,0.443889598513,0.264522103829,1.30095099671,-0.269932615189,1.16450114194,-0.657273549933,0.350846668545,0.306879360587,1.06532005401,-2.86918796841,0.0961441084987,-1.5856423262,0.0447570630421
5.42,0.583254116648,0.444011771028,0.264225394394,1.30093355301,-0.269461385479,1.16502471941,-0.657273549933,0.350889161798,0.306703693322,1.06522892102,-2.86988934199,0.0958884022964,-1.58634397587,0.0447703204298
5.44,0.583254116648,0.444011771028,0.264225394394,1.30093355301,-0.269461385479,1.16502471941,-0.657273549933,0.350889161798,0.306703693322,1.06522892102,-2.86988934199,0.0958884022964,-1.58634397587,0.0447703204298
5.46,0.582974884208,0.444186307948,0.263771608389,1.30084620132,-0.269007599474,1.1657577545,-0.657273549933,0.350989217776,0.306438839461,1.06512489883,-2.87066828638,0.0954278483637,-1.58730134129,0.0447885022623
5.48,0.582974884208,0.444186307948,0.263771608389,1.30084620132,-0.269007599474,1.1657577545,-0.657273549933,0.350989217776,0.306438839461,1.06512489883,-2.87066828638,0.0954278483637,-1.58730134129,0.0447885022623
5.5,0.582416352748,0.444448096684,0.263649435874,1.3001656305,-0.268134931519,1.16661302869,-0.657273549933,0.351130448897,0.306277763401,1.06517403587,-2.87159569019,0.0956514260131,-1.5884037402,0.0448035409261
5.52,0.582416352748,0.444448096684,0.263649435874,1.3001656305,-0.268134931519,1.16661302869,-0.657273549933,0.351130448897,0.306277763401,1.06517403587,-2.87159569019,0.0956514260131,-1.5884037402,0.0448035409261
5.54,0.582416352748,0.444448096684,0.263649435874,1.3001656305,-0.268134931519,1.16661302869,-0.657273549933,0.351130448897,0.306277763401,1.06517403587,-2.87159569019,0.0956514260131,-1.5884037402,0.0448035409261
5.56,0.582049835203,0.444762249824,0.263439994899,1.29948492653,-0.266825937909,1.1681837611,-0.657273549933,0.35111358532,0.306111367941,1.06515768132,-2.8733242944,0.0955499917704,-1.58964554934,0.0448308543713
5.58,0.582049835203,0.444762249824,0.263439994899,1.29948492653,-0.266825937909,1.1681837611,-0.657273549933,0.35111358532,0.306111367941,1.06515768132,-2.8733242944,0.0955499917704,-1.58964554934,0.0448308543713
5.6,0.581718271648,0.445093879958,0.263230553924,1.29871700403,-0.265482040244,1.16944037366,-0.657273549933,0.35112943393,0.306013308054,1.06517473932,-2.87483768587,0.0957645875086,-1.59079760862,0.0448534564579
5.62,0.581718271648,0.445093879958,0.263230553924,1.29871700403,-0.265482040244,1.16944037366,-0.657273549933,0.35112943393,0.306013308054,1.06517473932,-2.87483768587,0.0957645875086,-1.59079760862,0.0448534564579
5.64,0.581421528923,0.445320747994,0.262811671974,1.29798396894,-0.264173029989,1.17101123923,-0.657273549933,0.351149758433,0.305813975731,1.06521133825,-2.87640883365,0.0956749920814,-1.59214463892,0.0448784774967
5.66,0.581421528923,0.445320747994,0.262811671974,1.29798396894,-0.264173029989,1.17101123923,-0.657273549933,0.351149758433,0.305813975731,1.06521133825,-2.87640883365,0.0956749920814,-1.59214463892,0.0448784774967
5.68,0.581421528923,0.445320747994,0.262811671974,1.29798396894,-0.264173029989,1.17101123923,-0.657273549933,0.351149758433,0.305813975731,1.06521133825,-2.87640883365,0.0956749920814,-1.59214463892,0.0448784774967
5.7,0.581124852778,0.445582570018,0.261851752204,1.29705891994,-0.263195649869,1.17190126766,-0.657273549933,0.351454531898,0.305534893747,1.06531678891,-2.8770697861,0.0958215111056,-1.59375930375,0.0448966327861
5.72,0.581124852778,0.445582570018,0.261851752204,1.29705891994,-0.263195649869,1.17190126766,-0.657273549933,0.351454531898,0.305534893747,1.06531678891,-2.8770697861,0.0958215111056,-1.59375930375,0.0448966327861
5.74,0.580671050128,0.445966531269,0.260647470759,1.2957323994,-0.262008828774,1.17338491471,-0.657273549933,0.351858589447,0.305127291669,1.06546568322,-2.87803599036,0.0957906314237,-1.59594395495,0.0449243240259
5.76,0.580671050128,0.445966531269,0.260647470759,1.2957323994,-0.262008828774,1.17338491471,-0.657273549933,0.351858589447,0.305127291669,1.06546568322,-2.87803599036,0.0957906314237,-1.59594395495,0.0449243240259
5.78,0.580042743848,0.446333048814,0.259652630289,1.29384754713,-0.260507837894,1.17500797823,-0.657273549933,0.352302373418,0.304803177765,1.06580303977,-2.87899242252,0.0963536040749,-1.5982413406,0.0449462120266
5.8,0.580042743848,0.446333048814,0.259652630289,1.29384754713,-0.260507837894,1.17500797823,-0.657273549933,0.352302373418,0.304803177765,1.06580303977,-2.87899242252,0.0963536040749,-1.5982413406,0.0449462120266
5.82,0.580042743848,0.446333048814,0.259652630289,1.29384754713,-0.260507837894,1.17500797823,-0.657273549933,0.352302373418,0.304803177765,1.06580303977,-2.87899242252,0.0963536040749,-1.5982413406,0.0449462120266
5.84,0.579641272313,0.446734487058,0.258745058279,1.29260824512,-0.258971959604,1.17685807624,-0.657273549933,0.352518360788,0.30447981795,1.06590063899,-2.88059802676,0.0962970528841,-1.600258565,0.0449779739288
5.86,0.579641272313,0.446734487058,0.258745058279,1.29260824512,-0.258971959604,1.17685807624,-0.657273549933,0.352518360788,0.30447981795,1.06590063899,-2.88059802676,0.0962970528841,-1.600258565,0.0449779739288
5.88,0.579292265053,0.447188256419,0.258012023189,1.29110728753,-0.257226623694,1.17839392124,-0.657273549933,0.352727290679,0.304322985275,1.0660745719,-2.88207628186,0.0968409927621,-1.60206564446,0.0450032625864
5.9,0.579292265053,0.447188256419,0.258012023189,1.29110728753,-0.257226623694,1.17839392124,-0.657273549933,0.352727290679,0.304322985275,1.0660745719,-2.88207628186,0.0968409927621,-1.60206564446,0.0450032625864
5.92,0.578716289888,0.447484965854,0.256737933634,1.28904786506,-0.255690728759,1.18013922386,-0.657273549933,0.353233807773,0.303941719466,1.06649068252,-2.88289495739,0.0974027997334,-1.60457912699,0.045023301487
5.94,0.578716289888,0.447484965854,0.256737933634,1.28904786506,-0.255690728759,1.18013922386,-0.657273549933,0.353233807773,0.303941719466,1.06649068252,-2.88289495739,0.0974027997334,-1.60457912699,0.045023301487
5.96,0.578716289888,0.447484965854,0.256737933634,1.28904786506,-0.255690728759,1.18013922386,-0.657273549933,0.353233807773,0.303941719466,1.06649068252,-2.88289495739,0.0974027997334,-1.60457912699,0.045023301487
5.98,0.578035585913,0.448008576613,0.255812901274,1.28754690747,-0.254172294174,1.18216389208,-0.657273549933,0.353570519954,0.303527679393,1.06661377372,-2.88452095088,0.0973171505288,-1.60693221414,0.0450577095751
6.0,0.578035585913,0.448008576613,0.255812901274,1.28754690747,-0.254172294174,1.18216389208,-0.657273549933,0.353570519954,0.303527679393,1.06661377372,-2.88452095088,0.0973171505288,-1.60693221414,0.0450577095751
6.02,0.577581783264,0.448549631078,0.254852981504,1.2859760419,-0.252549147424,1.18401385693,-0.657273549933,0.35386515311,0.303226044167,1.06675628826,-2.88607511089,0.0974611034707,-1.60907726815,0.0450895430174
6.04,0.577581783264,0.448549631078,0.254852981504,1.2859760419,-0.252549147424,1.18401385693,-0.657273549933,0.35386515311,0.303226044167,1.06675628826,-2.88607511089,0.0974611034707,-1.60907726815,0.0450895430174
6.06,0.577023318383,0.449090685543,0.253666160409,1.2835325916,-0.250873619624,1.18588139865,-0.657273549933,0.354388195808,0.302930556606,1.06718372654,-2.88704569182,0.0981939154944,-1.61157535219,0.0451131156909
6.08,0.577023318383,0.449090685543,0.253666160409,1.2835325916,-0.250873619624,1.18588139865,-0.657273549933,0.354388195808,0.302930556606,1.06718372654,-2.88704569182,0.0981939154944,-1.61157535219,0.0451131156909
6.1,0.577023318383,0.449090685543,0.253666160409,1.2835325916,-0.250873619624,1.18588139865,-0.657273549933,0.354388195808,0.302930556606,1.06718372654,-2.88704569182,0.0981939154944,-1.61157535219,0.0451131156909
6.12,0.576307726998,0.449457203088,0.252758588399,1.2818570638,-0.249250472874,1.1878710463,-0.657273549933,0.354740205624,0.302540946471,1.06743864879,-2.88848978453,0.0984269875383,-1.61394571822,0.0451387036395
6.14,0.576307726998,0.449457203088,0.252758588399,1.2818570638,-0.249250472874,1.1878710463,-0.657273549933,0.354740205624,0.302540946471,1.06743864879,-2.88848978453,0.0984269875383,-1.61394571822,0.0451387036395
6.16,0.575853924348,0.450015701258,0.250943444379,1.27971028965,-0.247278252284,1.19015750325,-0.657273549933,0.35526246012,0.302037698204,1.06772031793,-2.89000050408,0.0985749174134,-1.61701543094,0.0451743634762
6.18,0.575853924348,0.450015701258,0.250943444379,1.27971028965,-0.247278252284,1.19015750325,-0.657273549933,0.35526246012,0.302037698204,1.06772031793,-2.89000050408,0.0985749174134,-1.61701543094,0.0451743634762
6.2,0.575173286953,0.450661451244,0.250192948939,1.27742396585,-0.245253667289,1.19171079196,-0.657273549933,0.355678202543,0.301888218127,1.06806417281,-2.89133927407,0.0997475403472,-1.61925333035,0.0451948587053
6.22,0.575173286953,0.450661451244,0.250192948939,1.27742396585,-0.245253667289,1.19171079196,-0.657273549933,0.355678202543,0.301888218127,1.06806417281,-2.89133927407,0.0997475403472,-1.61925333035,0.0451948587053
6.24,0.575173286953,0.450661451244,0.250192948939,1.27742396585,-0.245253667289,1.19171079196,-0.657273549933,0.355678202543,0.301888218127,1.06806417281,-2.89133927407,0.0997475403472,-1.61925333035,0.0451948587053
6.26,0.574422741578,0.450993081378,0.249006127844,1.27541674134,-0.242897468804,1.19397980521,-0.657273549933,0.356047386292,0.301484027704,1.0684142041,-2.89319826068,0.100404037213,-1.62211307596,0.0452195949643
6.28,0.574422741578,0.450993081378,0.249006127844,1.27541674134,-0.242897468804,1.19397980521,-0.657273549933,0.356047386292,0.301484027704,1.0684142041,-2.89319826068,0.100404037213,-1.62211307596,0.0452195949643
6.3,0.573864276698,0.451464327733,0.247243348229,1.27320019236,-0.240750711294,1.196266129,-0.657273549933,0.356569450281,0.300983119832,1.06875930402,-2.89473810281,0.100783634785,-1.62525446178,0.0452494353501
6.32,0.573864276698,0.451464327733,0.247243348229,1.27320019236,-0.240750711294,1.196266129,-0.657273549933,0.356569450281,0.300983119832,1.06875930402,-2.89473810281,0.100783634785,-1.62525446178,0.0452494353501
6.34,0.573323188943,0.451953017793,0.245672549239,1.27129776324,-0.238830855109,1.19815111442,-0.657273549933,0.357053101796,0.300534791679,1.06901707467,-2.89612296067,0.101147960261,-1.62806539049,0.0452766649494
6.36,0.573323188943,0.451953017793,0.245672549239,1.27129776324,-0.238830855109,1.19815111442,-0.657273549933,0.357053101796,0.300534791679,1.06901707467,-2.89612296067,0.101147960261,-1.62806539049,0.0452766649494
6.38,0.572310921413,0.452843112809,0.245166398829,1.26923834077,-0.236666653894,1.20096101569,-0.657273549933,0.357053101796,0.300534791679,1.06901707467,-2.89612296067,0.101147960261,-1.62806539049,0.0452766649494
6.4,0.572310921413,0.452843112809,0.245166398829,1.26923834077,-0.236666653894,1.20096101569,-0.657273549933,0.357324851526,0.300178192234,1.06912884784,-2.89877506284,0.10121331505,-1.63068139442,0.0453198801147
6.42,0.572310921413,0.452843112809,0.245166398829,1.26923834077,-0.236666653894,1.20096101569,-0.657273549933,0.357324851526,0.300178192234,1.06912884784,-2.89877506284,0.10121331505,-1.63068139442,0.0453198801147
6.44,0.571787343943,0.453157299238,0.243805040814,1.26679489047,-0.234292995059,1.20317756466,-0.657273549933,0.3577397004,0.299864347453,1.0696331726,-2.90027226188,0.102193640091,-1.63344660208,0.0453366737493
6.46,0.571787343943,0.453157299238,0.243805040814,1.26679489047,-0.234292995059,1.20317756466,-0.657273549933,0.3577397004,0.299864347453,1.0696331726,-2.90027226188,0.102193640091,-1.63344660208,0.0453366737493
6.48,0.571106639968,0.453733241114,0.241937549034,1.26499712357,-0.232058969089,1.20567347924,-0.657273549933,0.35822009578,0.29922636656,1.06978021603,-2.90234325557,0.102051332362,-1.63682215614,0.0453756511661
6.5,0.571106639968,0.453733241114,0.241937549034,1.26499712357,-0.232058969089,1.20567347924,-0.657273549933,0.35822009578,0.29922636656,1.06978021603,-2.90234325557,0.102051332362,-1.63682215614,0.0453756511661
6.52,0.570181590963,0.454379024388,0.240750711294,1.26234434881,-0.230156573254,1.20837871827,-0.657273549933,0.35822009578,0.29922636656,1.06978021603,-2.90234325557,0.102051332362,-1.63682215614,0.0453756511661
6.54,0.570181590963,0.454379024388,0.240750711294,1.26234434881,-0.230156573254,1.20837871827,-0.657273549933,0.358760986944,0.298745997965,1.07019759597,-2.90396770425,0.102375033578,-1.63984763462,0.045403946306
6.56,0.570181590963,0.454379024388,0.240750711294,1.26234434881,-0.230156573254,1.20837871827,-0.657273549933,0.358760986944,0.298745997965,1.07019759597,-2.90396770425,0.102375033578,-1.63984763462,0.045403946306
6.58,0.569623126083,0.454920078853,0.239528986144,1.26052913821,-0.227695645959,1.21085705598,-0.657273549933,0.359014094242,0.298372832028,1.0703810217,-2.90633031502,0.102649637292,-1.64256406344,0.0454363384394
6.6,0.569623126083,0.454920078853,0.239528986144,1.26052913821,-0.227695645959,1.21085705598,-0.657273549933,0.359014094242,0.298372832028,1.0703810217,-2.90633031502,0.102649637292,-1.64256406344,0.0454363384394
6.62,0.568907534698,0.455304040104,0.237870918694,1.2579111177,-0.225095119089,1.21357973872,-0.657273549933,0.359504867694,0.297887495174,1.07088361267,-2.90818710139,0.103368290432,-1.64589988967,0.0454580127059
6.64,0.568907534698,0.455304040104,0.237870918694,1.2579111177,-0.225095119089,1.21357973872,-0.657273549933,0.359504867694,0.297887495174,1.07088361267,-2.90818710139,0.103368290432,-1.64589988967,0.0454580127059
6.66,0.567965041988,0.456176691414,0.236841174169,1.25581680782,-0.223157802554,1.21602318902,-0.657273549933,0.359504867694,0.297887495174,1.07088361267,-2.90818710139,0.103368290432,-1.64589988967,0.0454580127059
6.68,0.567965041988,0.456176691414,0.236841174169,1.25581680782,-0.223157802554,1.21602318902,-0.657273549933,0.359949590225,0.297426655741,1.07102452217,-2.91026438232,0.103411276863,-1.64873822353,0.0454946357617
6.7,0.567965041988,0.456176691414,0.236841174169,1.25581680782,-0.223157802554,1.21602318902,-0.657273549933,0.359949590225,0.297426655741,1.07102452217,-2.91026438232,0.103411276863,-1.64873822353,0.0454946357617
6.72,0.567249450603,0.456857395388,0.235724161184,1.25319878731,-0.220819064419,1.21858887842,-0.657290993638,0.360364261933,0.297104608565,1.07141569082,-2.91220476247,0.104089685913,-1.65150924732,0.0455193777097
6.74,0.567249450603,0.456857395388,0.235724161184,1.25319878731,-0.220819064419,1.21858887842,-0.657290993638,0.360364261933,0.297104608565,1.07141569082,-2.91220476247,0.104089685913,-1.65150924732,0.0455193777097
6.76,0.566376799293,0.457311164749,0.234240630654,1.25068542903,-0.218427961879,1.22145124396,-0.657273549933,0.360846197131,0.29656570051,1.07185667456,-2.91416492266,0.104508900715,-1.65482252238,0.0455426541494
6.78,0.566376799293,0.457311164749,0.234240630654,1.25068542903,-0.218427961879,1.22145124396,-0.657273549933,0.360846197131,0.29656570051,1.07185667456,-2.91416492266,0.104508900715,-1.65482252238,0.0455426541494
6.8,0.565748493013,0.457799854809,0.232460407334,1.24866089397,-0.216001955284,1.22378989887,-0.657273549933,0.360846197131,0.29656570051,1.07185667456,-2.91416492266,0.104508900715,-1.65482252238,0.0455426541494
6.82,0.565748493013,0.457799854809,0.232460407334,1.24866089397,-0.216001955284,1.22378989887,-0.657273549933,0.361302742128,0.296039339479,1.07213072277,-2.91608721515,0.104855209378,-1.65802213332,0.0455686141569
6.84,0.565748493013,0.457799854809,0.232460407334,1.24866089397,-0.216001955284,1.22378989887,-0.657273549933,0.361302742128,0.296039339479,1.07213072277,-2.91608721515,0.104855209378,-1.65802213332,0.0455686141569
6.86,0.564875841703,0.458742347518,0.231133953374,1.2458509927,-0.213506123934,1.22625092603,-0.657290993638,0.361851173256,0.295660158934,1.0724628609,-2.91811202566,0.105623068963,-1.66114634654,0.0455968561695
6.88,0.564875841703,0.458742347518,0.231133953374,1.2458509927,-0.213506123934,1.22625092603,-0.657290993638,0.361851173256,0.295660158934,1.0724628609,-2.91811202566,0.105623068963,-1.66114634654,0.0455968561695
6.9,0.564072965213,0.459300845689,0.229632962494,1.24391367617,-0.210608887629,1.2290608273,-0.657273549933,0.362168456781,0.295142732591,1.07265864822,-2.9208821127,0.105895419638,-1.66445859409,0.0456287540243
6.92,0.564072965213,0.459300845689,0.229632962494,1.24391367617,-0.210608887629,1.2290608273,-0.657273549933,0.362168456781,0.295142732591,1.07265864822,-2.9208821127,0.105895419638,-1.66445859409,0.0456287540243
6.94,0.563270088723,0.460033880779,0.228079623854,1.24084185301,-0.208200324739,1.23187086172,-0.657290993638,0.362168456781,0.295142732591,1.07265864822,-2.9208821127,0.105895419638,-1.66445859409,0.0456287540243
6.96,0.563270088723,0.460033880779,0.228079623854,1.24084185301,-0.208200324739,1.23187086172,-0.657290993638,0.362750640097,0.294691629036,1.07316018162,-2.92266199274,0.10658158529,-1.6677236894,0.0456496201291
6.98,0.563270088723,0.460033880779,0.228079623854,1.24084185301,-0.208200324739,1.23187086172,-0.657290993638,0.362750640097,0.294691629036,1.07316018162,-2.92266199274,0.10658158529,-1.6677236894,0.0456496201291
7.0,0.562240377488,0.460941452789,0.226630997379,1.23871252256,-0.205704510034,1.2348727769,-0.657290993638,0.363193093708,0.294075623095,1.07326143838,-2.92541016029,0.106392528843,-1.67116684651,0.0456903058167
7.02,0.562240377488,0.460941452789,0.226630997379,1.23871252256,-0.205704510034,1.2348727769,-0.657290993638,0.363193093708,0.294075623095,1.07326143838,-2.92541016029,0.106392528843,-1.67116684651,0.0456903058167
7.04,0.561734243723,0.461273082923,0.224885678114,1.23602472723,-0.203226139034,1.23710676958,-0.657290993638,0.363701660118,0.293694141286,1.0738381942,-2.9267615591,0.10745860092,-1.67416744189,0.0456963205589
7.06,0.561734243723,0.461273082923,0.224885678114,1.23602472723,-0.203226139034,1.23710676958,-0.657290993638,0.363701660118,0.293694141286,1.0738381942,-2.9267615591,0.10745860092,-1.67416744189,0.0456963205589
7.08,0.560634691088,0.462110813534,0.223611588559,1.23384306567,-0.200660499574,1.24023092386,-0.657290993638,0.363701660118,0.293694141286,1.0738381942,-2.9267615591,0.10745860092,-1.67416744189,0.0456963205589
7.1,0.560634691088,0.462110813534,0.223611588559,1.23384306567,-0.200660499574,1.24023092386,-0.657290993638,0.364099808856,0.293102787042,1.07399005165,-2.92959895298,0.107359020684,-1.67753911846,0.0457326511259
7.12,0.560634691088,0.462110813534,0.223611588559,1.23384306567,-0.200660499574,1.24023092386,-0.657290993638,0.364099808856,0.293102787042,1.07399005165,-2.92959895298,0.107359020684,-1.67753911846,0.0457326511259
7.14,0.559936543408,0.462808961213,0.221691715729,1.23101558754,-0.198339221789,1.24295373976,-0.657290993638,0.364709182442,0.292552076292,1.0744256283,-2.93128810772,0.107764188534,-1.68094912406,0.0457529266319
7.16,0.559936543408,0.462808961213,0.221691715729,1.23101558754,-0.198339221789,1.24295373976,-0.657290993638,0.364709182442,0.292552076292,1.0744256283,-2.93128810772,0.107764188534,-1.68094912406,0.0457529266319
7.18,0.559255839433,0.463367459384,0.219789319894,1.22864204522,-0.195599045409,1.24600798605,-0.657290993638,0.365137582253,0.291965575214,1.07475787747,-2.93369589966,0.107924675059,-1.68442712084,0.0457779058569
7.2,0.559255839433,0.463367459384,0.219789319894,1.22864204522,-0.195599045409,1.24600798605,-0.657290993638,0.365137582253,0.291965575214,1.07475787747,-2.93369589966,0.107924675059,-1.68442712084,0.0457779058569
7.22,0.558086478688,0.464135415173,0.218777019074,1.2258494545,-0.193103230704,1.24881802048,-0.657290993638,0.365625967618,0.291523813595,1.07516740633,-2.93590587888,0.108617771168,-1.68755505794,0.0457951837574
7.24,0.558086478688,0.464135415173,0.218777019074,1.2258494545,-0.193103230704,1.24881802048,-0.657290993638,0.365625967618,0.291523813595,1.07516740633,-2.93590587888,0.108617771168,-1.68755505794,0.0457951837574
7.26,0.558086478688,0.464135415173,0.218777019074,1.2258494545,-0.193103230704,1.24881802048,-0.657290993638,0.365625967618,0.291523813595,1.07516740633,-2.93590587888,0.108617771168,-1.68755505794,0.0457951837574
7.28,0.557440695413,0.464816085858,0.216996779109,1.22330120881,-0.190520147539,1.25154070322,-0.657308437343,0.366101793182,0.291033195255,1.07552048139,-2.93799980449,0.10902888782,-1.69078343099,0.0458155122943
7.3,0.557440695413,0.464816085858,0.216996779109,1.22330120881,-0.190520147539,1.25154070322,-0.657308437343,0.366101793182,0.291033195255,1.07552048139,-2.93799980449,0.10902888782,-1.69078343099,0.0458155122943
7.32,0.556428427883,0.465584041648,0.215460900819,1.22064843405,-0.187919604024,1.25433316078,-0.657308437343,0.366634799552,0.290490675693,1.07587191836,-2.94022283167,0.109509348846,-1.6941983874,0.0458355808809
7.34,0.556428427883,0.465584041648,0.215460900819,1.22064843405,-0.187919604024,1.25433316078,-0.657308437343,0.366634799552,0.290490675693,1.07587191836,-2.94022283167,0.109509348846,-1.6941983874,0.0458355808809
7.36,0.555608107688,0.466090175414,0.213628296449,1.21825731486,-0.185458693374,1.25716063891,-0.657290993638,0.367134172426,0.289870902065,1.07625282959,-2.94224081189,0.109738256041,-1.69763362953,0.0458520090879
7.38,0.555608107688,0.466090175414,0.213628296449,1.21825731486,-0.185458693374,1.25716063891,-0.657290993638,0.367134172426,0.289870902065,1.07625282959,-2.94224081189,0.109738256041,-1.69763362953,0.0458520090879
7.4,0.555608107688,0.466090175414,0.213628296449,1.21825731486,-0.185458693374,1.25716063891,-0.657290993638,0.367134172426,0.289870902065,1.07625282959,-2.94224081189,0.109738256041,-1.69763362953,0.0458520090879
7.42,0.554648171273,0.466927939313,0.212197130324,1.21570906917,-0.182701073289,1.25997067333,-0.657290993638,0.367589271522,0.289387159822,1.07653879854,-2.94474765647,0.11021372303,-1.70091969741,0.0458738601463
7.44,0.554648171273,0.466927939313,0.212197130324,1.21570906917,-0.182701073289,1.25997067333,-0.657290993638,0.367589271522,0.289387159822,1.07653879854,-2.94474765647,0.11021372303,-1.70091969741,0.0458738601463
7.46,0.553880248773,0.467451550073,0.210923040769,1.21324817517,-0.179821280689,1.26281546201,-0.657308437343,0.367897719219,0.289010808904,1.07694375961,-2.94722594576,0.110920814261,-1.70384914902,0.0458853844768
7.48,0.553880248773,0.467451550073,0.210923040769,1.21324817517,-0.179821280689,1.26281546201,-0.657308437343,0.367897719219,0.289010808904,1.07694375961,-2.94722594576,0.110920814261,-1.70384914902,0.0458853844768
7.5,0.552780696138,0.468306757678,0.209788584079,1.21056037984,-0.177220737174,1.26585239776,-0.657308437343,0.368332243444,0.288537028175,1.07727150174,-2.94976387548,0.111316338719,-1.70700719012,0.045904267766
7.52,0.552780696138,0.468306757678,0.209788584079,1.21056037984,-0.177220737174,1.26585239776,-0.657308437343,0.368332243444,0.288537028175,1.07727150174,-2.94976387548,0.111316338719,-1.70700719012,0.045904267766
7.54,0.552780696138,0.468306757678,0.209788584079,1.21056037984,-0.177220737174,1.26585239776,-0.657308437343,0.368332243444,0.288537028175,1.07727150174,-2.94976387548,0.111316338719,-1.70700719012,0.045904267766
7.56,0.552152356568,0.468987428363,0.207973440059,1.20825647918,-0.174724905825,1.26815629841,-0.657308437343,0.368817468866,0.288057560555,1.07756468993,-2.95167397246,0.111794044301,-1.71011482064,0.045919314242
7.58,0.552152356568,0.468987428363,0.207973440059,1.20825647918,-0.174724905825,1.26815629841,-0.657308437343,0.368817468866,0.288057560555,1.07756468993,-2.95167397246,0.111794044301,-1.71011482064,0.045919314242
7.6,0.551314592668,0.469580847233,0.206315372609,1.20551635273,-0.172176726714,1.27136767122,-0.657308437343,0.369275023786,0.287492735595,1.07801601766,-2.95389242713,0.112042543134,-1.71343405808,0.0459308458581
7.62,0.551314592668,0.469580847233,0.206315372609,1.20551635273,-0.172176726714,1.27136767122,-0.657308437343,0.369275023786,0.287492735595,1.07801601766,-2.95389242713,0.112042543134,-1.71343405808,0.0459308458581
7.64,0.550337212548,0.470296405329,0.204988918649,1.20324747264,-0.169523835439,1.27419501619,-0.657308437343,0.369655889174,0.28698814075,1.07827489404,-2.95644359955,0.112330136214,-1.71655887472,0.0459483976158
7.66,0.550337212548,0.470296405329,0.204988918649,1.20324747264,-0.169523835439,1.27419501619,-0.657308437343,0.369655889174,0.28698814075,1.07827489404,-2.95644359955,0.112330136214,-1.71655887472,0.0459483976158
7.68,0.550337212548,0.470296405329,0.204988918649,1.20324747264,-0.169523835439,1.27419501619,-0.657308437343,0.369655889174,0.28698814075,1.07827489404,-2.95644359955,0.112330136214,-1.71655887472,0.0459483976158
7.7,0.549691462563,0.470785128678,0.203261043089,1.20083890975,-0.167220001359,1.27710971284,-0.657308437343,0.370071788654,0.286440458181,1.07867873434,-2.95839612439,0.112442286343,-1.71961909069,0.0459577655286
7.72,0.549691462563,0.470785128678,0.203261043089,1.20083890975,-0.167220001359,1.27710971284,-0.657308437343,0.370071788654,0.286440458181,1.07867873434,-2.95839612439,0.112442286343,-1.71961909069,0.0459577655286
7.74,0.548626797338,0.471518163768,0.201777512559,1.19832555147,-0.16447982498,1.27983252874,-0.657308437343,0.370554714958,0.285906316662,1.07901158422,-2.96076046403,0.112984844377,-1.72295132566,0.0459697307138
7.76,0.548626797338,0.471518163768,0.201777512559,1.19832555147,-0.16447982498,1.27983252874,-0.657308437343,0.370554714958,0.285906316662,1.07901158422,-2.96076046403,0.112984844377,-1.72295132566,0.0459697307138
7.78,0.547981014063,0.472390815078,0.200189269864,1.19591712174,-0.161966549925,1.28245041609,-0.657308437343,0.370970080572,0.2854755957,1.07924955503,-2.96302518953,0.113257997136,-1.7258986426,0.0459868309849
7.8,0.547981014063,0.472390815078,0.200189269864,1.19591712174,-0.161966549925,1.28245041609,-0.657308437343,0.370970080572,0.2854755957,1.07924955503,-2.96302518953,0.113257997136,-1.7258986426,0.0459868309849
7.82,0.547981014063,0.472390815078,0.200189269864,1.19591712174,-0.161966549925,1.28245041609,-0.657308437343,0.370970080572,0.2854755957,1.07924955503,-2.96302518953,0.113257997136,-1.7258986426,0.0459868309849
7.84,0.547125806458,0.472844584439,0.198356665494,1.19319430584,-0.15954054333,1.2850684366,-0.657308437343,0.371535005378,0.284899923665,1.07978298145,-2.96462701608,0.113903124452,-1.72920843211,0.0459846210571
7.86,0.547125806458,0.472844584439,0.198356665494,1.19319430584,-0.15954054333,1.2850684366,-0.657308437343,0.371535005378,0.284899923665,1.07978298145,-2.96462701608,0.113903124452,-1.72920843211,0.0459846210571
7.88,0.546253155148,0.473507811419,0.197483997539,1.1913617847,-0.15732397771,1.28768645711,-0.657325881048,0.371767890942,0.284497948341,1.07994923172,-2.9670761576,0.11392526779,-1.7316527611,0.0460001497196
7.9,0.546253155148,0.473507811419,0.197483997539,1.1913617847,-0.15732397771,1.28768645711,-0.657325881048,0.371767890942,0.284497948341,1.07994923172,-2.9670761576,0.11392526779,-1.7316527611,0.0460001497196
7.92,0.545712100683,0.474310687908,0.195197623809,1.18834229265,-0.154967779225,1.29033936503,-0.657308437343,0.372419527192,0.283934427397,1.0804094416,-2.96858899791,0.114345431993,-1.73506206599,0.0460046642136
7.94,0.545712100683,0.474310687908,0.195197623809,1.18834229265,-0.154967779225,1.29033936503,-0.657308437343,0.372419527192,0.283934427397,1.0804094416,-2.96858899791,0.114345431993,-1.73506206599,0.0460046642136
7.96,0.545712100683,0.474310687908,0.195197623809,1.18834229265,-0.154967779225,1.29033936503,-0.657308437343,0.372419527192,0.283934427397,1.0804094416,-2.96858899791,0.114345431993,-1.73506206599,0.0460046642136
7.98,0.544769607973,0.474834265379,0.193626824819,1.18664932115,-0.152349792004,1.2925384703,-0.657325881048,0.372808633369,0.283373005331,1.08059012409,-2.97086064948,0.114684523845,-1.73815368249,0.0460165197619
8.0,0.544769607973,0.474834265379,0.193626824819,1.18664932115,-0.152349792004,1.2925384703,-0.657325881048,0.372808633369,0.283373005331,1.08059012409,-2.97086064948,0.114684523845,-1.73815368249,0.0460165197619
8.02,0.543984208478,0.475532413058,0.192666888404,1.18385686359,-0.149941229115,1.29541827955,-0.657325881048,0.373137288536,0.283072647821,1.08104771397,-2.97301561887,0.115308189588,-1.74066226136,0.046015810561
8.04,0.543984208478,0.475532413058,0.192666888404,1.18385686359,-0.149941229115,1.29541827955,-0.657325881048,0.373137288536,0.283072647821,1.08104771397,-2.97301561887,0.115308189588,-1.74066226136,0.046015810561
8.06,0.543163921573,0.476405064369,0.191322990739,1.18172753314,-0.14727087749,1.29801885635,-0.657325881048,0.37347386769,0.282646246781,1.08120360197,-2.97563799997,0.115553184455,-1.7435365143,0.0460319839268
8.08,0.543163921573,0.476405064369,0.191322990739,1.18172753314,-0.14727087749,1.29801885635,-0.657325881048,0.37347386769,0.282646246781,1.08120360197,-2.97563799997,0.115553184455,-1.7435365143,0.0460319839268
8.1,0.543163921573,0.476405064369,0.191322990739,1.18172753314,-0.14727087749,1.29801885635,-0.657325881048,0.37347386769,0.282646246781,1.08120360197,-2.97563799997,0.115553184455,-1.7435365143,0.0460319839268
8.12,0.542413409488,0.476876310723,0.189769652099,1.17923175172,-0.145036868164,1.30056696888,-0.657343324753,0.373924612368,0.282157145311,1.08166982333,-2.97728306416,0.116036213996,-1.74638200942,0.0460275195922
8.14,0.542413409488,0.476876310723,0.189769652099,1.17923175172,-0.145036868164,1.30056696888,-0.657343324753,0.373924612368,0.282157145311,1.08166982333,-2.97728306416,0.116036213996,-1.74638200942,0.0460275195922
8.16,0.541697851393,0.477225384563,0.188216313459,1.1772070835,-0.142715573735,1.30351655295,-0.657343324753,0.374219959594,0.281594828894,1.08202440614,-2.97945525376,0.115979272597,-1.74925015214,0.046030335808
8.18,0.541697851393,0.477225384563,0.188216313459,1.1772070835,-0.142715573735,1.30351655295,-0.657343324753,0.374219959594,0.281594828894,1.08202440614,-2.97945525376,0.115979272597,-1.74925015214,0.046030335808
8.2,0.540772802388,0.478185320978,0.187169108584,1.17483354118,-0.140307010845,1.30597758011,-0.657343324753,0.374603055734,0.281232237124,1.08223679127,-2.98178532344,0.116398763291,-1.75189629046,0.0460400279145
8.22,0.540772802388,0.478185320978,0.187169108584,1.17483354118,-0.140307010845,1.30597758011,-0.657343324753,0.374603055734,0.281232237124,1.08223679127,-2.98178532344,0.116398763291,-1.75189629046,0.0460400279145
8.24,0.540772802388,0.478185320978,0.187169108584,1.17483354118,-0.140307010845,1.30597758011,-0.657343324753,0.374603055734,0.281232237124,1.08223679127,-2.98178532344,0.116398763291,-1.75189629046,0.0460400279145
8.26,0.540231747923,0.478691454743,0.185737942459,1.1724598657,-0.137933368655,1.30854313635,-0.657343324753,0.374926219546,0.280863926674,1.08264993994,-2.98369259519,0.116880890701,-1.75444428052,0.0460362931577
8.28,0.540231747923,0.478691454743,0.185737942459,1.1724598657,-0.137933368655,1.30854313635,-0.657343324753,0.374926219546,0.280863926674,1.08264993994,-2.98369259519,0.116880890701,-1.75444428052,0.0460362931577
8.3,0.539359096613,0.479232509208,0.184620929474,1.17034797896,-0.135908791982,1.31088192442,-0.657343324753,0.375294432754,0.280423653405,1.08297838281,-2.98547254128,0.117204720599,-1.75696217969,0.0460350514987
8.32,0.539359096613,0.479232509208,0.184620929474,1.17034797896,-0.135908791982,1.31088192442,-0.657343324753,0.375294432754,0.280423653405,1.08297838281,-2.98547254128,0.117204720599,-1.75696217969,0.0460350514987
8.34,0.538626061523,0.480070273108,0.183975162844,1.16799174718,-0.133727130417,1.31316824821,-0.657343324753,0.375562585682,0.28023982454,1.08326057139,-2.98755732489,0.117821344667,-1.75897999205,0.0460358296676
8.36,0.538626061523,0.480070273108,0.183975162844,1.16799174718,-0.133727130417,1.31316824821,-0.657343324753,0.375562585682,0.28023982454,1.08326057139,-2.98755732489,0.117821344667,-1.75897999205,0.0460358296676
8.38,0.538626061523,0.480070273108,0.183975162844,1.16799174718,-0.133727130417,1.31316824821,-0.657343324753,0.375562585682,0.28023982454,1.08326057139,-2.98755732489,0.117821344667,-1.75897999205,0.0460358296676
8.4,0.538032642653,0.480628771278,0.182491632314,1.16607187435,-0.13138838396,1.31559425481,-0.657343324753,0.375859954605,0.27980541983,1.08350558886,-2.98965887849,0.117983890672,-1.76157646927,0.0460399462235
8.42,0.538032642653,0.480628771278,0.182491632314,1.16607187435,-0.13138838396,1.31559425481,-0.657343324753,0.375859954605,0.27980541983,1.08350558886,-2.98965887849,0.117983890672,-1.76157646927,0.0460399462235
8.44,0.537177435048,0.481030209523,0.181043005839,1.16394267706,-0.129381259315,1.31753157134,-0.657360835037,0.37634090718,0.27931015361,1.08391233328,-2.99095262707,0.118598069399,-1.76425579393,0.0460303364337
8.46,0.537177435048,0.481030209523,0.181043005839,1.16394267706,-0.129381259315,1.31753157134,-0.657360835037,0.37634090718,0.27931015361,1.08391233328,-2.99095262707,0.118598069399,-1.76425579393,0.0460303364337
8.48,0.536531651773,0.481658515803,0.179821280689,1.16197033996,-0.127653383755,1.31976556402,-0.657343324753,0.376692527705,0.278888566134,1.08415992826,-2.99255558826,0.118616243752,-1.76657080482,0.0460319893313
8.5,0.536531651773,0.481658515803,0.179821280689,1.16197033996,-0.127653383755,1.31976556402,-0.657343324753,0.376692527705,0.278888566134,1.08415992826,-2.99255558826,0.118616243752,-1.76657080482,0.0460319893313
8.52,0.536531651773,0.481658515803,0.179821280689,1.16197033996,-0.127653383755,1.31976556402,-0.657343324753,0.376692527705,0.278888566134,1.08415992826,-2.99255558826,0.118616243752,-1.76657080482,0.0460319893313
8.54,0.535990597308,0.482339186489,0.178791536164,1.16039960755,-0.125768423302,1.32201713357,-0.657343324753,0.376890274212,0.278545371878,1.08425387581,-2.99464210185,0.118434314855,-1.76862264366,0.046042437655
8.56,0.535990597308,0.482339186489,0.178791536164,1.16039960755,-0.125768423302,1.32201713357,-0.657343324753,0.376890274212,0.278545371878,1.08425387581,-2.99464210185,0.118434314855,-1.76862264366,0.046042437655
8.58,0.535222674808,0.482758068438,0.177639619124,1.15820050228,-0.123848567117,1.32369266136,-0.657360835037,0.377329858245,0.278197914348,1.08469240553,-2.9957638855,0.119342816477,-1.77090174805,0.046027320686
8.6,0.535222674808,0.482758068438,0.177639619124,1.15820050228,-0.123848567117,1.32369266136,-0.657360835037,0.377329858245,0.278197914348,1.08469240553,-2.9957638855,0.119342816477,-1.77090174805,0.046027320686
8.62,0.534576891533,0.483159506683,0.176382973274,1.15666465728,-0.121876338205,1.32606620369,-0.657360835037,0.377556752391,0.277730455965,1.08489701692,-2.99773623755,0.119200092504,-1.7732414702,0.046030009593
8.64,0.534576891533,0.483159506683,0.176382973274,1.15666465728,-0.121876338205,1.32606620369,-0.657360835037,0.377556752391,0.277730455965,1.08489701692,-2.99773623755,0.119200092504,-1.7732414702,0.046030009593
8.66,0.534576891533,0.483159506683,0.176382973274,1.15666465728,-0.121876338205,1.32606620369,-0.657360835037,0.377556752391,0.277730455965,1.08489701692,-2.99773623755,0.119200092504,-1.7732414702,0.046030009593
8.68,0.534123122173,0.483752892264,0.175073979664,1.15509379171,-0.119851761532,1.32830032952,-0.657360835037,0.377771945313,0.277353282353,1.08502726374,-2.99976636579,0.119078404397,-1.7754362833,0.0460371616541
8.7,0.534123122173,0.483752892264,0.175073979664,1.15509379171,-0.119851761532,1.32830032952,-0.657360835037,0.377771945313,0.277353282353,1.08502726374,-2.99976636579,0.119078404397,-1.7754362833,0.0460371616541
8.72,0.533459895193,0.484398675539,0.174253676114,1.15306925665,-0.11789699297,1.32983617453,-0.657360835037,0.378105989607,0.277157841565,1.08531528665,-3.00121292368,0.119944977543,-1.77733856009,0.0460295617832
8.74,0.533459895193,0.484398675539,0.174253676114,1.15306925665,-0.11789699297,1.32983617453,-0.657360835037,0.378105989607,0.277157841565,1.08531528665,-3.00121292368,0.119944977543,-1.77733856009,0.0460295617832
8.76,0.532901397023,0.484712828679,0.172700337474,1.15174273611,-0.116221473492,1.33177349106,-0.657360835037,0.378419994321,0.276620911132,1.08550256362,-3.00264980909,0.119752005589,-1.77972053383,0.0460307162251
8.78,0.532901397023,0.484712828679,0.172700337474,1.15174273611,-0.116221473492,1.33177349106,-0.657360835037,0.378419994321,0.276620911132,1.08550256362,-3.00264980909,0.119752005589,-1.77972053383,0.0460307162251
8.8,0.532901397023,0.484712828679,0.172700337474,1.15174273611,-0.116221473492,1.33177349106,-0.657360835037,0.378419994321,0.276620911132,1.08550256362,-3.00264980909,0.119752005589,-1.77972053383,0.0460307162251
8.82,0.532395229968,0.485201518739,0.171757844765,1.15010222888,-0.114615770447,1.33378058242,-0.657360835037,0.378640984382,0.276309838242,1.08572362673,-3.00420053157,0.119796746405,-1.78154191305,0.0460286750497
8.84,0.532395229968,0.485201518739,0.171757844765,1.15010222888,-0.114615770447,1.33378058242,-0.657360835037,0.378640984382,0.276309838242,1.08572362673,-3.00420053157,0.119796746405,-1.78154191305,0.0460286750497
8.86,0.531941460608,0.485602956983,0.17130405876,1.14847903219,-0.112975163347,1.33550844133,-0.657360835037,0.378760006978,0.27619587159,1.08599882792,-3.00570589919,0.120294997477,-1.78285964088,0.0460200724499
8.88,0.531941460608,0.485602956983,0.17130405876,1.14847903219,-0.112975163347,1.33550844133,-0.657360835037,0.378760006978,0.27619587159,1.08599882792,-3.00570589919,0.120294997477,-1.78285964088,0.0460200724499
8.9,0.531208425518,0.486039282639,0.170134698014,1.14689072292,-0.111439276735,1.33718396913,-0.657360835037,0.379131052743,0.275750172048,1.08623350429,-3.00691580845,0.120472447134,-1.78503941699,0.0460154432468
8.92,0.531208425518,0.486039282639,0.170134698014,1.14689072292,-0.111439276735,1.33718396913,-0.657360835037,0.379131052743,0.275750172048,1.08623350429,-3.00691580845,0.120472447134,-1.78503941699,0.0460154432468
8.94,0.531208425518,0.486039282639,0.170134698014,1.14689072292,-0.111439276735,1.33718396913,-0.657360835037,0.379131052743,0.275750172048,1.08623350429,-3.00691580845,0.120472447134,-1.78503941699,0.0460154432468
8.96,0.530859351678,0.486353435779,0.168878052165,1.14542465274,-0.110095370747,1.33870250358,-0.657378278743,0.379427199571,0.275399287448,1.08648926467,-3.00783199836,0.120609263625,-1.78683067405,0.0460083964429
8.98,0.530859351678,0.486353435779,0.168878052165,1.14542465274,-0.110095370747,1.33870250358,-0.657378278743,0.379427199571,0.275399287448,1.08648926467,-3.00783199836,0.120609263625,-1.78683067405,0.0460083964429
9.0,0.530719735458,0.486632701508,0.167656327014,1.14449960373,-0.108384947215,1.34037789823,-0.657378278743,0.379510294152,0.27511611128,1.08657820763,-3.00946092005,0.120466801795,-1.78846339639,0.0460125214935
9.02,0.530719735458,0.486632701508,0.167656327014,1.14449960373,-0.108384947215,1.34037789823,-0.657378278743,0.379510294152,0.27511611128,1.08657820763,-3.00946092005,0.120466801795,-1.78846339639,0.0460125214935
9.04,0.530213568403,0.487278484783,0.167150176605,1.1428590965,-0.106988685145,1.34133783464,-0.657378278743,0.37979791468,0.275029510499,1.08676944817,-3.01044701165,0.121243806792,-1.78976715724,0.0460059812002
9.06,0.530213568403,0.487278484783,0.167150176605,1.1428590965,-0.106988685145,1.34133783464,-0.657378278743,0.37979791468,0.275029510499,1.08676944817,-3.01044701165,0.121243806792,-1.78976715724,0.0460059812002
9.08,0.530213568403,0.487278484783,0.167150176605,1.1428590965,-0.106988685145,1.34133783464,-0.657378278743,0.37979791468,0.275029510499,1.08676944817,-3.01044701165,0.121243806792,-1.78976715724,0.0460059812002
9.1,0.529550341423,0.487732254143,0.166888387869,1.14141047003,-0.106081113135,1.34278646112,-0.657378278743,0.380017809991,0.274816246829,1.0869804122,-3.01140946091,0.121399180401,-1.79098014197,0.045998951659
9.12,0.529550341423,0.487732254143,0.166888387869,1.14141047003,-0.106081113135,1.34278646112,-0.657378278743,0.380017809991,0.274816246829,1.0869804122,-3.01140946091,0.121399180401,-1.79098014197,0.045998951659
9.14,0.529009286958,0.488116215394,0.166766215354,1.14046797732,-0.10505136861,1.34395585515,-0.657378278743,0.380111057337,0.274686370527,1.08706863337,-3.01260471754,0.121550153153,-1.79193313842,0.0459983879937
9.16,0.529009286958,0.488116215394,0.166766215354,1.14046797732,-0.10505136861,1.34395585515,-0.657378278743,0.380111057337,0.274686370527,1.08706863337,-3.01260471754,0.121550153153,-1.79193313842,0.0459983879937
9.18,0.528799862628,0.488360593713,0.16636477711,1.13964759054,-0.103759827027,1.34500314325,-0.657378278743,0.380134686312,0.274627541805,1.08717867233,-3.01381417085,0.121863008592,-1.79280200161,0.045996113577
9.2,0.528799862628,0.488360593713,0.16636477711,1.13964759054,-0.103759827027,1.34500314325,-0.657378278743,0.380134686312,0.274627541805,1.08717867233,-3.01381417085,0.121863008592,-1.79280200161,0.045996113577
9.22,0.528799862628,0.488360593713,0.16636477711,1.13964759054,-0.103759827027,1.34500314325,-0.657378278743,0.380134686312,0.274627541805,1.08717867233,-3.01381417085,0.121863008592,-1.79280200161,0.045996113577
9.24,0.528712577523,0.488657269859,0.164985975389,1.13839097798,-0.10274753453,1.34629464322,-0.657360835037,0.380412436976,0.274301025266,1.08738093225,-3.01440736138,0.121782537883,-1.79437794001,0.0459907596889
9.26,0.528712577523,0.488657269859,0.164985975389,1.13839097798,-0.10274753453,1.34629464322,-0.657360835037,0.380412436976,0.274301025266,1.08738093225,-3.01440736138,0.121782537883,-1.79437794001,0.0459907596889
9.28,0.528415868089,0.488884171183,0.163991134919,1.13716925283,-0.101944683007,1.34709745313,-0.657378278743,0.380736192674,0.274029488258,1.08762792718,-3.01462017682,0.12210389933,-1.79571604541,0.045979415059
9.3,0.528415868089,0.488884171183,0.163991134919,1.13716925283,-0.101944683007,1.34709745313,-0.657378278743,0.380736192674,0.274029488258,1.08762792718,-3.01462017682,0.12210389933,-1.79571604541,0.045979415059
9.32,0.528031906838,0.489145959919,0.163642077724,1.13655845684,-0.101037110997,1.34786537563,-0.657378278743,0.380839766383,0.273881635096,1.08767245961,-3.01551269423,0.122240481066,-1.79662745498,0.0459802045562
