GitHatake/ROS1EARs/catkin_ws/src/torobo_robot/torobo_EARs2021/scripts/arm/2021_kaiya_csv/test_manipulability_joint_3.csv
time,joint_1,joint_2,joint_3,joint_4,joint_5,joint_6,joint_7,x,y,z,roll,pitch,yaw,manipulability
0.0,0.465776022273,0.853902323222,0.0594982728023,0.744487614838,-0.0959756568322,1.33852793338,-0.656278726108,0.498818956502,0.256379314106,1.02790376548,-2.97455806843,0.130696196025,-1.96162763243,0.0430483654372
0.02,0.465776022273,0.853884879517,0.0594808207748,0.744487614838,-0.0959582048047,1.33852793338,-0.656278726108,0.498818956502,0.256379314106,1.02790376548,-2.97455806843,0.130696196025,-1.96162763243,0.0430483654372
0.04,0.465776022273,0.853884879517,0.0594808207748,0.744487614838,-0.0959582048047,1.33852793338,-0.656278726108,0.498820002766,0.256376204055,1.0279133346,-2.97455026747,0.130711646194,-1.96163854821,0.0430479739201
0.06,0.465776022273,0.853884879517,0.0594808207748,0.744487614838,-0.0959582048047,1.33852793338,-0.656278726108,0.498820002766,0.256376204055,1.0279133346,-2.97455026747,0.130711646194,-1.96163854821,0.0430479739201
0.08,0.465793465979,0.853902323222,0.0594808207748,0.744505125122,-0.0959756568322,1.33852793338,-0.656278726108,0.498814500124,0.256381323466,1.02789784598,-2.97455906783,0.130673922797,-1.96162100095,0.0430492172572
0.1,0.465793465979,0.853902323222,0.0594808207748,0.744505125122,-0.0959756568322,1.33852793338,-0.656278726108,0.498814500124,0.256381323466,1.02789784598,-2.97455906783,0.130673922797,-1.96162100095,0.0430492172572
0.12,0.465793465979,0.853884879517,0.0594808207748,0.744505125122,-0.0959756568322,1.33852793338,-0.656278726108,0.498814143177,0.256381144034,1.0279076288,-2.97454754399,0.130687103807,-1.96161949929,0.0430488159602
0.14,0.465793465979,0.853884879517,0.0594808207748,0.744505125122,-0.0959756568322,1.33852793338,-0.656278726108,0.498814143177,0.256381144034,1.0279076288,-2.97454754399,0.130687103807,-1.96161949929,0.0430488159602
0.16,0.465776022273,0.853884879517,0.0594808207748,0.744505125122,-0.0959756568322,1.33852793338,-0.656278726108,0.498814143177,0.256381144034,1.0279076288,-2.97454754399,0.130687103807,-1.96161949929,0.0430488159602
0.18,0.465776022273,0.853884879517,0.0594808207748,0.744505125122,-0.0959756568322,1.33852793338,-0.656278726108,0.498818615338,0.256372442828,1.0279076288,-2.97454754399,0.130687103807,-1.961636943,0.0430488159602
0.2,0.465776022273,0.853884879517,0.0594808207748,0.744505125122,-0.0959756568322,1.33852793338,-0.656278726108,0.498818615338,0.256372442828,1.0279076288,-2.97454754399,0.130687103807,-1.961636943,0.0430488159602
0.22,0.465793465979,0.853902323222,0.0594808207748,0.744505125122,-0.0959582048047,1.33852793338,-0.656278726108,0.498813098892,0.256383843501,1.0278976985,-2.97457281743,0.130684809247,-1.96162325867,0.0430492195615
0.24,0.465793465979,0.853902323222,0.0594808207748,0.744505125122,-0.0959582048047,1.33852793338,-0.656278726108,0.498813098892,0.256383843501,1.0278976985,-2.97457281743,0.130684809247,-1.96162325867,0.0430492195615
0.26,0.465810909684,0.853884879517,0.0594982728023,0.744505125122,-0.0959756568322,1.33854537708,-0.656278726108,0.498804344058,0.256393857893,1.02790709064,-2.97456851622,0.130682093256,-1.96159421263,0.0430488792959
0.28,0.465810909684,0.853884879517,0.0594982728023,0.744505125122,-0.0959756568322,1.33854537708,-0.656278726108,0.498804344058,0.256393857893,1.02790709064,-2.97456851622,0.130682093256,-1.96159421263,0.0430488792959
0.3,0.465776022273,0.853902323222,0.0594808207748,0.744505125122,-0.0959756568322,1.33852793338,-0.656278726108,0.498804344058,0.256393857893,1.02790709064,-2.97456851622,0.130682093256,-1.96159421263,0.0430488792959
0.32,0.465776022273,0.853902323222,0.0594808207748,0.744505125122,-0.0959756568322,1.33852793338,-0.656278726108,0.498818972288,0.256372622254,1.02789784598,-2.97455906783,0.130673922797,-1.96163844465,0.0430492172572
0.34,0.465776022273,0.853902323222,0.0594808207748,0.744505125122,-0.0959756568322,1.33852793338,-0.656278726108,0.498818972288,0.256372622254,1.02789784598,-2.97455906783,0.130673922797,-1.96163844465,0.0430492172572
0.36,0.465776022273,0.853884879517,0.0594808207748,0.744487614838,-0.0959756568322,1.33852793338,-0.656278726108,0.498821403947,0.256373683992,1.02791348208,-2.97453651785,0.130700759694,-1.96163629072,0.0430479716159
0.38,0.465776022273,0.853884879517,0.0594808207748,0.744487614838,-0.0959756568322,1.33852793338,-0.656278726108,0.498821403947,0.256373683992,1.02791348208,-2.97453651785,0.130700759694,-1.96163629072,0.0430479716159
0.4,0.465793465979,0.853902323222,0.0594808207748,0.744487614838,-0.0959756568322,1.33852793338,-0.656278726108,0.498817288803,0.256382564724,1.02790369921,-2.97454804171,0.130687578692,-1.96162034884,0.0430483729105
0.42,0.465793465979,0.853902323222,0.0594808207748,0.744487614838,-0.0959756568322,1.33852793338,-0.656278726108,0.498817288803,0.256382564724,1.02790369921,-2.97454804171,0.130687578692,-1.96162034884,0.0430483729105
0.44,0.465776022273,0.853884879517,0.0594808207748,0.744487614838,-0.0959756568322,1.33852793338,-0.656278726108,0.498817288803,0.256382564724,1.02790369921,-2.97454804171,0.130687578692,-1.96162034884,0.0430483729105
0.46,0.465776022273,0.853884879517,0.0594808207748,0.744487614838,-0.0959756568322,1.33852793338,-0.656278726108,0.498821403947,0.256373683992,1.02791348208,-2.97453651785,0.130700759694,-1.96163629072,0.0430479716159
0.48,0.465776022273,0.853884879517,0.0594808207748,0.744487614838,-0.0959756568322,1.33852793338,-0.656278726108,0.498821403947,0.256373683992,1.02791348208,-2.97453651785,0.130700759694,-1.96163629072,0.0430479716159
0.5,0.465793465979,0.853902323222,0.0594808207748,0.744487614838,-0.0959756568322,1.33852793338,-0.656278726108,0.498817288803,0.256382564724,1.02790369921,-2.97454804171,0.130687578692,-1.96162034884,0.0430483729105
0.52,0.465793465979,0.853902323222,0.0594808207748,0.744487614838,-0.0959756568322,1.33852793338,-0.656278726108,0.498817288803,0.256382564724,1.02790369921,-2.97454804171,0.130687578692,-1.96162034884,0.0430483729105
0.54,0.465793465979,0.853884879517,0.0594808207748,0.744505125122,-0.0959756568322,1.33852793338,-0.656278726108,0.498814143177,0.256381144034,1.0279076288,-2.97454754399,0.130687103807,-1.96161949929,0.0430488159602
0.56,0.465793465979,0.853884879517,0.0594808207748,0.744505125122,-0.0959756568322,1.33852793338,-0.656278726108,0.498814143177,0.256381144034,1.0279076288,-2.97454754399,0.130687103807,-1.96161949929,0.0430488159602
0.58,0.465776022273,0.853884879517,0.0594633687473,0.744505125122,-0.0959756568322,1.33854537708,-0.656278726108,0.498818897599,0.256365554399,1.02790695818,-2.97454846303,0.130664858983,-1.96164942111,0.0430488942416
0.6,0.465776022273,0.853884879517,0.0594633687473,0.744505125122,-0.0959756568322,1.33854537708,-0.656278726108,0.498818897599,0.256365554399,1.02790695818,-2.97454846303,0.130664858983,-1.96164942111,0.0430488942416
0.62,0.465776022273,0.853884879517,0.0594633687473,0.744505125122,-0.0959756568322,1.33854537708,-0.656278726108,0.498818897599,0.256365554399,1.02790695818,-2.97454846303,0.130664858983,-1.96164942111,0.0430488942416
0.64,0.465810909684,0.853884879517,0.0594808207748,0.744487614838,-0.0959756568322,1.33852793338,-0.656278726108,0.49881245943,0.256391086423,1.02791348208,-2.97453651785,0.130700759694,-1.96160140331,0.0430479716159
0.66,0.465810909684,0.853884879517,0.0594808207748,0.744487614838,-0.0959756568322,1.33852793338,-0.656278726108,0.49881245943,0.256391086423,1.02791348208,-2.97453651785,0.130700759694,-1.96160140331,0.0430479716159
0.68,0.465793465979,0.853884879517,0.0594633687473,0.744487614838,-0.0959582048047,1.33852793338,-0.656278726108,0.498818335089,0.256379454674,1.02791326837,-2.9745402408,0.130703029101,-1.96163126469,0.0430479813915
0.7,0.465793465979,0.853884879517,0.0594633687473,0.744487614838,-0.0959582048047,1.33852793338,-0.656278726108,0.498818335089,0.256379454674,1.02791326837,-2.9745402408,0.130703029101,-1.96163126469,0.0430479813915
0.72,0.465776022273,0.853902323222,0.0594633687473,0.744505125122,-0.0959582048047,1.33854537708,-0.656278726108,0.498817853375,0.256368253904,1.02789702789,-2.97457373623,0.130662564272,-1.96165317992,0.0430492978419
0.74,0.465776022273,0.853902323222,0.0594633687473,0.744505125122,-0.0959582048047,1.33854537708,-0.656278726108,0.498817853375,0.256368253904,1.02789702789,-2.97457373623,0.130662564272,-1.96165317992,0.0430492978419
0.76,0.465776022273,0.853902323222,0.0594633687473,0.744505125122,-0.0959582048047,1.33854537708,-0.656278726108,0.498817853375,0.256368253904,1.02789702789,-2.97457373623,0.130662564272,-1.96165317992,0.0430492978419
0.78,0.465810909684,0.853884879517,0.0594808207748,0.744505125122,-0.0959582048047,1.33854537708,-0.656278726108,0.498805747463,0.256390927356,1.02790687689,-2.97457223928,0.130684362514,-1.96160663054,0.0430488890739
0.8,0.465810909684,0.853884879517,0.0594808207748,0.744505125122,-0.0959582048047,1.33854537708,-0.656278726108,0.498805747463,0.256390927356,1.02790687689,-2.97457223928,0.130684362514,-1.96160663054,0.0430488890739
0.82,0.465776022273,0.853919766928,0.0594808207748,0.744505125122,-0.0959756568322,1.33854537708,-0.656278726108,0.498816806896,0.256371363854,1.02788745883,-2.9745815372,0.13064711398,-1.96164226338,0.0430496893518
0.84,0.465776022273,0.853919766928,0.0594808207748,0.744505125122,-0.0959756568322,1.33854537708,-0.656278726108,0.498816806896,0.256371363854,1.02788745883,-2.9745815372,0.13064711398,-1.96164226338,0.0430496893518
0.86,0.465776022273,0.853884879517,0.0594633687473,0.744487614838,-0.0959756568322,1.33854537708,-0.656278726108,0.498821686196,0.256366795607,1.02791281142,-2.97453743693,0.130678514889,-1.96164876886,0.0430480498973
0.88,0.465776022273,0.853884879517,0.0594633687473,0.744487614838,-0.0959756568322,1.33854537708,-0.656278726108,0.498821686196,0.256366795607,1.02791281142,-2.97453743693,0.130678514889,-1.96164876886,0.0430480498973
0.9,0.465776022273,0.853884879517,0.0594633687473,0.744487614838,-0.0959756568322,1.33854537708,-0.656278726108,0.498821686196,0.256366795607,1.02791281142,-2.97453743693,0.130678514889,-1.96164876886,0.0430480498973
0.92,0.465793465979,0.853919766928,0.0594808207748,0.744505125122,-0.0959756568322,1.33852793338,-0.656278726108,0.498814856918,0.256381502821,1.02788806315,-2.97457059163,0.130660741771,-1.96162250245,0.0430496185433
0.94,0.465793465979,0.853919766928,0.0594808207748,0.744505125122,-0.0959756568322,1.33852793338,-0.656278726108,0.498814856918,0.256381502821,1.02788806315,-2.97457059163,0.130660741771,-1.96162250245,0.0430496185433
0.96,0.465776022273,0.853884879517,0.0594808207748,0.744505125122,-0.0959582048047,1.33854537708,-0.656278726108,0.498814691975,0.25637352516,1.02790687689,-2.97457223928,0.130684362514,-1.96164151795,0.0430488890739
0.98,0.465776022273,0.853884879517,0.0594808207748,0.744505125122,-0.0959582048047,1.33854537708,-0.656278726108,0.498814691975,0.25637352516,1.02790687689,-2.97457223928,0.130684362514,-1.96164151795,0.0430488890739
1.0,0.465793465979,0.853902323222,0.0594808207748,0.744505125122,-0.0959756568322,1.33854537708,-0.656278726108,0.498811977968,0.256379885677,1.0278972416,-2.97457001345,0.130660295033,-1.96162331833,0.0430492880663
1.02,0.465793465979,0.853902323222,0.0594808207748,0.744505125122,-0.0959756568322,1.33854537708,-0.656278726108,0.498811977968,0.256379885677,1.0278972416,-2.97457001345,0.130660295033,-1.96162331833,0.0430492880663
1.04,0.465793465979,0.853902323222,0.0594808207748,0.744505125122,-0.0959756568322,1.33854537708,-0.656278726108,0.498811977968,0.256379885677,1.0278972416,-2.97457001345,0.130660295033,-1.96162331833,0.0430492880663
1.06,0.465793465979,0.853884879517,0.0594808207748,0.744487614838,-0.0959582048047,1.33852793338,-0.656278726108,0.498815530539,0.256384905285,1.0279133346,-2.97455026747,0.130711646194,-1.9616211045,0.0430479739201
1.08,0.465793465979,0.853884879517,0.0594808207748,0.744487614838,-0.0959582048047,1.33852793338,-0.656278726108,0.498815530539,0.256384905285,1.0279133346,-2.97455026747,0.130711646194,-1.9616211045,0.0430479739201
1.1,0.465776022273,0.853902323222,0.0594808207748,0.744505125122,-0.0959582048047,1.33852793338,-0.656278726108,0.4988175711,0.256375142313,1.0278976985,-2.97457281743,0.130684809247,-1.96164070238,0.0430492195615
1.12,0.465776022273,0.853902323222,0.0594808207748,0.744505125122,-0.0959582048047,1.33852793338,-0.656278726108,0.4988175711,0.256375142313,1.0278976985,-2.97457281743,0.130684809247,-1.96164070238,0.0430492195615
1.14,0.465810909684,0.853884879517,0.0594808207748,0.744505125122,-0.0959582048047,1.33852793338,-0.656278726108,0.4988175711,0.256375142313,1.0278976985,-2.97457281743,0.130684809247,-1.96164070238,0.0430492195615
1.16,0.465810909684,0.853884879517,0.0594808207748,0.744505125122,-0.0959582048047,1.33852793338,-0.656278726108,0.49880826959,0.256392365174,1.02790748131,-2.9745612936,0.130697990282,-1.96160431318,0.0430488182644
1.18,0.465810909684,0.853884879517,0.0594808207748,0.744505125122,-0.0959582048047,1.33852793338,-0.656278726108,0.49880826959,0.256392365174,1.02790748131,-2.9745612936,0.130697990282,-1.96160431318,0.0430488182644
1.2,0.465810909684,0.853902323222,0.0594982728023,0.744505125122,-0.0959756568322,1.33852793338,-0.656278726108,0.498807223111,0.256395475181,1.02789791225,-2.97456909453,0.130682540123,-1.961593397,0.0430492097836
1.22,0.465810909684,0.853902323222,0.0594982728023,0.744505125122,-0.0959756568322,1.33852793338,-0.656278726108,0.498807223111,0.256395475181,1.02789791225,-2.97456909453,0.130682540123,-1.961593397,0.0430492097836
1.24,0.465793465979,0.853867435812,0.0594808207748,0.744505125122,-0.0959756568322,1.33854537708,-0.656278726108,0.49881126394,0.256379526746,1.02791680713,-2.97454696584,0.130686657088,-1.96162031518,0.0430484854624
1.26,0.465793465979,0.853867435812,0.0594808207748,0.744505125122,-0.0959756568322,1.33854537708,-0.656278726108,0.49881126394,0.256379526746,1.02791680713,-2.97454696584,0.130686657088,-1.96162031518,0.0430484854624
1.28,0.465741101574,0.853902323222,0.0594633687473,0.744487614838,-0.0959756568322,1.33852793338,-0.656278726108,0.498833517673,0.25635099333,1.02790363302,-2.97453801493,0.13067896146,-1.96168287343,0.0430483803817
1.3,0.465741101574,0.853902323222,0.0594633687473,0.744487614838,-0.0959756568322,1.33852793338,-0.656278726108,0.498833517673,0.25635099333,1.02790363302,-2.97453801493,0.13067896146,-1.96168287343,0.0430483803817
1.32,0.465741101574,0.853902323222,0.0594633687473,0.744487614838,-0.0959756568322,1.33852793338,-0.656278726108,0.498833517673,0.25635099333,1.02790363302,-2.97453801493,0.13067896146,-1.96168287343,0.0430483803817
1.34,0.465776022273,0.853884879517,0.0594633687473,0.744487614838,-0.0959756568322,1.33852793338,-0.656278726108,0.498824208372,0.256368233318,1.02791341589,-2.97452649121,0.130692142578,-1.96164645103,0.0430479790873
1.36,0.465776022273,0.853884879517,0.0594633687473,0.744487614838,-0.0959756568322,1.33852793338,-0.656278726108,0.498824208372,0.256368233318,1.02791341589,-2.97452649121,0.130692142578,-1.96164645103,0.0430479790873
1.38,0.465758578568,0.853902323222,0.0594459125586,0.744505125122,-0.0959756568322,1.33852793338,-0.656278726108,0.498829053606,0.25635301811,1.02789771366,-2.97453901181,0.130656686393,-1.9616762115,0.0430492321998
1.4,0.465758578568,0.853902323222,0.0594459125586,0.744505125122,-0.0959756568322,1.33852793338,-0.656278726108,0.498829053606,0.25635301811,1.02789771366,-2.97453901181,0.130656686393,-1.9616762115,0.0430492321998
1.42,0.465723657868,0.853884879517,0.0594110085035,0.744505125122,-0.0959756568322,1.33852793338,-0.656278726108,0.498843256381,0.256324517207,1.0279073645,-2.97450743463,0.130652633921,-1.96172995204,0.0430488458356
1.44,0.465723657868,0.853884879517,0.0594110085035,0.744505125122,-0.0959756568322,1.33852793338,-0.656278726108,0.498843256381,0.256324517207,1.0279073645,-2.97450743463,0.130652633921,-1.96172995204,0.0430488458356
1.46,0.465723657868,0.853884879517,0.0594110085035,0.744505125122,-0.0959756568322,1.33852793338,-0.656278726108,0.498843256381,0.256324517207,1.0279073645,-2.97450743463,0.130652633921,-1.96172995204,0.0430488458356
1.48,0.465723657868,0.853884879517,0.059393556476,0.744505125122,-0.0959756568322,1.33852793338,-0.656278726108,0.498846060293,0.256319066217,1.02790729863,-2.97449740769,0.130644017216,-1.96174011278,0.0430488532985
1.5,0.465723657868,0.853884879517,0.059393556476,0.744505125122,-0.0959756568322,1.33852793338,-0.656278726108,0.498846060293,0.256319066217,1.02790729863,-2.97449740769,0.130644017216,-1.96174011278,0.0430488532985
1.52,0.465741101574,0.853884879517,0.059393556476,0.744505125122,-0.0959756568322,1.33852793338,-0.656278726108,0.498841589062,0.256327767901,1.02790729863,-2.97449740769,0.130644017216,-1.96172266907,0.0430488532985
1.54,0.465741101574,0.853884879517,0.059393556476,0.744505125122,-0.0959756568322,1.33852793338,-0.656278726108,0.498841589062,0.256327767901,1.02790729863,-2.97449740769,0.130644017216,-1.96172266907,0.0430488532985
1.56,0.465741101574,0.853849992107,0.0590095827423,0.744505125122,-0.0959582048047,1.33852793338,-0.656278726108,0.498901151568,0.256209991244,1.02792528696,-2.97426748782,0.130491716255,-1.96194549839,0.0430482166303
1.58,0.465741101574,0.853849992107,0.0590095827423,0.744505125122,-0.0959582048047,1.33852793338,-0.656278726108,0.498901151568,0.256209991244,1.02792528696,-2.97426748782,0.130491716255,-1.96194549839,0.0430482166303
1.6,0.465741101574,0.853849992107,0.0590095827423,0.744505125122,-0.0959582048047,1.33852793338,-0.656278726108,0.498901151568,0.256209991244,1.02792528696,-2.97426748782,0.130491716255,-1.96194549839,0.0430482166303
1.62,0.465688737169,0.853884879517,0.058363811951,0.744522568827,-0.0959582048047,1.33852793338,-0.656278726108,0.499016156457,0.255981232701,1.02789757381,-2.97393037159,0.130133057841,-1.9623776037,0.0430501332096
1.64,0.465688737169,0.853884879517,0.058363811951,0.744522568827,-0.0959582048047,1.33852793338,-0.656278726108,0.499016156457,0.255981232701,1.02789757381,-2.97393037159,0.130133057841,-1.9623776037,0.0430501332096
1.66,0.465706214163,0.853884879517,0.0575609604285,0.744505125122,-0.0959582048047,1.33852793338,-0.656278726108,0.499143209873,0.25574030259,1.02790067903,-2.97345782042,0.129750648914,-1.96282717821,0.0430496270879
1.68,0.465706214163,0.853884879517,0.0575609604285,0.744505125122,-0.0959582048047,1.33852793338,-0.656278726108,0.499143209873,0.25574030259,1.02790067903,-2.97345782042,0.129750648914,-1.96282717821,0.0430496270879
1.7,0.465653849758,0.853867435812,0.0567057486623,0.744505125122,-0.0959756568322,1.33852793338,-0.656278726108,0.499294628438,0.255444127073,1.02790789958,-2.9729407281,0.129331354285,-1.96337420903,0.0430495752768
1.72,0.465653849758,0.853867435812,0.0567057486623,0.744505125122,-0.0959756568322,1.33852793338,-0.656278726108,0.499294628438,0.255444127073,1.02790789958,-2.9729407281,0.129331354285,-1.96337420903,0.0430495752768
1.74,0.465653849758,0.853867435812,0.0567057486623,0.744505125122,-0.0959756568322,1.33852793338,-0.656278726108,0.499294628438,0.255444127073,1.02790789958,-2.9729407281,0.129331354285,-1.96337420903,0.0430495752768
1.76,0.465514233538,0.853849992107,0.0565486679311,0.744487614838,-0.0959756568322,1.33852793338,-0.656278726108,0.499357853841,0.255326367076,1.02792305879,-2.9728278424,0.129280798813,-1.96360323063,0.0430483936444
1.78,0.465514233538,0.853849992107,0.0565486679311,0.744487614838,-0.0959756568322,1.33852793338,-0.656278726108,0.499357853841,0.255326367076,1.02792305879,-2.9728278424,0.129280798813,-1.96360323063,0.0430483936444
1.8,0.465444392139,0.853867435812,0.0564788556598,0.744505125122,-0.0959756568322,1.33854537708,-0.656278726108,0.499381900899,0.255267160415,1.02790660789,-2.97282115447,0.129205918412,-1.96371826688,0.0430497385422
1.82,0.465444392139,0.853867435812,0.0564788556598,0.744505125122,-0.0959756568322,1.33854537708,-0.656278726108,0.499381900899,0.255267160415,1.02790660789,-2.97282115447,0.129205918412,-1.96371826688,0.0430497385422
1.84,0.465444392139,0.853867435812,0.056304322901,0.744505125122,-0.0959582048047,1.33852793338,-0.656278726108,0.499410949428,0.255216538526,1.02790653804,-2.97272354477,0.12914443517,-1.96381990928,0.0430497408887
1.86,0.465444392139,0.853867435812,0.056304322901,0.744505125122,-0.0959582048047,1.33852793338,-0.656278726108,0.499410949428,0.255216538526,1.02790653804,-2.97272354477,0.12914443517,-1.96381990928,0.0430497408887
1.88,0.465444392139,0.853867435812,0.056304322901,0.744505125122,-0.0959582048047,1.33852793338,-0.656278726108,0.499410949428,0.255216538526,1.02790653804,-2.97272354477,0.12914443517,-1.96381990928,0.0430497408887
1.9,0.465392061023,0.853849992107,0.0557981766523,0.744487614838,-0.0959582048047,1.33854537708,-0.656278726108,0.499505128064,0.255031740449,1.0279201083,-2.97242074068,0.128908336831,-1.96416753261,0.0430487702913
1.92,0.465392061023,0.853849992107,0.0557981766523,0.744487614838,-0.0959582048047,1.33854537708,-0.656278726108,0.499505128064,0.255031740449,1.0279201083,-2.97242074068,0.128908336831,-1.96416753261,0.0430487702913
1.94,0.465426948434,0.853884879517,0.0541575653911,0.744505125122,-0.0959582048047,1.33854537708,-0.656278726108,0.499756113238,0.254534992724,1.02789041507,-2.97151031481,0.128060658102,-1.96509326681,0.0430510666433
1.96,0.465426948434,0.853884879517,0.0541575653911,0.744505125122,-0.0959582048047,1.33854537708,-0.656278726108,0.499756113238,0.254534992724,1.02789041507,-2.97151031481,0.128060658102,-1.96509326681,0.0430510666433
1.98,0.465426948434,0.853849992107,0.0522551570723,0.744505125122,-0.0959232924272,1.33854537708,-0.656278726108,0.500055686591,0.25394413869,1.02790559169,-2.97041886894,0.127173549698,-1.96620531554,0.0430509976042
2.0,0.465426948434,0.853849992107,0.0522551570723,0.744505125122,-0.0959232924272,1.33854537708,-0.656278726108,0.500055686591,0.25394413869,1.02790559169,-2.97041886894,0.127173549698,-1.96620531554,0.0430509976042
2.02,0.465426948434,0.853849992107,0.0522551570723,0.744505125122,-0.0959232924272,1.33854537708,-0.656278726108,0.500055686591,0.25394413869,1.02790559169,-2.97041886894,0.127173549698,-1.96620531554,0.0430509976042
2.04,0.465461869133,0.853884879517,0.0464955718723,0.744505125122,-0.0959407527771,1.33852793338,-0.656278726108,0.500964527938,0.252155522778,1.02788032027,-2.96709334823,0.124325350456,-1.96953629136,0.0430537747734
2.06,0.465461869133,0.853884879517,0.0464955718723,0.744505125122,-0.0959407527771,1.33852793338,-0.656278726108,0.500964527938,0.252155522778,1.02788032027,-2.96709334823,0.124325350456,-1.96953629136,0.0430537747734
2.08,0.465444392139,0.853849992107,0.0385717771349,0.744470171133,-0.0959232924272,1.33852793338,-0.656278726108,0.502217331676,0.249662156238,1.02791683296,-2.9624759103,0.120522587585,-1.97419801025,0.0430537161587
2.1,0.465444392139,0.853849992107,0.0385717771349,0.744470171133,-0.0959232924272,1.33852793338,-0.656278726108,0.502217331676,0.249662156238,1.02791683296,-2.9624759103,0.120522587585,-1.97419801025,0.0430537161587
2.12,0.465322219624,0.853867435812,0.0289375588649,0.744487614838,-0.0959407527771,1.33852793338,-0.656278726108,0.503742568476,0.246561719608,1.0279304327,-2.95688669345,0.1158110143,-1.97999080879,0.0430572990133
2.14,0.465322219624,0.853867435812,0.0289375588649,0.744487614838,-0.0959407527771,1.33852793338,-0.656278726108,0.503742568476,0.246561719608,1.0279304327,-2.95688669345,0.1158110143,-1.97999080879,0.0430572990133
2.16,0.465322219624,0.853867435812,0.0289375588649,0.744487614838,-0.0959407527771,1.33852793338,-0.656278726108,0.503742568476,0.246561719608,1.0279304327,-2.95688669345,0.1158110143,-1.97999080879,0.0430572990133
2.18,0.465461869133,0.853849992107,0.0164759082387,0.744470171133,-0.0959232924272,1.33852793338,-0.656278726108,0.505615708429,0.242696242329,1.02801979748,-2.94960250012,0.109850630239,-1.98722014264,0.0430580974098
2.2,0.465461869133,0.853849992107,0.0164759082387,0.744470171133,-0.0959232924272,1.33852793338,-0.656278726108,0.505615708429,0.242696242329,1.02801979748,-2.94960250012,0.109850630239,-1.98722014264,0.0430580974098
2.22,0.465444392139,0.853867435812,0.00144862322402,0.744470171133,-0.0959407527771,1.33852793338,-0.656278726108,0.507877049129,0.237914948536,1.02815414523,-2.94077366642,0.102664191201,-1.9961749858,0.0430594664986
2.24,0.465444392139,0.853867435812,0.00144862322402,0.744470171133,-0.0959407527771,1.33852793338,-0.656278726108,0.507877049129,0.237914948536,1.02815414523,-2.94077366642,0.102664191201,-1.9961749858,0.0430594664986
2.26,0.465392061023,0.853867435812,-0.0148702051937,0.744505125122,-0.0959058403997,1.33852793338,-0.656278726108,0.510276065886,0.23268761987,1.02836574878,-2.93117273331,0.0949708748242,-2.00600403506,0.0430603684891
2.28,0.465392061023,0.853867435812,-0.0148702051937,0.744505125122,-0.0959058403997,1.33852793338,-0.656278726108,0.510276065886,0.23268761987,1.02836574878,-2.93117273331,0.0949708748242,-2.00600403506,0.0430603684891
2.3,0.465392061023,0.853867435812,-0.0148702051937,0.744505125122,-0.0959058403997,1.33852793338,-0.656278726108,0.510276065886,0.23268761987,1.02836574878,-2.93117273331,0.0949708748242,-2.00600403506,0.0430603684891
2.32,0.465409504728,0.853884879517,-0.0316253666786,0.744505125122,-0.0958709363447,1.33852793338,-0.656278726108,0.512668949721,0.227336217682,1.02865834795,-2.92123137318,0.0871838399317,-2.01609274807,0.0430579676434
2.34,0.465409504728,0.853884879517,-0.0316253666786,0.744505125122,-0.0958709363447,1.33852793338,-0.656278726108,0.512668949721,0.227336217682,1.02865834795,-2.92123137318,0.0871838399317,-2.01609274807,0.0430579676434
2.36,0.465566564654,0.853849992107,-0.0520282640698,0.744487614838,-0.0958709363447,1.33852793338,-0.656278726108,0.515475014407,0.220854626324,1.02915275359,-2.90894982432,0.077869548623,-2.02832915798,0.0430501744097
2.38,0.465566564654,0.853849992107,-0.0520282640698,0.744487614838,-0.0958709363447,1.33852793338,-0.656278726108,0.515475014407,0.220854626324,1.02915275359,-2.90894982432,0.077869548623,-2.02832915798,0.0430501744097
2.4,0.465426948434,0.853902323222,-0.0767246723198,0.744522568827,-0.0959058403997,1.33852793338,-0.656278726108,0.518817423451,0.212789971236,1.02982713611,-2.8940060592,0.0666585660163,-2.04361819216,0.0430416164024
2.42,0.465426948434,0.853902323222,-0.0767246723198,0.744522568827,-0.0959058403997,1.33852793338,-0.656278726108,0.518817423451,0.212789971236,1.02982713611,-2.8940060592,0.0666585660163,-2.04361819216,0.0430416164024
2.44,0.465426948434,0.853902323222,-0.0767246723198,0.744522568827,-0.0959058403997,1.33852793338,-0.656278726108,0.518817423451,0.212789971236,1.02982713611,-2.8940060592,0.0666585660163,-2.04361819216,0.0430416164024
2.46,0.465322219624,0.853867435812,-0.102485737472,0.744522568827,-0.0958360322896,1.33852793338,-0.656278726108,0.522144277555,0.204374072309,1.03076082192,-2.87825704366,0.0553754053318,-2.05969139158,0.0430242263322
2.48,0.465322219624,0.853867435812,-0.102485737472,0.744522568827,-0.0958360322896,1.33852793338,-0.656278726108,0.522144277555,0.204374072309,1.03076082192,-2.87825704366,0.0553754053318,-2.05969139158,0.0430242263322
2.5,0.465479312838,0.853902323222,-0.133500237415,0.744522568827,-0.0958360322896,1.33852793338,-0.656278726108,0.525899360082,0.19432924343,1.03207464081,-2.85904932834,0.0420132669969,-2.0789786128,0.042998766009
2.52,0.465479312838,0.853902323222,-0.133500237415,0.744522568827,-0.0958360322896,1.33852793338,-0.656278726108,0.525899360082,0.19432924343,1.03207464081,-2.85904932834,0.0420132669969,-2.0789786128,0.042998766009
2.54,0.465374584029,0.853884879517,-0.167254905414,0.744540012532,-0.0957836678847,1.33856282079,-0.656278726108,0.529775606767,0.183205273616,1.03381128962,-2.83790569926,0.0279399063379,-2.10053406471,0.0429630077531
2.56,0.465374584029,0.853884879517,-0.167254905414,0.744540012532,-0.0957836678847,1.33856282079,-0.656278726108,0.529775606767,0.183205273616,1.03381128962,-2.83790569926,0.0279399063379,-2.10053406471,0.0429630077531
2.58,0.465374584029,0.853884879517,-0.167254905414,0.744540012532,-0.0957836678847,1.33856282079,-0.656278726108,0.529775606767,0.183205273616,1.03381128962,-2.83790569926,0.0279399063379,-2.10053406471,0.0429630077531
2.6,0.465392061023,0.853884879517,-0.203121410224,0.744540012532,-0.0958011199122,1.33856282079,-0.656278726108,0.533589557436,0.171403131833,1.0359793332,-2.81503996104,0.0134718901352,-2.12361066938,0.0429156096057
2.62,0.465392061023,0.853884879517,-0.203121410224,0.744540012532,-0.0958011199122,1.33856282079,-0.656278726108,0.533589557436,0.171403131833,1.0359793332,-2.81503996104,0.0134718901352,-2.12361066938,0.0429156096057
2.64,0.465357140323,0.853867435812,-0.240279481584,0.744505125122,-0.0958185719397,1.33854537708,-0.656278726108,0.537232901467,0.159120883364,1.03859555357,-2.79096675318,-0.000897533259867,-2.14790056438,0.0428549312428
2.66,0.465357140323,0.853867435812,-0.240279481584,0.744505125122,-0.0958185719397,1.33854537708,-0.656278726108,0.537232901467,0.159120883364,1.03859555357,-2.79096675318,-0.000897533259867,-2.14790056438,0.0428549312428
2.68,0.465234967808,0.853867435812,-0.277175730919,0.744505125122,-0.0958011199122,1.33854537708,-0.656278726108,0.540522745258,0.146863387954,1.04151714675,-2.76678980417,-0.0146128863115,-2.17245550962,0.0427874556419
2.7,0.465234967808,0.853867435812,-0.277175730919,0.744505125122,-0.0958011199122,1.33854537708,-0.656278726108,0.540522745258,0.146863387954,1.04151714675,-2.76678980417,-0.0146128863115,-2.17245550962,0.0427874556419
2.72,0.465234967808,0.853867435812,-0.277175730919,0.744505125122,-0.0958011199122,1.33854537708,-0.656278726108,0.540522745258,0.146863387954,1.04151714675,-2.76678980417,-0.0146128863115,-2.17245550962,0.0427874556419
2.74,0.465165159698,0.853867435812,-0.315922044974,0.744505125122,-0.0957487638297,1.33854537708,-0.656278726108,0.543605432216,0.134029458102,1.04495117696,-2.7410662538,-0.0283490566451,-2.1985391119,0.0427067334964
2.76,0.465165159698,0.853867435812,-0.315922044974,0.744505125122,-0.0957487638297,1.33854537708,-0.656278726108,0.543605432216,0.134029458102,1.04495117696,-2.7410662538,-0.0283490566451,-2.1985391119,0.0427067334964
2.78,0.464973179073,0.853815038118,-0.351806010134,0.744487614838,-0.0957836678847,1.33854537708,-0.656278726108,0.546145296519,0.122080574615,1.04850192677,-2.71682205861,-0.0404578907826,-2.22314128901,0.0426210561932
2.8,0.464973179073,0.853815038118,-0.351806010134,0.744487614838,-0.0957836678847,1.33854537708,-0.656278726108,0.546145296519,0.122080574615,1.04850192677,-2.71682205861,-0.0404578907826,-2.22314128901,0.0426210561932
2.82,0.465060430889,0.853867435812,-0.385700327644,0.744505125122,-0.0957487638297,1.33854537708,-0.656278726108,0.548210296273,0.11097904185,1.05207421211,-2.69376184907,-0.0514208472394,-2.24639052834,0.0425365254146
2.84,0.465060430889,0.853867435812,-0.385700327644,0.744505125122,-0.0957487638297,1.33854537708,-0.656278726108,0.548210296273,0.11097904185,1.05207421211,-2.69376184907,-0.0514208472394,-2.24639052834,0.0425365254146
2.86,0.465060430889,0.853867435812,-0.385700327644,0.744505125122,-0.0957487638297,1.33854537708,-0.656278726108,0.548210296273,0.11097904185,1.05207421211,-2.69376184907,-0.0514208472394,-2.24639052834,0.0425365254146
2.88,0.465130238999,0.853832548402,-0.419297902429,0.744470171133,-0.0957313118022,1.33854537708,-0.656278726108,0.549978079183,0.100010124463,1.05595284665,-2.67056219148,-0.0616437265477,-2.26969874333,0.0424410592195
2.9,0.465130238999,0.853832548402,-0.419297902429,0.744470171133,-0.0957313118022,1.33854537708,-0.656278726108,0.549978079183,0.100010124463,1.05595284665,-2.67056219148,-0.0616437265477,-2.26969874333,0.0424410592195
2.92,0.465060430889,0.853849992107,-0.449963336854,0.744487614838,-0.0957487638297,1.33854537708,-0.656278726108,0.551350044766,0.0899617579633,1.05968596715,-2.64919251252,-0.0705998713023,-2.29133739929,0.0423513525454
2.94,0.465060430889,0.853849992107,-0.449963336854,0.744487614838,-0.0957487638297,1.33854537708,-0.656278726108,0.551350044766,0.0899617579633,1.05968596715,-2.64919251252,-0.0705998713023,-2.29133739929,0.0423513525454
2.96,0.464920814668,0.853815038118,-0.478255129088,0.744487614838,-0.0957313118022,1.33854537708,-0.656278726108,0.552405755569,0.0807034952437,1.06335460241,-2.62929519304,-0.078370937304,-2.311548515,0.04226160672
2.98,0.464920814668,0.853815038118,-0.478255129088,0.744487614838,-0.0957313118022,1.33854537708,-0.656278726108,0.552405755569,0.0807034952437,1.06335460241,-2.62929519304,-0.078370937304,-2.311548515,0.04226160672
3.0,0.464920814668,0.853815038118,-0.478255129088,0.744487614838,-0.0957313118022,1.33854537708,-0.656278726108,0.552405755569,0.0807034952437,1.06335460241,-2.62929519304,-0.078370937304,-2.311548515,0.04226160672
3.02,0.464851006558,0.853780150707,-0.507279956413,0.744452727428,-0.0957313118022,1.33856282079,-0.656278726108,0.553268973712,0.071303271442,1.06732000334,-2.60868700077,-0.085924742515,-2.33237842797,0.0421631454824
3.04,0.464851006558,0.853780150707,-0.507279956413,0.744452727428,-0.0957313118022,1.33856282079,-0.656278726108,0.553268973712,0.071303271442,1.06732000334,-2.60868700077,-0.085924742515,-2.33237842797,0.0421631454824
3.06,0.464624105233,0.853849992107,-0.537107626938,0.744487614838,-0.0956614953697,1.33854537708,-0.656278726108,0.553938822218,0.0616287407712,1.07151062636,-2.58744578999,-0.0933226017063,-2.35410973998,0.0420627143212
3.08,0.464624105233,0.853849992107,-0.537107626938,0.744487614838,-0.0956614953697,1.33854537708,-0.656278726108,0.553938822218,0.0616287407712,1.07151062636,-2.58744578999,-0.0933226017063,-2.35410973998,0.0420627143212
3.1,0.464484489013,0.853832548402,-0.569640569788,0.744470171133,-0.0956091392871,1.33854537708,-0.656278726108,0.554396235995,0.0512250826614,1.07637313676,-2.56401430979,-0.100766628252,-2.37788856321,0.0419428268162
3.12,0.464484489013,0.853832548402,-0.569640569788,0.744470171133,-0.0956091392871,1.33854537708,-0.656278726108,0.554396235995,0.0512250826614,1.07637313676,-2.56401430979,-0.100766628252,-2.37788856321,0.0419428268162
3.14,0.464484489013,0.853832548402,-0.569640569788,0.744470171133,-0.0956091392871,1.33854537708,-0.656278726108,0.554396235995,0.0512250826614,1.07637313676,-2.56401430979,-0.100766628252,-2.37788856321,0.0419428268162
3.16,0.464275031394,0.853849992107,-0.602103704528,0.744487614838,-0.0956440433422,1.33854537708,-0.656278726108,0.554577441256,0.0408899863726,1.08143129219,-2.54040658756,-0.107752072237,-2.40189664741,0.0418200568982
3.18,0.464275031394,0.853849992107,-0.602103704528,0.744487614838,-0.0956440433422,1.33854537708,-0.656278726108,0.554577441256,0.0408899863726,1.08143129219,-2.54040658756,-0.107752072237,-2.40189664741,0.0418200568982
3.2,0.464170302584,0.853815038118,-0.635858339238,0.744470171133,-0.0956265913147,1.33856282079,-0.656278726108,0.554465877987,0.0303368073877,1.08695986481,-2.51568935162,-0.114321077272,-2.42692202779,0.0416838542492
3.22,0.464170302584,0.853815038118,-0.635858339238,0.744470171133,-0.0956265913147,1.33856282079,-0.656278726108,0.554465877987,0.0303368073877,1.08695986481,-2.51568935162,-0.114321077272,-2.42692202779,0.0416838542492
3.24,0.464135415173,0.853780150707,-0.670730036868,0.744435283723,-0.0956440433422,1.33856282079,-0.656278726108,0.554041504248,0.0196140326137,1.09292559173,-2.48992310256,-0.120459795415,-2.45287663211,0.0415365485336
3.26,0.464135415173,0.853780150707,-0.670730036868,0.744435283723,-0.0956440433422,1.33856282079,-0.656278726108,0.554041504248,0.0196140326137,1.09292559173,-2.48992310256,-0.120459795415,-2.45287663211,0.0415365485336
3.28,0.464135415173,0.853780150707,-0.670730036868,0.744435283723,-0.0956440433422,1.33856282079,-0.656278726108,0.554041504248,0.0196140326137,1.09292559173,-2.48992310256,-0.120459795415,-2.45287663211,0.0415365485336
3.3,0.464135415173,0.853832548402,-0.708114959618,0.744452727428,-0.0956265913147,1.33856282079,-0.656278726108,0.553235663328,0.00831228192706,1.0995252905,-2.46218974514,-0.126402874042,-2.48086610745,0.0413771734214
3.32,0.464135415173,0.853832548402,-0.708114959618,0.744452727428,-0.0956265913147,1.33856282079,-0.656278726108,0.553235663328,0.00831228192706,1.0995252905,-2.46218974514,-0.126402874042,-2.48086610745,0.0413771734214
3.34,0.464117938179,0.853762707002,-0.742480523482,0.744400396312,-0.0956265913147,1.33856282079,-0.656278726108,0.552175737974,-0.00191048851671,1.10591157398,-2.4364667103,-0.131030920204,-2.50674320357,0.0412192716416
3.36,0.464117938179,0.853762707002,-0.742480523482,0.744400396312,-0.0956265913147,1.33856282079,-0.656278726108,0.552175737974,-0.00191048851671,1.10591157398,-2.4364667103,-0.131030920204,-2.50674320357,0.0412192716416
3.38,0.464083050768,0.853727819592,-0.772343081418,0.744400396312,-0.0956440433422,1.33856282079,-0.656278726108,0.551003044715,-0.0106705009222,1.11161490768,-2.41402674904,-0.134580466709,-2.52937703036,0.0410808149151
3.4,0.464083050768,0.853727819592,-0.772343081418,0.744400396312,-0.0956440433422,1.33856282079,-0.656278726108,0.551003044715,-0.0106705009222,1.11161490768,-2.41402674904,-0.134580466709,-2.52937703036,0.0410808149151
3.42,0.464083050768,0.853727819592,-0.772343081418,0.744400396312,-0.0956440433422,1.33856282079,-0.656278726108,0.551003044715,-0.0106705009222,1.11161490768,-2.41402674904,-0.134580466709,-2.52937703036,0.0410808149151
3.44,0.464048130069,0.853815038118,-0.801402829442,0.744435283723,-0.0956091392871,1.33856282079,-0.656278726108,0.549650184433,-0.0190535059544,1.11724536922,-2.39218548829,-0.137661939621,-2.5514875264,0.0409475020596
3.46,0.464048130069,0.853815038118,-0.801402829442,0.744435283723,-0.0956091392871,1.33856282079,-0.656278726108,0.549650184433,-0.0190535059544,1.11724536922,-2.39218548829,-0.137661939621,-2.5514875264,0.0409475020596
3.48,0.464048130069,0.853745263297,-0.826587944397,0.744400396312,-0.0955916872596,1.3385977082,-0.656278726108,0.548292757011,-0.0261863421116,1.12233449195,-2.37315259578,-0.139786560815,-2.57067042174,0.0408229581741
3.5,0.464048130069,0.853745263297,-0.826587944397,0.744400396312,-0.0955916872596,1.3385977082,-0.656278726108,0.548292757011,-0.0261863421116,1.12233449195,-2.37315259578,-0.139786560815,-2.57067042174,0.0408229581741
3.52,0.464013242658,0.853815038118,-0.849329542473,0.744435283723,-0.0955567748822,1.3385977082,-0.656278726108,0.546938442448,-0.0325538169957,1.12693881673,-2.35597773464,-0.141537636323,-2.58807260616,0.0407149352007
3.54,0.464013242658,0.853815038118,-0.849329542473,0.744435283723,-0.0955567748822,1.3385977082,-0.656278726108,0.546938442448,-0.0325538169957,1.12693881673,-2.35597773464,-0.141537636323,-2.58807260616,0.0407149352007
3.56,0.464013242658,0.853815038118,-0.849329542473,0.744435283723,-0.0955567748822,1.3385977082,-0.656278726108,0.546938442448,-0.0325538169957,1.12693881673,-2.35597773464,-0.141537636323,-2.58807260616,0.0407149352007
3.58,0.464030686364,0.853780150707,-0.869872101857,0.744382952607,-0.0955916872596,1.3385977082,-0.656278726108,0.545603863151,-0.038196806717,1.13125036962,-2.34032746916,-0.142754310259,-2.60374700322,0.040609723859
3.6,0.464030686364,0.853780150707,-0.869872101857,0.744382952607,-0.0955916872596,1.3385977082,-0.656278726108,0.545603863151,-0.038196806717,1.13125036962,-2.34032746916,-0.142754310259,-2.60374700322,0.040609723859
3.62,0.463978321959,0.853780150707,-0.888948524482,0.744382952607,-0.0956091392871,1.3385977082,-0.656278726108,0.544264261137,-0.0434094664563,1.13528381197,-2.32581753366,-0.14372003863,-2.61840948618,0.040513826277
3.64,0.463978321959,0.853780150707,-0.888948524482,0.744382952607,-0.0956091392871,1.3385977082,-0.656278726108,0.544264261137,-0.0434094664563,1.13528381197,-2.32581753366,-0.14372003863,-2.61840948618,0.040513826277
3.66,0.464013242658,0.853762707002,-0.906593830917,0.744382952607,-0.0955916872596,1.3385977082,-0.656278726108,0.542946878985,-0.0481207993982,1.13907014068,-2.31240971673,-0.144389864897,-2.63189219999,0.0404237243329
3.68,0.464013242658,0.853762707002,-0.906593830917,0.744382952607,-0.0955916872596,1.3385977082,-0.656278726108,0.542946878985,-0.0481207993982,1.13907014068,-2.31240971673,-0.144389864897,-2.63189219999,0.0404237243329
3.7,0.464013242658,0.853762707002,-0.906593830917,0.744382952607,-0.0955916872596,1.3385977082,-0.656278726108,0.542946878985,-0.0481207993982,1.13907014068,-2.31240971673,-0.144389864897,-2.63189219999,0.0404237243329
3.72,0.463995765664,0.853692865603,-0.919282395352,0.744347998618,-0.0956091392871,1.3385977082,-0.656278726108,0.541946653097,-0.0514946290254,1.14186243681,-2.30271689483,-0.144699779319,-2.64162670874,0.0403553683465
3.74,0.463995765664,0.853692865603,-0.919282395352,0.744347998618,-0.0956091392871,1.3385977082,-0.656278726108,0.541946653097,-0.0514946290254,1.14186243681,-2.30271689483,-0.144699779319,-2.64162670874,0.0403553683465
3.76,0.464013242658,0.853780150707,-0.929998689262,0.744365442323,-0.0955916872596,1.3385977082,-0.656278726108,0.541085118003,-0.0542978254329,1.14415478802,-2.29458481766,-0.145044619634,-2.64983314102,0.0403032827107
3.78,0.464013242658,0.853780150707,-0.929998689262,0.744365442323,-0.0955916872596,1.3385977082,-0.656278726108,0.541085118003,-0.0542978254329,1.14415478802,-2.29458481766,-0.145044619634,-2.64983314102,0.0403032827107
3.8,0.464048130069,0.853727819592,-0.937573451772,0.744347998618,-0.0956091392871,1.3385977082,-0.656278726108,0.540449386871,-0.0562579333715,1.14584993218,-2.28879138969,-0.145133841028,-2.65560626988,0.0402619215044
3.82,0.464048130069,0.853727819592,-0.937573451772,0.744347998618,-0.0956091392871,1.3385977082,-0.656278726108,0.540449386871,-0.0562579333715,1.14584993218,-2.28879138969,-0.145133841028,-2.65560626988,0.0402619215044
3.84,0.464048130069,0.853727819592,-0.937573451772,0.744347998618,-0.0956091392871,1.3385977082,-0.656278726108,0.540449386871,-0.0562579333715,1.14584993218,-2.28879138969,-0.145133841028,-2.65560626988,0.0402619215044
3.86,0.464048130069,0.853727819592,-0.943525017597,0.744365442323,-0.0955742269097,1.3385977082,-0.656278726108,0.539941049088,-0.0578024699394,1.14715428138,-2.2842966686,-0.14521243834,-2.66017199167,0.0402317598552
3.88,0.464048130069,0.853727819592,-0.943525017597,0.744365442323,-0.0955742269097,1.3385977082,-0.656278726108,0.539941049088,-0.0578024699394,1.14715428138,-2.2842966686,-0.14521243834,-2.66017199167,0.0402317598552
3.9,0.464048130069,0.853762707002,-0.947417094372,0.744365442323,-0.0955742269097,1.3385977082,-0.656278726108,0.539609162976,-0.0588068097317,1.1480000423,-2.28133273996,-0.14529390314,-2.66315873734,0.0402124684444
3.92,0.464048130069,0.853762707002,-0.947417094372,0.744365442323,-0.0955742269097,1.3385977082,-0.656278726108,0.539609162976,-0.0588068097317,1.1480000423,-2.28133273996,-0.14529390314,-2.66315873734,0.0402124684444
3.94,0.464065607063,0.853762707002,-0.950663421161,0.744365442323,-0.0955742269097,1.3385977082,-0.656278726108,0.539326851939,-0.0596345487199,1.14872045474,-2.27885994494,-0.145326055322,-2.66563264915,0.0401955510665
3.96,0.464065607063,0.853762707002,-0.950663421161,0.744365442323,-0.0955742269097,1.3385977082,-0.656278726108,0.539326851939,-0.0596345487199,1.14872045474,-2.27885994494,-0.145326055322,-2.66563264915,0.0401955510665
3.98,0.464065607063,0.853762707002,-0.950663421161,0.744365442323,-0.0955742269097,1.3385977082,-0.656278726108,0.539326851939,-0.0596345487199,1.14872045474,-2.27885994494,-0.145326055322,-2.66563264915,0.0401955510665
4.0,0.464030686364,0.853780150707,-0.953804952562,0.744365442323,-0.0955742269097,1.3385977082,-0.656278726108,0.539050351229,-0.0604603096492,1.14941111984,-2.27646706196,-0.145368808552,-2.66807858891,0.040179636991
4.02,0.464030686364,0.853780150707,-0.953804952562,0.744365442323,-0.0955742269097,1.3385977082,-0.656278726108,0.539050351229,-0.0604603096492,1.14941111984,-2.27646706196,-0.145368808552,-2.66807858891,0.040179636991
4.04,0.464100494474,0.853762707002,-0.954956902892,0.744347998618,-0.0955567748822,1.3385977082,-0.656278726108,0.538953367486,-0.0607141907445,1.14967866763,-2.27559407027,-0.145339447551,-2.66887821432,0.0401724153403
4.06,0.464100494474,0.853762707002,-0.954956902892,0.744347998618,-0.0955567748822,1.3385977082,-0.656278726108,0.538953367486,-0.0607141907445,1.14967866763,-2.27559407027,-0.145339447551,-2.66887821432,0.0401724153403
4.08,0.464135415173,0.853745263297,-0.955497924067,0.744313111208,-0.0955742269097,1.3385977082,-0.656278726108,0.538909409905,-0.0608304999632,1.14981925652,-2.27514847705,-0.145315220557,-2.66924517946,0.0401676528907
4.1,0.464135415173,0.853745263297,-0.955497924067,0.744313111208,-0.0955742269097,1.3385977082,-0.656278726108,0.538909409905,-0.0608304999632,1.14981925652,-2.27514847705,-0.145315220557,-2.66924517946,0.0401676528907
4.12,0.464135415173,0.853745263297,-0.955497924067,0.744313111208,-0.0955742269097,1.3385977082,-0.656278726108,0.538909409905,-0.0608304999632,1.14981925652,-2.27514847705,-0.145315220557,-2.66924517946,0.0401676528907
4.14,0.464135415173,0.853815038118,-0.955497924067,0.744365442323,-0.0955567748822,1.3385977082,-0.656278726108,0.538911805528,-0.0608342190331,1.14977034711,-2.27519191692,-0.145405196473,-2.66926780731,0.0401717567553
4.16,0.464135415173,0.853815038118,-0.955497924067,0.744365442323,-0.0955567748822,1.3385977082,-0.656278726108,0.538911805528,-0.0608342190331,1.14977034711,-2.27519191692,-0.145405196473,-2.66926780731,0.0401717567553
4.18,0.464170302584,0.853745263297,-0.955445592952,0.744313111208,-0.0955742269097,1.3385977082,-0.656278726108,0.53891618008,-0.0607982731405,1.14980759545,-2.27518834028,-0.145314895849,-2.66917012953,0.0401679263556
4.2,0.464170302584,0.853745263297,-0.955445592952,0.744313111208,-0.0955742269097,1.3385977082,-0.656278726108,0.53891618008,-0.0607982731405,1.14980759545,-2.27518834028,-0.145314895849,-2.66917012953,0.0401679263556
4.22,0.464205223283,0.853797594413,-0.955358307847,0.744347998618,-0.0955567748822,1.3385977082,-0.656278726108,0.538928620445,-0.060758495479,1.14975223467,-2.27528858769,-0.145376893378,-2.66908151234,0.0401712794787
4.24,0.464205223283,0.853797594413,-0.955358307847,0.744347998618,-0.0955567748822,1.3385977082,-0.656278726108,0.538928620445,-0.060758495479,1.14975223467,-2.27528858769,-0.145376893378,-2.66908151234,0.0401712794787
4.26,0.464205223283,0.853797594413,-0.955358307847,0.744347998618,-0.0955567748822,1.3385977082,-0.656278726108,0.538928620445,-0.060758495479,1.14975223467,-2.27528858769,-0.145376893378,-2.66908151234,0.0401712794787
4.28,0.464187779578,0.853745263297,-0.955271089321,0.744330554913,-0.0955742269097,1.3385977082,-0.656278726108,0.538930307018,-0.0607474935768,1.14976364433,-2.27533081251,-0.145323794603,-2.66902807944,0.0401695643307
4.3,0.464187779578,0.853745263297,-0.955271089321,0.744330554913,-0.0955742269097,1.3385977082,-0.656278726108,0.538930307018,-0.0607474935768,1.14976364433,-2.27533081251,-0.145323794603,-2.66902807944,0.0401695643307
4.32,0.464222666989,0.853780150707,-0.955166360512,0.744347998618,-0.0955742269097,1.3385977082,-0.656278726108,0.538943805424,-0.0607029689741,1.14971937773,-2.27542043176,-0.145368010151,-2.66892212418,0.0401717992304
4.34,0.464222666989,0.853780150707,-0.955166360512,0.744347998618,-0.0955742269097,1.3385977082,-0.656278726108,0.538943805424,-0.0607029689741,1.14971937773,-2.27542043176,-0.145368010151,-2.66892212418,0.0401717992304
4.36,0.464205223283,0.853780150707,-0.955079075407,0.744347998618,-0.0955567748822,1.33858026449,-0.656278726108,0.538953924477,-0.0606878665628,1.14969897548,-2.27549205158,-0.145348726808,-2.66885658787,0.0401722064219
4.38,0.464205223283,0.853780150707,-0.955079075407,0.744347998618,-0.0955567748822,1.33858026449,-0.656278726108,0.538953924477,-0.0606878665628,1.14969897548,-2.27549205158,-0.145348726808,-2.66885658787,0.0401722064219
4.4,0.464205223283,0.853780150707,-0.955079075407,0.744347998618,-0.0955567748822,1.33858026449,-0.656278726108,0.538953924477,-0.0606878665628,1.14969897548,-2.27549205158,-0.145348726808,-2.66885658787,0.0401722064219
4.42,0.464222666989,0.853780150707,-0.954974346597,0.744347998618,-0.0955567748822,1.3385977082,-0.656278726108,0.538961490748,-0.060651692255,1.14967462067,-2.27558093394,-0.145357003781,-2.66876940747,0.040172804936
4.44,0.464222666989,0.853780150707,-0.954974346597,0.744347998618,-0.0955567748822,1.3385977082,-0.656278726108,0.538961490748,-0.060651692255,1.14967462067,-2.27558093394,-0.145357003781,-2.66876940747,0.040172804936
4.46,0.464240143983,0.853780150707,-0.954904571776,0.744347998618,-0.0955742269097,1.3385977082,-0.656278726108,0.538968085415,-0.0606263620466,1.1496610565,-2.27561985638,-0.145366323345,-2.66870372793,0.0401731670235
4.48,0.464240143983,0.853780150707,-0.954904571776,0.744347998618,-0.0955742269097,1.3385977082,-0.656278726108,0.538968085415,-0.0606263620466,1.1496610565,-2.27561985638,-0.145366323345,-2.66870372793,0.0401731670235
4.5,0.464257587688,0.853797594413,-0.954817286672,0.744347998618,-0.0955742269097,1.3385977082,-0.656278726108,0.538979136432,-0.0605934257942,1.14963367996,-2.27568650173,-0.145383195162,-2.66861927193,0.0401741037375
4.52,0.464257587688,0.853797594413,-0.954817286672,0.744347998618,-0.0955742269097,1.3385977082,-0.656278726108,0.538979136432,-0.0605934257942,1.14963367996,-2.27568650173,-0.145383195162,-2.66861927193,0.0401741037375
4.54,0.464257587688,0.853797594413,-0.954817286672,0.744347998618,-0.0955742269097,1.3385977082,-0.656278726108,0.538979136432,-0.0605934257942,1.14963367996,-2.27568650173,-0.145383195162,-2.66861927193,0.0401741037375
4.56,0.464205223283,0.853745263297,-0.953804952562,0.744347998618,-0.0956091392871,1.3385977082,-0.656278726108,0.539057519394,-0.0603690718461,1.14943602106,-2.27642871709,-0.145343479134,-2.66790544147,0.0401779445228
4.58,0.464205223283,0.853745263297,-0.953804952562,0.744347998618,-0.0956091392871,1.3385977082,-0.656278726108,0.539057519394,-0.0603690718461,1.14943602106,-2.27642871709,-0.145343479134,-2.66790544147,0.0401779445228
4.6,0.464135415173,0.853780150707,-0.949528914537,0.744347998618,-0.0956091392871,1.3385977082,-0.656278726108,0.539433687189,-0.0593040652304,1.14846958982,-2.27968635188,-0.145342514865,-2.6646934322,0.0402012138534
4.62,0.464135415173,0.853780150707,-0.949528914537,0.744347998618,-0.0956091392871,1.3385977082,-0.656278726108,0.539433687189,-0.0593040652304,1.14846958982,-2.27968635188,-0.145342514865,-2.6646934322,0.0402012138534
4.64,0.464205223283,0.853762707002,-0.939981948082,0.744347998618,-0.0956091392871,1.33858026449,-0.656278726108,0.540261313025,-0.0567969150224,1.14636584996,-2.28694872124,-0.145197794349,-2.65728666334,0.0402503345927
4.66,0.464205223283,0.853762707002,-0.939981948082,0.744347998618,-0.0956091392871,1.33858026449,-0.656278726108,0.540261313025,-0.0567969150224,1.14636584996,-2.28694872124,-0.145197794349,-2.65728666334,0.0402503345927
4.68,0.464205223283,0.853762707002,-0.939981948082,0.744347998618,-0.0956091392871,1.33858026449,-0.656278726108,0.540261313025,-0.0567969150224,1.14636584996,-2.28694872124,-0.145197794349,-2.65728666334,0.0402503345927
4.7,0.464240143983,0.853745263297,-0.928113703842,0.744313111208,-0.0956091392871,1.33858026449,-0.656278726108,0.541257730062,-0.0536752153003,1.14377631321,-2.29596705822,-0.144939467498,-2.64812753071,0.0403098102437
4.72,0.464240143983,0.853745263297,-0.928113703842,0.744313111208,-0.0956091392871,1.33858026449,-0.656278726108,0.541257730062,-0.0536752153003,1.14377631321,-2.29596705822,-0.144939467498,-2.64812753071,0.0403098102437
4.74,0.464257587688,0.853815038118,-0.913662393082,0.744382952607,-0.0955742269097,1.33858026449,-0.656278726108,0.542419383743,-0.0498612149233,1.1405727401,-2.30703775379,-0.144651846468,-2.63705189712,0.0403889532174
4.76,0.464257587688,0.853815038118,-0.913662393082,0.744382952607,-0.0955742269097,1.33858026449,-0.656278726108,0.542419383743,-0.0498612149233,1.1405727401,-2.30703775379,-0.144651846468,-2.63705189712,0.0403889532174
4.78,0.464292475099,0.853780150707,-0.898216258497,0.744347998618,-0.0956091392871,1.33858026449,-0.656278726108,0.543603912545,-0.0457244156597,1.13727450065,-2.31874131243,-0.144078415071,-2.62516824577,0.040465327014
4.8,0.464292475099,0.853780150707,-0.898216258497,0.744347998618,-0.0956091392871,1.33858026449,-0.656278726108,0.543603912545,-0.0457244156597,1.13727450065,-2.31874131243,-0.144078415071,-2.62516824577,0.040465327014
4.82,0.464292475099,0.853780150707,-0.898216258497,0.744347998618,-0.0956091392871,1.33858026449,-0.656278726108,0.543603912545,-0.0457244156597,1.13727450065,-2.31874131243,-0.144078415071,-2.62516824577,0.040465327014
4.84,0.464240143983,0.853815038118,-0.880361561022,0.744382952607,-0.0956091392871,1.33858026449,-0.656278726108,0.54489493859,-0.0409405227555,1.13344648718,-2.33233770671,-0.143341084388,-2.61156084278,0.0405580114468
4.86,0.464240143983,0.853815038118,-0.880361561022,0.744382952607,-0.0956091392871,1.33858026449,-0.656278726108,0.54489493859,-0.0409405227555,1.13344648718,-2.33233770671,-0.143341084388,-2.61156084278,0.0405580114468
4.88,0.464292475099,0.853849992107,-0.859871332753,0.744382952607,-0.0955916872596,1.33858026449,-0.656278726108,0.546288113624,-0.0353058712418,1.12912816324,-2.34791645003,-0.142229543644,-2.59582453746,0.040661378061
4.9,0.464292475099,0.853849992107,-0.859871332753,0.744382952607,-0.0955916872596,1.33858026449,-0.656278726108,0.546288113624,-0.0353058712418,1.12912816324,-2.34791645003,-0.142229543644,-2.59582453746,0.040661378061
4.92,0.464240143983,0.853780150707,-0.837269350897,0.744382952607,-0.0956091392871,1.33858026449,-0.656278726108,0.547685798083,-0.0290720360721,1.12449980698,-2.36503508179,-0.140637035209,-2.57861387638,0.0407709751321
4.94,0.464240143983,0.853780150707,-0.837269350897,0.744382952607,-0.0956091392871,1.33858026449,-0.656278726108,0.547685798083,-0.0290720360721,1.12449980698,-2.36503508179,-0.140637035209,-2.57861387638,0.0407709751321
4.96,0.464240143983,0.853780150707,-0.837269350897,0.744382952607,-0.0956091392871,1.33858026449,-0.656278726108,0.547685798083,-0.0290720360721,1.12449980698,-2.36503508179,-0.140637035209,-2.57861387638,0.0407709751321
4.98,0.464205223283,0.853884879517,-0.810199317102,0.744470171133,-0.0955916872596,1.3385977082,-0.656278726108,0.549197585946,-0.0214733492274,1.11894854853,-2.38560201911,-0.138574616564,-2.55805527135,0.0409088578069
5.0,0.464205223283,0.853884879517,-0.810199317102,0.744470171133,-0.0955916872596,1.3385977082,-0.656278726108,0.549197585946,-0.0214733492274,1.11894854853,-2.38560201911,-0.138574616564,-2.55805527135,0.0409088578069
5.02,0.464309952093,0.853849992107,-0.780511262797,0.744417840017,-0.0955916872596,1.3385977082,-0.656278726108,0.550651089286,-0.0129020096338,1.11312630783,-2.40796680689,-0.135591713249,-2.53535797626,0.0410466727044
5.04,0.464309952093,0.853849992107,-0.780511262797,0.744417840017,-0.0955916872596,1.3385977082,-0.656278726108,0.550651089286,-0.0129020096338,1.11312630783,-2.40796680689,-0.135591713249,-2.53535797626,0.0410466727044
5.06,0.464240143983,0.853902323222,-0.750701035977,0.744470171133,-0.0956091392871,1.3385977082,-0.656278726108,0.551875319837,-0.00426580211646,1.10736655303,-2.43039949939,-0.132258132045,-2.51287356425,0.0411885735753
5.08,0.464240143983,0.853902323222,-0.750701035977,0.744470171133,-0.0956091392871,1.3385977082,-0.656278726108,0.551875319837,-0.00426580211646,1.10736655303,-2.43039949939,-0.132258132045,-2.51287356425,0.0411885735753
5.1,0.464240143983,0.853902323222,-0.750701035977,0.744470171133,-0.0956091392871,1.3385977082,-0.656278726108,0.551875319837,-0.00426580211646,1.10736655303,-2.43039949939,-0.132258132045,-2.51287356425,0.0411885735753
5.12,0.464257587688,0.853902323222,-0.718010999913,0.744435283723,-0.0956091392871,1.33856282079,-0.656278726108,0.552969300255,0.00542804363863,1.10129576088,-2.45482601732,-0.127879221766,-2.4881698055,0.0413344258088
5.14,0.464257587688,0.853902323222,-0.718010999913,0.744435283723,-0.0956091392871,1.33856282079,-0.656278726108,0.552969300255,0.00542804363863,1.10129576088,-2.45482601732,-0.127879221766,-2.4881698055,0.0413344258088
5.16,0.464292475099,0.853919766928,-0.686699815502,0.744435283723,-0.0956265913147,1.33856282079,-0.656278726108,0.553749634285,0.0148577373828,1.09565366223,-2.47812801662,-0.123196314668,-2.4646451568,0.0414718942729
5.18,0.464292475099,0.853919766928,-0.686699815502,0.744435283723,-0.0956265913147,1.33856282079,-0.656278726108,0.553749634285,0.0148577373828,1.09565366223,-2.47812801662,-0.123196314668,-2.4646451568,0.0414718942729
5.2,0.464275031394,0.853937210633,-0.653364029453,0.744470171133,-0.0956091392871,1.33856282079,-0.656278726108,0.554297627891,0.0250091456026,1.08984527954,-2.50284087789,-0.117617061306,-2.43980526397,0.0416149498639
5.22,0.464275031394,0.853937210633,-0.653364029453,0.744470171133,-0.0956091392871,1.33856282079,-0.656278726108,0.554297627891,0.0250091456026,1.08984527954,-2.50284087789,-0.117617061306,-2.43980526397,0.0416149498639
5.24,0.464275031394,0.853937210633,-0.653364029453,0.744470171133,-0.0956091392871,1.33856282079,-0.656278726108,0.554297627891,0.0250091456026,1.08984527954,-2.50284087789,-0.117617061306,-2.43980526397,0.0416149498639
5.26,0.464275031394,0.853919766928,-0.622855654953,0.744470171133,-0.0956265913147,1.33856282079,-0.656278726108,0.554548244612,0.0344275975692,1.08475673074,-2.52526100638,-0.111946981613,-2.41719294128,0.0417390041496
5.28,0.464275031394,0.853919766928,-0.622855654953,0.744470171133,-0.0956265913147,1.33856282079,-0.656278726108,0.554548244612,0.0344275975692,1.08475673074,-2.52526100638,-0.111946981613,-2.41719294128,0.0417390041496
5.3,0.464292475099,0.853972164622,-0.592661466883,0.744470171133,-0.0956440433422,1.33856282079,-0.656278726108,0.554562733761,0.0438649688451,1.07987524351,-2.54732227333,-0.105909317024,-2.3949393169,0.041858999314
5.32,0.464292475099,0.853972164622,-0.592661466883,0.744470171133,-0.0956440433422,1.33856282079,-0.656278726108,0.554562733761,0.0438649688451,1.07987524351,-2.54732227333,-0.105909317024,-2.3949393169,0.041858999314
5.34,0.464240143983,0.853937210633,-0.562833796358,0.744470171133,-0.0956614953697,1.33856282079,-0.656278726108,0.554342454356,0.0532392534427,1.07528798301,-2.56893849041,-0.0993861114848,-2.3731797443,0.0419707718539
5.36,0.464240143983,0.853937210633,-0.562833796358,0.744470171133,-0.0956614953697,1.33856282079,-0.656278726108,0.554342454356,0.0532392534427,1.07528798301,-2.56893849041,-0.0993861114848,-2.3731797443,0.0419707718539
5.38,0.464240143983,0.853937210633,-0.562833796358,0.744470171133,-0.0956614953697,1.33856282079,-0.656278726108,0.554342454356,0.0532392534427,1.07528798301,-2.56893849041,-0.0993861114848,-2.3731797443,0.0419707718539
5.4,0.464275031394,0.853954720917,-0.531749446694,0.744452727428,-0.0956614953697,1.33854537708,-0.656278726108,0.553871454906,0.0631549470245,1.07069013,-2.59130319525,-0.0921081025595,-2.35056771133,0.042082675343
5.42,0.464275031394,0.853954720917,-0.531749446694,0.744452727428,-0.0956614953697,1.33854537708,-0.656278726108,0.553871454906,0.0631549470245,1.07069013,-2.59130319525,-0.0921081025595,-2.35056771133,0.042082675343
5.44,0.464292475099,0.853954720917,-0.501956696868,0.744470171133,-0.0956789473972,1.33854537708,-0.656278726108,0.553177834184,0.0727179705239,1.06648291745,-2.61257608431,-0.0846946464249,-2.3291043973,0.0421861335027
5.46,0.464292475099,0.853954720917,-0.501956696868,0.744470171133,-0.0956789473972,1.33854537708,-0.656278726108,0.553177834184,0.0727179705239,1.06648291745,-2.61257608431,-0.0846946464249,-2.3291043973,0.0421861335027
5.48,0.464205223283,0.853937210633,-0.470470942249,0.744470171133,-0.0957138597746,1.33854537708,-0.656296169813,0.552206364935,0.0828380472456,1.0622711221,-2.63483525062,-0.0763593489031,-2.3066994926,0.0422886922659
5.5,0.464205223283,0.853937210633,-0.470470942249,0.744470171133,-0.0957138597746,1.33854537708,-0.656296169813,0.552206364935,0.0828380472456,1.0622711221,-2.63483525062,-0.0763593489031,-2.3066994926,0.0422886922659
5.52,0.464205223283,0.853937210633,-0.470470942249,0.744470171133,-0.0957138597746,1.33854537708,-0.656296169813,0.552206364935,0.0828380472456,1.0622711221,-2.63483525062,-0.0763593489031,-2.3066994926,0.0422886922659
5.54,0.464292475099,0.854007052032,-0.435930874754,0.744505125122,-0.0956789473972,1.33854537708,-0.656278726108,0.550830485653,0.0941228379346,1.05784956759,-2.6591239114,-0.0666904414219,-2.28220849746,0.0423982806722
5.56,0.464292475099,0.854007052032,-0.435930874754,0.744505125122,-0.0956789473972,1.33854537708,-0.656278726108,0.550830485653,0.0941228379346,1.05784956759,-2.6591239114,-0.0666904414219,-2.28220849746,0.0423982806722
5.58,0.464309952093,0.853972164622,-0.402525280594,0.744470171133,-0.0956789473972,1.33854537708,-0.656278726108,0.549219922804,0.105062741202,1.05391896784,-2.68226193261,-0.0566679939926,-2.25880599493,0.0424917072323
5.6,0.464309952093,0.853972164622,-0.402525280594,0.744470171133,-0.0956789473972,1.33854537708,-0.656278726108,0.549219922804,0.105062741202,1.05391896784,-2.68226193261,-0.0566679939926,-2.25880599493,0.0424917072323
5.62,0.464222666989,0.853972164622,-0.366920581164,0.744487614838,-0.0957138597746,1.33854537708,-0.656278726108,0.547198581863,0.116705477416,1.04998737504,-2.70666656061,-0.0454936433795,-2.23425894001,0.0425870832359
5.64,0.464222666989,0.853972164622,-0.366920581164,0.744487614838,-0.0957138597746,1.33854537708,-0.656278726108,0.547198581863,0.116705477416,1.04998737504,-2.70666656061,-0.0454936433795,-2.23425894001,0.0425870832359
5.66,0.464222666989,0.853972164622,-0.366920581164,0.744487614838,-0.0957138597746,1.33854537708,-0.656278726108,0.547198581863,0.116705477416,1.04998737504,-2.70666656061,-0.0454936433795,-2.23425894001,0.0425870832359
5.68,0.464309952093,0.854007052032,-0.333986200069,0.744505125122,-0.0957138597746,1.33854537708,-0.656278726108,0.54502484766,0.127607807451,1.04660284394,-2.72902019393,-0.0346400989651,-2.21164237562,0.0426690006436
5.7,0.464309952093,0.854007052032,-0.333986200069,0.744505125122,-0.0957138597746,1.33854537708,-0.656278726108,0.54502484766,0.127607807451,1.04660284394,-2.72902019393,-0.0346400989651,-2.21164237562,0.0426690006436
5.72,0.464292475099,0.853972164622,-0.299882458229,0.744505125122,-0.0957313118022,1.33854537708,-0.656278726108,0.542501892702,0.138859529971,1.04342490409,-2.75183859394,-0.0228116737039,-2.18859765538,0.0427438300562
5.74,0.464292475099,0.853972164622,-0.299882458229,0.744505125122,-0.0957313118022,1.33854537708,-0.656278726108,0.542501892702,0.138859529971,1.04342490409,-2.75183859394,-0.0228116737039,-2.18859765538,0.0427438300562
5.76,0.464240143983,0.853989608327,-0.265743828979,0.744505125122,-0.0957487638297,1.33852793338,-0.656278726108,0.539698565581,0.150116390956,1.04050586832,-2.77441061725,-0.0104834865359,-2.16583892075,0.0428121467685
5.78,0.464240143983,0.853989608327,-0.265743828979,0.744505125122,-0.0957487638297,1.33852793338,-0.656278726108,0.539698565581,0.150116390956,1.04050586832,-2.77441061725,-0.0104834865359,-2.16583892075,0.0428121467685
5.8,0.464240143983,0.853989608327,-0.265743828979,0.744505125122,-0.0957487638297,1.33852793338,-0.656278726108,0.539698565581,0.150116390956,1.04050586832,-2.77441061725,-0.0104834865359,-2.16583892075,0.0428121467685
5.82,0.464327395798,0.854007052032,-0.233053809559,0.744505125122,-0.0957313118022,1.33852793338,-0.656278726108,0.536721822444,0.160971470431,1.03798329909,-2.79579200786,0.00180770118144,-2.14418153999,0.0428702531728
5.84,0.464327395798,0.854007052032,-0.233053809559,0.744505125122,-0.0957313118022,1.33852793338,-0.656278726108,0.536721822444,0.160971470431,1.03798329909,-2.79579200786,0.00180770118144,-2.14418153999,0.0428702531728
5.86,0.464222666989,0.854007052032,-0.198374125844,0.744522568827,-0.0957836678847,1.33854537708,-0.656278726108,0.533311521681,0.172351877426,1.03561145433,-2.81813971267,0.0152887529121,-2.12169902648,0.0429243312773
5.88,0.464222666989,0.854007052032,-0.198374125844,0.744522568827,-0.0957836678847,1.33854537708,-0.656278726108,0.533311521681,0.172351877426,1.03561145433,-2.81813971267,0.0152887529121,-2.12169902648,0.0429243312773
5.9,0.464240143983,0.854007052032,-0.164218036244,0.744487614838,-0.0958011199122,1.33852793338,-0.656278726108,0.529664313114,0.183608924787,1.03359441851,-2.83982437048,0.0291412737821,-2.09971348561,0.0429667746849
5.92,0.464240143983,0.854007052032,-0.164218036244,0.744487614838,-0.0958011199122,1.33852793338,-0.656278726108,0.529664313114,0.183608924787,1.03359441851,-2.83982437048,0.0291412737821,-2.09971348561,0.0429667746849
5.94,0.464240143983,0.854007052032,-0.164218036244,0.744487614838,-0.0958011199122,1.33852793338,-0.656278726108,0.529664313114,0.183608924787,1.03359441851,-2.83982437048,0.0291412737821,-2.09971348561,0.0429667746849
5.96,0.464309952093,0.854041939443,-0.12826424633,0.744505125122,-0.0957836678847,1.33852793338,-0.656278726108,0.52550726324,0.195439185165,1.03175826741,-2.86242126377,0.0441694977558,-2.0768527168,0.0430060699815
5.98,0.464309952093,0.854041939443,-0.12826424633,0.744505125122,-0.0957836678847,1.33852793338,-0.656278726108,0.52550726324,0.195439185165,1.03175826741,-2.86242126377,0.0441694977558,-2.0768527168,0.0430060699815
6.0,0.464240143983,0.854024495737,-0.0922057442497,0.744505125122,-0.0958011199122,1.33852793338,-0.656278726108,0.521069776695,0.207164428546,1.03029156624,-2.8846834065,0.0597846543677,-2.05438876998,0.0430342001769
6.02,0.464240143983,0.854024495737,-0.0922057442497,0.744505125122,-0.0958011199122,1.33852793338,-0.656278726108,0.521069776695,0.207164428546,1.03029156624,-2.8846834065,0.0597846543677,-2.05438876998,0.0430342001769
6.04,0.464257587688,0.854007052032,-0.0579274779736,0.744505125122,-0.0958185719397,1.33852793338,-0.656278726108,0.516562387491,0.218283249313,1.02921386283,-2.90553460768,0.0750867656827,-2.033255278,0.0430523033952
6.06,0.464257587688,0.854007052032,-0.0579274779736,0.744505125122,-0.0958185719397,1.33852793338,-0.656278726108,0.516562387491,0.218283249313,1.02921386283,-2.90553460768,0.0750867656827,-2.033255278,0.0430523033952
6.08,0.464257587688,0.854007052032,-0.0579274779736,0.744505125122,-0.0958185719397,1.33852793338,-0.656278726108,0.516562387491,0.218283249313,1.02921386283,-2.90553460768,0.0750867656827,-2.033255278,0.0430523033952
6.1,0.464292475099,0.854041939443,-0.0239633710793,0.744487614838,-0.0958011199122,1.33852793338,-0.656278726108,0.51183675392,0.229234529286,1.02842713253,-2.9259445098,0.0906700330208,-2.01259595424,0.0430622763888
6.12,0.464292475099,0.854041939443,-0.0239633710793,0.744487614838,-0.0958011199122,1.33852793338,-0.656278726108,0.51183675392,0.229234529286,1.02842713253,-2.9259445098,0.0906700330208,-2.01259595424,0.0430622763888
6.14,0.464275031394,0.854041939443,0.00771435532294,0.744505125122,-0.0958360322896,1.33852793338,-0.656278726108,0.507212938795,0.239327909182,1.02797579653,-2.94467572787,0.10554411626,-1.99363597115,0.043064970544
6.16,0.464275031394,0.854041939443,0.00771435532294,0.744505125122,-0.0958360322896,1.33852793338,-0.656278726108,0.507212938795,0.239327909182,1.02797579653,-2.94467572787,0.10554411626,-1.99363597115,0.043064970544
6.18,0.464240143983,0.854007052032,0.0386241373786,0.744470171133,-0.0958709363447,1.33852793338,-0.656278726108,0.50250858631,0.249082885989,1.02782807808,-2.96264955901,0.12046088531,-1.97539015402,0.043057319591
6.2,0.464240143983,0.854007052032,0.0386241373786,0.744470171133,-0.0958709363447,1.33852793338,-0.656278726108,0.50250858631,0.249082885989,1.02782807808,-2.96264955901,0.12046088531,-1.97539015402,0.043057319591
6.22,0.464240143983,0.854007052032,0.0386241373786,0.744470171133,-0.0958709363447,1.33852793338,-0.656278726108,0.50250858631,0.249082885989,1.02782807808,-2.96264955901,0.12046088531,-1.97539015402,0.043057319591
6.24,0.464205223283,0.854041939443,0.0703367725172,0.744487614838,-0.0958709363447,1.33854537708,-0.656278726108,0.49746454505,0.258991937394,1.02788085727,-2.98095680976,0.136014069253,-1.9569319511,0.0430465989202
6.26,0.464205223283,0.854041939443,0.0703367725172,0.744487614838,-0.0958709363447,1.33854537708,-0.656278726108,0.49746454505,0.258991937394,1.02788085727,-2.98095680976,0.136014069253,-1.9569319511,0.0430465989202
6.28,0.464257587688,0.854041939443,0.10077531394,0.744487614838,-0.0959058403997,1.33852793338,-0.656278726108,0.492419170434,0.268439201017,1.02820759923,-2.9982087753,0.151296728721,-1.93935088568,0.0430278034947
6.3,0.464257587688,0.854041939443,0.10077531394,0.744487614838,-0.0959058403997,1.33852793338,-0.656278726108,0.492419170434,0.268439201017,1.02820759923,-2.9982087753,0.151296728721,-1.93935088568,0.0430278034947
6.32,0.464292475099,0.854024495737,0.133011539032,0.744470171133,-0.0958709363447,1.33854537708,-0.656278726108,0.486872643673,0.278319840965,1.02883481494,-3.01628381031,0.167846798001,-1.92101217021,0.0429995987622
6.34,0.464292475099,0.854024495737,0.133011539032,0.744470171133,-0.0958709363447,1.33854537708,-0.656278726108,0.486872643673,0.278319840965,1.02883481494,-3.01628381031,0.167846798001,-1.92101217021,0.0429995987622
6.36,0.464292475099,0.854024495737,0.133011539032,0.744470171133,-0.0958709363447,1.33854537708,-0.656278726108,0.486872643673,0.278319840965,1.02883481494,-3.01628381031,0.167846798001,-1.92101217021,0.0429995987622
6.38,0.464240143983,0.854111780842,0.165439761394,0.744505125122,-0.0959058403997,1.33852793338,-0.656278726108,0.481121245963,0.288071202238,1.02966737112,-3.03423641132,0.184687627557,-1.90290453525,0.0429685854012
6.4,0.464240143983,0.854111780842,0.165439761394,0.744505125122,-0.0959058403997,1.33852793338,-0.656278726108,0.481121245963,0.288071202238,1.02966737112,-3.03423641132,0.184687627557,-1.90290453525,0.0429685854012
6.42,0.464240143983,0.854041939443,0.199281697854,0.744470171133,-0.0959407527771,1.33852793338,-0.656278726108,0.474901381463,0.298117976895,1.03094386146,-3.05255131322,0.202756499014,-1.88420225753,0.0429212540209
6.44,0.464240143983,0.854041939443,0.199281697854,0.744470171133,-0.0959407527771,1.33852793338,-0.656278726108,0.474901381463,0.298117976895,1.03094386146,-3.05255131322,0.202756499014,-1.88420225753,0.0429212540209
6.46,0.464240143983,0.854111780842,0.233472691509,0.744470171133,-0.0959407527771,1.33854537708,-0.656278726108,0.468400183896,0.308096362477,1.03244726298,-3.07093811994,0.221230815082,-1.86560830704,0.0428703709802
6.48,0.464240143983,0.854111780842,0.233472691509,0.744470171133,-0.0959407527771,1.33854537708,-0.656278726108,0.468400183896,0.308096362477,1.03244726298,-3.07093811994,0.221230815082,-1.86560830704,0.0428703709802
6.5,0.464240143983,0.854111780842,0.233472691509,0.744470171133,-0.0959407527771,1.33854537708,-0.656278726108,0.468400183896,0.308096362477,1.03244726298,-3.07093811994,0.221230815082,-1.86560830704,0.0428703709802
6.52,0.464205223283,0.854111780842,0.269740634564,0.744505125122,-0.0959582048047,1.33854537708,-0.656278726108,0.461290510886,0.318456666102,1.03440446774,-3.09008022596,0.241214086881,-1.8461980814,0.0428074939289
6.54,0.464205223283,0.854111780842,0.269740634564,0.744505125122,-0.0959582048047,1.33854537708,-0.656278726108,0.461290510886,0.318456666102,1.03440446774,-3.09008022596,0.241214086881,-1.8461980814,0.0428074939289
6.56,0.464240143983,0.854076893432,0.308452044564,0.744435283723,-0.0959756568322,1.33852793338,-0.656278726108,0.453458223718,0.329306611982,1.03692332825,-3.11007088008,0.263056719252,-1.82573633645,0.0427245900187
6.58,0.464240143983,0.854076893432,0.308452044564,0.744435283723,-0.0959756568322,1.33852793338,-0.656278726108,0.453458223718,0.329306611982,1.03692332825,-3.11007088008,0.263056719252,-1.82573633645,0.0427245900187
6.6,0.464240143983,0.854111780842,0.348420067124,0.744435283723,-0.0959931088597,1.33854537708,-0.656278726108,0.445119233709,0.340200953812,1.03986135949,-3.13047227879,0.285886358351,-1.80500678175,0.0426338296216
6.62,0.464240143983,0.854111780842,0.348420067124,0.744435283723,-0.0959931088597,1.33854537708,-0.656278726108,0.445119233709,0.340200953812,1.03986135949,-3.13047227879,0.285886358351,-1.80500678175,0.0426338296216
6.64,0.464240143983,0.854111780842,0.348420067124,0.744435283723,-0.0959931088597,1.33854537708,-0.656278726108,0.445119233709,0.340200953812,1.03986135949,-3.13047227879,0.285886358351,-1.80500678175,0.0426338296216
6.66,0.464257587688,0.854111780842,0.386991860904,0.744452727428,-0.0959756568322,1.33854537708,-0.656278726108,0.436832676525,0.350436018739,1.04309409474,3.13336096646,0.308338897156,-1.78531138338,0.0425364116641
6.68,0.464257587688,0.854111780842,0.386991860904,0.744452727428,-0.0959756568322,1.33854537708,-0.656278726108,0.436832676525,0.350436018739,1.04309409474,3.13336096646,0.308338897156,-1.78531138338,0.0425364116641
6.7,0.464257587688,0.854129224547,0.425389084474,0.744435283723,-0.0959931088597,1.33854537708,-0.656278726108,0.428391053655,0.360314975124,1.04668164377,3.11445541919,0.331039566146,-1.76603463766,0.0424289080165
6.72,0.464257587688,0.854129224547,0.425389084474,0.744435283723,-0.0959931088597,1.33854537708,-0.656278726108,0.428391053655,0.360314975124,1.04668164377,3.11445541919,0.331039566146,-1.76603463766,0.0424289080165
6.74,0.464257587688,0.854111780842,0.466962826724,0.744435283723,-0.0960280129147,1.33854537708,-0.656278726108,0.419027121845,0.370654551365,1.05098733875,3.09437446353,0.355998854337,-1.74548819288,0.042302372806
6.76,0.464257587688,0.854111780842,0.466962826724,0.744435283723,-0.0960280129147,1.33854537708,-0.656278726108,0.419027121845,0.370654551365,1.05098733875,3.09437446353,0.355998854337,-1.74548819288,0.042302372806
6.78,0.464257587688,0.854111780842,0.466962826724,0.744435283723,-0.0960280129147,1.33854537708,-0.656278726108,0.419027121845,0.370654551365,1.05098733875,3.09437446353,0.355998854337,-1.74548819288,0.042302372806
6.8,0.464257587688,0.854111780842,0.506616729433,0.744417840017,-0.0960280129147,1.33856282079,-0.656278726108,0.409894191016,0.380160800662,1.0554803899,3.07551356492,0.380169392504,-1.72622701384,0.0421718433437
6.82,0.464257587688,0.854111780842,0.506616729433,0.744417840017,-0.0960280129147,1.33856282079,-0.656278726108,0.409894191016,0.380160800662,1.0554803899,3.07551356492,0.380169392504,-1.72622701384,0.0421718433437
6.84,0.464240143983,0.854129224547,0.546200790743,0.744417840017,-0.0960280129147,1.33856282079,-0.656278726108,0.400603943279,0.389280845011,1.06032319848,3.05698872015,0.40461886647,-1.70732510788,0.0420338199107
6.86,0.464240143983,0.854129224547,0.546200790743,0.744417840017,-0.0960280129147,1.33856282079,-0.656278726108,0.400603943279,0.389280845011,1.06032319848,3.05698872015,0.40461886647,-1.70732510788,0.0420338199107
6.88,0.464240143983,0.854111780842,0.586779675878,0.744400396312,-0.0960454649422,1.33856282079,-0.656278726108,0.390906000087,0.398242271328,1.06568879119,3.03837638546,0.430034913768,-1.68822017192,0.041881823364
6.9,0.464240143983,0.854111780842,0.586779675878,0.744400396312,-0.0960454649422,1.33856282079,-0.656278726108,0.390906000087,0.398242271328,1.06568879119,3.03837638546,0.430034913768,-1.68822017192,0.041881823364
6.92,0.464240143983,0.854111780842,0.586779675878,0.744400396312,-0.0960454649422,1.33856282079,-0.656278726108,0.390906000087,0.398242271328,1.06568879119,3.03837638546,0.430034913768,-1.68822017192,0.041881823364
6.94,0.464292475099,0.854076893432,0.625211820148,0.744365442323,-0.0960629252921,1.33856282079,-0.656278726108,0.381557153943,0.406369226393,1.07113016353,3.02106897428,0.454423124724,-1.67034355088,0.0417287098648
6.96,0.464292475099,0.854076893432,0.625211820148,0.744365442323,-0.0960629252921,1.33856282079,-0.656278726108,0.381557153943,0.406369226393,1.07113016353,3.02106897428,0.454423124724,-1.67034355088,0.0417287098648
6.98,0.464257587688,0.854076893432,0.665808182278,0.744347998618,-0.0960629252921,1.33856282079,-0.656278726108,0.371576048832,0.414506782798,1.07720836333,3.00302464116,0.480457142284,-1.65184760485,0.041560910093
7.0,0.464257587688,0.854076893432,0.665808182278,0.744347998618,-0.0960629252921,1.33856282079,-0.656278726108,0.371576048832,0.414506782798,1.07720836333,3.00302464116,0.480457142284,-1.65184760485,0.041560910093
7.02,0.464327395798,0.854076893432,0.703367675238,0.744347998618,-0.0960803773197,1.33856282079,-0.656278726108,0.362185408565,0.421680384536,1.08314202766,2.98660421525,0.504782188774,-1.63487080511,0.0413995785818
7.04,0.464327395798,0.854076893432,0.703367675238,0.744347998618,-0.0960803773197,1.33856282079,-0.656278726108,0.362185408565,0.421680384536,1.08314202766,2.98660421525,0.504782188774,-1.63487080511,0.0413995785818
7.06,0.464275031394,0.854111780842,0.741188956933,0.744347998618,-0.0960803773197,1.33856282079,-0.656278726108,0.362185408565,0.421680384536,1.08314202766,2.98660421525,0.504782188774,-1.63487080511,0.0413995785818
7.08,0.464275031394,0.854111780842,0.741188956933,0.744347998618,-0.0960803773197,1.33856282079,-0.656278726108,0.352685900856,0.428471993999,1.08939904657,2.97026888328,0.52951162967,-1.6181536007,0.0412318187175
7.1,0.464275031394,0.854111780842,0.741188956933,0.744347998618,-0.0960803773197,1.33856282079,-0.656278726108,0.352685900856,0.428471993999,1.08939904657,2.97026888328,0.52951162967,-1.6181536007,0.0412318187175
7.12,0.464257587688,0.854111780842,0.775589408208,0.744330554913,-0.0960978293472,1.33858026449,-0.656278726108,0.343963345006,0.434307717839,1.09536216357,2.95567162103,0.552212763711,-1.60309229204,0.0410726462761
7.14,0.464257587688,0.854111780842,0.775589408208,0.744330554913,-0.0960978293472,1.33858026449,-0.656278726108,0.343963345006,0.434307717839,1.09536216357,2.95567162103,0.552212763711,-1.60309229204,0.0410726462761
7.16,0.464292475099,0.854041939443,0.811298869737,0.744313111208,-0.0960978293472,1.3385977082,-0.656278726108,0.334816688051,0.440023323842,1.10183464277,2.94078399163,0.576015678607,-1.58755995307,0.0409008603293
7.18,0.464292475099,0.854041939443,0.811298869737,0.744313111208,-0.0960978293472,1.3385977082,-0.656278726108,0.334816688051,0.440023323842,1.10183464277,2.94078399163,0.576015678607,-1.58755995307,0.0409008603293
7.2,0.464240143983,0.854094337137,0.845699321012,0.744313111208,-0.0961327334022,1.33858026449,-0.656278726108,0.334816688051,0.440023323842,1.10183464277,2.94078399163,0.576015678607,-1.58755995307,0.0409008603293
7.22,0.464240143983,0.854094337137,0.845699321012,0.744313111208,-0.0961327334022,1.33858026449,-0.656278726108,0.32600985681,0.445155470743,1.10823456193,2.92655645931,0.599067133822,-1.572912887,0.0407349097918
7.24,0.464240143983,0.854094337137,0.845699321012,0.744313111208,-0.0961327334022,1.33858026449,-0.656278726108,0.32600985681,0.445155470743,1.10823456193,2.92655645931,0.599067133822,-1.572912887,0.0407349097918
7.26,0.464292475099,0.854059383148,0.877830825617,0.744295667502,-0.0961152813747,1.3385977082,-0.656278726108,0.317692309529,0.449659874222,1.11445806057,2.9134674351,0.620803789063,-1.55924872669,0.0405735853063
7.28,0.464292475099,0.854059383148,0.877830825617,0.744295667502,-0.0961152813747,1.3385977082,-0.656278726108,0.317692309529,0.449659874222,1.11445806057,2.9134674351,0.620803789063,-1.55924872669,0.0405735853063
7.3,0.464292475099,0.854007052032,0.910503351397,0.744243269808,-0.0960978293472,1.3385977082,-0.656278726108,0.309242599157,0.453903999776,1.12099381423,2.90036462048,0.643098305527,-1.5455520982,0.0404044367449
7.32,0.464292475099,0.854007052032,0.910503351397,0.744243269808,-0.0960978293472,1.3385977082,-0.656278726108,0.309242599157,0.453903999776,1.12099381423,2.90036462048,0.643098305527,-1.5455520982,0.0404044367449
7.34,0.464257587688,0.854076893432,0.940278690807,0.744278223797,-0.0962549059172,1.3385977082,-0.656278726108,0.309242599157,0.453903999776,1.12099381423,2.90036462048,0.643098305527,-1.5455520982,0.0404044367449
7.36,0.464257587688,0.854076893432,0.940278690807,0.744278223797,-0.0962549059172,1.3385977082,-0.656278726108,0.301559989604,0.457473717426,1.12701400535,2.88857866152,0.663340382963,-1.53319541387,0.0402544582658
7.38,0.464257587688,0.854076893432,0.940278690807,0.744278223797,-0.0962549059172,1.3385977082,-0.656278726108,0.301559989604,0.457473717426,1.12701400535,2.88857866152,0.663340382963,-1.53319541387,0.0402544582658
7.4,0.464275031394,0.854059383148,0.968361058711,0.744278223797,-0.0961501854297,1.3386151519,-0.656278726108,0.294250640383,0.460611533716,1.13289708737,2.87741627328,0.682713131511,-1.52165879881,0.0401074585376
7.42,0.464275031394,0.854059383148,0.968361058711,0.744278223797,-0.0961501854297,1.3386151519,-0.656278726108,0.294250640383,0.460611533716,1.13289708737,2.87741627328,0.682713131511,-1.52165879881,0.0401074585376
7.44,0.464222666989,0.854094337137,0.994767832237,0.744243269808,-0.0962549059172,1.3385977082,-0.656278726108,0.287453687413,0.463313930145,1.13851398831,2.86720976452,0.70094590162,-1.51092752227,0.0399675209034
7.46,0.464222666989,0.854094337137,0.994767832237,0.744243269808,-0.0962549059172,1.3385977082,-0.656278726108,0.287453687413,0.463313930145,1.13851398831,2.86720976452,0.70094590162,-1.51092752227,0.0399675209034
7.48,0.464292475099,0.854059383148,1.01822508828,0.744243269808,-0.0961501854297,1.3386151519,-0.656278726108,0.287453687413,0.463313930145,1.13851398831,2.86720976452,0.70094590162,-1.51092752227,0.0399675209034
7.5,0.464292475099,0.854059383148,1.01822508828,0.744243269808,-0.0961501854297,1.3386151519,-0.656278726108,0.281322431502,0.465564643406,1.14363152612,2.8580631756,0.717291844341,-1.50137223699,0.0398416439897
7.52,0.464292475099,0.854059383148,1.01822508828,0.744243269808,-0.0961501854297,1.3386151519,-0.656278726108,0.281322431502,0.465564643406,1.14363152612,2.8580631756,0.717291844341,-1.50137223699,0.0398416439897
7.54,0.464275031394,0.854076893432,1.04047806287,0.744243269808,-0.0962200018622,1.3386151519,-0.656278726108,0.275581375802,0.46751219727,1.14852403722,2.84958954027,0.732765531321,-1.49240578224,0.0397226925803
7.56,0.464275031394,0.854076893432,1.04047806287,0.744243269808,-0.0962200018622,1.3386151519,-0.656278726108,0.275581375802,0.46751219727,1.14852403722,2.84958954027,0.732765531321,-1.49240578224,0.0397226925803
7.58,0.464240143983,0.854076893432,1.05885633782,0.744208382398,-0.0962898182946,1.3386151519,-0.656278726108,0.270865322859,0.468994624462,1.15263371245,2.84268730965,0.745612264321,-1.48505637592,0.0396220578116
7.6,0.464240143983,0.854076893432,1.05885633782,0.744208382398,-0.0962898182946,1.3386151519,-0.656278726108,0.270865322859,0.468994624462,1.15263371245,2.84268730965,0.745612264321,-1.48505637592,0.0396220578116
7.62,0.464275031394,0.854076893432,1.07562899294,0.744208382398,-0.0962898182946,1.3386151519,-0.656278726108,0.266520993179,0.470273759133,1.15642273812,2.83634562898,0.75737872329,-1.47833288913,0.0395311115473
7.64,0.464275031394,0.854076893432,1.07562899294,0.744208382398,-0.0962898182946,1.3386151519,-0.656278726108,0.266520993179,0.470273759133,1.15642273812,2.83634562898,0.75737872329,-1.47833288913,0.0395311115473
7.66,0.464275031394,0.854076893432,1.07562899294,0.744208382398,-0.0962898182946,1.3386151519,-0.656278726108,0.266520993179,0.470273759133,1.15642273812,2.83634562898,0.75737872329,-1.47833288913,0.0395311115473
7.68,0.464240143983,0.854059383148,1.08948688483,0.744208382398,-0.0962200018622,1.33863259561,-0.656278726108,0.262954711653,0.471244028824,1.15959575157,2.83106988458,0.767151241539,-1.47288002856,0.039455263455
7.7,0.464240143983,0.854059383148,1.08948688483,0.744208382398,-0.0962200018622,1.33863259561,-0.656278726108,0.262954711653,0.471244028824,1.15959575157,2.83106988458,0.767151241539,-1.47288002856,0.039455263455
7.72,0.464240143983,0.854111780842,1.10156458669,0.744190938693,-0.0962374538897,1.33863259561,-0.656278726108,0.259862579403,0.472050976469,1.16235012469,2.82650579608,0.77564606082,-1.46814391572,0.0393901782037
7.74,0.464240143983,0.854111780842,1.10156458669,0.744190938693,-0.0962374538897,1.33863259561,-0.656278726108,0.259862579403,0.472050976469,1.16235012469,2.82650579608,0.77564606082,-1.46814391572,0.0393901782037
7.76,0.464257587688,0.854076893432,1.11207142298,0.744208382398,-0.0962200018622,1.33863259561,-0.656278726108,0.257144762166,0.472714664337,1.16479167343,2.82260832881,0.783070072771,-1.46394752148,0.0393324356352
7.78,0.464257587688,0.854076893432,1.11207142298,0.744208382398,-0.0962200018622,1.33863259561,-0.656278726108,0.257144762166,0.472714664337,1.16479167343,2.82260832881,0.783070072771,-1.46394752148,0.0393324356352
7.8,0.464257587688,0.854076893432,1.11207142298,0.744208382398,-0.0962200018622,1.33863259561,-0.656278726108,0.257144762166,0.472714664337,1.16479167343,2.82260832881,0.783070072771,-1.46394752148,0.0393324356352
7.82,0.464222666989,0.854146668252,1.12051877022,0.744173494987,-0.0963247223497,1.3386151519,-0.656278726108,0.255029132923,0.473215140538,1.16672456793,2.81951618846,0.789002469426,-1.46068270362,0.0392867540977
7.84,0.464222666989,0.854146668252,1.12051877022,0.744173494987,-0.0963247223497,1.3386151519,-0.656278726108,0.255029132923,0.473215140538,1.16672456793,2.81951618846,0.789002469426,-1.46068270362,0.0392867540977
7.86,0.464257587688,0.854129224547,1.12795391651,0.744190938693,-0.0962200018622,1.33863259561,-0.656278726108,0.253086615314,0.47364925796,1.168472258,2.81664874014,0.794295503149,-1.4577540611,0.0392462482078
7.88,0.464257587688,0.854129224547,1.12795391651,0.744190938693,-0.0962200018622,1.33863259561,-0.656278726108,0.253086615314,0.47364925796,1.168472258,2.81664874014,0.794295503149,-1.4577540611,0.0392462482078
7.9,0.464275031394,0.854111780842,1.13341685886,0.744190938693,-0.0962898182946,1.33863259561,-0.656278726108,0.251687168658,0.473951812598,1.16975233892,2.81473507734,0.798136490282,-1.45553437547,0.0392157614597
7.92,0.464275031394,0.854111780842,1.13341685886,0.744190938693,-0.0962898182946,1.33863259561,-0.656278726108,0.251687168658,0.473951812598,1.16975233892,2.81473507734,0.798136490282,-1.45553437547,0.0392157614597
7.94,0.464275031394,0.854111780842,1.13341685886,0.744190938693,-0.0962898182946,1.33863259561,-0.656278726108,0.251687168658,0.473951812598,1.16975233892,2.81473507734,0.798136490282,-1.45553437547,0.0392157614597
7.96,0.464205223283,0.854146668252,1.13713436542,0.744173494987,-0.0962200018622,1.33863259561,-0.656278726108,0.250770714575,0.474137924947,1.17062180543,2.81323720597,0.800805606824,-1.45422943075,0.0391956874275
7.98,0.464205223283,0.854146668252,1.13713436542,0.744173494987,-0.0962200018622,1.33863259561,-0.656278726108,0.250770714575,0.474137924947,1.17062180543,2.81323720597,0.800805606824,-1.45422943075,0.0391956874275
8.0,0.464240143983,0.854146668252,1.13847832967,0.744208382398,-0.0962898182946,1.33863259561,-0.656278726108,0.250410669764,0.474216301331,1.1709210917,2.81281517498,0.801699853606,-1.45360972166,0.0391896741506
8.02,0.464240143983,0.854146668252,1.13847832967,0.744208382398,-0.0962898182946,1.33863259561,-0.656278726108,0.250410669764,0.474216301331,1.1709210917,2.81281517498,0.801699853606,-1.45360972166,0.0391896741506
8.04,0.464152858879,0.854199065947,1.1395080409,0.744156051282,-0.0962898182946,1.33863259561,-0.656278726108,0.250210347165,0.474251820576,1.17115481217,2.81237896529,0.80244902678,-1.45337003346,0.0391834759189
8.06,0.464152858879,0.854199065947,1.1395080409,0.744156051282,-0.0962898182946,1.33863259561,-0.656278726108,0.250210347165,0.474251820576,1.17115481217,2.81237896529,0.80244902678,-1.45337003346,0.0391834759189
8.08,0.464152858879,0.854199065947,1.1395080409,0.744156051282,-0.0962898182946,1.33863259561,-0.656278726108,0.250210347165,0.474251820576,1.17115481217,2.81237896529,0.80244902678,-1.45337003346,0.0391834759189
8.1,0.464222666989,0.854129224547,1.14067743494,0.744208382398,-0.0962200018622,1.33863259561,-0.656278726108,0.249845723253,0.474327285702,1.17145330305,2.81194471037,0.803299329721,-1.45278979086,0.039177099122
8.12,0.464222666989,0.854129224547,1.14067743494,0.744208382398,-0.0962200018622,1.33863259561,-0.656278726108,0.249845723253,0.474327285702,1.17145330305,2.81194471037,0.803299329721,-1.45278979086,0.039177099122
8.14,0.464135415173,0.854233953357,1.14064241437,0.744173494987,-0.0963770784322,1.3386151519,-0.656278726108,0.249942203631,0.474309458299,1.17139421569,2.81201911286,0.80320000113,-1.45292362266,0.0391788900878
8.16,0.464135415173,0.854233953357,1.14064241437,0.744173494987,-0.0963770784322,1.3386151519,-0.656278726108,0.249942203631,0.474309458299,1.17139421569,2.81201911286,0.80320000113,-1.45292362266,0.0391788900878
8.18,0.464170302584,0.854146668252,1.14067743494,0.744173494987,-0.0963072703222,1.33863259561,-0.656278726108,0.249893342967,0.474312978172,1.17144634405,2.81203496615,0.803275408288,-1.45282469664,0.0391762175108
8.2,0.464170302584,0.854146668252,1.14067743494,0.744173494987,-0.0963072703222,1.33863259561,-0.656278726108,0.249893342967,0.474312978172,1.17144634405,2.81203496615,0.803275408288,-1.45282469664,0.0391762175108
8.22,0.464170302584,0.854146668252,1.14067743494,0.744173494987,-0.0963072703222,1.33863259561,-0.656278726108,0.249893342967,0.474312978172,1.17144634405,2.81203496615,0.803275408288,-1.45282469664,0.0391762175108
8.24,0.464135415173,0.854251397062,1.14060752696,0.744173494987,-0.0963247223497,1.33863259561,-0.656278726108,0.249945557364,0.474307998687,1.17138246047,2.81193972834,0.803181774667,-1.45297874997,0.0391796401085
8.26,0.464135415173,0.854251397062,1.14060752696,0.744173494987,-0.0963247223497,1.33863259561,-0.656278726108,0.249945557364,0.474307998687,1.17138246047,2.81193972834,0.803181774667,-1.45297874997,0.0391796401085
8.28,0.464170302584,0.854199065947,1.14064241437,0.744173494987,-0.0963247223497,1.33863259561,-0.656278726108,0.249912314557,0.474314632448,1.17141348171,2.81199775768,0.803224281847,-1.45287919142,0.0391779289394
8.3,0.464170302584,0.854199065947,1.14064241437,0.744173494987,-0.0963247223497,1.33863259561,-0.656278726108,0.249912314557,0.474314632448,1.17141348171,2.81199775768,0.803224281847,-1.45287919142,0.0391779289394
8.32,0.464135415173,0.854251397062,1.14059008325,0.744156051282,-0.0963247223497,1.33863259561,-0.656278726108,0.249954528,0.474306907586,1.17138312946,2.81195092244,0.803181665731,-1.45299410717,0.0391790480577
8.34,0.464135415173,0.854251397062,1.14059008325,0.744156051282,-0.0963247223497,1.33863259561,-0.656278726108,0.249954528,0.474306907586,1.17138312946,2.81195092244,0.803181665731,-1.45299410717,0.0391790480577
8.36,0.464135415173,0.854251397062,1.14059008325,0.744156051282,-0.0963247223497,1.33863259561,-0.656278726108,0.249954528,0.474306907586,1.17138312946,2.81195092244,0.803181665731,-1.45299410717,0.0391790480577
8.38,0.464170302584,0.854164111958,1.14064241437,0.744208382398,-0.0963247223497,1.33863259561,-0.656278726108,0.249898080822,0.474312397081,1.17141916208,2.81203557856,0.803211614684,-1.45282806591,0.0391782894541
8.4,0.464170302584,0.854164111958,1.14064241437,0.744208382398,-0.0963247223497,1.33863259561,-0.656278726108,0.249898080822,0.474312397081,1.17141916208,2.81203557856,0.803211614684,-1.45282806591,0.0391782894541
8.42,0.464083050768,0.854216509652,1.14057263955,0.744156051282,-0.0963421743772,1.33863259561,-0.656278726108,0.249980858386,0.474289881537,1.17139244573,2.81202547681,0.803172629331,-1.45300899648,0.0391781283123
8.44,0.464083050768,0.854216509652,1.14057263955,0.744156051282,-0.0963421743772,1.33863259561,-0.656278726108,0.249980858386,0.474289881537,1.17139244573,2.81202547681,0.803172629331,-1.45300899648,0.0391781283123
8.46,0.464187779578,0.854164111958,1.14064241437,0.744208382398,-0.0962723579447,1.33863259561,-0.656278726108,0.249883098405,0.474318057769,1.1714245084,2.81197296233,0.803237135731,-1.45284149868,0.03917829707
8.48,0.464187779578,0.854164111958,1.14064241437,0.744208382398,-0.0962723579447,1.33863259561,-0.656278726108,0.249883098405,0.474318057769,1.1714245084,2.81197296233,0.803237135731,-1.45284149868,0.03917829707
8.5,0.464187779578,0.854164111958,1.14064241437,0.744208382398,-0.0962723579447,1.33863259561,-0.656278726108,0.249883098405,0.474318057769,1.1714245084,2.81197296233,0.803237135731,-1.45284149868,0.03917829707
8.52,0.464030686364,0.854303794757,1.14050286473,0.744156051282,-0.0963247223497,1.33863259561,-0.656278726108,0.25003426605,0.474280092047,1.17133975625,2.81191210461,0.803102012181,-1.45318404895,0.0391810483525
8.54,0.464030686364,0.854303794757,1.14050286473,0.744156051282,-0.0963247223497,1.33863259561,-0.656278726108,0.25003426605,0.474280092047,1.17133975625,2.81191210461,0.803102012181,-1.45318404895,0.0391810483525
8.56,0.464117938179,0.854181622242,1.14043308991,0.744173494987,-0.0962898182946,1.33863259561,-0.656278726108,0.249983549506,0.474290227138,1.17137536525,2.81205679671,0.803098745181,-1.45301713493,0.0391785771681
8.58,0.464117938179,0.854181622242,1.14043308991,0.744173494987,-0.0962898182946,1.33863259561,-0.656278726108,0.249983549506,0.474290227138,1.17137536525,2.81205679671,0.803098745181,-1.45301713493,0.0391785771681
8.6,0.464135415173,0.854303794757,1.14008394949,0.744208382398,-0.0963072703222,1.3386151519,-0.656278726108,0.250077247495,0.474287685389,1.17122986661,2.81203740409,0.802789666126,-1.45323448921,0.0391853707526
8.62,0.464135415173,0.854303794757,1.14008394949,0.744208382398,-0.0963072703222,1.3386151519,-0.656278726108,0.250077247495,0.474287685389,1.17122986661,2.81203740409,0.802789666126,-1.45323448921,0.0391853707526
8.64,0.464135415173,0.854303794757,1.14008394949,0.744208382398,-0.0963072703222,1.3386151519,-0.656278726108,0.250077247495,0.474287685389,1.17122986661,2.81203740409,0.802789666126,-1.45323448921,0.0391853707526
8.66,0.464083050768,0.854233953357,1.13997928726,0.744173494987,-0.0962898182946,1.33863259561,-0.656278726108,0.250123769508,0.474261757106,1.17124572903,2.81215321682,0.802759117082,-1.4532807232,0.0391825888723
8.68,0.464083050768,0.854233953357,1.13997928726,0.744173494987,-0.0962898182946,1.33863259561,-0.656278726108,0.250123769508,0.474261757106,1.17124572903,2.81215321682,0.802759117082,-1.4532807232,0.0391825888723
8.7,0.464030686364,0.854268840767,1.13983960446,0.744173494987,-0.0962898182946,1.33863259561,-0.656278726108,0.250189461393,0.474243960469,1.17119764172,2.81215749166,0.802648197625,-1.45342175431,0.0391843687409
8.72,0.464030686364,0.854268840767,1.13983960446,0.744173494987,-0.0962898182946,1.33863259561,-0.656278726108,0.250189461393,0.474243960469,1.17119764172,2.81215749166,0.802648197625,-1.45342175431,0.0391843687409
8.74,0.464100494474,0.854268840767,1.13980471705,0.744208382398,-0.0962898182946,1.33863259561,-0.656278726108,0.250156234224,0.474259970987,1.17117987559,2.8121608073,0.802598923129,-1.45334857203,0.0391859363051
8.76,0.464100494474,0.854268840767,1.13980471705,0.744208382398,-0.0962898182946,1.33863259561,-0.656278726108,0.250156234224,0.474259970987,1.17117987559,2.8121608073,0.802598923129,-1.45334857203,0.0391859363051
8.78,0.464100494474,0.854268840767,1.13980471705,0.744208382398,-0.0962898182946,1.33863259561,-0.656278726108,0.250156234224,0.474259970987,1.17117987559,2.8121608073,0.802598923129,-1.45334857203,0.0391859363051
8.8,0.464030686364,0.854286284473,1.13964759054,0.744190938693,-0.0962898182946,1.33863259561,-0.656278726108,0.25023657526,0.474235405057,1.17114006652,2.81219991359,0.802493823051,-1.45350540354,0.0391866175217
8.82,0.464030686364,0.854286284473,1.13964759054,0.744190938693,-0.0962898182946,1.33863259561,-0.656278726108,0.25023657526,0.474235405057,1.17114006652,2.81219991359,0.802493823051,-1.45350540354,0.0391866175217
8.84,0.464048130069,0.854251397062,1.13945570979,0.744190938693,-0.0962898182946,1.33863259561,-0.656278726108,0.250272125123,0.474227134682,1.1711101226,2.81231788587,0.802369596573,-1.45352915362,0.0391866584964
8.86,0.464048130069,0.854251397062,1.13945570979,0.744190938693,-0.0962898182946,1.33863259561,-0.656278726108,0.250272125123,0.474227134682,1.1711101226,2.81231788587,0.802369596573,-1.45352915362,0.0391866584964
8.88,0.464048130069,0.854268840767,1.13924625217,0.744208382398,-0.0962898182946,1.33863259561,-0.656278726108,0.250323698134,0.474217640928,1.17104845027,2.81236674633,0.802202856508,-1.45361964377,0.0391890031045
8.9,0.464048130069,0.854268840767,1.13924625217,0.744208382398,-0.0962898182946,1.33863259561,-0.656278726108,0.250323698134,0.474217640928,1.17104845027,2.81236674633,0.802202856508,-1.45361964377,0.0391890031045
8.92,0.464048130069,0.854268840767,1.13924625217,0.744208382398,-0.0962898182946,1.33863259561,-0.656278726108,0.250323698134,0.474217640928,1.17104845027,2.81236674633,0.802202856508,-1.45361964377,0.0391890031045
8.94,0.464013242658,0.854268840767,1.13901935084,0.744190938693,-0.0962898182946,1.33863259561,-0.656278726108,0.250402709263,0.474196815923,1.17099984239,2.81245521482,0.802054213006,-1.45375190623,0.0391895609206
8.96,0.464013242658,0.854268840767,1.13901935084,0.744190938693,-0.0962898182946,1.33863259561,-0.656278726108,0.250402709263,0.474196815923,1.17099984239,2.81245521482,0.802054213006,-1.45375190623,0.0391895609206
8.98,0.464048130069,0.854233953357,1.1384433091,0.744208382398,-0.0962898182946,1.33863259561,-0.656278726108,0.250523616741,0.474172846422,1.17087477754,2.81271007644,0.801645329373,-1.45390025356,0.0391923996673
9.0,0.464048130069,0.854233953357,1.1384433091,0.744208382398,-0.0962898182946,1.33863259561,-0.656278726108,0.250523616741,0.474172846422,1.17087477754,2.81271007644,0.801645329373,-1.45390025356,0.0391923996673
9.02,0.464065607063,0.854251397062,1.1353890628,0.744208382398,-0.0962200018622,1.33863259561,-0.656278726108,0.251289401612,0.47401785999,1.17015649104,2.81373053829,0.799508203099,-1.45513759065,0.0392096834656
9.04,0.464065607063,0.854251397062,1.1353890628,0.744208382398,-0.0962200018622,1.33863259561,-0.656278726108,0.251289401612,0.47401785999,1.17015649104,2.81373053829,0.799508203099,-1.45513759065,0.0392096834656
9.06,0.464065607063,0.854251397062,1.1353890628,0.744208382398,-0.0962200018622,1.33863259561,-0.656278726108,0.251289401612,0.47401785999,1.17015649104,2.81373053829,0.799508203099,-1.45513759065,0.0392096834656
9.08,0.464083050768,0.854146668252,1.12852995826,0.744190938693,-0.0962025498347,1.3386151519,-0.656278726108,0.253023651306,0.473641307215,1.16860240256,2.81639758899,0.794718976252,-1.45773548621,0.0392435516033
9.1,0.464083050768,0.854146668252,1.12852995826,0.744190938693,-0.0962025498347,1.3386151519,-0.656278726108,0.253023651306,0.473641307215,1.16860240256,2.81639758899,0.794718976252,-1.45773548621,0.0392435516033
9.12,0.463978321959,0.854268840767,1.11685366135,0.744173494987,-0.0961152813747,1.33863259561,-0.656278726108,0.256073357793,0.472948548226,1.16583760651,2.82046214666,0.786458249945,-1.4625988099,0.0393104255743
9.14,0.463978321959,0.854268840767,1.11685366135,0.744173494987,-0.0961152813747,1.33863259561,-0.656278726108,0.256073357793,0.472948548226,1.16583760651,2.82046214666,0.786458249945,-1.4625988099,0.0393104255743
9.16,0.464048130069,0.854199065947,1.09884183737,0.744243269808,-0.0958360322896,1.33863259561,-0.656278726108,0.260600303102,0.471842903497,1.1617095982,2.82692614569,0.773856361733,-1.46969416321,0.0394096969932
9.18,0.464048130069,0.854199065947,1.09884183737,0.744243269808,-0.0958360322896,1.33863259561,-0.656278726108,0.260600303102,0.471842903497,1.1617095982,2.82692614569,0.773856361733,-1.46969416321,0.0394096969932
