GitHatake/ROS1EARs/catkin_ws/src/torobo_robot/torobo_EARs2021/scripts/arm/2021_kaiya_csv/test_manipulability_20220119_5_pvt_1.csv
time,joint_1,joint_2,joint_3,joint_4,joint_5,joint_6,joint_7,x,y,z,roll,pitch,yaw,manipulability
0.0,-0.637568754448,0.0724137135947,0.0857305759872,1.21300383014,0.293320029829,1.3575345146,-5.2359878015e-05,0.355459176832,-0.164279670088,1.24657572764,2.81494881969,0.488631702021,2.51692418795,0.034480219089
0.02,-0.637568754448,0.0724137135947,0.0857305759872,1.21300383014,0.293320029829,1.3575345146,-5.2359878015e-05,0.355459176832,-0.164279670088,1.24657572764,2.81494881969,0.488631702021,2.51692418795,0.034480219089
0.04,-0.637568754448,0.0724137135947,0.0857305759872,1.21300383014,0.293337473534,1.3575345146,-6.98131733957e-05,0.355460428188,-0.164277188241,1.24657654885,2.81493870015,0.488636118626,2.51693894868,0.034480218924
0.06,-0.637568754448,0.0724137135947,0.0857305759872,1.21300383014,0.293337473534,1.3575345146,-6.98131733957e-05,0.355460428188,-0.164277188241,1.24657654885,2.81493870015,0.488636118626,2.51693894868,0.034480218924
0.08,-0.637568754448,0.0724137135947,0.0857480280147,1.21300383014,0.293320029829,1.3575345146,-5.2359878015e-05,0.355461854714,-0.164273727943,1.24657582812,2.8149473898,0.48863171832,2.51694092302,0.0344801706201
0.1,-0.637568754448,0.0724137135947,0.0857480280147,1.21300383014,0.293320029829,1.3575345146,-5.2359878015e-05,0.355461854714,-0.164273727943,1.24657582812,2.8149473898,0.48863171832,2.51694092302,0.0344801706201
0.12,-0.637568754448,0.0724137135947,0.0857305759872,1.21300383014,0.293337473534,1.3575345146,-5.2359878015e-05,0.355460428188,-0.164277188241,1.24657654885,2.81492991204,0.488630518215,2.51692022747,0.034480218924
0.14,-0.637568754448,0.0724137135947,0.0857305759872,1.21300383014,0.293337473534,1.3575345146,-5.2359878015e-05,0.355460428188,-0.164277188241,1.24657654885,2.81492991204,0.488630518215,2.51692022747,0.034480218924
0.16,-0.637568754448,0.0724137135947,0.0857305759872,1.21300383014,0.293337473534,1.3575345146,-5.2359878015e-05,0.355460428188,-0.164277188241,1.24657654885,2.81492991204,0.488630518215,2.51692022747,0.034480218924
0.18,-0.637586198153,0.0724137135947,0.0857480280147,1.21300383014,0.293320029829,1.3575345146,-5.2359878015e-05,0.355458989117,-0.16427992849,1.24657582812,2.8149473898,0.48863171832,2.51692347932,0.0344801706201
0.2,-0.637586198153,0.0724137135947,0.0857480280147,1.21300383014,0.293320029829,1.3575345146,-5.2359878015e-05,0.355458989117,-0.16427992849,1.24657582812,2.8149473898,0.48863171832,2.51692347932,0.0344801706201
0.22,-0.637568754448,0.0724137135947,0.0857480280147,1.21300383014,0.293320029829,1.3575345146,-5.2359878015e-05,0.355461854714,-0.164273727943,1.24657582812,2.8149473898,0.48863171832,2.51694092302,0.0344801706201
0.24,-0.637568754448,0.0724137135947,0.0857480280147,1.21300383014,0.293320029829,1.3575345146,-5.2359878015e-05,0.355461854714,-0.164273727943,1.24657582812,2.8149473898,0.48863171832,2.51694092302,0.0344801706201
0.26,-0.637586198153,0.0724311656222,0.0857305759872,1.21300383014,0.293337473534,1.35755195831,-5.2359878015e-05,0.355458826317,-0.164284366824,1.24656846556,2.8149326318,0.488596546376,2.51690900326,0.0344808271276
0.28,-0.637586198153,0.0724311656222,0.0857305759872,1.21300383014,0.293337473534,1.35755195831,-5.2359878015e-05,0.355458826317,-0.164284366824,1.24656846556,2.8149326318,0.488596546376,2.51690900326,0.0344808271276
0.3,-0.637586198153,0.0724311656222,0.0857305759872,1.21300383014,0.293337473534,1.35755195831,-5.2359878015e-05,0.355458826317,-0.164284366824,1.24656846556,2.8149326318,0.488596546376,2.51690900326,0.0344808271276
0.32,-0.637586198153,0.0724137135947,0.0857305759872,1.21300383014,0.293320029829,1.3575345146,-5.2359878015e-05,0.355456311132,-0.164285870588,1.24657572764,2.81494881969,0.488631702021,2.51690674424,0.034480219089
0.34,-0.637586198153,0.0724137135947,0.0857305759872,1.21300383014,0.293320029829,1.3575345146,-5.2359878015e-05,0.355456311132,-0.164285870588,1.24657572764,2.81494881969,0.488631702021,2.51690674424,0.034480219089
0.36,-0.637586198153,0.0724311656222,0.0857480280147,1.21300383014,0.293320029829,1.3575345146,-5.2359878015e-05,0.355462376764,-0.164282438054,1.24656913676,2.81494713451,0.488614267749,2.51692335948,0.0344806512193
0.38,-0.637586198153,0.0724311656222,0.0857480280147,1.21300383014,0.293320029829,1.3575345146,-5.2359878015e-05,0.355462376764,-0.164282438054,1.24656913676,2.81494713451,0.488614267749,2.51692335948,0.0344806512193
0.4,-0.637568754448,0.0724311656222,0.0857480280147,1.21300383014,0.293320029829,1.3575345146,-5.2359878015e-05,0.355465242404,-0.164276237448,1.24656913676,2.81494713451,0.488614267749,2.51694080318,0.0344806512193
0.42,-0.637568754448,0.0724311656222,0.0857480280147,1.21300383014,0.293320029829,1.3575345146,-5.2359878015e-05,0.355465242404,-0.164276237448,1.24656913676,2.81494713451,0.488614267749,2.51694080318,0.0344806512193
0.44,-0.637586198153,0.0724137135947,0.0857480280147,1.21300383014,0.293320029829,1.3575345146,-5.2359878015e-05,0.355465242404,-0.164276237448,1.24656913676,2.81494713451,0.488614267749,2.51694080318,0.0344806512193
0.46,-0.637586198153,0.0724137135947,0.0857480280147,1.21300383014,0.293320029829,1.3575345146,-5.2359878015e-05,0.355458989117,-0.16427992849,1.24657582812,2.8149473898,0.48863171832,2.51692347932,0.0344801706201
0.48,-0.637586198153,0.0724137135947,0.0857480280147,1.21300383014,0.293320029829,1.3575345146,-5.2359878015e-05,0.355458989117,-0.16427992849,1.24657582812,2.8149473898,0.48863171832,2.51692347932,0.0344801706201
0.5,-0.637568754448,0.0724137135947,0.0857480280147,1.21300383014,0.293320029829,1.3575345146,-5.2359878015e-05,0.355461854714,-0.164273727943,1.24657582812,2.8149473898,0.48863171832,2.51694092302,0.0344801706201
0.52,-0.637568754448,0.0724137135947,0.0857480280147,1.21300383014,0.293320029829,1.3575345146,-5.2359878015e-05,0.355461854714,-0.164273727943,1.24657582812,2.8149473898,0.48863171832,2.51694092302,0.0344801706201
0.54,-0.637568754448,0.0724137135947,0.0857305759872,1.21300383014,0.293320029829,1.3575345146,-5.2359878015e-05,0.355459176832,-0.164279670088,1.24657572764,2.81494881969,0.488631702021,2.51692418795,0.034480219089
0.56,-0.637568754448,0.0724137135947,0.0857305759872,1.21300383014,0.293320029829,1.3575345146,-5.2359878015e-05,0.355459176832,-0.164279670088,1.24657572764,2.81494881969,0.488631702021,2.51692418795,0.034480219089
0.58,-0.637568754448,0.0724137135947,0.0857480280147,1.21300383014,0.293337473534,1.3575345146,-5.2359878015e-05,0.355459176832,-0.164279670088,1.24657572764,2.81494881969,0.488631702021,2.51692418795,0.034480219089
0.6,-0.637568754448,0.0724137135947,0.0857480280147,1.21300383014,0.293337473534,1.3575345146,-5.2359878015e-05,0.355463106026,-0.164271246075,1.24657664934,2.81492848216,0.488630534508,2.51693696255,0.0344801704551
0.62,-0.637568754448,0.0724137135947,0.0857480280147,1.21300383014,0.293337473534,1.3575345146,-5.2359878015e-05,0.355463106026,-0.164271246075,1.24657664934,2.81492848216,0.488630534508,2.51693696255,0.0344801704551
0.64,-0.637568754448,0.0724137135947,0.0857480280147,1.21300383014,0.293320029829,1.3575345146,-5.2359878015e-05,0.355461854714,-0.164273727943,1.24657582812,2.8149473898,0.48863171832,2.51694092302,0.0344801706201
0.66,-0.637568754448,0.0724137135947,0.0857480280147,1.21300383014,0.293320029829,1.3575345146,-5.2359878015e-05,0.355461854714,-0.164273727943,1.24657582812,2.8149473898,0.48863171832,2.51694092302,0.0344801706201
0.68,-0.637568754448,0.0724137135947,0.0857480280147,1.21300383014,0.293337473534,1.3575345146,-5.2359878015e-05,0.355463106026,-0.164271246075,1.24657664934,2.81492848216,0.488630534508,2.51693696255,0.0344801704551
0.7,-0.637568754448,0.0724137135947,0.0857480280147,1.21300383014,0.293337473534,1.3575345146,-5.2359878015e-05,0.355463106026,-0.164271246075,1.24657664934,2.81492848216,0.488630534508,2.51693696255,0.0344801704551
0.72,-0.637568754448,0.0724137135947,0.0857480280147,1.21300383014,0.293320029829,1.3575345146,-5.2359878015e-05,0.355463106026,-0.164271246075,1.24657664934,2.81492848216,0.488630534508,2.51693696255,0.0344801704551
0.74,-0.637568754448,0.0724137135947,0.0857480280147,1.21300383014,0.293320029829,1.3575345146,-5.2359878015e-05,0.355461854714,-0.164273727943,1.24657582812,2.8149473898,0.48863171832,2.51694092302,0.0344801706201
0.76,-0.637568754448,0.0724137135947,0.0857480280147,1.21300383014,0.293320029829,1.3575345146,-5.2359878015e-05,0.355461854714,-0.164273727943,1.24657582812,2.8149473898,0.48863171832,2.51694092302,0.0344801706201
0.78,-0.637586198153,0.0724137135947,0.0857480280147,1.21300383014,0.293337473534,1.3575345146,-5.2359878015e-05,0.355460240473,-0.164277446644,1.24657664934,2.81492848216,0.488630534508,2.51691951885,0.0344801704551
0.8,-0.637586198153,0.0724137135947,0.0857480280147,1.21300383014,0.293337473534,1.3575345146,-5.2359878015e-05,0.355460240473,-0.164277446644,1.24657664934,2.81492848216,0.488630534508,2.51691951885,0.0344801704551
0.82,-0.637568754448,0.0724137135947,0.0857305759872,1.21300383014,0.293320029829,1.3575345146,-5.2359878015e-05,0.355459176832,-0.164279670088,1.24657572764,2.81494881969,0.488631702021,2.51692418795,0.034480219089
0.84,-0.637568754448,0.0724137135947,0.0857305759872,1.21300383014,0.293320029829,1.3575345146,-5.2359878015e-05,0.355459176832,-0.164279670088,1.24657572764,2.81494881969,0.488631702021,2.51692418795,0.034480219089
0.86,-0.637568754448,0.0724137135947,0.0857480280147,1.21300383014,0.293320029829,1.3575345146,-5.2359878015e-05,0.355459176832,-0.164279670088,1.24657572764,2.81494881969,0.488631702021,2.51692418795,0.034480219089
0.88,-0.637568754448,0.0724137135947,0.0857480280147,1.21300383014,0.293320029829,1.3575345146,-5.2359878015e-05,0.355461854714,-0.164273727943,1.24657582812,2.8149473898,0.48863171832,2.51694092302,0.0344801706201
0.9,-0.637568754448,0.0724137135947,0.0857480280147,1.21300383014,0.293320029829,1.3575345146,-5.2359878015e-05,0.355461854714,-0.164273727943,1.24657582812,2.8149473898,0.48863171832,2.51694092302,0.0344801706201
0.92,-0.637586198153,0.0724137135947,0.0857480280147,1.21300383014,0.293320029829,1.3575345146,-5.2359878015e-05,0.355458989117,-0.16427992849,1.24657582812,2.8149473898,0.48863171832,2.51692347932,0.0344801706201
0.94,-0.637586198153,0.0724137135947,0.0857480280147,1.21300383014,0.293320029829,1.3575345146,-5.2359878015e-05,0.355458989117,-0.16427992849,1.24657582812,2.8149473898,0.48863171832,2.51692347932,0.0344801706201
0.96,-0.637568754448,0.0724137135947,0.0857305759872,1.21300383014,0.293337473534,1.3575345146,-5.2359878015e-05,0.355460428188,-0.164277188241,1.24657654885,2.81492991204,0.488630518215,2.51692022747,0.034480218924
0.98,-0.637568754448,0.0724137135947,0.0857305759872,1.21300383014,0.293337473534,1.3575345146,-5.2359878015e-05,0.355460428188,-0.164277188241,1.24657654885,2.81492991204,0.488630518215,2.51692022747,0.034480218924
1.0,-0.637568754448,0.0724311656222,0.0857305759872,1.21300383014,0.293320029829,1.3575345146,-5.2359878015e-05,0.355460428188,-0.164277188241,1.24657654885,2.81492991204,0.488630518215,2.51692022747,0.034480218924
1.02,-0.637568754448,0.0724311656222,0.0857305759872,1.21300383014,0.293320029829,1.3575345146,-5.2359878015e-05,0.355462564521,-0.164282179592,1.24656903625,2.81494856473,0.488614251446,2.51692406826,0.034480699688
1.04,-0.637568754448,0.0724311656222,0.0857305759872,1.21300383014,0.293320029829,1.3575345146,-5.2359878015e-05,0.355462564521,-0.164282179592,1.24656903625,2.81494856473,0.488614251446,2.51692406826,0.034480699688
1.06,-0.637568754448,0.0724137135947,0.0857480280147,1.21300383014,0.293337473534,1.3575345146,-5.2359878015e-05,0.355463106026,-0.164271246075,1.24657664934,2.81492848216,0.488630534508,2.51693696255,0.0344801704551
1.08,-0.637568754448,0.0724137135947,0.0857480280147,1.21300383014,0.293337473534,1.3575345146,-5.2359878015e-05,0.355463106026,-0.164271246075,1.24657664934,2.81492848216,0.488630534508,2.51693696255,0.0344801704551
1.1,-0.637568754448,0.0724137135947,0.0857480280147,1.21300383014,0.293337473534,1.3575345146,-5.2359878015e-05,0.355463106026,-0.164271246075,1.24657664934,2.81492848216,0.488630534508,2.51693696255,0.0344801704551
1.12,-0.637568754448,0.0724137135947,0.0857480280147,1.21300383014,0.293337473534,1.3575345146,-5.2359878015e-05,0.355463106026,-0.164271246075,1.24657664934,2.81492848216,0.488630534508,2.51693696255,0.0344801704551
1.14,-0.637586198153,0.0724137135947,0.0857480280147,1.21300383014,0.293320029829,1.3575345146,-5.2359878015e-05,0.355463106026,-0.164271246075,1.24657664934,2.81492848216,0.488630534508,2.51693696255,0.0344801704551
1.16,-0.637586198153,0.0724137135947,0.0857480280147,1.21300383014,0.293320029829,1.3575345146,-5.2359878015e-05,0.355458989117,-0.16427992849,1.24657582812,2.8149473898,0.48863171832,2.51692347932,0.0344801706201
1.18,-0.637586198153,0.0724137135947,0.0857480280147,1.21300383014,0.293320029829,1.3575345146,-5.2359878015e-05,0.355458989117,-0.16427992849,1.24657582812,2.8149473898,0.48863171832,2.51692347932,0.0344801706201
1.2,-0.637568754448,0.0724137135947,0.0857305759872,1.21300383014,0.293337473534,1.3575345146,-5.2359878015e-05,0.355460428188,-0.164277188241,1.24657654885,2.81492991204,0.488630518215,2.51692022747,0.034480218924
1.22,-0.637568754448,0.0724137135947,0.0857305759872,1.21300383014,0.293337473534,1.3575345146,-5.2359878015e-05,0.355460428188,-0.164277188241,1.24657654885,2.81492991204,0.488630518215,2.51692022747,0.034480218924
1.24,-0.637568754448,0.0724137135947,0.0857305759872,1.21300383014,0.293337473534,1.3575345146,-5.2359878015e-05,0.355460428188,-0.164277188241,1.24657654885,2.81492991204,0.488630518215,2.51692022747,0.034480218924
1.26,-0.637568754448,0.0724137135947,0.0857305759872,1.21300383014,0.293337473534,1.3575345146,-5.2359878015e-05,0.355460428188,-0.164277188241,1.24657654885,2.81492991204,0.488630518215,2.51692022747,0.034480218924
1.28,-0.637568754448,0.0724137135947,0.0857305759872,1.21300383014,0.293337473534,1.3575345146,-5.2359878015e-05,0.355460428188,-0.164277188241,1.24657654885,2.81492991204,0.488630518215,2.51692022747,0.034480218924
1.3,-0.637568754448,0.0724137135947,0.0857305759872,1.21300383014,0.293337473534,1.3575345146,-5.2359878015e-05,0.355460428188,-0.164277188241,1.24657654885,2.81492991204,0.488630518215,2.51692022747,0.034480218924
1.32,-0.637568754448,0.0724137135947,0.0857305759872,1.21300383014,0.293337473534,1.3575345146,-5.2359878015e-05,0.355460428188,-0.164277188241,1.24657654885,2.81492991204,0.488630518215,2.51692022747,0.034480218924
1.34,-0.637568754448,0.0724137135947,0.0857305759872,1.21300383014,0.293337473534,1.3575345146,-5.2359878015e-05,0.355460428188,-0.164277188241,1.24657654885,2.81492991204,0.488630518215,2.51692022747,0.034480218924
1.36,-0.637568754448,0.0724137135947,0.0857305759872,1.21300383014,0.293337473534,1.3575345146,-5.2359878015e-05,0.355460428188,-0.164277188241,1.24657654885,2.81492991204,0.488630518215,2.51692022747,0.034480218924
1.38,-0.637586198153,0.0724137135947,0.0857305759872,1.21300383014,0.293320029829,1.3575345146,-5.2359878015e-05,0.355456311132,-0.164285870588,1.24657572764,2.81494881969,0.488631702021,2.51690674424,0.034480219089
1.4,-0.637586198153,0.0724137135947,0.0857305759872,1.21300383014,0.293320029829,1.3575345146,-5.2359878015e-05,0.355456311132,-0.164285870588,1.24657572764,2.81494881969,0.488631702021,2.51690674424,0.034480219089
1.42,-0.637568754448,0.0725707901648,0.0857480280147,1.21296894273,0.293302586124,1.3575345146,-5.2359878015e-05,0.355492771565,-0.164299922667,1.24652758832,2.81496113326,0.488510633434,2.51694224321,0.0344836709437
1.44,-0.637568754448,0.0725707901648,0.0857480280147,1.21296894273,0.293302586124,1.3575345146,-5.2359878015e-05,0.355492771565,-0.164299922667,1.24652758832,2.81496113326,0.488510633434,2.51694224321,0.0344836709437
1.46,-0.637568754448,0.0725707901648,0.0857480280147,1.21296894273,0.293302586124,1.3575345146,-5.2359878015e-05,0.355492771565,-0.164299922667,1.24652758832,2.81496113326,0.488510633434,2.51694224321,0.0344836709437
1.48,-0.637568754448,0.0735307182573,0.0857654800422,1.21296894273,0.293285142419,1.35755195831,-5.2359878015e-05,0.355678231599,-0.164432831175,1.24615728102,2.81496751599,0.487535464256,2.51696268026,0.0345102133201
1.5,-0.637568754448,0.0735307182573,0.0857654800422,1.21296894273,0.293285142419,1.35755195831,-5.2359878015e-05,0.355678231599,-0.164432831175,1.24615728102,2.81496751599,0.487535464256,2.51696268026,0.0345102133201
1.52,-0.637568754448,0.0751538816522,0.0857305759872,1.21267226658,0.292988432984,1.35797087355,-5.2359878015e-05,0.355929115792,-0.164692544784,1.24559561976,2.81531473754,0.485831607778,2.51712402265,0.0345512016009
1.54,-0.637568754448,0.0751538816522,0.0857305759872,1.21267226658,0.292988432984,1.35797087355,-5.2359878015e-05,0.355929115792,-0.164692544784,1.24559561976,2.81531473754,0.485831607778,2.51712402265,0.0345512016009
1.56,-0.637481535923,0.0774751677597,0.0857480280147,1.21069992948,0.292447378519,1.35915771129,-5.2359878015e-05,0.356307564655,-0.165025442875,1.24530772903,2.81590362533,0.484389845138,2.51767549999,0.034577410151
1.58,-0.637481535923,0.0774751677597,0.0857480280147,1.21069992948,0.292447378519,1.35915771129,-5.2359878015e-05,0.356307564655,-0.165025442875,1.24530772903,2.81590362533,0.484389845138,2.51767549999,0.034577410151
1.6,-0.637481535923,0.0774751677597,0.0857480280147,1.21069992948,0.292447378519,1.35915771129,-5.2359878015e-05,0.356307564655,-0.165025442875,1.24530772903,2.81590362533,0.484389845138,2.51767549999,0.034577410151
1.62,-0.637376807113,0.0800407988972,0.0857305759872,1.20809948583,0.291609614619,1.36025719734,-5.2359878015e-05,0.356750575391,-0.165469560801,1.24514745898,2.81674600932,0.483432361586,2.51821439399,0.034594983805
1.64,-0.637376807113,0.0800407988972,0.0857305759872,1.20809948583,0.291609614619,1.36025719734,-5.2359878015e-05,0.356750575391,-0.165469560801,1.24514745898,2.81674600932,0.483432361586,2.51821439399,0.034594983805
1.66,-0.637115018378,0.0837234430197,0.0857305759872,1.20377105011,0.290073736329,1.36184550662,-5.2359878015e-05,0.357412357274,-0.166125158555,1.24511637729,2.81826557114,0.482663625211,2.51917035582,0.0346058546224
1.68,-0.637115018378,0.0837234430197,0.0857305759872,1.20377105011,0.290073736329,1.36184550662,-5.2359878015e-05,0.357412357274,-0.166125158555,1.24511637729,2.81826557114,0.482663625211,2.51917035582,0.0346058546224
1.7,-0.636730990548,0.0874933556022,0.0857305759872,1.19862236078,0.288590189154,1.36388748538,-5.2359878015e-05,0.358099161346,-0.166729587477,1.24531483739,2.8197355965,0.482190339896,2.52035609746,0.0346021746914
1.72,-0.636730990548,0.0874933556022,0.0857305759872,1.19862236078,0.288590189154,1.36388748538,-5.2359878015e-05,0.358099161346,-0.166729587477,1.24531483739,2.8197355965,0.482190339896,2.52035609746,0.0346021746914
1.74,-0.636730990548,0.0874933556022,0.0857305759872,1.19862236078,0.288590189154,1.36388748538,-5.2359878015e-05,0.358099161346,-0.166729587477,1.24531483739,2.8197355965,0.482190339896,2.52035609746,0.0346021746914
1.76,-0.636120127973,0.0920835717347,0.0857654800422,1.19286274229,0.287141562679,1.36624371716,-5.2359878015e-05,0.35898078346,-0.167345715338,1.24539148043,2.8211520045,0.481203893692,2.52186477186,0.0346083237658
1.78,-0.636120127973,0.0920835717347,0.0857654800422,1.19286274229,0.287141562679,1.36624371716,-5.2359878015e-05,0.35898078346,-0.167345715338,1.24539148043,2.8211520045,0.481203893692,2.52186477186,0.0346083237658
1.8,-0.635858339238,0.0971275738722,0.0857305759872,1.18624798277,0.285343895654,1.36873949857,-6.98131733957e-05,0.359879206932,-0.168241628553,1.24557040662,2.82290706768,0.480509557726,2.52305115854,0.0346066923385
1.82,-0.635858339238,0.0971275738722,0.0857305759872,1.18624798277,0.285343895654,1.36873949857,-6.98131733957e-05,0.359879206932,-0.168241628553,1.24557040662,2.82290706768,0.480509557726,2.52305115854,0.0346066923385
1.84,-0.635474377988,0.102450825095,0.0857131156373,1.17912695633,0.283092392689,1.37161930782,-5.2359878015e-05,0.360797806623,-0.169175889005,1.2457668059,2.825148633,0.479690416534,2.52453430415,0.0346018988287
1.86,-0.635474377988,0.102450825095,0.0857131156373,1.17912695633,0.283092392689,1.37161930782,-5.2359878015e-05,0.360797806623,-0.169175889005,1.2457668059,2.825148633,0.479690416534,2.52453430415,0.0346018988287
1.88,-0.635474377988,0.102450825095,0.0857131156373,1.17912695633,0.283092392689,1.37161930782,-5.2359878015e-05,0.360797806623,-0.169175889005,1.2457668059,2.825148633,0.479690416534,2.52453430415,0.0346018988287
1.9,-0.634915846528,0.108576936162,0.0856956636098,1.17101123923,0.280718750499,1.37458646874,-5.2359878015e-05,0.36192771045,-0.170204753196,1.24599083723,2.82745004946,0.478986509131,2.52620011046,0.0345944951491
1.92,-0.634915846528,0.108576936162,0.0856956636098,1.17101123923,0.280718750499,1.37458646874,-5.2359878015e-05,0.36192771045,-0.170204753196,1.24599083723,2.82745004946,0.478986509131,2.52620011046,0.0345944951491
1.94,-0.634095592913,0.114737942962,0.0856258554997,1.16286050155,0.277996051114,1.37771048986,-5.2359878015e-05,0.363056328504,-0.171198743554,1.24617426897,2.83015246678,0.478149217322,2.52818583221,0.0345867425697
1.96,-0.634095592913,0.114737942962,0.0856258554997,1.16286050155,0.277996051114,1.37771048986,-5.2359878015e-05,0.363056328504,-0.171198743554,1.24617426897,2.83015246678,0.478149217322,2.52818583221,0.0345867425697
1.98,-0.633763962778,0.121300379685,0.0855385870397,1.15411641159,0.275447855359,1.38109643287,-5.2359878015e-05,0.364182494834,-0.1724050601,1.24639147997,2.83265542291,0.47723743151,2.5296712574,0.0345753353592
2.0,-0.633763962778,0.121300379685,0.0855385870397,1.15411641159,0.275447855359,1.38109643287,-5.2359878015e-05,0.364182494834,-0.1724050601,1.24639147997,2.83265542291,0.47723743151,2.5296712574,0.0345753353592
2.02,-0.633763962778,0.121300379685,0.0855385870397,1.15411641159,0.275447855359,1.38109643287,-5.2359878015e-05,0.364182494834,-0.1724050601,1.24639147997,2.83265542291,0.47723743151,2.5296712574,0.0345753353592
2.04,-0.633292716423,0.12884020485,0.0855036829847,1.14441238521,0.272445890244,1.38484896001,-6.98131733957e-05,0.365494223266,-0.173747781642,1.24650878056,2.83560870382,0.475982251953,2.53150509602,0.0345679615847
2.06,-0.633292716423,0.12884020485,0.0855036829847,1.14441238521,0.272445890244,1.38484896001,-6.98131733957e-05,0.365494223266,-0.173747781642,1.24650878056,2.83560870382,0.475982251953,2.53150509602,0.0345679615847
2.08,-0.632332780008,0.13632766561,0.0853640501198,1.13512727407,0.269548653939,1.38832212154,-5.2359878015e-05,0.366884707841,-0.174934525922,1.24650354167,2.83842962973,0.47460419845,2.5335709907,0.0345667213954
2.1,-0.632332780008,0.13632766561,0.0853640501198,1.13512727407,0.269548653939,1.38832212154,-5.2359878015e-05,0.366884707841,-0.174934525922,1.24650354167,2.83842962973,0.47460419845,2.5335709907,0.0345667213954
2.12,-0.631704473728,0.144670333975,0.0852244255772,1.12449819868,0.266441960014,1.39270288838,-5.2359878015e-05,0.368314498052,-0.176360047609,1.24654760748,2.84150354398,0.472855528352,2.53557382509,0.0345578633812
2.14,-0.631704473728,0.144670333975,0.0852244255772,1.12449819868,0.266441960014,1.39270288838,-5.2359878015e-05,0.368314498052,-0.176360047609,1.24654760748,2.84150354398,0.472855528352,2.53557382509,0.0345578633812
2.16,-0.631704473728,0.144670333975,0.0852244255772,1.12449819868,0.266441960014,1.39270288838,-5.2359878015e-05,0.368314498052,-0.176360047609,1.24654760748,2.84150354398,0.472855528352,2.53557382509,0.0345578633812
2.18,-0.631163385973,0.153554073449,0.0851720694947,1.11269972926,0.262881496729,1.39734544395,-6.98131733957e-05,0.36983038978,-0.177946605434,1.24673836464,2.8449978891,0.471502992145,2.53766918971,0.0345309351355
2.2,-0.631163385973,0.153554073449,0.0851720694947,1.11269972926,0.262881496729,1.39734544395,-6.98131733957e-05,0.36983038978,-0.177946605434,1.24673836464,2.8449978891,0.471502992145,2.53766918971,0.0345309351355
2.22,-0.630203516138,0.16160003238,0.0849451764922,1.10229762178,0.259390841554,1.40155177373,-6.98131733957e-05,0.371222707244,-0.179298195391,1.24677484699,2.84848258057,0.469991893602,2.53988393232,0.0345116685685
2.24,-0.630203516138,0.16160003238,0.0849451764922,1.10229762178,0.259390841554,1.40155177373,-6.98131733957e-05,0.371222707244,-0.179298195391,1.24677484699,2.84848258057,0.469991893602,2.53988393232,0.0345116685685
2.26,-0.629540255868,0.171112078134,0.0846833794347,1.08974867357,0.255638380999,1.40645611804,-6.98131733957e-05,0.372826771549,-0.181027432327,1.2469064011,2.85217077399,0.468492609009,2.54189605784,0.0344768899846
2.28,-0.629540255868,0.171112078134,0.0846833794347,1.08974867357,0.255638380999,1.40645611804,-6.98131733957e-05,0.372826771549,-0.181027432327,1.2469064011,2.85217077399,0.468492609009,2.54189605784,0.0344768899846
2.3,-0.629540255868,0.171112078134,0.0846833794347,1.08974867357,0.255638380999,1.40645611804,-6.98131733957e-05,0.372826771549,-0.181027432327,1.2469064011,2.85217077399,0.468492609009,2.54189605784,0.0344768899846
2.32,-0.628667604558,0.180746296404,0.0844215740548,1.07749646808,0.251973188904,1.41125580011,-6.98131733957e-05,0.374492958739,-0.182681010635,1.2468659393,2.85575980566,0.46666017599,2.54403861389,0.0344496776061
2.34,-0.628667604558,0.180746296404,0.0844215740548,1.07749646808,0.251973188904,1.41125580011,-6.98131733957e-05,0.374492958739,-0.182681010635,1.2468659393,2.85575980566,0.46666017599,2.54403861389,0.0344496776061
2.36,-0.627637826743,0.191131010114,0.0836187225323,1.06388292122,0.247784386049,1.41619503183,-6.98131733957e-05,0.376248019729,-0.184668149354,1.24693993141,2.85993065233,0.465311556955,2.54588081066,0.0344027647458
2.38,-0.627637826743,0.191131010114,0.0836187225323,1.06388292122,0.247784386049,1.41619503183,-6.98131733957e-05,0.376248019729,-0.184668149354,1.24693993141,2.85993065233,0.465311556955,2.54588081066,0.0344027647458
2.4,-0.626957189348,0.201253918444,0.0833045610698,1.05142125811,0.243717772354,1.42139618543,-6.98131733957e-05,0.377882539899,-0.186506443448,1.24666811379,2.86397804817,0.462807491502,2.54787639652,0.0343772610561
2.42,-0.626957189348,0.201253918444,0.0833045610698,1.05142125811,0.243717772354,1.42139618543,-6.98131733957e-05,0.377882539899,-0.186506443448,1.24666811379,2.86397804817,0.462807491502,2.54787639652,0.0343772610561
2.44,-0.626957189348,0.201253918444,0.0833045610698,1.05142125811,0.243717772354,1.42139618543,-6.98131733957e-05,0.377882539899,-0.186506443448,1.24666811379,2.86397804817,0.462807491502,2.54787639652,0.0343772610561
2.46,-0.625787795313,0.211708440264,0.0828158710098,1.03768553873,0.239738427119,1.42661464959,-6.98131733957e-05,0.379696866779,-0.188288817619,1.24668666726,2.86788897325,0.461210483262,2.55009545891,0.0343175909858
2.48,-0.625787795313,0.211708440264,0.0828158710098,1.03768553873,0.239738427119,1.42661464959,-6.98131733957e-05,0.379696866779,-0.188288817619,1.24668666726,2.86788897325,0.461210483262,2.55009545891,0.0343175909858
2.5,-0.624950031413,0.222808728714,0.0827111505223,1.02337377761,0.235392564339,1.43251395088,-6.98131733957e-05,0.381536944858,-0.190172299431,1.24654808701,2.87212773834,0.458891494535,2.55249388551,0.0342563001604
2.52,-0.624950031413,0.222808728714,0.0827111505223,1.02337377761,0.235392564339,1.43251395088,-6.98131733957e-05,0.381536944858,-0.190172299431,1.24654808701,2.87212773834,0.458891494535,2.55249388551,0.0342563001604
2.54,-0.623798147663,0.234380263519,0.0823620850048,1.00869556553,0.230907052049,1.43792442895,-6.98131733957e-05,0.38354856032,-0.192152315772,1.24633366426,2.87646335484,0.456927720293,2.55479005838,0.0341903497862
2.56,-0.623798147663,0.234380263519,0.0823620850048,1.00869556553,0.230907052049,1.43792442895,-6.98131733957e-05,0.38354856032,-0.192152315772,1.24633366426,2.87646335484,0.456927720293,2.55479005838,0.0341903497862
2.58,-0.623798147663,0.234380263519,0.0823620850048,1.00869556553,0.230907052049,1.43792442895,-6.98131733957e-05,0.38354856032,-0.192152315772,1.24633366426,2.87646335484,0.456927720293,2.55479005838,0.0341903497862
2.6,-0.622995271173,0.245812165459,0.0821701043797,0.994680613711,0.226020134804,1.44382359708,-6.98131733957e-05,0.385361689141,-0.194186350766,1.24585394482,2.88127118238,0.453969412731,2.55704118443,0.0341353876971
2.62,-0.622995271173,0.245812165459,0.0821701043797,0.994680613711,0.226020134804,1.44382359708,-6.98131733957e-05,0.385361689141,-0.194186350766,1.24585394482,2.88127118238,0.453969412731,2.55704118443,0.0341353876971
2.64,-0.621668817213,0.257889850674,0.0813847048847,0.978483933752,0.221656811674,1.4496704341,-6.98131733957e-05,0.387432773364,-0.196295069829,1.24585405941,2.88555076574,0.452557843461,2.55906696121,0.0340210583578
2.66,-0.621668817213,0.257889850674,0.0813847048847,0.978483933752,0.221656811674,1.4496704341,-6.98131733957e-05,0.387432773364,-0.196295069829,1.24585405941,2.88555076574,0.452557843461,2.55906696121,0.0340210583578
2.68,-0.620743834788,0.269269404854,0.0806865738497,0.963770834257,0.217031699809,1.45586641153,-6.98131733957e-05,0.389168500388,-0.198386568273,1.24555020826,2.89022227389,0.450017623575,2.56091603195,0.0339245608327
2.7,-0.620743834788,0.269269404854,0.0806865738497,0.963770834257,0.217031699809,1.45586641153,-6.98131733957e-05,0.389168500388,-0.198386568273,1.24555020826,2.89022227389,0.450017623575,2.56091603195,0.0339245608327
2.72,-0.620743834788,0.269269404854,0.0806865738497,0.963770834257,0.217031699809,1.45586641153,-6.98131733957e-05,0.389168500388,-0.198386568273,1.24555020826,2.89022227389,0.450017623575,2.56091603195,0.0339245608327
2.74,-0.619661725858,0.282219741379,0.0802676918997,0.947626485412,0.212197130324,1.46228915713,-6.98131733957e-05,0.391283397375,-0.200596738182,1.24501602333,2.89492281756,0.447110767613,2.56309394669,0.0338227572372
2.76,-0.619661725858,0.282219741379,0.0802676918997,0.947626485412,0.212197130324,1.46228915713,-6.98131733957e-05,0.391283397375,-0.200596738182,1.24501602333,2.89492281756,0.447110767613,2.56309394669,0.0338227572372
2.78,-0.618562173223,0.295327154474,0.0801106153297,0.930714280647,0.207048407699,1.4687294796,-8.72664606492e-05,0.393461327574,-0.202799077192,1.24463066076,2.89983127326,0.444795795432,2.56546000794,0.0336867971562
2.8,-0.618562173223,0.295327154474,0.0801106153297,0.930714280647,0.207048407699,1.4687294796,-8.72664606492e-05,0.393461327574,-0.202799077192,1.24463066076,2.89983127326,0.444795795432,2.56546000794,0.0336867971562
2.82,-0.617619680513,0.307649201364,0.0799709824648,0.915180860957,0.202213854859,1.47490788017,-6.98131733957e-05,0.395447970731,-0.204872617264,1.24408678921,2.90443478416,0.442110421951,2.56753921029,0.0335611030152
2.84,-0.617619680513,0.307649201364,0.0799709824648,0.915180860957,0.202213854859,1.47490788017,-6.98131733957e-05,0.395447970731,-0.204872617264,1.24408678921,2.90443478416,0.442110421951,2.56753921029,0.0335611030152
2.86,-0.617619680513,0.307649201364,0.0799709824648,0.915180860957,0.202213854859,1.47490788017,-6.98131733957e-05,0.395447970731,-0.204872617264,1.24408678921,2.90443478416,0.442110421951,2.56753921029,0.0335611030152
2.88,-0.616188497743,0.320826422569,0.0797615498122,0.898460603527,0.196803326854,1.48152277284,-6.98131733957e-05,0.397619732191,-0.206971023092,1.24348748835,2.90961679256,0.439332047216,2.57010211212,0.0334102383202
2.9,-0.616188497743,0.320826422569,0.0797615498122,0.898460603527,0.196803326854,1.48152277284,-6.98131733957e-05,0.397619732191,-0.206971023092,1.24348748835,2.90961679256,0.439332047216,2.57010211212,0.0334102383202
2.92,-0.615263448738,0.334474890129,0.0792728514298,0.881478557362,0.191654604229,1.48803287012,-8.72664606492e-05,0.399761615569,-0.209391627943,1.24273363418,2.91457695736,0.436423924877,2.57180550054,0.033252769398
2.94,-0.615263448738,0.334474890129,0.0792728514298,0.881478557362,0.191654604229,1.48803287012,-8.72664606492e-05,0.399761615569,-0.209391627943,1.24273363418,2.91457695736,0.436423924877,2.57180550054,0.033252769398
2.96,-0.613884663663,0.348210642794,0.0781907508222,0.863414402267,0.186470977549,1.49518865082,-8.72664606492e-05,0.401858076256,-0.211801390419,1.24221068328,2.91980902082,0.433850938878,2.57352309433,0.0330429919648
2.98,-0.613884663663,0.348210642794,0.0781907508222,0.863414402267,0.186470977549,1.49518865082,-8.72664606492e-05,0.401858076256,-0.211801390419,1.24221068328,2.91980902082,0.433850938878,2.57352309433,0.0330429919648
3.0,-0.613884663663,0.348210642794,0.0781907508222,0.863414402267,0.186470977549,1.49518865082,-8.72664606492e-05,0.401858076256,-0.211801390419,1.24221068328,2.91980902082,0.433850938878,2.57352309433,0.0330429919648
3.02,-0.612645494808,0.361597321619,0.0774053513273,0.846502130922,0.181095370244,1.50187331831,-8.72664606492e-05,0.403891666251,-0.214142954723,1.24142277136,2.92513595242,0.430924966878,2.57521819121,0.0328495172648
3.04,-0.612645494808,0.361597321619,0.0774053513273,0.846502130922,0.181095370244,1.50187331831,-8.72664606492e-05,0.403891666251,-0.214142954723,1.24142277136,2.92513595242,0.430924966878,2.57521819121,0.0328495172648
3.06,-0.611615716993,0.375455213509,0.0767072202923,0.828437975827,0.175580130074,1.50890699306,-8.72664606492e-05,0.40594793812,-0.216619537828,1.24074695176,2.93054725012,0.428324181336,2.5767344413,0.0326105585807
3.08,-0.611615716993,0.375455213509,0.0767072202923,0.828437975827,0.175580130074,1.50890699306,-8.72664606492e-05,0.40594793812,-0.216619537828,1.24074695176,2.93054725012,0.428324181336,2.5767344413,0.0326105585807
3.1,-0.610236931918,0.390063650773,0.0761138097447,0.810059634303,0.169855448929,1.51623734396,-8.72664606492e-05,0.40817432351,-0.219024050599,1.2397581539,2.93610591978,0.424983584595,2.57865095851,0.0323667579934
3.12,-0.610236931918,0.390063650773,0.0761138097447,0.810059634303,0.169855448929,1.51623734396,-8.72664606492e-05,0.40817432351,-0.219024050599,1.2397581539,2.93610591978,0.424983584595,2.57865095851,0.0323667579934
3.14,-0.610236931918,0.390063650773,0.0761138097447,0.810059634303,0.169855448929,1.51623734396,-8.72664606492e-05,0.40817432351,-0.219024050599,1.2397581539,2.93610591978,0.424983584595,2.57865095851,0.0323667579934
3.16,-0.609189710398,0.403904098959,0.0756076593348,0.792170049417,0.164322748409,1.52314877963,-8.72664606492e-05,0.41022512933,-0.221408687383,1.23893553837,2.94143619392,0.422313575123,2.58014874878,0.0320982469761
3.18,-0.609189710398,0.403904098959,0.0756076593348,0.792170049417,0.164322748409,1.52314877963,-8.72664606492e-05,0.41022512933,-0.221408687383,1.23893553837,2.94143619392,0.422313575123,2.58014874878,0.0320982469761
3.2,-0.607863256438,0.418425251118,0.0752236897623,0.772919056583,0.15872023978,1.53070616501,-0.00010471975603,0.412415521488,-0.223715481627,1.23817279967,2.9467709358,0.419680411653,2.58202553756,0.0317761661382
3.22,-0.607863256438,0.418425251118,0.0752236897623,0.772919056583,0.15872023978,1.53070616501,-0.00010471975603,0.412415521488,-0.223715481627,1.23817279967,2.9467709358,0.419680411653,2.58202553756,0.0317761661382
3.24,-0.606868432613,0.433120906909,0.0750142487873,0.755203975327,0.152838482065,1.53773983976,-0.00010471975603,0.414566559789,-0.226150725643,1.23677159864,2.95226691172,0.415837104337,2.58354616539,0.0315052931051
3.26,-0.606868432613,0.433120906909,0.0750142487873,0.755203975327,0.152838482065,1.53773983976,-0.00010471975603,0.414566559789,-0.226150725643,1.23677159864,2.95226691172,0.415837104337,2.58354616539,0.0315052931051
3.28,-0.606868432613,0.433120906909,0.0750142487873,0.755203975327,0.152838482065,1.53773983976,-0.00010471975603,0.414566559789,-0.226150725643,1.23677159864,2.95226691172,0.415837104337,2.58354616539,0.0315052931051
3.3,-0.605576866063,0.447694390184,0.0744906546722,0.736860587792,0.14742795406,1.54472105025,-8.72664606492e-05,0.416751435556,-0.22847552311,1.23560088379,2.95739606208,0.412767156299,2.58498288873,0.03118382746
3.32,-0.605576866063,0.447694390184,0.0744906546722,0.736860587792,0.14742795406,1.54472105025,-8.72664606492e-05,0.416751435556,-0.22847552311,1.23560088379,2.95739606208,0.412767156299,2.58498288873,0.03118382746
3.34,-0.604110795883,0.461761772983,0.0739146961522,0.717853939987,0.141965078295,1.55199907003,-0.00010471975603,0.418823523011,-0.230659613525,1.23482144639,2.96264828427,0.41056430011,2.5865599183,0.0307954294747
3.36,-0.604110795883,0.461761772983,0.0739146961522,0.717853939987,0.141965078295,1.55199907003,-0.00010471975603,0.418823523011,-0.230659613525,1.23482144639,2.96264828427,0.41056430011,2.5865599183,0.0307954294747
3.38,-0.602923958144,0.477277748968,0.0730769322523,0.699074193508,0.135646986602,1.55994035009,-0.00010471975603,0.420878006859,-0.233268634147,1.23314472554,2.96885168258,0.406012175244,2.58769058741,0.0304407223115
3.4,-0.602923958144,0.477277748968,0.0730769322523,0.699074193508,0.135646986602,1.55994035009,-0.00010471975603,0.420878006859,-0.233268634147,1.23314472554,2.96885168258,0.406012175244,2.58769058741,0.0304407223115
3.42,-0.602923958144,0.477277748968,0.0730769322523,0.699074193508,0.135646986602,1.55994035009,-0.00010471975603,0.420878006859,-0.233268634147,1.23314472554,2.96885168258,0.406012175244,2.58769058741,0.0304407223115
3.44,-0.601719743278,0.492130497973,0.0725533381372,0.680172274513,0.129869949375,1.56723581358,-0.00010471975603,0.422960547741,-0.235646927046,1.23183495004,2.97432996769,0.402870288189,2.58884611302,0.0300373645465
3.46,-0.601719743278,0.492130497973,0.0725533381372,0.680172274513,0.129869949375,1.56723581358,-0.00010471975603,0.422960547741,-0.235646927046,1.23183495004,2.97432996769,0.402870288189,2.58884611302,0.0300373645465
3.48,-0.600323447918,0.507489380743,0.0724660696773,0.660258087987,0.124127816202,1.57472329098,-0.00010471975603,0.425221113515,-0.237871405392,1.2305670336,2.97950329072,0.400040956576,2.59038140647,0.0295788644393
3.5,-0.600323447918,0.507489380743,0.0724660696773,0.660258087987,0.124127816202,1.57472329098,-0.00010471975603,0.425221113515,-0.237871405392,1.2305670336,2.97950329072,0.400040956576,2.59038140647,0.0295788644393
3.52,-0.598996993958,0.522272321638,0.0722042726197,0.641652845138,0.118350778975,1.58233300748,-0.00010471975603,0.42724840014,-0.240035262865,1.22906219038,2.98484164854,0.396340308306,2.59172107606,0.0291390228352
3.54,-0.598996993958,0.522272321638,0.0722042726197,0.641652845138,0.118350778975,1.58233300748,-0.00010471975603,0.42724840014,-0.240035262865,1.22906219038,2.98484164854,0.396340308306,2.59172107606,0.0291390228352
3.56,-0.598996993958,0.522272321638,0.0722042726197,0.641652845138,0.118350778975,1.58233300748,-0.00010471975603,0.42724840014,-0.240035262865,1.22906219038,2.98484164854,0.396340308306,2.59172107606,0.0291390228352
3.58,-0.597775268808,0.537125070643,0.0715061415847,0.622192394683,0.112591193775,1.58976802061,-0.00010471975603,0.429215982005,-0.242386353139,1.22776260662,2.99035751903,0.39357297387,2.59251378757,0.0286380808477
3.6,-0.597775268808,0.537125070643,0.0715061415847,0.622192394683,0.112591193775,1.58976802061,-0.00010471975603,0.429215982005,-0.242386353139,1.22776260662,2.99035751903,0.39357297387,2.59251378757,0.0286380808477
3.62,-0.596413927438,0.551820759723,0.0707730981723,0.603883894558,0.106639619627,1.59697626557,-0.00010471975603,0.431140201818,-0.24465457268,1.22610551666,2.99608637799,0.390021314077,2.59335196629,0.0281642407656
3.64,-0.596413927438,0.551820759723,0.0707730981723,0.603883894558,0.106639619627,1.59697626557,-0.00010471975603,0.431140201818,-0.24465457268,1.22610551666,2.99608637799,0.390021314077,2.59335196629,0.0281642407656
3.66,-0.595035075783,0.567284338014,0.0702669560848,0.583952264328,0.100304075907,1.60493498933,-0.00010471975603,0.433116744511,-0.246963231856,1.22451151541,3.00203766988,0.386573146921,2.59428374304,0.0276068149492
3.68,-0.595035075783,0.567284338014,0.0702669560848,0.583952264328,0.100304075907,1.60493498933,-0.00010471975603,0.433116744511,-0.246963231856,1.22451151541,3.00203766988,0.386573146921,2.59428374304,0.0276068149492
3.7,-0.595035075783,0.567284338014,0.0702669560848,0.583952264328,0.100304075907,1.60493498933,-0.00010471975603,0.433116744511,-0.246963231856,1.22451151541,3.00203766988,0.386573146921,2.59428374304,0.0276068149492
3.72,-0.593900635738,0.582538525263,0.0697433578085,0.564666384083,0.0946142988172,1.61263192436,-0.00010471975603,0.435029470603,-0.249235620326,1.22277812661,3.00735196473,0.382938348213,2.59488141437,0.0270498445025
3.74,-0.593900635738,0.582538525263,0.0697433578085,0.564666384083,0.0946142988172,1.61263192436,-0.00010471975603,0.435029470603,-0.249235620326,1.22277812661,3.00735196473,0.382938348213,2.59488141437,0.0270498445025
3.76,-0.592347280453,0.597181849938,0.0692023033435,0.545904081308,0.0889070696997,1.62036361364,-0.00010471975603,0.436883128406,-0.251212694472,1.2211185043,3.01272020462,0.379344574754,2.59583868641,0.0264774157692
3.78,-0.592347280453,0.597181849938,0.0692023033435,0.545904081308,0.0889070696997,1.62036361364,-0.00010471975603,0.436883128406,-0.251212694472,1.2211185043,3.01272020462,0.379344574754,2.59583868641,0.0264774157692
3.8,-0.591073224188,0.612767667323,0.068032934276,0.526216762818,0.0829031394697,1.62795588643,-0.00010471975603,0.43872885779,-0.253637991342,1.21923248109,3.01868918606,0.375842950262,2.59596465404,0.0258584761943
3.82,-0.591073224188,0.612767667323,0.068032934276,0.526216762818,0.0829031394697,1.62795588643,-0.00010471975603,0.43872885779,-0.253637991342,1.21923248109,3.01868918606,0.375842950262,2.59596465404,0.0258584761943
3.84,-0.591073224188,0.612767667323,0.068032934276,0.526216762818,0.0829031394697,1.62795588643,-0.00010471975603,0.43872885779,-0.253637991342,1.21923248109,3.01868918606,0.375842950262,2.59596465404,0.0258584761943
3.86,-0.590008558963,0.627812396953,0.0677187769748,0.507384651934,0.0770737378373,1.63507677971,-0.00010471975603,0.440568185872,-0.25582868213,1.21732994051,3.02396654967,0.372509299905,2.59630207587,0.0252447401835
3.88,-0.590008558963,0.627812396953,0.0677187769748,0.507384651934,0.0770737378373,1.63507677971,-0.00010471975603,0.440568185872,-0.25582868213,1.21732994051,3.02396654967,0.372509299905,2.59630207587,0.0252447401835
3.9,-0.588507601373,0.642874570288,0.067579148271,0.487994042879,0.0709650871198,1.64279115844,-0.000139626346791,0.442417840734,-0.257764487421,1.21551447525,3.0294188785,0.36912440762,2.59715205192,0.0245753218654
3.92,-0.588507601373,0.642874570288,0.067579148271,0.487994042879,0.0709650871198,1.64279115844,-0.000139626346791,0.442417840734,-0.257764487421,1.21551447525,3.0294188785,0.36912440762,2.59715205192,0.0245753218654
3.94,-0.587442936148,0.658146201243,0.0674220675398,0.468463817604,0.0651356896485,1.65059275569,-0.000122173051411,0.444164494934,-0.259848602,1.21358560753,3.03456001481,0.365570355679,2.5974234617,0.0238773223653
3.96,-0.587442936148,0.658146201243,0.0674220675398,0.468463817604,0.0651356896485,1.65059275569,-0.000122173051411,0.444164494934,-0.259848602,1.21358560753,3.03456001481,0.365570355679,2.5974234617,0.0238773223653
3.98,-0.587442936148,0.658146201243,0.0674220675398,0.468463817604,0.0651356896485,1.65059275569,-0.000122173051411,0.444164494934,-0.259848602,1.21358560753,3.03456001481,0.365570355679,2.5974234617,0.0238773223653
4.0,-0.586099038483,0.672841857033,0.0670730020223,0.450102953074,0.0594284605311,1.65780100066,-0.00010471975603,0.445889534422,-0.261759588964,1.21155025219,3.03970489334,0.362002080549,2.59778259993,0.023205071812
4.02,-0.586099038483,0.672841857033,0.0670730020223,0.450102953074,0.0594284605311,1.65780100066,-0.00010471975603,0.445889534422,-0.261759588964,1.21155025219,3.03970489334,0.362002080549,2.59778259993,0.023205071812
4.04,-0.584720186828,0.688497515817,0.0668984692635,0.430101481444,0.0535641548436,1.66523614695,-0.000139626346791,0.447758726561,-0.263739146376,1.20949681291,3.04483431356,0.358889758526,2.59816067798,0.0224401834891
4.06,-0.584720186828,0.688497515817,0.0668984692635,0.430101481444,0.0535641548436,1.66523614695,-0.000139626346791,0.447758726561,-0.263739146376,1.20949681291,3.04483431356,0.358889758526,2.59816067798,0.0224401834891
4.08,-0.583620634193,0.702896428883,0.0661654300123,0.411618444399,0.0478394736986,1.67286317399,-0.000139626346791,0.449187529393,-0.265726043621,1.20752785599,3.05025946073,0.355302069904,2.59796261874,0.0217050075455
4.1,-0.583620634193,0.702896428883,0.0661654300123,0.411618444399,0.0478394736986,1.67286317399,-0.000139626346791,0.449187529393,-0.265726043621,1.20752785599,3.05025946073,0.355302069904,2.59796261874,0.0217050075455
4.12,-0.583620634193,0.702896428883,0.0661654300123,0.411618444399,0.0478394736986,1.67286317399,-0.000139626346791,0.449187529393,-0.265726043621,1.20752785599,3.05025946073,0.355302069904,2.59796261874,0.0217050075455
4.14,-0.582189451424,0.717277964823,0.064699355671,0.393362308679,0.0422544212574,1.68029832028,-0.000122173051411,0.450605889466,-0.267686715775,1.20545184795,3.05604520788,0.351672288749,2.59763332879,0.020959748254
4.16,-0.582189451424,0.717277964823,0.064699355671,0.393362308679,0.0422544212574,1.68029832028,-0.000122173051411,0.450605889466,-0.267686715775,1.20545184795,3.05604520788,0.351672288749,2.59763332879,0.020959748254
4.18,-0.580967726273,0.731519817963,0.0639488643923,0.374844350934,0.0364773798687,1.68743665727,-0.000139626346791,0.452032005625,-0.269584798662,1.20351863168,3.06151905575,0.34875482574,2.59737401569,0.0201760339167
4.2,-0.580967726273,0.731519817963,0.0639488643923,0.374844350934,0.0364773798687,1.68743665727,-0.000139626346791,0.452032005625,-0.269584798662,1.20351863168,3.06151905575,0.34875482574,2.59737401569,0.0201760339167
4.22,-0.579815842523,0.746180586343,0.0629889321386,0.356780195839,0.0309621417793,1.69447033202,-0.000139626346791,0.45347568631,-0.271531404585,1.2011809954,3.06686744332,0.345062404329,2.59689349682,0.0194025939834
4.24,-0.579815842523,0.746180586343,0.0629889321386,0.356780195839,0.0309621417793,1.69447033202,-0.000139626346791,0.45347568631,-0.271531404585,1.2011809954,3.06686744332,0.345062404329,2.59689349682,0.0194025939834
4.26,-0.579815842523,0.746180586343,0.0629889321386,0.356780195839,0.0309621417793,1.69447033202,-0.000139626346791,0.45347568631,-0.271531404585,1.2011809954,3.06686744332,0.345062404329,2.59689349682,0.0194025939834
4.28,-0.578541719678,0.760981037522,0.0628667596235,0.337546679999,0.0252025544987,1.70197525313,-0.000122173051411,0.454973932394,-0.27324283153,1.19908742268,3.07181906145,0.341942130596,2.59680123088,0.0185414292881
4.3,-0.578541719678,0.760981037522,0.0628667596235,0.337546679999,0.0252025544987,1.70197525313,-0.000122173051411,0.454973932394,-0.27324283153,1.19908742268,3.07181906145,0.341942130596,2.59680123088,0.0185414292881
4.32,-0.577267663413,0.774716756897,0.0628143993798,0.320267924399,0.0200887400899,1.70885193454,-0.000139626346791,0.45638430511,-0.27470754168,1.19692797331,3.07614820879,0.338566995228,2.59684668966,0.0177537132496
4.34,-0.577267663413,0.774716756897,0.0628143993798,0.320267924399,0.0200887400899,1.70885193454,-0.000139626346791,0.45638430511,-0.27470754168,1.19692797331,3.07614820879,0.338566995228,2.59684668966,0.0177537132496
4.36,-0.576115713083,0.789063338848,0.0627445871085,0.301976867979,0.0144862325003,1.71626950397,-0.000139626346791,0.457716969196,-0.276317087877,1.19469487487,3.08090209164,0.335044336995,2.59657463855,0.0168953572813
4.38,-0.576115713083,0.789063338848,0.0627445871085,0.301976867979,0.0144862325003,1.71626950397,-0.000139626346791,0.457716969196,-0.276317087877,1.19469487487,3.08090209164,0.335044336995,2.59657463855,0.0168953572813
4.4,-0.574824213113,0.802624554593,0.0624478818348,0.284104693509,0.008587020157,1.72290170719,-0.000139626346791,0.457716969196,-0.276317087877,1.19469487487,3.08090209164,0.335044336995,2.59657463855,0.0168953572813
4.42,-0.574824213113,0.802624554593,0.0624478818348,0.284104693509,0.008587020157,1.72290170719,-0.000139626346791,0.458975837468,-0.277897490685,1.19274661185,3.08609961884,0.332663016894,2.59619053011,0.0160323512821
4.44,-0.574824213113,0.802624554593,0.0624478818348,0.284104693509,0.008587020157,1.72290170719,-0.000139626346791,0.458975837468,-0.277897490685,1.19274661185,3.08609961884,0.332663016894,2.59619053011,0.0160323512821
4.46,-0.573864276698,0.816150882927,0.0623780654023,0.267506608594,0.00363028491905,1.72958637468,-0.000139626346791,0.460187317659,-0.279380952241,1.19038134106,3.09024583232,0.329003486226,2.59572218171,0.0152232474541
4.48,-0.573864276698,0.816150882927,0.0623780654023,0.267506608594,0.00363028491905,1.72958637468,-0.000139626346791,0.460187317659,-0.279380952241,1.19038134106,3.09024583232,0.329003486226,2.59572218171,0.0152232474541
4.5,-0.572520379033,0.829415355947,0.0620988163173,0.250646734944,-0.00150098320769,1.73625359847,-0.000139626346791,0.461396133704,-0.280708301726,1.18820409856,3.09470445725,0.325878216589,2.59543971809,0.0143782107043
4.52,-0.572520379033,0.829415355947,0.0620988163173,0.250646734944,-0.00150098320769,1.73625359847,-0.000139626346791,0.461396133704,-0.280708301726,1.18820409856,3.09470445725,0.325878216589,2.59543971809,0.0143782107043
4.54,-0.571525488629,0.843325645532,0.0618719233148,0.233001461799,-0.00678933076529,1.74333960434,-0.000122173051411,0.461396133704,-0.280708301726,1.18820409856,3.09470445725,0.325878216589,2.59543971809,0.0143782107043
4.56,-0.571525488629,0.843325645532,0.0618719233148,0.233001461799,-0.00678933076529,1.74333960434,-0.000122173051411,0.462512577512,-0.282225605698,1.18587055456,3.09922297238,0.322472422227,2.59469121685,0.0134753146475
4.58,-0.571525488629,0.843325645532,0.0618719233148,0.233001461799,-0.00678933076529,1.74333960434,-0.000122173051411,0.462512577512,-0.282225605698,1.18587055456,3.09922297238,0.322472422227,2.59469121685,0.0134753146475
4.6,-0.570391048583,0.855874527168,0.0604407530285,0.216996779109,-0.0116238929681,1.74958791289,-0.000139626346791,0.463429862187,-0.283714361503,1.18375883839,3.10432707695,0.319610350022,2.59370635089,0.0126402584834
4.62,-0.570391048583,0.855874527168,0.0604407530285,0.216996779109,-0.0116238929681,1.74958791289,-0.000139626346791,0.463429862187,-0.283714361503,1.18375883839,3.10432707695,0.319610350022,2.59370635089,0.0126402584834
4.64,-0.569082038328,0.868824880337,0.059393556476,0.199962368539,-0.0167377073768,1.75623755982,-0.000139626346791,0.464400171771,-0.285081134783,1.18170704816,3.10935651274,0.316981598511,2.59290011018,0.0117315324046
4.66,-0.569082038328,0.868824880337,0.059393556476,0.199962368539,-0.0167377073768,1.75623755982,-0.000139626346791,0.464400171771,-0.285081134783,1.18170704816,3.10935651274,0.316981598511,2.59290011018,0.0117315324046
4.68,-0.568261718134,0.881426159667,0.0592015675286,0.184202047524,-0.0220086025168,1.76231129816,-0.000139626346791,0.464400171771,-0.285081134783,1.18170704816,3.10935651274,0.316981598511,2.59290011018,0.0117315324046
4.7,-0.568261718134,0.881426159667,0.0592015675286,0.184202047524,-0.0220086025168,1.76231129816,-0.000139626346791,0.465298809329,-0.286495943563,1.17945128314,3.1138600809,0.314019819504,2.59190627062,0.0108818757955
4.72,-0.568261718134,0.881426159667,0.0592015675286,0.184202047524,-0.0220086025168,1.76231129816,-0.000139626346791,0.465298809329,-0.286495943563,1.17945128314,3.1138600809,0.314019819504,2.59190627062,0.0108818757955
4.74,-0.567039992984,0.893503861527,0.058939770471,0.169052589084,-0.0264242858905,1.76836759279,-0.000139626346791,0.466268542883,-0.287528399219,1.17726737491,3.11764321197,0.310994167974,2.59143744429,0.0100510050888
4.76,-0.567039992984,0.893503861527,0.058939770471,0.169052589084,-0.0264242858905,1.76836759279,-0.000139626346791,0.466268542883,-0.287528399219,1.17726737491,3.11764321197,0.310994167974,2.59143744429,0.0100510050888
4.78,-0.566062612864,0.905616450797,0.0582416352748,0.153152635205,-0.0310319540505,1.77479047155,-0.000139626346791,0.46703402458,-0.288740382701,1.17525219771,3.12193704647,0.308312291367,2.59044276056,0.00916150364247
4.8,-0.566062612864,0.905616450797,0.0582416352748,0.153152635205,-0.0310319540505,1.77479047155,-0.000139626346791,0.46703402458,-0.288740382701,1.17525219771,3.12193704647,0.308312291367,2.59044276056,0.00916150364247
4.82,-0.565120186733,0.916996004977,0.0574387837523,0.139347091074,-0.0353952792611,1.78021839333,-0.000122173051411,0.46703402458,-0.288740382701,1.17525219771,3.12193704647,0.308312291367,2.59044276056,0.00916150364247
4.84,-0.565120186733,0.916996004977,0.0574387837523,0.139347091074,-0.0353952792611,1.78021839333,-0.000122173051411,0.467792811097,-0.289900628303,1.17301358527,3.12613557209,0.305269273178,2.58946169164,0.00838426721809
4.86,-0.565120186733,0.916996004977,0.0574387837523,0.139347091074,-0.0353952792611,1.78021839333,-0.000122173051411,0.467792811097,-0.289900628303,1.17301358527,3.12613557209,0.305269273178,2.58946169164,0.00838426721809
4.88,-0.564038077803,0.928619904187,0.0571769866948,0.124180172285,-0.0396887859586,1.78552420917,-0.000139626346791,0.468686679628,-0.290926332141,1.17105217222,3.12979035033,0.303473014719,2.5887543129,0.00751491113696
4.9,-0.564038077803,0.928619904187,0.0571769866948,0.124180172285,-0.0396887859586,1.78552420917,-0.000139626346791,0.468686679628,-0.290926332141,1.17105217222,3.12979035033,0.303473014719,2.5887543129,0.00751491113696
4.92,-0.563217757608,0.939667828232,0.0570024539361,0.11032226375,-0.0443488143624,1.79126638395,-0.000139626346791,0.469307457384,-0.291975798077,1.16895760106,3.13372858309,0.300511257283,2.58774676472,0.00671109438881
4.94,-0.563217757608,0.939667828232,0.0570024539361,0.11032226375,-0.0443488143624,1.79126638395,-0.000139626346791,0.469307457384,-0.291975798077,1.16895760106,3.13372858309,0.300511257283,2.58774676472,0.00671109438881
4.96,-0.562257821193,0.950035048302,0.0568977334486,0.0966039714347,-0.0483281679198,1.79639762958,-0.000139626346791,0.469999690236,-0.292821694669,1.16720919795,3.13698641213,0.298705980036,2.5870185027,0.00590462937827
4.98,-0.562257821193,0.950035048302,0.0568977334486,0.0966039714347,-0.0483281679198,1.79639762958,-0.000139626346791,0.469999690236,-0.292821694669,1.16720919795,3.13698641213,0.298705980036,2.5870185027,0.00590462937827
5.0,-0.562257821193,0.950035048302,0.0568977334486,0.0966039714347,-0.0483281679198,1.79639762958,-0.000139626346791,0.469999690236,-0.292821694669,1.16720919795,3.13698641213,0.298705980036,2.5870185027,0.00590462937827
5.02,-0.561367726178,0.960925912422,0.0567406527173,0.0826936984948,-0.0530056483511,1.80213967121,-0.000139626346791,0.470568585993,-0.293783507692,1.16518085572,3.14089994446,0.295959627351,2.58598653264,0.00507877981766
5.04,-0.561367726178,0.960925912422,0.0567406527173,0.0826936984948,-0.0530056483511,1.80213967121,-0.000139626346791,0.470568585993,-0.293783507692,1.16518085572,3.14089994446,0.295959627351,2.58598653264,0.00507877981766
5.06,-0.560582293393,0.970909237821,0.0566533884186,0.0700400630823,-0.0566010281748,1.8072884937,-0.000139626346791,0.47113979697,-0.294562752395,1.16328122863,-3.13938014926,0.293462569606,2.58515952075,0.00432026415018
5.08,-0.560582293393,0.970909237821,0.0566533884186,0.0700400630823,-0.0566010281748,1.8072884937,-0.000139626346791,0.47113979697,-0.294562752395,1.16328122863,-3.13938014926,0.293462569606,2.58515952075,0.00432026415018
5.1,-0.559709642083,0.980927384052,0.0564788556598,0.0575609604285,-0.0603883927848,1.81222772542,-0.000139626346791,0.471722949611,-0.295341537789,1.16130352408,-3.13622992048,0.2909680737,2.58432134666,0.00356579338091
5.12,-0.559709642083,0.980927384052,0.0564788556598,0.0575609604285,-0.0603883927848,1.81222772542,-0.000139626346791,0.471722949611,-0.295341537789,1.16130352408,-3.13622992048,0.2909680737,2.58432134666,0.00356579338091
5.14,-0.559709642083,0.980927384052,0.0564788556598,0.0575609604285,-0.0603883927848,1.81222772542,-0.000139626346791,0.471722949611,-0.295341537789,1.16130352408,-3.13622992048,0.2909680737,2.58432134666,0.00356579338091
5.16,-0.558976606993,0.990299846876,0.0559901614386,0.0453960150761,-0.0639488643923,1.81650383002,-0.000139626346791,0.472240225544,-0.296182320014,1.15960667101,-3.13300494987,0.289470790455,2.58329740189,0.00282335664389
5.18,-0.558976606993,0.990299846876,0.0559901614386,0.0453960150761,-0.0639488643923,1.81650383002,-0.000139626346791,0.472240225544,-0.296182320014,1.15960667101,-3.13300494987,0.289470790455,2.58329740189,0.00282335664389
5.2,-0.558208651203,0.998991539147,0.0551698578886,0.0341037335174,-0.0675267880273,1.82125104782,-0.000139626346791,0.472563073599,-0.296929149345,1.15798777046,-3.12945204497,0.287315691181,2.58222726999,0.00212820799881
5.22,-0.558208651203,0.998991539147,0.0551698578886,0.0341037335174,-0.0675267880273,1.82125104782,-0.000139626346791,0.472563073599,-0.296929149345,1.15798777046,-3.12945204497,0.287315691181,2.58222726999,0.00212820799881
5.24,-0.557440695413,1.00792764303,0.0546113513961,0.0227939999312,-0.0705985695748,1.82573661005,-0.000157079625918,0.473006683148,-0.297592429482,1.15623832201,-3.12657874688,0.285197159634,2.58136514425,0.00142742067658
5.26,-0.557440695413,1.00792764303,0.0546113513961,0.0227939999312,-0.0705985695748,1.82573661005,-0.000157079625918,0.473006683148,-0.297592429482,1.15623832201,-3.12657874688,0.285197159634,2.58136514425,0.00142742067658
5.28,-0.557440695413,1.00792764303,0.0546113513961,0.0227939999312,-0.0705985695748,1.82573661005,-0.000157079625918,0.473006683148,-0.297592429482,1.15623832201,-3.12657874688,0.285197159634,2.58136514425,0.00142742067658
5.3,-0.556777468433,1.01611326811,0.0544891788811,0.0128805294553,-0.0738448797198,1.82997769408,-0.000157079625918,0.473365256278,-0.298190545518,1.15448413307,-3.12389774366,0.282682092877,2.58051822822,0.000809134148636
5.32,-0.556777468433,1.01611326811,0.0544891788811,0.0128805294553,-0.0738448797198,1.82997769408,-0.000157079625918,0.473365256278,-0.298190545518,1.15448413307,-3.12389774366,0.282682092877,2.58051822822,0.000809134148636
5.34,-0.556079354043,1.02386246767,0.0544542706649,0.00293215310382,-0.0766723162372,1.83346843248,-0.000174532921298,0.473813056448,-0.298721561426,1.15300996955,-3.12166736773,0.281388044451,2.57985039214,0.00018474182638
5.36,-0.556079354043,1.02386246767,0.0544542706649,0.00293215310382,-0.0766723162372,1.83346843248,-0.000174532921298,0.473813056448,-0.298721561426,1.15300996955,-3.12166736773,0.281388044451,2.57985039214,0.00018474182638
5.38,-0.555468491468,1.0315594027,0.0543670063661,-0.00717330345872,-0.0797091854073,1.83760485429,-0.000174532921298,0.474101963269,-0.299261513872,1.1515742571,-3.11922490012,0.279661018404,2.57896313913,0.000453171567243
5.4,-0.555468491468,1.0315594027,0.0543670063661,-0.00717330345872,-0.0797091854073,1.83760485429,-0.000174532921298,0.474101963269,-0.299261513872,1.1515742571,-3.11922490012,0.279661018404,2.57896313913,0.000453171567243
5.42,-0.555468491468,1.0315594027,0.0543670063661,-0.00717330345872,-0.0797091854073,1.83760485429,-0.000174532921298,0.474101963269,-0.299261513872,1.1515742571,-3.11922490012,0.279661018404,2.57896313913,0.000453171567243
5.44,-0.554875072598,1.0381392748,0.0543670063661,-0.0151320043318,-0.0822573645173,1.84072900856,-0.000174532921298,0.474427928927,-0.299689231795,1.15015343912,-3.11722348921,0.277918391566,2.57833990306,0.000958262018074
5.46,-0.554875072598,1.0381392748,0.0543670063661,-0.0151320043318,-0.0822573645173,1.84072900856,-0.000174532921298,0.474427928927,-0.299689231795,1.15015343912,-3.11722348921,0.277918391566,2.57833990306,0.000958262018074
5.48,-0.554525998758,1.04457953069,0.0542797379061,-0.0242426243255,-0.0849277244647,1.84395782507,-0.000174532921298,0.474618794441,-0.30025165229,1.14914878085,-3.11508549172,0.2773636271,2.57733142132,0.00153850065199
5.5,-0.554525998758,1.04457953069,0.0542797379061,-0.0242426243255,-0.0849277244647,1.84395782507,-0.000174532921298,0.474618794441,-0.30025165229,1.14914878085,-3.11508549172,0.2773636271,2.57733142132,0.00153850065199
5.52,-0.553740599263,1.05100234287,0.0541750215798,-0.0317475391936,-0.0873013666548,1.84687252172,-0.000174532921298,0.47500024451,-0.300562249337,1.14767728824,-3.11313497394,0.27553717423,2.57692497548,0.00201943433187
5.54,-0.553740599263,1.05100234287,0.0541750215798,-0.0317475391936,-0.0873013666548,1.84687252172,-0.000174532921298,0.47500024451,-0.300562249337,1.14767728824,-3.11313497394,0.27553717423,2.57692497548,0.00201943433187
5.56,-0.553740599263,1.05100234287,0.0541750215798,-0.0317475391936,-0.0873013666548,1.84687252172,-0.000174532921298,0.47500024451,-0.300562249337,1.14767728824,-3.11313497394,0.27553717423,2.57692497548,0.00201943433187
5.58,-0.553164657388,1.0563605564,0.0541401133636,-0.0382576156724,-0.0892561352172,1.84975233097,-0.000174532921298,0.475231887087,-0.300807373096,1.14649968192,-3.11159310203,0.27381451802,2.57648950644,0.00243777498361
5.6,-0.553164657388,1.0563605564,0.0541401133636,-0.0382576156724,-0.0892561352172,1.84975233097,-0.000174532921298,0.475231887087,-0.300807373096,1.14649968192,-3.11159310203,0.27381451802,2.57648950644,0.00243777498361
5.62,-0.553007564173,1.06133474211,0.0541052051473,-0.0453087466161,-0.0913156242672,1.85224811238,-0.000191986216679,0.475327286363,-0.301274099121,1.14571514969,-3.10998005231,0.27340107508,2.57559282234,0.00289153194855
5.64,-0.553007564173,1.06133474211,0.0541052051473,-0.0453087466161,-0.0913156242672,1.85224811238,-0.000191986216679,0.475327286363,-0.301274099121,1.14571514969,-3.10998005231,0.27340107508,2.57559282234,0.00289153194855
5.66,-0.552780696138,1.06594241027,0.0540353928761,-0.0509461593011,-0.0930085957722,1.85434255542,-0.000191986216679,0.475483278842,-0.301644864086,1.14472598031,-3.10861005553,0.272342897874,2.57493124648,0.00325632082204
5.68,-0.552780696138,1.06594241027,0.0540353928761,-0.0509461593011,-0.0930085957722,1.85434255542,-0.000191986216679,0.475483278842,-0.301644864086,1.14472598031,-3.10861005553,0.272342897874,2.57493124648,0.00325632082204
5.7,-0.552780696138,1.06594241027,0.0540353928761,-0.0509461593011,-0.0930085957722,1.85434255542,-0.000191986216679,0.475483278842,-0.301644864086,1.14472598031,-3.10861005553,0.272342897874,2.57493124648,0.00325632082204
5.72,-0.552291972788,1.07014860689,0.0539481285773,-0.056304322901,-0.0946666548997,1.85662887922,-0.00020943951206,0.47564209528,-0.301834451228,1.14386780062,-3.10724772685,0.271215779499,2.5745575292,0.00360334219459
5.74,-0.552291972788,1.07014860689,0.0539481285773,-0.056304322901,-0.0946666548997,1.85662887922,-0.00020943951206,0.47564209528,-0.301834451228,1.14386780062,-3.10724772685,0.271215779499,2.5745575292,0.00360334219459
5.76,-0.551733474618,1.0735345499,0.0538084998736,-0.0603185805135,-0.0960280129147,1.85804261828,-0.00020943951206,0.475868910973,-0.301951449432,1.14310590097,-3.1060525168,0.27043878035,2.57441175803,0.00386467124358
5.78,-0.551733474618,1.0735345499,0.0538084998736,-0.0603185805135,-0.0960280129147,1.85804261828,-0.00020943951206,0.475868910973,-0.301951449432,1.14310590097,-3.1060525168,0.27043878035,2.57441175803,0.00386467124358
5.8,-0.551576414693,1.07669359159,0.0535641548436,-0.0643153819373,-0.0971799299547,1.85996249111,-0.000226892807441,0.475885887639,-0.30218023287,1.14244198351,-3.10494986085,0.26936478174,2.57389826716,0.00412431932457
5.82,-0.551576414693,1.07669359159,0.0535641548436,-0.0643153819373,-0.0971799299547,1.85996249111,-0.000226892807441,0.475885887639,-0.30218023287,1.14244198351,-3.10494986085,0.26936478174,2.57389826716,0.00412431932457
5.84,-0.551576414693,1.07669359159,0.0535641548436,-0.0643153819373,-0.0971799299547,1.85996249111,-0.000226892807441,0.475885887639,-0.30218023287,1.14244198351,-3.10494986085,0.26936478174,2.57389826716,0.00412431932457
5.86,-0.551401877773,1.07904982336,0.0532150893261,-0.0675966002986,-0.0981398663696,1.86127143479,-0.000226892807441,0.475908173371,-0.302371197707,1.14204307614,-3.10390196283,0.268990602295,2.57347632466,0.00433752404813
5.88,-0.551401877773,1.07904982336,0.0532150893261,-0.0675966002986,-0.0981398663696,1.86127143479,-0.000226892807441,0.475908173371,-0.302371197707,1.14204307614,-3.10390196283,0.268990602295,2.57347632466,0.00433752404813
5.9,-0.551297148963,1.08088241109,0.0524296898311,-0.0700051590272,-0.0987332769172,1.86233616659,-0.000244346102821,0.4758823847,-0.302568644372,1.14169033669,-3.10274090771,0.268515629421,2.57306961893,0.00449430345509
5.92,-0.551297148963,1.08088241109,0.0524296898311,-0.0700051590272,-0.0987332769172,1.86233616659,-0.000244346102821,0.4758823847,-0.302568644372,1.14169033669,-3.10274090771,0.268515629421,2.57306961893,0.00449430345509
5.94,-0.551227340853,1.08220886505,0.0520457202586,-0.0721170041598,-0.0992219669772,1.86259795533,-0.000244346102821,0.475939852788,-0.302749189952,1.14156679522,-3.10203080341,0.269046824489,2.57278066759,0.00463203411303
5.96,-0.551227340853,1.08220886505,0.0520457202586,-0.0721170041598,-0.0992219669772,1.86259795533,-0.000244346102821,0.475939852788,-0.302749189952,1.14156679522,-3.10203080341,0.269046824489,2.57278066759,0.00463203411303
5.98,-0.551227340853,1.08220886505,0.0520457202586,-0.0721170041598,-0.0992219669772,1.86259795533,-0.000244346102821,0.475939852788,-0.302749189952,1.14156679522,-3.10203080341,0.269046824489,2.57278066759,0.00463203411303
6.0,-0.551227340853,1.08301167496,0.0515744780649,-0.0733038252548,-0.0994837640347,1.86273750497,-0.000261799381947,0.475948833603,-0.302902770616,1.14146716287,-3.10140285184,0.26929884553,2.57254457377,0.00470964569273
6.02,-0.551227340853,1.08301167496,0.0515744780649,-0.0733038252548,-0.0994837640347,1.86273750497,-0.000261799381947,0.475948833603,-0.302902770616,1.14146716287,-3.10140285184,0.26929884553,2.57254457377,0.00470964569273
6.04,-0.551157532743,1.08325608657,0.0515221178211,-0.0736528907723,-0.0995012243846,1.86282485665,-0.000261799381947,0.475979283923,-0.302892667836,1.14143003797,-3.10135119963,0.269316610683,2.57257503214,0.0047324411358
6.06,-0.551157532743,1.08325608657,0.0515221178211,-0.0736528907723,-0.0995012243846,1.86282485665,-0.000261799381947,0.475979283923,-0.302892667836,1.14143003797,-3.10135119963,0.269316610683,2.57257503214,0.0047324411358
6.08,-0.551174976448,1.08323857628,0.0514697575774,-0.0738448797198,-0.0995361284397,1.86292951888,-0.000261799381947,0.475949526269,-0.302904097711,1.14149310615,-3.10128243769,0.269422384812,2.57251999714,0.00474450612504
6.1,-0.551174976448,1.08323857628,0.0514697575774,-0.0738448797198,-0.0995361284397,1.86292951888,-0.000261799381947,0.475949526269,-0.302904097711,1.14149310615,-3.10128243769,0.269422384812,2.57251999714,0.00474450612504
6.12,-0.551174976448,1.08323857628,0.0514697575774,-0.0738448797198,-0.0995361284397,1.86292951888,-0.000261799381947,0.475949526269,-0.302904097711,1.14149310615,-3.10128243769,0.269422384812,2.57251999714,0.00474450612504
6.14,-0.551140055748,1.08329097398,0.0514348535223,-0.0738448797198,-0.0995361284397,1.86296440629,-0.000261799381947,0.475958632038,-0.302892336848,1.14146224184,-3.10124987603,0.269335688497,2.57254587954,0.00474459717238
6.16,-0.551140055748,1.08329097398,0.0514348535223,-0.0738448797198,-0.0995361284397,1.86296440629,-0.000261799381947,0.475958632038,-0.302892336848,1.14146224184,-3.10124987603,0.269335688497,2.57254587954,0.00474459717238
6.18,-0.551157532743,1.08327353027,0.0514174014948,-0.0738448797198,-0.0995535804672,1.86298185,-0.000261799381947,0.475945972411,-0.302902340502,1.14147153865,-3.10121908016,0.269336174514,2.57251845591,0.00474452812537
6.2,-0.551157532743,1.08327353027,0.0514174014948,-0.0738448797198,-0.0995535804672,1.86298185,-0.000261799381947,0.475945972411,-0.302902340502,1.14147153865,-3.10121908016,0.269336174514,2.57251845591,0.00474452812537
6.22,-0.551140055748,1.08332586139,0.0513999453061,-0.0738448797198,-0.0995535804672,1.8629992937,-0.000279252693583,0.475953567417,-0.302898319649,1.14144136597,-3.10119749695,0.269265993863,2.57254963144,0.00474464220874
6.24,-0.551140055748,1.08332586139,0.0513999453061,-0.0738448797198,-0.0995535804672,1.8629992937,-0.000279252693583,0.475953567417,-0.302898319649,1.14144136597,-3.10119749695,0.269265993863,2.57254963144,0.00474464220874
6.26,-0.551140055748,1.08332586139,0.0513999453061,-0.0738448797198,-0.0995535804672,1.8629992937,-0.000279252693583,0.475953567417,-0.302898319649,1.14144136597,-3.10119749695,0.269265993863,2.57254963144,0.00474464220874
6.28,-0.551122612043,1.08332586139,0.0513650412511,-0.0738448797198,-0.0995535804672,1.86301673741,-0.000279252693583,0.475953694721,-0.302892672945,1.14144084886,-3.1011657103,0.269249116602,2.57255850406,0.00474461893758
6.3,-0.551122612043,1.08332586139,0.0513650412511,-0.0738448797198,-0.0995535804672,1.86301673741,-0.000279252693583,0.475953694721,-0.302892672945,1.14144084886,-3.1011657103,0.269249116602,2.57255850406,0.00474461893758
6.32,-0.551140055748,1.08332586139,0.0513475850624,-0.0738448797198,-0.0995710324947,1.86301673741,-0.000279252693583,0.475945480372,-0.302905448589,1.14144109538,-3.10113438762,0.269249591515,2.57253192787,0.00474461885026
6.34,-0.551140055748,1.08332586139,0.0513475850624,-0.0738448797198,-0.0995710324947,1.86301673741,-0.000279252693583,0.475945480372,-0.302905448589,1.14144109538,-3.10113438762,0.269249591515,2.57253192787,0.00474461885026
6.36,-0.551105168338,1.08332586139,0.0513475850624,-0.0738448797198,-0.0995535804672,1.86301673741,-0.000279252693583,0.475957603603,-0.30288646934,1.14144098484,-3.10114971352,0.269249392865,2.57257202669,0.00474461889731
6.38,-0.551105168338,1.08332586139,0.0513475850624,-0.0738448797198,-0.0995535804672,1.86301673741,-0.000279252693583,0.475957603603,-0.30288646934,1.14144098484,-3.10114971352,0.269249392865,2.57257202669,0.00474461889731
6.4,-0.551105168338,1.08332586139,0.0513475850624,-0.0738448797198,-0.0995535804672,1.86301673741,-0.000279252693583,0.475957603603,-0.30288646934,1.14144098484,-3.10114971352,0.269249392865,2.57257202669,0.00474461889731
6.42,-0.551105168338,1.08330841768,0.0513301330348,-0.0738448797198,-0.0991346985172,1.86301673741,-0.000279252693583,0.475991541061,-0.302830323034,1.14144831899,-3.10150189344,0.269262363272,2.57269310535,0.00474457421491
6.44,-0.551105168338,1.08330841768,0.0513301330348,-0.0738448797198,-0.0991346985172,1.86301673741,-0.000279252693583,0.475991541061,-0.302830323034,1.14144831899,-3.10150189344,0.269262363272,2.57269310535,0.00474457421491
6.46,-0.551105168338,1.08332586139,0.0513475850624,-0.0738448797198,-0.0976511679872,1.86301673741,-0.000279252693583,0.476127085813,-0.302627528366,1.14142918638,-3.10282036226,0.269228200101,2.57314012908,0.00474462397729
6.48,-0.551105168338,1.08332586139,0.0513475850624,-0.0738448797198,-0.0976511679872,1.86301673741,-0.000279252693583,0.476127085813,-0.302627528366,1.14142918638,-3.10282036226,0.269228200101,2.57314012908,0.00474462397729
6.5,-0.551105168338,1.08332586139,0.0513301330348,-0.0738623317473,-0.0952251613922,1.86301673741,-0.000296705988964,0.476341410401,-0.302299384413,1.14142019756,-3.10493075153,0.269219538151,2.57387782118,0.00474574380231
6.52,-0.551105168338,1.08332586139,0.0513301330348,-0.0738623317473,-0.0952251613922,1.86301673741,-0.000296705988964,0.476341410401,-0.302299384413,1.14142019756,-3.10493075153,0.269219538151,2.57387782118,0.00474574380231
6.54,-0.551105168338,1.08332586139,0.0513301330348,-0.0738623317473,-0.0952251613922,1.86301673741,-0.000296705988964,0.476341410401,-0.302299384413,1.14142019756,-3.10493075153,0.269219538151,2.57387782118,0.00474574380231
6.56,-0.551087724633,1.08332586139,0.0513475850624,-0.0738448797198,-0.0931482203147,1.86301673741,-0.000296705988964,0.47653250569,-0.302005566621,1.14140324559,-3.10676993113,0.269181075818,2.57452047437,0.00474463561212
6.58,-0.551087724633,1.08332586139,0.0513475850624,-0.0738448797198,-0.0931482203147,1.86301673741,-0.000296705988964,0.47653250569,-0.302005566621,1.14140324559,-3.10676993113,0.269181075818,2.57452047437,0.00474463561212
6.6,-0.551105168338,1.08332586139,0.0513475850624,-0.0738623317473,-0.0905127727447,1.86301673741,-0.000296705988964,0.476760708849,-0.301654480548,1.14139456802,-3.10908503447,0.269173690205,2.57528920663,0.00474575570222
6.62,-0.551105168338,1.08332586139,0.0513475850624,-0.0738623317473,-0.0905127727447,1.86301673741,-0.000296705988964,0.476760708849,-0.301654480548,1.14139456802,-3.10908503447,0.269173690205,2.57528920663,0.00474575570222
6.64,-0.551070247638,1.08334330509,0.0513475850624,-0.0738448797198,-0.0893783077323,1.86301673741,-0.000296705988964,0.476873709896,-0.301483921015,1.14137383458,-3.11008031979,0.269128690305,2.57566403761,0.00474469069968
6.66,-0.551070247638,1.08334330509,0.0513475850624,-0.0738448797198,-0.0893783077323,1.86301673741,-0.000296705988964,0.476873709896,-0.301483921015,1.14137383458,-3.11008031979,0.269128690305,2.57566403761,0.00474469069968
6.68,-0.551070247638,1.08334330509,0.0513475850624,-0.0738448797198,-0.0893783077323,1.86301673741,-0.000296705988964,0.476873709896,-0.301483921015,1.14137383458,-3.11008031979,0.269128690305,2.57566403761,0.00474469069968
6.7,-0.551035360228,1.0833607488,0.0513301330348,-0.0738448797198,-0.0890816066197,1.86301673741,-0.000296705988964,0.476911126073,-0.301430107299,1.14136264646,-3.1103246177,0.269108878634,2.5757836986,0.00474473714305
6.72,-0.551035360228,1.0833607488,0.0513301330348,-0.0738448797198,-0.0890816066197,1.86301673741,-0.000296705988964,0.476911126073,-0.301430107299,1.14136264646,-3.1103246177,0.269108878634,2.5757836986,0.00474473714305
6.74,-0.551052803933,1.08337825908,0.0513301330348,-0.0738448797198,-0.0889419820772,1.86301673741,-0.000296705988964,0.476920246302,-0.301420602784,1.14135208629,-3.11044696714,0.269090154879,2.57580803167,0.00474478341939
6.76,-0.551052803933,1.08337825908,0.0513301330348,-0.0738448797198,-0.0889419820772,1.86301673741,-0.000296705988964,0.476920246302,-0.301420602784,1.14135208629,-3.11044696714,0.269090154879,2.57580803167,0.00474478341939
6.78,-0.551035360228,1.08341314649,0.0513301330348,-0.0738623317473,-0.0887674451572,1.86301673741,-0.000296705988964,0.476944919076,-0.301391164396,1.14133676579,-3.11060041397,0.269071179888,2.57587677312,0.00474598895762
6.8,-0.551035360228,1.08341314649,0.0513301330348,-0.0738623317473,-0.0887674451572,1.86301673741,-0.000296705988964,0.476944919076,-0.301391164396,1.14133676579,-3.11060041397,0.269071179888,2.57587677312,0.00474598895762
6.82,-0.551035360228,1.08341314649,0.0513301330348,-0.0738623317473,-0.0887674451572,1.86301673741,-0.000296705988964,0.476944919076,-0.301391164396,1.14133676579,-3.11060041397,0.269071179888,2.57587677312,0.00474598895762
6.84,-0.551035360228,1.08346547761,0.0513301330348,-0.0738623317473,-0.0885754562098,1.86301673741,-0.000314159251835,0.476967965566,-0.301368668801,1.14130631442,-3.11076341571,0.269016661762,2.57595242666,0.0047461267302
6.86,-0.551035360228,1.08346547761,0.0513301330348,-0.0738623317473,-0.0885754562098,1.86301673741,-0.000314159251835,0.476967965566,-0.301368668801,1.14130631442,-3.11076341571,0.269016661762,2.57595242666,0.0047461267302
6.88,-0.551052803933,1.0835004316,0.0513301330348,-0.0738448797198,-0.0884881960722,1.86301673741,-0.000296705988964,0.476974544564,-0.301367325347,1.14128096467,-3.11084363077,0.268964079383,2.5759440688,0.00474510499917
6.9,-0.551052803933,1.0835004316,0.0513301330348,-0.0738448797198,-0.0884881960722,1.86301673741,-0.000296705988964,0.476974544564,-0.301367325347,1.14128096467,-3.11084363077,0.268964079383,2.5759440688,0.00474510499917
6.92,-0.551052803933,1.08374477663,0.0513301330348,-0.0738623317473,-0.0884183796397,1.86301673741,-0.000296705988964,0.477009005735,-0.301375448304,1.14114798469,-3.11090195033,0.268736583483,2.5759649268,0.0047468597379
6.94,-0.551052803933,1.08374477663,0.0513301330348,-0.0738623317473,-0.0884183796397,1.86301673741,-0.000296705988964,0.477009005735,-0.301375448304,1.14114798469,-3.11090195033,0.268736583483,2.5759649268,0.0047468597379
6.96,-0.551052803933,1.08374477663,0.0513301330348,-0.0738623317473,-0.0884183796397,1.86301673741,-0.000296705988964,0.477009005735,-0.301375448304,1.14114798469,-3.11090195033,0.268736583483,2.5759649268,0.0047468597379
6.98,-0.551035360228,1.08493154779,0.0513126810073,-0.0739146961522,-0.0882787550972,1.86305175798,-0.000296705988964,0.477157534764,-0.301432183517,1.14049181426,-3.1109930926,0.267566237242,2.57602085272,0.00475326649242
7.0,-0.551035360228,1.08493154779,0.0513126810073,-0.0739146961522,-0.0882787550972,1.86305175798,-0.000296705988964,0.477157534764,-0.301432183517,1.14049181426,-3.1109930926,0.267566237242,2.57602085272,0.00475326649242
7.02,-0.551000439528,1.08828260339,0.0513301330348,-0.0739496002073,-0.0880867661497,1.86301673741,-0.000314159251835,0.477575284167,-0.301626801497,1.13861083276,-3.11112389729,0.264282990916,2.57614745721,0.00476429586128
7.04,-0.551000439528,1.08828260339,0.0513301330348,-0.0739496002073,-0.0880867661497,1.86301673741,-0.000314159251835,0.477575284167,-0.301626801497,1.13861083276,-3.11112389729,0.264282990916,2.57614745721,0.00476429586128
7.06,-0.551017883233,1.09391998278,0.0513301330348,-0.0738623317473,-0.0879471416072,1.86305175798,-0.000314159251835,0.47821167189,-0.302001291697,1.13539645063,-3.1111596073,0.258522895155,2.57619712611,0.00477325217033
7.08,-0.551017883233,1.09391998278,0.0513301330348,-0.0738623317473,-0.0879471416072,1.86305175798,-0.000314159251835,0.47821167189,-0.302001291697,1.13539645063,-3.1111596073,0.258522895155,2.57619712611,0.00477325217033
7.1,-0.551017883233,1.09391998278,0.0513301330348,-0.0738623317473,-0.0879471416072,1.86305175798,-0.000314159251835,0.47821167189,-0.302001291697,1.13539645063,-3.1111596073,0.258522895155,2.57619712611,0.00477325217033
7.12,-0.551000439528,1.09988905889,0.0513301330348,-0.0738797837748,-0.0876853445497,1.8629992937,-0.000314159251835,0.47890190585,-0.302364285691,1.13202454193,-3.11130246721,0.252622082329,2.57631551107,0.00478972700775
7.14,-0.551000439528,1.09988905889,0.0513301330348,-0.0738797837748,-0.0876853445497,1.8629992937,-0.000314159251835,0.47890190585,-0.302364285691,1.13202454193,-3.11130246721,0.252622082329,2.57631551107,0.00478972700775
7.16,-0.551017883233,1.10741142371,0.0513301330348,-0.0739845042623,-0.0876155281172,1.86301673741,-0.000331612547216,0.479701044217,-0.302855230394,1.12779107644,-3.11125337982,0.245186465664,2.57635771303,0.0048154942067
7.18,-0.551017883233,1.10741142371,0.0513301330348,-0.0739845042623,-0.0876155281172,1.86301673741,-0.000331612547216,0.479701044217,-0.302855230394,1.12779107644,-3.11125337982,0.245186465664,2.57635771303,0.0048154942067
7.2,-0.550930631418,1.1189131504,0.0513301330348,-0.0737227072048,-0.0873711830872,1.86306920168,-0.000331612547216,0.48091164498,-0.303489980796,1.12117729279,-3.11129311619,0.233370052386,2.57656987519,0.0048269834961
7.22,-0.550930631418,1.1189131504,0.0513301330348,-0.0737227072048,-0.0873711830872,1.86306920168,-0.000331612547216,0.48091164498,-0.303489980796,1.12117729279,-3.11129311619,0.233370052386,2.57656987519,0.0048269834961
7.24,-0.551070247638,1.12662752913,0.0513126810073,-0.0737227072048,-0.0871617421122,1.86305175798,-0.000331612547216,0.48091164498,-0.303489980796,1.12117729279,-3.11129311619,0.233370052386,2.57656987519,0.0048269834961
7.26,-0.551070247638,1.12662752913,0.0513126810073,-0.0737227072048,-0.0871617421122,1.86305175798,-0.000331612547216,0.481637943902,-0.303992533665,1.11678704968,-3.1113519986,0.225672331902,2.57651418239,0.00484575933477
7.28,-0.551070247638,1.12662752913,0.0513126810073,-0.0737227072048,-0.0871617421122,1.86305175798,-0.000331612547216,0.481637943902,-0.303992533665,1.11678704968,-3.1113519986,0.225672331902,2.57651418239,0.00484575933477
7.3,-0.551070247638,1.13092094428,0.0513126810073,-0.0739670522348,-0.0871268380572,1.86287718777,-0.000331612547216,0.482071921536,-0.304256927638,1.11442006351,-3.11132923552,0.221797459277,2.57653025553,0.00487230887644
7.32,-0.551070247638,1.13092094428,0.0513126810073,-0.0739670522348,-0.0871268380572,1.86287718777,-0.000331612547216,0.482071921536,-0.304256927638,1.11442006351,-3.11132923552,0.221797459277,2.57653025553,0.00487230887644
7.34,-0.550633921983,1.13708203431,0.0513475850624,-0.0738448797198,-0.0868475806498,1.86018939244,-0.000314159251835,0.483172909375,-0.304587350768,1.11096644934,-3.11150396649,0.218199331145,2.57714729566,0.00488263185095
7.36,-0.550633921983,1.13708203431,0.0513475850624,-0.0738448797198,-0.0868475806498,1.86018939244,-0.000314159251835,0.483172909375,-0.304587350768,1.11096644934,-3.11150396649,0.218199331145,2.57714729566,0.00488263185095
7.38,-0.550948075123,1.14331289915,0.0513126810073,-0.0739146961522,-0.0867952245672,1.84945565482,-0.000331612547216,0.483172909375,-0.304587350768,1.11096644934,-3.11150396649,0.218199331145,2.57714729566,0.00488263185095
7.4,-0.550948075123,1.14331289915,0.0513126810073,-0.0739146961522,-0.0867952245672,1.84945565482,-0.000331612547216,0.485137969275,-0.306031437467,1.1078201982,-3.11135401,0.222767076255,2.57720556304,0.00491619313856
7.42,-0.550948075123,1.14331289915,0.0513126810073,-0.0739146961522,-0.0867952245672,1.84945565482,-0.000331612547216,0.485137969275,-0.306031437467,1.1078201982,-3.11135401,0.222767076255,2.57720556304,0.00491619313856
7.44,-0.550913187713,1.14956107454,0.0513301330348,-0.0737576112598,-0.0867428601623,1.8424044032,-0.000331612547216,0.48667882557,-0.306957806794,1.10444853345,-3.11127592421,0.22341002781,2.57750492935,0.00492943474445
7.46,-0.550913187713,1.14956107454,0.0513301330348,-0.0737576112598,-0.0867428601623,1.8424044032,-0.000331612547216,0.48667882557,-0.306957806794,1.10444853345,-3.11127592421,0.22341002781,2.57750492935,0.00492943474445
7.48,-0.550878267013,1.15465743276,0.0513126810073,-0.0739321481797,-0.0866556000247,1.84107801582,-0.000331612547216,0.487309727691,-0.307314268226,1.10161627042,-3.11126632946,0.219813660811,2.57760706949,0.00495448252075
7.5,-0.550878267013,1.15465743276,0.0513126810073,-0.0739321481797,-0.0866556000247,1.84107801582,-0.000331612547216,0.487309727691,-0.307314268226,1.10161627042,-3.11126632946,0.219813660811,2.57760706949,0.00495448252075
7.52,-0.550825902608,1.16233692408,0.0513301330348,-0.0738099756647,-0.0864810631047,1.84064165688,-0.000331612547216,0.488019736299,-0.307677667785,1.09716737627,-3.11133075545,0.212447451203,2.577752768,0.00496435464701
7.54,-0.550825902608,1.16233692408,0.0513301330348,-0.0738099756647,-0.0864810631047,1.84064165688,-0.000331612547216,0.488019736299,-0.307677667785,1.09716737627,-3.11133075545,0.212447451203,2.577752768,0.00496435464701
7.56,-0.550825902608,1.16233692408,0.0513301330348,-0.0738099756647,-0.0864810631047,1.84064165688,-0.000331612547216,0.488019736299,-0.307677667785,1.09716737627,-3.11133075545,0.212447451203,2.577752768,0.00496435464701
7.58,-0.550965552118,1.16884702137,0.0513126810073,-0.0739845042623,-0.0860098250722,1.84006574829,-0.000331612547216,0.488601865176,-0.308046576203,1.09348035159,-3.11165782449,0.206684366554,2.5777640721,0.0049913684059
7.6,-0.550965552118,1.16884702137,0.0513126810073,-0.0739845042623,-0.0860098250722,1.84006574829,-0.000331612547216,0.488601865176,-0.308046576203,1.09348035159,-3.11165782449,0.206684366554,2.5777640721,0.0049913684059
7.62,-0.550930631418,1.17710242127,0.0513301330348,-0.0739321481797,-0.0829380435248,1.83992606549,-0.000331612547216,0.489509488911,-0.307986604035,1.08868410649,-3.11436029811,0.198494391866,2.57866414874,0.0050062485405
7.64,-0.550930631418,1.17710242127,0.0513301330348,-0.0739321481797,-0.0829380435248,1.83992606549,-0.000331612547216,0.489509488911,-0.307986604035,1.08868410649,-3.11436029811,0.198494391866,2.57866414874,0.0050062485405
7.66,-0.550738650793,1.18490401853,0.0513475850624,-0.0738448797198,-0.0776846087347,1.83976907215,-0.000331612547216,0.490593919773,-0.307508376811,1.08412762731,-3.11907282842,0.190729865959,2.58030849579,0.00501745653282
7.68,-0.550738650793,1.18490401853,0.0513475850624,-0.0738448797198,-0.0776846087347,1.83976907215,-0.000331612547216,0.490593919773,-0.307508376811,1.08412762731,-3.11907282842,0.190729865959,2.58030849579,0.00501745653282
7.7,-0.550738650793,1.18490401853,0.0513475850624,-0.0738448797198,-0.0776846087347,1.83976907215,-0.000331612547216,0.490593919773,-0.307508376811,1.08412762731,-3.11907282842,0.190729865959,2.58030849579,0.00501745653282
7.72,-0.551017883233,1.19274050319,0.0513126810073,-0.0739670522348,-0.0729547597373,1.83975162844,-0.000349065842597,0.491438746186,-0.30731564612,1.07960993316,-3.12328337161,0.183009044916,2.58132759343,0.00504241631911
7.74,-0.551017883233,1.19274050319,0.0513126810073,-0.0739670522348,-0.0729547597373,1.83975162844,-0.000349065842597,0.491438746186,-0.30731564612,1.07960993316,-3.12328337161,0.183009044916,2.58132759343,0.00504241631911
7.76,-0.550756094498,1.2043644024,0.0513475850624,-0.0737401592323,-0.0693768361023,1.83964683305,-0.000331612547216,0.492549156288,-0.307122161273,1.07279305919,-3.12648869871,0.171249122703,2.58257605082,0.00505125052356
7.78,-0.550756094498,1.2043644024,0.0513475850624,-0.0737401592323,-0.0693768361023,1.83964683305,-0.000331612547216,0.492549156288,-0.307122161273,1.07279305919,-3.12648869871,0.171249122703,2.58257605082,0.00505125052356
7.8,-0.550930631418,1.21248025267,0.0513301330348,-0.0737576112598,-0.0686612530398,1.83961194564,-0.000331612547216,0.493014629758,-0.307392721576,1.06808463892,-3.12706315416,0.163183397957,2.58260160565,0.00506890058834
7.82,-0.550930631418,1.21248025267,0.0513301330348,-0.0737576112598,-0.0686612530398,1.83961194564,-0.000331612547216,0.493014629758,-0.307392721576,1.06808463892,-3.12706315416,0.163183397957,2.58260160565,0.00506890058834
7.84,-0.550930631418,1.21248025267,0.0513301330348,-0.0737576112598,-0.0686612530398,1.83961194564,-0.000331612547216,0.493014629758,-0.307392721576,1.06808463892,-3.12706315416,0.163183397957,2.58260160565,0.00506890058834
7.86,-0.550948075123,1.21715769565,0.0513126810073,-0.0738797837748,-0.0685739845798,1.83954217082,-0.000349065842597,0.493275097274,-0.307552902216,1.06540476019,-3.12708903701,0.158697434218,2.58262263531,0.00508667258477
7.88,-0.550948075123,1.21715769565,0.0513126810073,-0.0738797837748,-0.0685739845798,1.83954217082,-0.000349065842597,0.493275097274,-0.307552902216,1.06540476019,-3.12708903701,0.158697434218,2.58262263531,0.00508667258477
7.9,-0.550773538203,1.22190504661,0.0513475850624,-0.0742463096422,-0.068486720281,1.83945481914,-0.000349065842597,0.493601588015,-0.307617675516,1.06275613121,-3.12717347127,0.154402989473,2.58281560269,0.00512130403398
7.92,-0.550773538203,1.22190504661,0.0513475850624,-0.0742463096422,-0.068486720281,1.83945481914,-0.000349065842597,0.493601588015,-0.307617675516,1.06275613121,-3.12717347127,0.154402989473,2.58281560269,0.00512130403398
7.94,-0.550860823308,1.22543053926,0.0513301330348,-0.0753458622773,-0.0684692682535,1.83936760061,-0.000349065842597,0.493792474817,-0.307811899153,1.06103647394,-3.12717245535,0.152062805161,2.58267785955,0.00520392269887
7.96,-0.550860823308,1.22543053926,0.0513301330348,-0.0753458622773,-0.0684692682535,1.83936760061,-0.000349065842597,0.493792474817,-0.307811899153,1.06103647394,-3.12717245535,0.152062805161,2.58267785955,0.00520392269887
7.98,-0.550860823308,1.22543053926,0.0513301330348,-0.0753458622773,-0.0684692682535,1.83936760061,-0.000349065842597,0.493792474817,-0.307811899153,1.06103647394,-3.12717245535,0.152062805161,2.58267785955,0.00520392269887
8.0,-0.551052803933,1.22968920016,0.0513126810073,-0.0810181873397,-0.068486720281,1.83943737543,-0.000349065842597,0.494099625351,-0.308229102792,1.06025262023,-3.12725064249,0.153398578117,2.58218597466,0.00560265132205
8.02,-0.551052803933,1.22968920016,0.0513126810073,-0.0810181873397,-0.068486720281,1.83943737543,-0.000349065842597,0.494099625351,-0.308229102792,1.06025262023,-3.12725064249,0.153398578117,2.58218597466,0.00560265132205
8.04,-0.550773538203,1.2363911782,0.0513301330348,-0.0904429646347,-0.0683994518211,1.84273609992,-0.000366519137977,0.494326765901,-0.308304124996,1.05908072517,-3.127539201,0.152808408827,2.58197784898,0.00626108684028
8.06,-0.550773538203,1.2363911782,0.0513301330348,-0.0904429646347,-0.0683994518211,1.84273609992,-0.000366519137977,0.494326765901,-0.308304124996,1.05908072517,-3.127539201,0.152808408827,2.58197784898,0.00626108684028
8.08,-0.551035360228,1.24365175428,0.0512952248186,-0.10396925968,-0.0684518120648,1.8498569932,-0.000366519137977,0.493960241575,-0.308478668946,1.05870266268,-3.12776188643,0.151934257467,2.58089527834,0.0071971416137
8.1,-0.551035360228,1.24365175428,0.0512952248186,-0.10396925968,-0.0684518120648,1.8498569932,-0.000366519137977,0.493960241575,-0.308478668946,1.05870266268,-3.12776188643,0.151934257467,2.58089527834,0.0071971416137
8.12,-0.551035360228,1.24365175428,0.0512952248186,-0.10396925968,-0.0684518120648,1.8498569932,-0.000366519137977,0.493960241575,-0.308478668946,1.05870266268,-3.12776188643,0.151934257467,2.58089527834,0.0071971416137
8.14,-0.550948075123,1.25548511111,0.0513126810073,-0.122696650077,-0.0684169080098,1.85936900566,-0.000366519137977,0.493699164239,-0.308532749503,1.05713457524,-3.12821136733,0.149288777835,2.57989665957,0.00849771629219
8.16,-0.550948075123,1.25548511111,0.0513126810073,-0.122696650077,-0.0684169080098,1.85936900566,-0.000366519137977,0.493699164239,-0.308532749503,1.05713457524,-3.12821136733,0.149288777835,2.57989665957,0.00849771629219
8.18,-0.550913187713,1.26998881956,0.0512952248186,-0.150447379525,-0.068364547766,1.87254632674,-0.000366519137977,0.493197417301,-0.308613728984,1.05656475382,-3.12886368345,0.149317236159,2.57832624939,0.0104145289953
8.2,-0.550913187713,1.26998881956,0.0512952248186,-0.150447379525,-0.068364547766,1.87254632674,-0.000366519137977,0.493197417301,-0.308613728984,1.05656475382,-3.12886368345,0.149317236159,2.57832624939,0.0104145289953
8.22,-0.550895710718,1.29683201861,0.0513301330348,-0.197815611029,-0.068364547766,1.88891744375,-0.000383972433358,0.493071448359,-0.309250820481,1.05443966711,-3.12991119052,0.153398027171,2.57568652972,0.0137010820722
8.24,-0.550895710718,1.29683201861,0.0513301330348,-0.197815611029,-0.068364547766,1.88891744375,-0.000383972433358,0.493071448359,-0.309250820481,1.05443966711,-3.12991119052,0.153398027171,2.57568652972,0.0137010820722
8.26,-0.550895710718,1.29683201861,0.0513301330348,-0.197815611029,-0.068364547766,1.88891744375,-0.000383972433358,0.493071448359,-0.309250820481,1.05443966711,-3.12991119052,0.153398027171,2.57568652972,0.0137010820722
8.28,-0.551035360228,1.31639719787,0.0513126810073,-0.231675007839,-0.0683470915773,1.90312447606,-0.000383972433358,0.49242641507,-0.30946198182,1.05256614569,-3.13062945121,0.153432691175,2.57360581881,0.0160311295985
8.3,-0.551035360228,1.31639719787,0.0513126810073,-0.231675007839,-0.0683470915773,1.90312447606,-0.000383972433358,0.49242641507,-0.30946198182,1.05256614569,-3.13062945121,0.153432691175,2.57360581881,0.0160311295985
8.32,-0.551000439528,1.32950461097,0.0512952248186,-0.256650665174,-0.0683121875223,1.91143220708,-0.000401425728739,0.492160199255,-0.309654325043,1.05197422903,-3.13118721055,0.15695343454,2.57225513243,0.0177428336392
8.34,-0.551000439528,1.32950461097,0.0512952248186,-0.256650665174,-0.0683121875223,1.91143220708,-0.000401425728739,0.492160199255,-0.309654325043,1.05197422903,-3.13118721055,0.15695343454,2.57225513243,0.0177428336392
8.36,-0.550651365688,1.34280390482,0.0513126810073,-0.277489900704,-0.067910761761,1.91698236795,-0.000401425728739,0.492301505703,-0.309751115891,1.05011986314,-3.13196684895,0.158908537343,2.57158465251,0.0191845738226
8.38,-0.550651365688,1.34280390482,0.0513126810073,-0.277489900704,-0.067910761761,1.91698236795,-0.000401425728739,0.492301505703,-0.309751115891,1.05011986314,-3.13196684895,0.158908537343,2.57158465251,0.0191845738226
8.4,-0.550651365688,1.34280390482,0.0513126810073,-0.277489900704,-0.067910761761,1.91698236795,-0.000401425728739,0.492301505703,-0.309751115891,1.05011986314,-3.13196684895,0.158908537343,2.57158465251,0.0191845738226
8.42,-0.550878267013,1.35016927629,0.0513126810073,-0.289707218784,-0.0675616962435,1.91853578981,-0.00041887902412,0.492457311856,-0.310133924819,1.04932096413,-3.1325133337,0.16218624602,2.5708320947,0.0200341786111
8.44,-0.550878267013,1.35016927629,0.0513126810073,-0.289707218784,-0.0675616962435,1.91853578981,-0.00041887902412,0.492457311856,-0.310133924819,1.04932096413,-3.1325133337,0.16218624602,2.5708320947,0.0200341786111
8.46,-0.550930631418,1.35737752125,0.0513126810073,-0.299376324464,-0.0673522552685,1.91884990966,-0.00041887902412,0.492780552702,-0.310489498351,1.04790757916,-3.13285713438,0.164317078282,2.57033927056,0.0207188617861
8.48,-0.550930631418,1.35737752125,0.0513126810073,-0.299376324464,-0.0673522552685,1.91884990966,-0.00041887902412,0.492780552702,-0.310489498351,1.04790757916,-3.13285713438,0.164317078282,2.57033927056,0.0207188617861
8.5,-0.550686286388,1.36301490065,0.0513126810073,-0.305135909664,-0.0665319517185,1.91930371231,-0.00041887902412,0.493122057008,-0.310473109188,1.04627279867,-3.13364758026,0.163974625386,2.57056404583,0.0211329516434
8.52,-0.550686286388,1.36301490065,0.0513126810073,-0.305135909664,-0.0665319517185,1.91930371231,-0.00041887902412,0.493122057008,-0.310473109188,1.04627279867,-3.13364758026,0.163974625386,2.57056404583,0.0211329516434
8.54,-0.550686286388,1.36301490065,0.0513126810073,-0.305135909664,-0.0665319517185,1.91930371231,-0.00041887902412,0.493122057008,-0.310473109188,1.04627279867,-3.13364758026,0.163974625386,2.57056404583,0.0211329516434
8.56,-0.550948075123,1.36655783701,0.0512952248186,-0.308085527019,-0.0653276744348,1.92096179641,-0.000401425728739,0.493062158796,-0.31043398628,1.04501262323,-3.13471876119,0.161716768479,2.57053790746,0.0213406115297
8.58,-0.550948075123,1.36655783701,0.0512952248186,-0.308085527019,-0.0653276744348,1.92096179641,-0.000401425728739,0.493062158796,-0.31043398628,1.04501262323,-3.13471876119,0.161716768479,2.57053790746,0.0213406115297
8.6,-0.550860823308,1.36751777342,0.0512952248186,-0.308172778834,-0.0633554538448,1.92406837382,-0.00041887902412,0.492854305213,-0.30986645176,1.04439287537,-3.13644570705,0.157734172619,2.57131038249,0.0213340326979
8.62,-0.550860823308,1.36751777342,0.0512952248186,-0.308172778834,-0.0633554538448,1.92406837382,-0.00041887902412,0.492854305213,-0.30986645176,1.04439287537,-3.13644570705,0.157734172619,2.57131038249,0.0213340326979
8.64,-0.550756094498,1.36783202643,0.0512952248186,-0.308242586944,-0.0608596308173,1.92792556318,-0.000401425728739,0.49256760796,-0.309138500346,1.04412687133,-3.13865230094,0.153630031931,2.5722573829,0.0213177933627
8.66,-0.550756094498,1.36783202643,0.0512952248186,-0.308242586944,-0.0608596308173,1.92792556318,-0.000401425728739,0.49256760796,-0.309138500346,1.04412687133,-3.13865230094,0.153630031931,2.5722573829,0.0213177933627
8.68,-0.550756094498,1.36783202643,0.0512952248186,-0.308242586944,-0.0608596308173,1.92792556318,-0.000401425728739,0.49256760796,-0.309138500346,1.04412687133,-3.13865230094,0.153630031931,2.5722573829,0.0213177933627
8.7,-0.550878267013,1.36814614628,0.0512952248186,-0.308190255829,-0.0584336242223,1.93251578764,-0.000401425728739,0.492098240261,-0.308462853226,1.04381112144,-3.14078919785,0.148672821141,2.572993396,0.0212886852143
8.72,-0.550878267013,1.36814614628,0.0512952248186,-0.308190255829,-0.0584336242223,1.93251578764,-0.000401425728739,0.492098240261,-0.308462853226,1.04381112144,-3.14078919785,0.148672821141,2.572993396,0.0212886852143
8.74,-0.550878267013,1.36811125887,0.0512952248186,-0.308207699534,-0.0551349496723,1.93614607568,-0.00041887902412,0.491864858488,-0.307692180678,1.04374640932,3.13948690505,0.145096875552,2.5741981029,0.0212676344468
8.76,-0.550878267013,1.36811125887,0.0512952248186,-0.308207699534,-0.0551349496723,1.93614607568,-0.00041887902412,0.491864858488,-0.307692180678,1.04374640932,3.13948690505,0.145096875552,2.5741981029,0.0212676344468
8.78,-0.550756094498,1.36826838537,0.0512777727911,-0.308207699534,-0.0546637116398,1.93679189224,-0.00041887902412,0.491855487514,-0.307514928056,1.04363968358,3.13909120535,0.144294808854,2.57449141666,0.0212646123052
8.8,-0.550756094498,1.36826838537,0.0512777727911,-0.308207699534,-0.0546637116398,1.93679189224,-0.00041887902412,0.491855487514,-0.307514928056,1.04363968358,3.13909120535,0.144294808854,2.57449141666,0.0212646123052
8.82,-0.550756094498,1.36826838537,0.0512777727911,-0.308207699534,-0.0546637116398,1.93679189224,-0.00041887902412,0.491855487514,-0.307514928056,1.04363968358,3.13909120535,0.144294808854,2.57449141666,0.0212646123052
8.84,-0.550895710718,1.3685127304,0.0512777727911,-0.307719009474,-0.0546811636673,1.93680933595,-0.00041887902412,0.491811246636,-0.307577877176,1.04335787222,3.1391237704,0.143545130064,2.57437253312,0.0212335312772
8.86,-0.550895710718,1.3685127304,0.0512777727911,-0.307719009474,-0.0546811636673,1.93680933595,-0.00041887902412,0.491811246636,-0.307577877176,1.04335787222,3.1391237704,0.143545130064,2.57437253312,0.0212335312772
8.88,-0.550860823308,1.36873949857,0.0512603207636,-0.305921309159,-0.0546811636673,1.93682677965,-0.00041887902412,0.491805805049,-0.307522523691,1.04271235334,3.13919297179,0.141506427212,2.57450403866,0.0211154563929
8.9,-0.550860823308,1.36873949857,0.0512603207636,-0.305921309159,-0.0546811636673,1.93682677965,-0.00041887902412,0.491805805049,-0.307522523691,1.04271235334,3.13919297179,0.141506427212,2.57450403866,0.0211154563929
8.92,-0.550791015198,1.36870461116,0.0512428687361,-0.301261276594,-0.0546637116398,1.93675700483,-0.000401425728739,0.491780350273,-0.307380774769,1.04140316677,3.13931587754,0.13695880259,2.57481227076,0.0208059967725
8.94,-0.550791015198,1.36870461116,0.0512428687361,-0.301261276594,-0.0546637116398,1.93675700483,-0.000401425728739,0.491780350273,-0.307380774769,1.04140316677,3.13931587754,0.13695880259,2.57481227076,0.0208059967725
8.96,-0.550791015198,1.36870461116,0.0512428687361,-0.301261276594,-0.0546637116398,1.93675700483,-0.000401425728739,0.491780350273,-0.307380774769,1.04140316677,3.13931587754,0.13695880259,2.57481227076,0.0208059967725
8.98,-0.550843379603,1.36893151249,0.0511556002761,-0.290876579529,-0.0546462596123,1.93220166779,-0.00041887902412,0.492271280539,-0.30756589333,1.03840675257,3.13966510784,0.130920519781,2.57532558166,0.0201417036476
9.0,-0.550843379603,1.36893151249,0.0511556002761,-0.290876579529,-0.0546462596123,1.93220166779,-0.00041887902412,0.492271280539,-0.30756589333,1.03840675257,3.13966510784,0.130920519781,2.57532558166,0.0201417036476
9.02,-0.550895710718,1.3689663999,0.0510683359773,-0.284767920489,-0.0546462596123,1.92433016255,-0.00041887902412,0.493274552116,-0.30814997484,1.03681140989,3.13991037138,0.132659418864,2.57557922258,0.0197775527091
9.04,-0.550895710718,1.3689663999,0.0510683359773,-0.284767920489,-0.0546462596123,1.92433016255,-0.00041887902412,0.493274552116,-0.30814997484,1.03681140989,3.13991037138,0.132659418864,2.57557922258,0.0197775527091
9.06,-0.550843379603,1.36886173767,0.0510334277611,-0.283005140874,-0.0546288075848,1.91686026201,-0.00041887902412,0.494320170483,-0.308750454988,1.03653666567,3.13997414534,0.138474480087,2.57571680267,0.0196997231039
9.08,-0.550843379603,1.36886173767,0.0510334277611,-0.283005140874,-0.0546288075848,1.91686026201,-0.00041887902412,0.494320170483,-0.308750454988,1.03653666567,3.13997414534,0.138474480087,2.57571680267,0.0196997231039
