GitHatake/ROS1EARs/catkin_ws/src/torobo_robot/torobo_EARs2021/scripts/arm/2021_kaiya_csv/test_manipulability_joint_2.csv
time,joint_1,joint_2,joint_3,joint_4,joint_5,joint_6,joint_7,x,y,z,roll,pitch,yaw,manipulability
0.0,0.465985446604,0.853570693088,0.059393556476,0.742847041028,-0.0959931088597,1.33852793338,-0.656278726108,0.499037364196,0.256561176773,1.02863823438,-2.97323182954,0.132163600045,-1.96138623565,0.0429615940783
0.02,0.465985446604,0.853570693088,0.059393556476,0.742847041028,-0.0959931088597,1.33852793338,-0.656278726108,0.499037364196,0.256561176773,1.02863823438,-2.97323182954,0.132163600045,-1.96138623565,0.0429615940783
0.04,0.466002923598,0.853553249383,0.059393556476,0.742864484733,-0.0959931088597,1.33854537708,-0.656278726108,0.499027223181,0.256567044084,1.02864157497,-2.97324224194,0.132149552776,-1.96137024337,0.0429621063878
0.06,0.466002923598,0.853553249383,0.059393556476,0.742864484733,-0.0959931088597,1.33854537708,-0.656278726108,0.499027223181,0.256567044084,1.02864157497,-2.97324224194,0.132149552776,-1.96137024337,0.0429621063878
0.08,0.466002923598,0.853553249383,0.059393556476,0.742864484733,-0.0959931088597,1.33854537708,-0.656278726108,0.499027223181,0.256567044084,1.02864157497,-2.97324224194,0.132149552776,-1.96137024337,0.0429621063878
0.1,0.466002923598,0.853570693088,0.059393556476,0.742847041028,-0.0959931088597,1.33854537708,-0.656278726108,0.499030359242,0.256568460953,1.02863762424,-2.97324278104,0.132149975343,-1.96137109474,0.0429616649186
0.12,0.466002923598,0.853570693088,0.059393556476,0.742847041028,-0.0959931088597,1.33854537708,-0.656278726108,0.499030359242,0.256568460953,1.02863762424,-2.97324278104,0.132149975343,-1.96137109474,0.0429616649186
0.14,0.466002923598,0.853570693088,0.059393556476,0.742847041028,-0.0959931088597,1.33854537708,-0.656278726108,0.499030359242,0.256568460953,1.02863762424,-2.97324278104,0.132149975343,-1.96137109474,0.0429616649186
0.16,0.466002923598,0.853570693088,0.059393556476,0.742847041028,-0.0959931088597,1.33854537708,-0.656278726108,0.499030359242,0.256568460953,1.02863762424,-2.97324278104,0.132149975343,-1.96137109474,0.0429616649186
0.18,0.466002923598,0.853553249383,0.059393556476,0.742847041028,-0.0959931088597,1.33852793338,-0.656278726108,0.499032511754,0.256569713097,1.0286480221,-2.97322030286,0.132176780565,-1.96136723961,0.0429611928075
0.2,0.466002923598,0.853553249383,0.059393556476,0.742847041028,-0.0959931088597,1.33852793338,-0.656278726108,0.499032511754,0.256569713097,1.0286480221,-2.97322030286,0.132176780565,-1.96136723961,0.0429611928075
0.22,0.466002923598,0.853553249383,0.059393556476,0.742847041028,-0.0959931088597,1.33852793338,-0.656278726108,0.499032511754,0.256569713097,1.0286480221,-2.97322030286,0.132176780565,-1.96136723961,0.0429611928075
0.24,0.466002923598,0.853553249383,0.059393556476,0.742847041028,-0.0959931088597,1.33854537708,-0.656278726108,0.499029990804,0.256568275648,1.02864741191,-2.97323125442,0.13216315589,-1.96136957585,0.0429612636484
0.26,0.466002923598,0.853553249383,0.059393556476,0.742847041028,-0.0959931088597,1.33854537708,-0.656278726108,0.499029990804,0.256568275648,1.02864741191,-2.97323125442,0.13216315589,-1.96136957585,0.0429612636484
0.28,0.466002923598,0.853553249383,0.059393556476,0.742847041028,-0.0959931088597,1.33854537708,-0.656278726108,0.499029990804,0.256568275648,1.02864741191,-2.97323125442,0.13216315589,-1.96136957585,0.0429612636484
0.3,0.466002923598,0.853553249383,0.059393556476,0.742847041028,-0.0959931088597,1.33854537708,-0.656278726108,0.499029990804,0.256568275648,1.02864741191,-2.97323125442,0.13216315589,-1.96136957585,0.0429612636484
0.32,0.466002923598,0.853570693088,0.059393556476,0.742847041028,-0.0959931088597,1.33854537708,-0.656278726108,0.499030359242,0.256568460953,1.02863762424,-2.97324278104,0.132149975343,-1.96137109474,0.0429616649186
0.34,0.466002923598,0.853570693088,0.059393556476,0.742847041028,-0.0959931088597,1.33854537708,-0.656278726108,0.499030359242,0.256568460953,1.02863762424,-2.97324278104,0.132149975343,-1.96137109474,0.0429616649186
0.36,0.466002923598,0.853570693088,0.059393556476,0.742847041028,-0.0959931088597,1.33854537708,-0.656278726108,0.499030359242,0.256568460953,1.02863762424,-2.97324278104,0.132149975343,-1.96137109474,0.0429616649186
0.38,0.466002923598,0.853570693088,0.059393556476,0.742847041028,-0.0959931088597,1.33852793338,-0.656278726108,0.499032880201,0.256569898407,1.02863823438,-2.97323182954,0.132163600045,-1.96136875866,0.0429615940783
0.4,0.466002923598,0.853570693088,0.059393556476,0.742847041028,-0.0959931088597,1.33852793338,-0.656278726108,0.499032880201,0.256569898407,1.02863823438,-2.97323182954,0.132163600045,-1.96136875866,0.0429615940783
0.42,0.466002923598,0.853553249383,0.059393556476,0.742847041028,-0.0959931088597,1.33854537708,-0.656278726108,0.499029990804,0.256568275648,1.02864741191,-2.97323125442,0.13216315589,-1.96136957585,0.0429612636484
0.44,0.466002923598,0.853553249383,0.059393556476,0.742847041028,-0.0959931088597,1.33854537708,-0.656278726108,0.499029990804,0.256568275648,1.02864741191,-2.97323125442,0.13216315589,-1.96136957585,0.0429612636484
0.46,0.466002923598,0.853570693088,0.059393556476,0.742847041028,-0.0960105608872,1.33854537708,-0.656278726108,0.499031760413,0.256565940891,1.02863777207,-2.97322903002,0.132139085933,-1.96136885149,0.0429616626221
0.48,0.466002923598,0.853570693088,0.059393556476,0.742847041028,-0.0960105608872,1.33854537708,-0.656278726108,0.499031760413,0.256565940891,1.02863777207,-2.97322903002,0.132139085933,-1.96136885149,0.0429616626221
0.5,0.466002923598,0.853570693088,0.059393556476,0.742847041028,-0.0960105608872,1.33854537708,-0.656278726108,0.499031760413,0.256565940891,1.02863777207,-2.97322903002,0.132139085933,-1.96136885149,0.0429616626221
0.52,0.466002923598,0.853570693088,0.059393556476,0.742864484733,-0.0959931088597,1.33852793338,-0.656278726108,0.499030112496,0.256568666804,1.02863239743,-2.97324281708,0.132149996949,-1.96136942618,0.0429624368204
0.54,0.466002923598,0.853570693088,0.059393556476,0.742864484733,-0.0959931088597,1.33852793338,-0.656278726108,0.499030112496,0.256568666804,1.02863239743,-2.97324281708,0.132149996949,-1.96136942618,0.0429624368204
0.56,0.466002923598,0.853570693088,0.059393556476,0.742847041028,-0.0959931088597,1.33852793338,-0.656278726108,0.499032880201,0.256569898407,1.02863823438,-2.97323182954,0.132163600045,-1.96136875866,0.0429615940783
0.58,0.466002923598,0.853570693088,0.059393556476,0.742847041028,-0.0959931088597,1.33852793338,-0.656278726108,0.499032880201,0.256569898407,1.02863823438,-2.97323182954,0.132163600045,-1.96136875866,0.0429615940783
0.6,0.466002923598,0.853553249383,0.059393556476,0.742847041028,-0.0960105608872,1.33854537708,-0.656278726108,0.499031391973,0.256565755584,1.02864755974,-2.97321750338,0.132152266454,-1.96136733273,0.042961261352
0.62,0.466002923598,0.853553249383,0.059393556476,0.742847041028,-0.0960105608872,1.33854537708,-0.656278726108,0.499031391973,0.256565755584,1.02864755974,-2.97321750338,0.132152266454,-1.96136733273,0.042961261352
0.64,0.466002923598,0.853553249383,0.059393556476,0.742847041028,-0.0960105608872,1.33854537708,-0.656278726108,0.499031391973,0.256565755584,1.02864755974,-2.97321750338,0.132152266454,-1.96136733273,0.042961261352
0.66,0.466002923598,0.853570693088,0.059393556476,0.742847041028,-0.0959931088597,1.33852793338,-0.656278726108,0.499032880201,0.256569898407,1.02863823438,-2.97323182954,0.132163600045,-1.96136875866,0.0429615940783
0.68,0.466002923598,0.853570693088,0.059393556476,0.742847041028,-0.0959931088597,1.33852793338,-0.656278726108,0.499032880201,0.256569898407,1.02863823438,-2.97323182954,0.132163600045,-1.96136875866,0.0429615940783
0.7,0.466002923598,0.853553249383,0.059393556476,0.742864484733,-0.0960105608872,1.33852793338,-0.656278726108,0.499031145307,0.256565961489,1.02864233293,-2.97321753941,0.132152288034,-1.96136566386,0.0429620332504
0.72,0.466002923598,0.853553249383,0.059393556476,0.742864484733,-0.0960105608872,1.33852793338,-0.656278726108,0.499031145307,0.256565961489,1.02864233293,-2.97321753941,0.132152288034,-1.96136566386,0.0429620332504
0.74,0.466002923598,0.853553249383,0.059393556476,0.742847041028,-0.0960105608872,1.33854537708,-0.656278726108,0.499031391973,0.256565755584,1.02864755974,-2.97321750338,0.132152266454,-1.96136733273,0.042961261352
0.76,0.466002923598,0.853553249383,0.059393556476,0.742847041028,-0.0960105608872,1.33854537708,-0.656278726108,0.499031391973,0.256565755584,1.02864755974,-2.97321750338,0.132152266454,-1.96136733273,0.042961261352
0.78,0.466002923598,0.853553249383,0.059393556476,0.742847041028,-0.0960105608872,1.33854537708,-0.656278726108,0.499031391973,0.256565755584,1.02864755974,-2.97321750338,0.132152266454,-1.96136733273,0.042961261352
0.8,0.466002923598,0.853553249383,0.059393556476,0.742864484733,-0.0959931088597,1.33854537708,-0.656278726108,0.499027223181,0.256567044084,1.02864157497,-2.97324224194,0.132149552776,-1.96137024337,0.0429621063878
0.82,0.466002923598,0.853553249383,0.059393556476,0.742864484733,-0.0959931088597,1.33854537708,-0.656278726108,0.499027223181,0.256567044084,1.02864157497,-2.97324224194,0.132149552776,-1.96137024337,0.0429621063878
0.84,0.466002923598,0.853553249383,0.059393556476,0.742847041028,-0.0959931088597,1.33852793338,-0.656278726108,0.499032511754,0.256569713097,1.0286480221,-2.97322030286,0.132176780565,-1.96136723961,0.0429611928075
0.86,0.466002923598,0.853553249383,0.059393556476,0.742847041028,-0.0959931088597,1.33852793338,-0.656278726108,0.499032511754,0.256569713097,1.0286480221,-2.97322030286,0.132176780565,-1.96136723961,0.0429611928075
0.88,0.466002923598,0.853570693088,0.059393556476,0.742864484733,-0.0960105608872,1.33854537708,-0.656278726108,0.499028992704,0.256564709283,1.02863193518,-2.97324001752,0.132125482835,-1.96136951874,0.042962505364
0.9,0.466002923598,0.853570693088,0.059393556476,0.742864484733,-0.0960105608872,1.33854537708,-0.656278726108,0.499028992704,0.256564709283,1.02863193518,-2.97324001752,0.132125482835,-1.96136951874,0.042962505364
0.92,0.466002923598,0.853570693088,0.059393556476,0.742864484733,-0.0960105608872,1.33854537708,-0.656278726108,0.499028992704,0.256564709283,1.02863193518,-2.97324001752,0.132125482835,-1.96136951874,0.042962505364
0.94,0.466002923598,0.853553249383,0.059393556476,0.742847041028,-0.0959931088597,1.33852793338,-0.656278726108,0.499032511754,0.256569713097,1.0286480221,-2.97322030286,0.132176780565,-1.96136723961,0.0429611928075
0.96,0.466002923598,0.853553249383,0.059393556476,0.742847041028,-0.0959931088597,1.33852793338,-0.656278726108,0.499032511754,0.256569713097,1.0286480221,-2.97322030286,0.132176780565,-1.96136723961,0.0429611928075
0.98,0.466002923598,0.853570693088,0.059393556476,0.742847041028,-0.0960105608872,1.33852793338,-0.656278726108,0.499034281367,0.256567378355,1.0286383822,-2.97321807852,0.132152710603,-1.96136651522,0.0429615917817
1.0,0.466002923598,0.853570693088,0.059393556476,0.742847041028,-0.0960105608872,1.33852793338,-0.656278726108,0.499034281367,0.256567378355,1.0286383822,-2.97321807852,0.132152710603,-1.96136651522,0.0429615917817
1.02,0.466002923598,0.853553249383,0.059393556476,0.742847041028,-0.0960105608872,1.33854537708,-0.656278726108,0.499031391973,0.256565755584,1.02864755974,-2.97321750338,0.132152266454,-1.96136733273,0.042961261352
1.04,0.466002923598,0.853553249383,0.059393556476,0.742847041028,-0.0960105608872,1.33854537708,-0.656278726108,0.499031391973,0.256565755584,1.02864755974,-2.97321750338,0.132152266454,-1.96136733273,0.042961261352
1.06,0.466002923598,0.853553249383,0.059393556476,0.742847041028,-0.0960105608872,1.33854537708,-0.656278726108,0.499031391973,0.256565755584,1.02864755974,-2.97321750338,0.132152266454,-1.96136733273,0.042961261352
1.08,0.466020367303,0.853553249383,0.059393556476,0.742864484733,-0.0959931088597,1.33852793338,-0.656278726108,0.499025268559,0.256577186429,1.0286421851,-2.97323129043,0.132163177477,-1.96135046358,0.0429620355471
1.1,0.466020367303,0.853553249383,0.059393556476,0.742864484733,-0.0959931088597,1.33852793338,-0.656278726108,0.499025268559,0.256577186429,1.0286421851,-2.97323129043,0.132163177477,-1.96135046358,0.0429620355471
1.12,0.466002923598,0.853570693088,0.059393556476,0.742864484733,-0.0960105608872,1.33854537708,-0.656278726108,0.499028992704,0.256564709283,1.02863193518,-2.97324001752,0.132125482835,-1.96136951874,0.042962505364
1.14,0.466002923598,0.853570693088,0.059393556476,0.742864484733,-0.0960105608872,1.33854537708,-0.656278726108,0.499028992704,0.256564709283,1.02863193518,-2.97324001752,0.132125482835,-1.96136951874,0.042962505364
1.16,0.466002923598,0.853553249383,0.059393556476,0.742847041028,-0.0959931088597,1.33854537708,-0.656278726108,0.499029990804,0.256568275648,1.02864741191,-2.97323125442,0.13216315589,-1.96136957585,0.0429612636484
1.18,0.466002923598,0.853553249383,0.059393556476,0.742847041028,-0.0959931088597,1.33854537708,-0.656278726108,0.499029990804,0.256568275648,1.02864741191,-2.97323125442,0.13216315589,-1.96136957585,0.0429612636484
1.2,0.466002923598,0.853553249383,0.059393556476,0.742847041028,-0.0959931088597,1.33854537708,-0.656278726108,0.499029990804,0.256568275648,1.02864741191,-2.97323125442,0.13216315589,-1.96136957585,0.0429612636484
1.22,0.466020367303,0.853570693088,0.059393556476,0.742847041028,-0.0960105608872,1.33852793338,-0.656278726108,0.499029805806,0.256576083323,1.0286383822,-2.97321807852,0.132152710603,-1.96134907152,0.0429615917817
1.24,0.466020367303,0.853570693088,0.059393556476,0.742847041028,-0.0960105608872,1.33852793338,-0.656278726108,0.499029805806,0.256576083323,1.0286383822,-2.97321807852,0.132152710603,-1.96134907152,0.0429615917817
1.26,0.466020367303,0.853570693088,0.059393556476,0.742847041028,-0.0960105608872,1.33854537708,-0.656278726108,0.499027284877,0.256574645815,1.02863777207,-2.97322903002,0.132139085933,-1.96135140779,0.0429616626221
1.28,0.466020367303,0.853570693088,0.059393556476,0.742847041028,-0.0960105608872,1.33854537708,-0.656278726108,0.499027284877,0.256574645815,1.02863777207,-2.97322903002,0.132139085933,-1.96135140779,0.0429616626221
1.3,0.466002923598,0.853553249383,0.059393556476,0.742847041028,-0.0960105608872,1.33852793338,-0.656278726108,0.499033912917,0.256567193044,1.02864816992,-2.97320655183,0.132165891098,-1.9613649963,0.0429611905109
1.32,0.466002923598,0.853553249383,0.059393556476,0.742847041028,-0.0960105608872,1.33852793338,-0.656278726108,0.499033912917,0.256567193044,1.02864816992,-2.97320655183,0.132165891098,-1.9613649963,0.0429611905109
1.34,0.466002923598,0.853553249383,0.059393556476,0.742847041028,-0.0960105608872,1.33852793338,-0.656278726108,0.499033912917,0.256567193044,1.02864816992,-2.97320655183,0.132165891098,-1.9613649963,0.0429611905109
1.36,0.466020367303,0.853570693088,0.059393556476,0.742864484733,-0.0960105608872,1.33852793338,-0.656278726108,0.499027038126,0.256574851674,1.02863254526,-2.97322906607,0.132139107531,-1.96134973892,0.0429624345237
1.38,0.466020367303,0.853570693088,0.059393556476,0.742864484733,-0.0960105608872,1.33852793338,-0.656278726108,0.499027038126,0.256574851674,1.02863254526,-2.97322906607,0.132139107531,-1.96134973892,0.0429624345237
1.4,0.466002923598,0.853553249383,0.059393556476,0.742847041028,-0.0960105608872,1.33852793338,-0.656278726108,0.499033912917,0.256567193044,1.02864816992,-2.97320655183,0.132165891098,-1.9613649963,0.0429611905109
1.42,0.466002923598,0.853553249383,0.059393556476,0.742847041028,-0.0960105608872,1.33852793338,-0.656278726108,0.499033912917,0.256567193044,1.02864816992,-2.97320655183,0.132165891098,-1.9613649963,0.0429611905109
1.44,0.466002923598,0.853553249383,0.059393556476,0.742847041028,-0.0959931088597,1.33854537708,-0.656278726108,0.499029990804,0.256568275648,1.02864741191,-2.97323125442,0.13216315589,-1.96136957585,0.0429612636484
1.46,0.466002923598,0.853553249383,0.059393556476,0.742847041028,-0.0959931088597,1.33854537708,-0.656278726108,0.499029990804,0.256568275648,1.02864741191,-2.97323125442,0.13216315589,-1.96136957585,0.0429612636484
1.48,0.466002923598,0.853553249383,0.059393556476,0.742847041028,-0.0959931088597,1.33854537708,-0.656278726108,0.499029990804,0.256568275648,1.02864741191,-2.97323125442,0.13216315589,-1.96136957585,0.0429612636484
1.5,0.466037811009,0.853553249383,0.059393556476,0.742847041028,-0.0959931088597,1.33852793338,-0.656278726108,0.499023560397,0.256587122893,1.0286480221,-2.97322030286,0.132176780565,-1.9613323522,0.0429611928075
1.52,0.466037811009,0.853553249383,0.059393556476,0.742847041028,-0.0959931088597,1.33852793338,-0.656278726108,0.499023560397,0.256587122893,1.0286480221,-2.97322030286,0.132176780565,-1.9613323522,0.0429611928075
1.54,0.466002923598,0.853570693088,0.059393556476,0.742847041028,-0.0960105608872,1.33852793338,-0.656278726108,0.499034281367,0.256567378355,1.0286383822,-2.97321807852,0.132152710603,-1.96136651522,0.0429615917817
1.56,0.466002923598,0.853570693088,0.059393556476,0.742847041028,-0.0960105608872,1.33852793338,-0.656278726108,0.499034281367,0.256567378355,1.0286383822,-2.97321807852,0.132152710603,-1.96136651522,0.0429615917817
1.58,0.466002923598,0.853553249383,0.059393556476,0.742847041028,-0.0959931088597,1.33852793338,-0.656278726108,0.499032511754,0.256569713097,1.0286480221,-2.97322030286,0.132176780565,-1.96136723961,0.0429611928075
1.6,0.466002923598,0.853553249383,0.059393556476,0.742847041028,-0.0959931088597,1.33852793338,-0.656278726108,0.499032511754,0.256569713097,1.0286480221,-2.97322030286,0.132176780565,-1.96136723961,0.0429611928075
1.62,0.466002923598,0.853553249383,0.059393556476,0.742847041028,-0.0959931088597,1.33852793338,-0.656278726108,0.499032511754,0.256569713097,1.0286480221,-2.97322030286,0.132176780565,-1.96136723961,0.0429611928075
1.64,0.466037811009,0.853553249383,0.059393556476,0.742847041028,-0.0959931088597,1.33852793338,-0.656278726108,0.499023560397,0.256587122893,1.0286480221,-2.97322030286,0.132176780565,-1.9613323522,0.0429611928075
1.66,0.466037811009,0.853553249383,0.059393556476,0.742847041028,-0.0959931088597,1.33852793338,-0.656278726108,0.499023560397,0.256587122893,1.0286480221,-2.97322030286,0.132176780565,-1.9613323522,0.0429611928075
1.68,0.466020367303,0.853553249383,0.059393556476,0.742847041028,-0.0959931088597,1.33852793338,-0.656278726108,0.499028036151,0.256578418034,1.0286480221,-2.97322030286,0.132176780565,-1.9613497959,0.0429611928075
1.7,0.466020367303,0.853553249383,0.059393556476,0.742847041028,-0.0959931088597,1.33852793338,-0.656278726108,0.499028036151,0.256578418034,1.0286480221,-2.97322030286,0.132176780565,-1.9613497959,0.0429611928075
1.72,0.466002923598,0.853535805677,0.059393556476,0.742847041028,-0.0959931088597,1.33852793338,-0.656278726108,0.499032143154,0.256569527711,1.02865780981,-2.97320877615,0.132189961069,-1.9613657204,0.0429607915257
1.74,0.466002923598,0.853535805677,0.059393556476,0.742847041028,-0.0959931088597,1.33852793338,-0.656278726108,0.499032143154,0.256569527711,1.02865780981,-2.97320877615,0.132189961069,-1.9613657204,0.0429607915257
1.76,0.466002923598,0.853535805677,0.059393556476,0.742847041028,-0.0959931088597,1.33852793338,-0.656278726108,0.499032143154,0.256569527711,1.02865780981,-2.97320877615,0.132189961069,-1.9613657204,0.0429607915257
1.78,0.466002923598,0.853535805677,0.059393556476,0.742847041028,-0.0959931088597,1.33854537708,-0.656278726108,0.499029622213,0.256568090266,1.02865719957,-2.97321972776,0.13217633642,-1.96136805681,0.0429608623672
1.8,0.466002923598,0.853535805677,0.059393556476,0.742847041028,-0.0959931088597,1.33854537708,-0.656278726108,0.499029622213,0.256568090266,1.02865719957,-2.97321972776,0.13217633642,-1.96136805681,0.0429608623672
1.82,0.466002923598,0.853535805677,0.059393556476,0.742829597322,-0.0960105608872,1.33854537708,-0.656278726108,0.499033790819,0.256566801666,1.02866318446,-2.97319498912,0.132179050033,-1.96136514609,0.0429600173165
1.84,0.466002923598,0.853535805677,0.059393556476,0.742829597322,-0.0960105608872,1.33854537708,-0.656278726108,0.499033790819,0.256566801666,1.02866318446,-2.97319498912,0.132179050033,-1.96136514609,0.0429600173165
1.86,0.466002923598,0.853535805677,0.059393556476,0.742847041028,-0.0959931088597,1.33854537708,-0.656278726108,0.499029622213,0.256568090266,1.02865719957,-2.97321972776,0.13217633642,-1.96136805681,0.0429608623672
1.88,0.466002923598,0.853535805677,0.059393556476,0.742847041028,-0.0959931088597,1.33854537708,-0.656278726108,0.499029622213,0.256568090266,1.02865719957,-2.97321972776,0.13217633642,-1.96136805681,0.0429608623672
1.9,0.466002923598,0.853535805677,0.059393556476,0.742847041028,-0.0959931088597,1.33854537708,-0.656278726108,0.499029622213,0.256568090266,1.02865719957,-2.97321972776,0.13217633642,-1.96136805681,0.0429608623672
1.92,0.466037811009,0.853500918267,0.059393556476,0.742847041028,-0.0959931088597,1.33854537708,-0.656278726108,0.499019933287,0.256585128942,1.02867677488,-2.97319667431,0.132202697427,-1.96133013084,0.0429600597719
1.94,0.466037811009,0.853500918267,0.059393556476,0.742847041028,-0.0959931088597,1.33854537708,-0.656278726108,0.499019933287,0.256585128942,1.02867677488,-2.97319667431,0.132202697427,-1.96133013084,0.0429600597719
1.96,0.466002923598,0.853500918267,0.059393556476,0.742847041028,-0.0960105608872,1.33852793338,-0.656278726108,0.499032806652,0.256566636651,1.02867753305,-2.97317197152,0.132205432478,-1.96136043858,0.0429599866328
1.98,0.466002923598,0.853500918267,0.059393556476,0.742847041028,-0.0960105608872,1.33852793338,-0.656278726108,0.499032806652,0.256566636651,1.02867753305,-2.97317197152,0.132205432478,-1.96136043858,0.0429599866328
2.0,0.465950559193,0.853466030857,0.0593761002873,0.742829597322,-0.0959931088597,1.33852793338,-0.656278726108,0.499049672549,0.256538436577,1.02870273234,-2.97314165414,0.132247669427,-1.96142149083,0.0429583509826
2.02,0.465950559193,0.853466030857,0.0593761002873,0.742829597322,-0.0959931088597,1.33852793338,-0.656278726108,0.499049672549,0.256538436577,1.02870273234,-2.97314165414,0.132247669427,-1.96142149083,0.0429583509826
2.04,0.465950559193,0.853466030857,0.0593761002873,0.742829597322,-0.0959931088597,1.33852793338,-0.656278726108,0.499049672549,0.256538436577,1.02870273234,-2.97314165414,0.132247669427,-1.96142149083,0.0429583509826
2.06,0.466037811009,0.853466030857,0.0594110085035,0.742847041028,-0.0959931088597,1.33854537708,-0.656278726108,0.499016391377,0.256590204211,1.02869641577,-2.97318364521,0.132237672906,-1.96131694085,0.0429592496938
2.08,0.466020367303,0.853448520573,0.059393556476,0.742864484733,-0.0959931088597,1.33854537708,-0.656278726108,0.499016391377,0.256590204211,1.02869641577,-2.97318364521,0.132237672906,-1.96131694085,0.0429592496938
2.1,0.466020367303,0.853448520573,0.059393556476,0.742864484733,-0.0959931088597,1.33854537708,-0.656278726108,0.499020532949,0.256574635014,1.02870033787,-2.97317303753,0.132228686047,-1.96134367822,0.0429596969895
2.12,0.465985446604,0.853361302047,0.0593761002873,0.742847041028,-0.0960105608872,1.33854537708,-0.656278726108,0.499020532949,0.256574635014,1.02870033787,-2.97317303753,0.132228686047,-1.96134367822,0.0429596969895
2.14,0.465985446604,0.853361302047,0.0593761002873,0.742847041028,-0.0960105608872,1.33854537708,-0.656278726108,0.499034615507,0.256549541821,1.02875519548,-2.97308063766,0.132288685532,-1.96137824133,0.0429568525644
2.16,0.466055254714,0.853326348058,0.059393556476,0.742864484733,-0.0960105608872,1.33854537708,-0.656278726108,0.499034615507,0.256549541821,1.02875519548,-2.97308063766,0.132288685532,-1.96137824133,0.0429568525644
2.18,0.466055254714,0.853326348058,0.059393556476,0.742864484733,-0.0960105608872,1.33854537708,-0.656278726108,0.49901039224,0.256588221356,1.02876903588,-2.97307855335,0.132310109276,-1.96129590133,0.042956883485
2.2,0.466020367303,0.853221685827,0.059393556476,0.742829597322,-0.0960105608872,1.33852793338,-0.656278726108,0.499025170829,0.256573591654,1.02884004803,-2.97297646089,0.132430020723,-1.96131798096,0.0429527185089
2.22,0.466020367303,0.853221685827,0.059393556476,0.742829597322,-0.0960105608872,1.33852793338,-0.656278726108,0.499025170829,0.256573591654,1.02884004803,-2.97297646089,0.132430020723,-1.96131798096,0.0429527185089
2.24,0.466002923598,0.852924943102,0.0593761002873,0.742864484733,-0.0959931088597,1.33854537708,-0.656278726108,0.499016658109,0.256554872024,1.02899404557,-2.97281701526,0.132615679813,-1.96132559328,0.0429476530505
2.26,0.466002923598,0.852924943102,0.0593761002873,0.742864484733,-0.0959931088597,1.33854537708,-0.656278726108,0.499016658109,0.256554872024,1.02899404557,-2.97281701526,0.132615679813,-1.96132559328,0.0429476530505
2.28,0.466055254714,0.851546158027,0.059393556476,0.743021544658,-0.0959931088597,1.33852793338,-0.656278726108,0.498948087968,0.256561719902,1.02971570819,-2.97200371125,0.133557154736,-1.96114593938,0.0429233759685
2.3,0.466055254714,0.851546158027,0.059393556476,0.743021544658,-0.0959931088597,1.33852793338,-0.656278726108,0.498948087968,0.256561719902,1.02971570819,-2.97200371125,0.133557154736,-1.96114593938,0.0429233759685
2.32,0.466072731708,0.847933313692,0.059393556476,0.743353174793,-0.0960105608872,1.33854537708,-0.656278726108,0.498807357359,0.256501555768,1.03163068678,-2.96982085473,0.136003168534,-1.96082088587,0.0428558340332
2.34,0.466072731708,0.847933313692,0.059393556476,0.743353174793,-0.0960105608872,1.33854537708,-0.656278726108,0.498807357359,0.256501555768,1.03163068678,-2.96982085473,0.136003168534,-1.96082088587,0.0428558340332
2.36,0.466037811009,0.841911906468,0.059393556476,0.743859308558,-0.0960105608872,1.33854537708,-0.656278726108,0.498585332392,0.256372600461,1.03483711292,-2.96615456468,0.140155454028,-1.9603287031,0.0427398092831
2.38,0.466037811009,0.841911906468,0.059393556476,0.743859308558,-0.0960105608872,1.33854537708,-0.656278726108,0.498585332392,0.256372600461,1.03483711292,-2.96615456468,0.140155454028,-1.9603287031,0.0427398092831
2.4,0.466090175414,0.831597017512,0.059393556476,0.744260780092,-0.0959931088597,1.33856282079,-0.656278726108,0.498205237155,0.256220988244,1.04048153056,-2.95959409223,0.147623824462,-1.9593189694,0.0425156125984
2.42,0.466090175414,0.831597017512,0.059393556476,0.744260780092,-0.0959931088597,1.33856282079,-0.656278726108,0.498205237155,0.256220988244,1.04048153056,-2.95959409223,0.147623824462,-1.9593189694,0.0425156125984
2.44,0.466107619119,0.817808900443,0.0594284605311,0.744731959868,-0.0959931088597,1.33856282079,-0.656278726108,0.497640657771,0.255965938464,1.04804189132,-2.95074601736,0.157667993541,-1.95791187907,0.0422066891799
2.46,0.466107619119,0.817808900443,0.0594284605311,0.744731959868,-0.0959931088597,1.33856282079,-0.656278726108,0.497640657771,0.255965938464,1.04804189132,-2.95074601736,0.157667993541,-1.95791187907,0.0422066891799
2.48,0.466020367303,0.800809410573,0.0593761002873,0.744697072458,-0.0960105608872,1.33856282079,-0.656278726108,0.496951942344,0.255540751439,1.05755987083,-2.93933911573,0.170456669394,-1.95617395121,0.0417871879696
2.5,0.466020367303,0.800809410573,0.0593761002873,0.744697072458,-0.0960105608872,1.33856282079,-0.656278726108,0.496951942344,0.255540751439,1.05755987083,-2.93933911573,0.170456669394,-1.95617395121,0.0417871879696
2.52,0.466037811009,0.780773051532,0.059393556476,0.744662185047,-0.0960105608872,1.33856282079,-0.656278726108,0.495908520053,0.255033373956,1.0687566645,-2.9258936155,0.18554781556,-1.95376488928,0.0412803607091
2.54,0.466037811009,0.780773051532,0.059393556476,0.744662185047,-0.0960105608872,1.33856282079,-0.656278726108,0.495908520053,0.255033373956,1.0687566645,-2.9258936155,0.18554781556,-1.95376488928,0.0412803607091
2.56,0.466037811009,0.759637073278,0.059393556476,0.744819244973,-0.0960105608872,1.3385977082,-0.656278726108,0.494568075819,0.254360239698,1.08047084991,-2.91176441718,0.201245321417,-1.95104463498,0.0407405509356
2.58,0.466037811009,0.759637073278,0.059393556476,0.744819244973,-0.0960105608872,1.3385977082,-0.656278726108,0.494568075819,0.254360239698,1.08047084991,-2.91176441718,0.201245321417,-1.95104463498,0.0407405509356
2.6,0.466020367303,0.736738415277,0.0593761002873,0.744941417488,-0.0960105608872,1.33863259561,-0.656278726108,0.492881362341,0.253494929461,1.09313942728,-2.8963122539,0.218238900194,-1.94785443341,0.040137006801
2.62,0.466020367303,0.736738415277,0.0593761002873,0.744941417488,-0.0960105608872,1.33863259561,-0.656278726108,0.492881362341,0.253494929461,1.09313942728,-2.8963122539,0.218238900194,-1.94785443341,0.040137006801
2.64,0.466037811009,0.713595345667,0.059393556476,0.744854132383,-0.0959931088597,1.33863259561,-0.656278726108,0.490928167908,0.252532601843,1.10597208112,-2.88044769819,0.235578781741,-1.94425639036,0.0395001345038
2.66,0.466037811009,0.713595345667,0.059393556476,0.744854132383,-0.0959931088597,1.33863259561,-0.656278726108,0.490928167908,0.252532601843,1.10597208112,-2.88044769819,0.235578781741,-1.94425639036,0.0395001345038
2.68,0.466055254714,0.691499430998,0.0594110085035,0.745028702593,-0.0959931088597,1.33863259561,-0.656278726108,0.488788565839,0.251475592502,1.1180820357,-2.86533369415,0.251870939162,-1.94057144562,0.0388888938343
2.7,0.466055254714,0.691499430998,0.0594110085035,0.745028702593,-0.0959931088597,1.33863259561,-0.656278726108,0.488788565839,0.251475592502,1.1180820357,-2.86533369415,0.251870939162,-1.94057144562,0.0388888938343
2.72,0.466020367303,0.667309206448,0.059393556476,0.744574899943,-0.0959931088597,1.33854537708,-0.656278726108,0.486270776533,0.25017759068,1.13151342093,-2.84813723997,0.2701895983,-1.93619353368,0.0381729655131
2.74,0.466020367303,0.667309206448,0.059393556476,0.744574899943,-0.0959931088597,1.33854537708,-0.656278726108,0.486270776533,0.25017759068,1.13151342093,-2.84813723997,0.2701895983,-1.93619353368,0.0381729655131
2.76,0.466002923598,0.644811886823,0.059393556476,0.744819244973,-0.0959931088597,1.33858026449,-0.656278726108,0.483581349013,0.248816168923,1.14369146891,-2.83252012677,0.286566278937,-1.93191241414,0.0375237142245
2.78,0.466002923598,0.644811886823,0.059393556476,0.744819244973,-0.0959931088597,1.33858026449,-0.656278726108,0.483581349013,0.248816168923,1.14369146891,-2.83252012677,0.286566278937,-1.93191241414,0.0375237142245
2.8,0.466002923598,0.620743834788,0.059393556476,0.744958861193,-0.0960105608872,1.3386151519,-0.656278726108,0.480443510768,0.247235713234,1.15668525896,-2.81554728195,0.304095885512,-1.9269725783,0.0368082969919
2.82,0.466002923598,0.620743834788,0.059393556476,0.744958861193,-0.0960105608872,1.3386151519,-0.656278726108,0.480443510768,0.247235713234,1.15668525896,-2.81554728195,0.304095885512,-1.9269725783,0.0368082969919
2.84,0.466020367303,0.597897441323,0.059393556476,0.744889086372,-0.0959931088597,1.33863259561,-0.656278726108,0.477219409761,0.245627055449,1.16901270267,-2.79914034447,0.320846257638,-1.9219108329,0.0361061198157
2.86,0.466020367303,0.597897441323,0.059393556476,0.744889086372,-0.0959931088597,1.33863259561,-0.656278726108,0.477219409761,0.245627055449,1.16901270267,-2.79914034447,0.320846257638,-1.9219108329,0.0361061198157
2.88,0.466020367303,0.573131241608,0.059393556476,0.745046146298,-0.0959931088597,1.33866748302,-0.656278726108,0.47342830231,0.243721340711,1.1821922649,-2.7813046914,0.338711630402,-1.9161316303,0.0353412475088
2.9,0.466020367303,0.573131241608,0.059393556476,0.745046146298,-0.0959931088597,1.33866748302,-0.656278726108,0.47342830231,0.243721340711,1.1821922649,-2.7813046914,0.338711630402,-1.9161316303,0.0353412475088
2.92,0.466020367303,0.550092867518,0.059393556476,0.745150875108,-0.0959931088597,1.33863259561,-0.656278726108,0.469653375349,0.241823964974,1.1943751088,-2.76443400141,0.355320882435,-1.91038826233,0.0346149629606
2.94,0.466020367303,0.550092867518,0.059393556476,0.745150875108,-0.0959931088597,1.33863259561,-0.656278726108,0.469653375349,0.241823964974,1.1943751088,-2.76443400141,0.355320882435,-1.91038826233,0.0346149629606
2.96,0.466002923598,0.524436539498,0.059393556476,0.745185762518,-0.0960105608872,1.3386151519,-0.656278726108,0.465163827694,0.239552907613,1.20785245568,-2.74534426954,0.373741083611,-1.90360237468,0.0337893580401
2.98,0.466002923598,0.524436539498,0.059393556476,0.745185762518,-0.0960105608872,1.3386151519,-0.656278726108,0.465163827694,0.239552907613,1.20785245568,-2.74534426954,0.373741083611,-1.90360237468,0.0337893580401
3.0,0.466002923598,0.501380721704,0.059393556476,0.745220716507,-0.0960105608872,1.33865003931,-0.656278726108,0.460855746942,0.237386148237,1.21984407389,-2.72800583098,0.390157971386,-1.89714060805,0.0330369183815
3.02,0.466002923598,0.501380721704,0.059393556476,0.745220716507,-0.0960105608872,1.33865003931,-0.656278726108,0.460855746942,0.237386148237,1.21984407389,-2.72800583098,0.390157971386,-1.89714060805,0.0330369183815
3.04,0.466002923598,0.474973914888,0.059393556476,0.745273047623,-0.0960105608872,1.33868492672,-0.656278726108,0.45562020764,0.234753084541,1.2334333889,-2.70786318342,0.4088234293,-1.88930630565,0.032164198066
3.06,0.466002923598,0.474973914888,0.059393556476,0.745273047623,-0.0960105608872,1.33868492672,-0.656278726108,0.45562020764,0.234753084541,1.2334333889,-2.70786318342,0.4088234293,-1.88930630565,0.032164198066
3.08,0.466002923598,0.447624582074,0.059393556476,0.745168318813,-0.0959931088597,1.33866748302,-0.656278726108,0.449872111156,0.231864530746,1.24740409122,-2.6865104477,0.428162837693,-1.88062364971,0.0312418964084
3.1,0.466002923598,0.447624582074,0.059393556476,0.745168318813,-0.0959931088597,1.33866748302,-0.656278726108,0.449872111156,0.231864530746,1.24740409122,-2.6865104477,0.428162837693,-1.88062364971,0.0312418964084
3.12,0.466002923598,0.421043238338,0.059393556476,0.745220716507,-0.0959931088597,1.33868492672,-0.656278726108,0.443953599806,0.228888138526,1.26074777966,-2.66552544228,0.44664337006,-1.87173379796,0.0303430420215
3.14,0.466002923598,0.421043238338,0.059393556476,0.745220716507,-0.0959931088597,1.33868492672,-0.656278726108,0.443953599806,0.228888138526,1.26074777966,-2.66552544228,0.44664337006,-1.87173379796,0.0303430420215
3.16,0.465985446604,0.393920806849,0.059393556476,0.745238160212,-0.0959931088597,1.33871994729,-0.656278726108,0.437593090845,0.225679322404,1.27418836621,-2.64371469889,0.465334181335,-1.86214801725,0.0294168764222
3.18,0.465985446604,0.367304542414,0.059393556476,0.745150875108,-0.0959931088597,1.33870250358,-0.656278726108,0.437593090845,0.225679322404,1.27418836621,-2.64371469889,0.465334181335,-1.86214801725,0.0294168764222
3.2,0.465985446604,0.367304542414,0.059393556476,0.745150875108,-0.0959931088597,1.33870250358,-0.656278726108,0.43103931036,0.22238262981,1.287230379,-2.62178731598,0.483598081318,-1.85213025784,0.0284980028388
3.22,0.465985446604,0.338803325849,0.059393556476,0.745238160212,-0.0959931088597,1.338737391,-0.656278726108,0.43103931036,0.22238262981,1.287230379,-2.62178731598,0.483598081318,-1.85213025784,0.0284980028388
3.24,0.465985446604,0.338803325849,0.059393556476,0.745238160212,-0.0959931088597,1.338737391,-0.656278726108,0.423674888865,0.218679330695,1.30090016008,-2.59802782068,0.502766486822,-1.84088131279,0.0275185159112
3.26,0.465985446604,0.312605910074,0.059393556476,0.745185762518,-0.0959931088597,1.3387548347,-0.656278726108,0.423674888865,0.218679330695,1.30090016008,-2.59802782068,0.502766486822,-1.84088131279,0.0275185159112
3.28,0.465985446604,0.312605910074,0.059393556476,0.745185762518,-0.0959931088597,1.3387548347,-0.656278726108,0.416601472427,0.215121278863,1.31330466818,-2.57562491578,0.520274394446,-1.8299163726,0.026612029089
3.3,0.465968002898,0.284034885399,0.059393556476,0.745168318813,-0.0959931088597,1.3387548347,-0.656278726108,0.416601472427,0.215121278863,1.31330466818,-2.57562491578,0.520274394446,-1.8299163726,0.026612029089
3.32,0.465968002898,0.284034885399,0.059393556476,0.745168318813,-0.0959931088597,1.3387548347,-0.656278726108,0.408565422172,0.211070604468,1.32657874464,-2.55069388499,0.539101356589,-1.81733632393,0.025627444859
3.34,0.465968002898,0.255079866184,0.059393556476,0.745168318813,-0.0959931088597,1.3387548347,-0.656278726108,0.408565422172,0.211070604468,1.32657874464,-2.55069388499,0.539101356589,-1.81733632393,0.025627444859
3.36,0.465968002898,0.255079866184,0.059393556476,0.745168318813,-0.0959931088597,1.3387548347,-0.656278726108,0.400075773023,0.206801127084,1.33975672203,-2.5248677024,0.557883449082,-1.80386937807,0.0246366697389
3.38,0.465968002898,0.226857898704,0.059393556476,0.745115987697,-0.0959931088597,1.3387548347,-0.656278726108,0.400075773023,0.206801127084,1.33975672203,-2.5248677024,0.557883449082,-1.80386937807,0.0246366697389
3.4,0.465968002898,0.226857898704,0.059393556476,0.745115987697,-0.0959931088597,1.3387548347,-0.656278726108,0.391474041182,0.202474804571,1.35235060372,-2.49906503518,0.575930527211,-1.79001231891,0.0236791120989
3.42,0.465968002898,0.196820787204,0.059393556476,0.745168318813,-0.0959931088597,1.33878972211,-0.656278726108,0.381976356059,0.197698520497,1.36540559218,-2.47106610663,0.594702443194,-1.77454420355,0.0226806412607
3.44,0.465968002898,0.196820787204,0.059393556476,0.745168318813,-0.0959931088597,1.33878972211,-0.656278726108,0.381976356059,0.197698520497,1.36540559218,-2.47106610663,0.594702443194,-1.77454420355,0.0226806412607
3.46,0.465950559193,0.168563899024,0.059393556476,0.745115987697,-0.0959931088597,1.33877227841,-0.656278726108,0.372727564202,0.193038763731,1.37743433172,-2.44393399297,0.612118675522,-1.75916360944,0.0217577388258
3.48,0.465950559193,0.168563899024,0.059393556476,0.745115987697,-0.0959931088597,1.33877227841,-0.656278726108,0.372727564202,0.193038763731,1.37743433172,-2.44393399297,0.612118675522,-1.75916360944,0.0217577388258
3.5,0.465968002898,0.13887584472,0.059393556476,0.745115987697,-0.0959931088597,1.33880716582,-0.656261282402,0.36267929513,0.187993305755,1.38972434009,-2.41482563072,0.629979312046,-1.74221991573,0.0208185394934
3.52,0.465968002898,0.13887584472,0.059393556476,0.745115987697,-0.0959931088597,1.33880716582,-0.656261282402,0.36267929513,0.187993305755,1.38972434009,-2.41482563072,0.629979312046,-1.74221991573,0.0208185394934
3.54,0.465933082199,0.110112822775,0.059393556476,0.745081033708,-0.0959931088597,1.33878972211,-0.656261282402,0.352648573398,0.18293314004,1.40132772159,-2.38580544961,0.646929450362,-1.72495781908,0.0199414748998
3.56,0.465933082199,0.110112822775,0.059393556476,0.745081033708,-0.0959931088597,1.33878972211,-0.656261282402,0.352648573398,0.18293314004,1.40132772159,-2.38580544961,0.646929450362,-1.72495781908,0.0199414748998
3.58,0.465968002898,0.0827111505223,0.0594110085035,0.745098543992,-0.0959931088597,1.33882460952,-0.656278726108,0.342803912765,0.178004431966,1.4120514272,-2.35756383979,0.66261999101,-1.70769794484,0.0191467887172
3.6,0.465968002898,0.0827111505223,0.0594110085035,0.745098543992,-0.0959931088597,1.33882460952,-0.656278726108,0.342803912765,0.178004431966,1.4120514272,-2.35756383979,0.66261999101,-1.70769794484,0.0191467887172
3.62,0.465933082199,0.0539481285773,0.059393556476,0.745028702593,-0.0959931088597,1.33880716582,-0.656261282402,0.332205921998,0.172652697744,1.42301820936,-2.32704386826,0.678768783177,-1.68878834311,0.0183579819668
3.64,0.465933082199,0.0539481285773,0.059393556476,0.745028702593,-0.0959931088597,1.33880716582,-0.656261282402,0.332205921998,0.172652697744,1.42301820936,-2.32704386826,0.678768783177,-1.68878834311,0.0183579819668
3.66,0.465933082199,0.0267558972999,0.059393556476,0.745081033708,-0.0959931088597,1.33882460952,-0.656261282402,0.321932855592,0.16748709089,1.43302098418,-2.29761552439,0.693508743743,-1.67014358747,0.0176713060044
3.68,0.465933082199,0.0267558972999,0.059393556476,0.745081033708,-0.0959931088597,1.33882460952,-0.656261282402,0.321932855592,0.16748709089,1.43302098418,-2.29761552439,0.693508743743,-1.67014358747,0.0176713060044
3.7,0.465968002898,-0.000314159251835,0.0594110085035,0.745011258887,-0.0959931088597,1.33882460952,-0.656261282402,0.31144708166,0.162234162213,1.44271010561,-2.26745366973,0.707827492402,-1.65064370083,0.0170443213044
3.72,0.465968002898,-0.000314159251835,0.0594110085035,0.745011258887,-0.0959931088597,1.33882460952,-0.656261282402,0.31144708166,0.162234162213,1.44271010561,-2.26745366973,0.707827492402,-1.65064370083,0.0170443213044
3.74,0.465933082199,-0.026319565403,0.059393556476,0.744993815182,-0.0959931088597,1.33882460952,-0.656261282402,0.301178984677,0.157049999656,1.45169848276,-2.23784002172,0.721122367296,-1.63129134211,0.0165097015408
3.76,0.465933082199,-0.026319565403,0.059393556476,0.744993815182,-0.0959931088597,1.33882460952,-0.656261282402,0.301178984677,0.157049999656,1.45169848276,-2.23784002172,0.721122367296,-1.63129134211,0.0165097015408
3.78,0.465950559193,-0.0515919342536,0.0594110085035,0.745046146298,-0.0959931088597,1.33885949693,-0.656261282402,0.290996790327,0.151943201872,1.46011489631,-2.20852102848,0.733561883751,-1.61176383132,0.0160622061482
3.8,0.465950559193,-0.0515919342536,0.0594110085035,0.745046146298,-0.0959931088597,1.33885949693,-0.656261282402,0.290996790327,0.151943201872,1.46011489631,-2.20852102848,0.733561883751,-1.61176383132,0.0160622061482
3.82,0.465950559193,-0.0783303753648,0.059393556476,0.744976304898,-0.0959931088597,1.33885949693,-0.656261282402,0.280014316439,0.146412812896,1.46875145769,-2.17660076044,0.746330043702,-1.59025736655,0.0156665848994
3.84,0.465950559193,-0.0783303753648,0.059393556476,0.744976304898,-0.0959931088597,1.33885949693,-0.656261282402,0.280014316439,0.146412812896,1.46875145769,-2.17660076044,0.746330043702,-1.59025736655,0.0156665848994
3.86,0.465933082199,-0.102607909987,0.059393556476,0.744923973783,-0.0959931088597,1.33884205323,-0.656261282402,0.269869201103,0.141304749845,1.47630459916,-2.14696247055,0.757474681649,-1.57002852163,0.0153875118103
3.88,0.465933082199,-0.102607909987,0.059393556476,0.744923973783,-0.0959931088597,1.33884205323,-0.656261282402,0.269869201103,0.141304749845,1.47630459916,-2.14696247055,0.757474681649,-1.57002852163,0.0153875118103
3.9,0.465933082199,-0.127880276757,0.059393556476,0.744958861193,-0.0959931088597,1.33885949693,-0.656261282402,0.259146724503,0.135912993175,1.48383655894,-2.1156066032,0.768542374004,-1.54835859492,0.0151862868065
3.92,0.465933082199,-0.127880276757,0.059393556476,0.744958861193,-0.0959931088597,1.33885949693,-0.656261282402,0.259146724503,0.135912993175,1.48383655894,-2.1156066032,0.768542374004,-1.54835859492,0.0151862868065
3.94,0.465950559193,-0.151581852859,0.059393556476,0.744976304898,-0.0959931088597,1.33887694064,-0.656261282402,0.248934593593,0.130783209499,1.49062761804,-2.08557980583,0.778473299814,-1.52736309197,0.0150803231596
3.96,0.465950559193,-0.151581852859,0.059393556476,0.744976304898,-0.0959931088597,1.33887694064,-0.656261282402,0.248934593593,0.130783209499,1.49062761804,-2.08557980583,0.778473299814,-1.52736309197,0.0150803231596
3.98,0.465968002898,-0.175964091324,0.0594110085035,0.744889086372,-0.0959931088597,1.33885949693,-0.656261282402,0.238263351445,0.125428324103,1.49736858079,-2.05390353842,0.788266554665,-1.50497226351,0.0150539790348
4.0,0.465968002898,-0.175964091324,0.0594110085035,0.744889086372,-0.0959931088597,1.33885949693,-0.656261282402,0.238263351445,0.125428324103,1.49736858079,-2.05390353842,0.788266554665,-1.50497226351,0.0150539790348
4.02,0.465933082199,-0.198234492979,0.0593761002873,0.744854132383,-0.0959931088597,1.33885949693,-0.656261282402,0.228411942535,0.120449876518,1.50325262666,-2.02451864767,0.796749189672,-1.48411471254,0.0151084262536
4.04,0.465933082199,-0.220941236934,0.0593586482598,0.744819244973,-0.0959931088597,1.33885949693,-0.656278726108,0.228411942535,0.120449876518,1.50325262666,-2.02451864767,0.796749189672,-1.48411471254,0.0151084262536
4.06,0.465933082199,-0.220941236934,0.0593586482598,0.744819244973,-0.0959931088597,1.33885949693,-0.656278726108,0.21824204684,0.115328661354,1.50899694713,-1.99403464657,0.804927409581,-1.46223951245,0.0152386051827
4.08,0.465933082199,-0.243700328649,0.0593761002873,0.744889086372,-0.0960105608872,1.33889438434,-0.656261282402,0.21824204684,0.115328661354,1.50899694713,-1.99403464657,0.804927409581,-1.46223951245,0.0152386051827
4.1,0.465933082199,-0.243700328649,0.0593761002873,0.744889086372,-0.0960105608872,1.33889438434,-0.656261282402,0.207948520577,0.110156392839,1.51445563277,-1.96316542539,0.812617226418,-1.43991253615,0.0154457979039
4.12,0.465933082199,-0.265412215489,0.059393556476,0.744854132383,-0.0959931088597,1.33889438434,-0.656261282402,0.207948520577,0.110156392839,1.51445563277,-1.96316542539,0.812617226418,-1.43991253615,0.0154457979039
4.14,0.465933082199,-0.265412215489,0.059393556476,0.744854132383,-0.0959931088597,1.33889438434,-0.656261282402,0.198006672444,0.105166802227,1.51945369893,-1.93307751166,0.819548011,-1.41796074634,0.0157057287971
4.16,0.465950559193,-0.287141562679,0.059393556476,0.744836688678,-0.0959931088597,1.33889438434,-0.656261282402,0.198006672444,0.105166802227,1.51945369893,-1.93307751166,0.819548011,-1.41796074634,0.0157057287971
4.18,0.465950559193,-0.287141562679,0.059393556476,0.744836688678,-0.0959931088597,1.33889438434,-0.656261282402,0.187967775794,0.100122647012,1.524207618,-1.90255157515,0.826015845054,-1.39556530634,0.016026810509
4.2,0.465950559193,-0.306793960469,0.0594284605311,0.744784357562,-0.0959582048047,1.33889438434,-0.656261282402,0.17879674448,0.0955303939134,1.52830625923,-1.87453729357,0.831475776817,-1.37484998518,0.0163647195888
4.22,0.465950559193,-0.306793960469,0.0594284605311,0.744784357562,-0.0959582048047,1.33889438434,-0.656261282402,0.17879674448,0.0955303939134,1.52830625923,-1.87453729357,0.831475776817,-1.37484998518,0.0163647195888
4.24,0.465933082199,-0.326202046519,0.059393556476,0.744766913857,-0.0959931088597,1.33889438434,-0.656261282402,0.169695519131,0.0909294546964,1.53214602888,-1.84659363968,0.836462101752,-1.35423619509,0.0167414185321
4.26,0.465933082199,-0.326202046519,0.059393556476,0.744766913857,-0.0959931088597,1.33889438434,-0.656261282402,0.169695519131,0.0909294546964,1.53214602888,-1.84659363968,0.836462101752,-1.35423619509,0.0167414185321
4.28,0.465933082199,-0.343550610229,0.059393556476,0.744749470152,-0.0959931088597,1.33889438434,-0.656261282402,0.161495889527,0.0868060284456,1.53541034536,-1.82136285754,0.840591117549,-1.33547227474,0.0171106605773
4.3,0.465933082199,-0.343550610229,0.059393556476,0.744749470152,-0.0959931088597,1.33889438434,-0.656261282402,0.161495889527,0.0868060284456,1.53541034536,-1.82136285754,0.840591117549,-1.33547227474,0.0171106605773
4.32,0.465933082199,-0.360218503254,0.059393556476,0.744731959868,-0.0959931088597,1.33889438434,-0.656261282402,0.153571212157,0.082820864091,1.53839630418,-1.79690908008,0.844257709189,-1.31722262803,0.0174920735494
4.34,0.465933082199,-0.360218503254,0.059393556476,0.744731959868,-0.0959931088597,1.33889438434,-0.656261282402,0.153571212157,0.082820864091,1.53839630418,-1.79690908008,0.844257709189,-1.31722262803,0.0174920735494
4.36,0.465933082199,-0.376938760684,0.059393556476,0.744714516163,-0.0959931088597,1.33889438434,-0.656261282402,0.145578029262,0.0788012516422,1.54124257832,-1.77218345454,0.847635042387,-1.29871223755,0.0178988331468
4.38,0.465933082199,-0.376938760684,0.059393556476,0.744714516163,-0.0959931088597,1.33889438434,-0.656261282402,0.145578029262,0.0788012516422,1.54124257832,-1.77218345454,0.847635042387,-1.29871223755,0.0178988331468
4.4,0.465933082199,-0.391634416474,0.059393556476,0.744714516163,-0.0959931088597,1.33889438434,-0.656261282402,0.138521917153,0.0752530142967,1.54361615736,-1.75032418821,0.850347710769,-1.28230405825,0.0182750911785
4.42,0.465933082199,-0.391634416474,0.059393556476,0.744714516163,-0.0959931088597,1.33889438434,-0.656261282402,0.138521917153,0.0752530142967,1.54361615736,-1.75032418821,0.850347710769,-1.28230405825,0.0182750911785
4.44,0.465933082199,-0.406452278069,0.0593761002873,0.744731959868,-0.0959931088597,1.33891182805,-0.656261282402,0.131383032941,0.0716562813575,1.5458841145,-1.72820586928,0.852842541025,-1.2656808824,0.0186708880459
4.46,0.465933082199,-0.406452278069,0.0593761002873,0.744731959868,-0.0959931088597,1.33891182805,-0.656261282402,0.131383032941,0.0716562813575,1.5458841145,-1.72820586928,0.852842541025,-1.2656808824,0.0186708880459
4.48,0.465933082199,-0.420711608204,0.059393556476,0.744679628753,-0.0959931088597,1.33889438434,-0.656261282402,0.124464156632,0.0681836080446,1.54797856048,-1.70664938298,0.855017198854,-1.24941165898,0.0190637776805
4.5,0.465933082199,-0.420711608204,0.059393556476,0.744679628753,-0.0959931088597,1.33889438434,-0.656261282402,0.124464156632,0.0681836080446,1.54797856048,-1.70664938298,0.855017198854,-1.24941165898,0.0190637776805
4.52,0.465933082199,-0.435424740989,0.059393556476,0.744679628753,-0.0959931088597,1.33889438434,-0.656278726108,0.117313380219,0.0645877677968,1.55000645767,-1.6844072544,0.856996984573,-1.23261197663,0.0194836556573
4.54,0.465933082199,-0.435424740989,0.059393556476,0.744679628753,-0.0959931088597,1.33889438434,-0.656278726108,0.117313380219,0.0645877677968,1.55000645767,-1.6844072544,0.856996984573,-1.23261197663,0.0194836556573
4.56,0.465933082199,-0.449910972449,0.0593761002873,0.744662185047,-0.0959931088597,1.33889438434,-0.656261282402,0.110246168699,0.0610269269828,1.55189232656,-1.66239333903,0.858750844547,-1.21597567375,0.0199084014165
4.58,0.465933082199,-0.449910972449,0.0593761002873,0.744662185047,-0.0959931088597,1.33889438434,-0.656261282402,0.110246168699,0.0610269269828,1.55189232656,-1.66239333903,0.858750844547,-1.21597567375,0.0199084014165
4.6,0.465933082199,-0.463716533223,0.0593761002873,0.744697072458,-0.0959931088597,1.33891182805,-0.656261282402,0.103498870126,0.0576341289742,1.55356666465,-1.64143829393,0.860166241544,-1.20010404549,0.0203244206953
4.62,0.465933082199,-0.463716533223,0.0593761002873,0.744697072458,-0.0959931088597,1.33891182805,-0.656261282402,0.103498870126,0.0576341289742,1.55356666465,-1.64143829393,0.860166241544,-1.20010404549,0.0203244206953
4.64,0.465933082199,-0.478848547958,0.059393556476,0.744627297637,-0.0959931088597,1.33889438434,-0.656261282402,0.0960507513178,0.0538951609594,1.55531502813,-1.61817571132,0.861474862527,-1.18244352637,0.0207876309991
4.66,0.465933082199,-0.478848547958,0.059393556476,0.744627297637,-0.0959931088597,1.33889438434,-0.656261282402,0.0960507513178,0.0538951609594,1.55531502813,-1.61817571132,0.861474862527,-1.18244352637,0.0207876309991
4.68,0.465933082199,-0.494032893808,0.0593586482598,0.744627297637,-0.0959931088597,1.33889438434,-0.656261282402,0.0885799229628,0.050124656345,1.55692226035,-1.59490463555,0.862534494676,-1.16480783281,0.021263735822
4.7,0.465933082199,-0.494032893808,0.0593586482598,0.744627297637,-0.0959931088597,1.33889438434,-0.656261282402,0.0885799229628,0.050124656345,1.55692226035,-1.59490463555,0.862534494676,-1.16480783281,0.021263735822
4.72,0.465933082199,-0.509863022934,0.0593586482598,0.744609787353,-0.0959931088597,1.33891182805,-0.656261282402,0.0807587801309,0.0461913856918,1.55846350049,-1.57058939034,0.863338542753,-1.14633421145,0.0217685969517
4.74,0.465933082199,-0.509863022934,0.0593586482598,0.744609787353,-0.0959931088597,1.33891182805,-0.656261282402,0.0807587801309,0.0461913856918,1.55846350049,-1.57058939034,0.863338542753,-1.14633421145,0.0217685969517
4.76,0.465933082199,-0.524872865153,0.0593761002873,0.744627297637,-0.0959931088597,1.33889438434,-0.656261282402,0.0733294795106,0.0424626772872,1.55979435277,-1.54749905777,0.863818841987,-1.12876570223,0.0222556270146
4.78,0.465933082199,-0.524872865153,0.0593761002873,0.744627297637,-0.0959931088597,1.33889438434,-0.656261282402,0.0733294795106,0.0424626772872,1.55979435277,-1.54749905777,0.863818841987,-1.12876570223,0.0222556270146
4.8,0.465933082199,-0.540284112328,0.0593586482598,0.744592343648,-0.0959931088597,1.33891182805,-0.656261282402,0.0656759226846,0.0386066587309,1.56103717732,-1.52374490134,0.864059793366,-1.11071737934,0.0227609257051
4.82,0.465933082199,-0.540284112328,0.0593586482598,0.744592343648,-0.0959931088597,1.33891182805,-0.656261282402,0.0656759226846,0.0386066587309,1.56103717732,-1.52374490134,0.864059793366,-1.11071737934,0.0227609257051
4.84,0.465933082199,-0.555660472093,0.059393556476,0.744574899943,-0.0959931088597,1.33889438434,-0.656261282402,0.058019290355,0.0347701766329,1.56214710222,-1.50001268082,0.863992638281,-1.09263833843,0.0232712968364
4.86,0.465933082199,-0.555660472093,0.059393556476,0.744574899943,-0.0959931088597,1.33889438434,-0.656261282402,0.058019290355,0.0347701766329,1.56214710222,-1.50001268082,0.863992638281,-1.09263833843,0.0232712968364
4.88,0.465933082199,-0.571246256188,0.0593586482598,0.744557456238,-0.0959931088597,1.33889438434,-0.656261282402,0.0502552991922,0.0308520928662,1.56313468125,-1.47599472747,0.863679163961,-1.07440512516,0.02379365592
4.9,0.465933082199,-0.586901848393,0.0593411962323,0.744540012532,-0.0959931088597,1.33889438434,-0.656261282402,0.0502552991922,0.0308520928662,1.56313468125,-1.47599472747,0.863679163961,-1.07440512516,0.02379365592
4.92,0.465933082199,-0.586901848393,0.0593411962323,0.744540012532,-0.0959931088597,1.33889438434,-0.656261282402,0.0424407648511,0.0269154552173,1.56398996526,-1.45189578458,0.863068899012,-1.05610264028,0.0243226232539
4.94,0.465933082199,-0.602138591938,0.0593586482598,0.744540012532,-0.0959931088597,1.33891182805,-0.656261282402,0.0424407648511,0.0269154552173,1.56398996526,-1.45189578458,0.863068899012,-1.05610264028,0.0243226232539
4.96,0.465933082199,-0.602138591938,0.0593586482598,0.744540012532,-0.0959931088597,1.33891182805,-0.656261282402,0.0348240843283,0.0230920211096,1.56468402008,-1.42853678756,0.862183146395,-1.0383462648,0.0248412479802
4.98,0.465915638494,-0.617445110303,0.0593761002873,0.744470171133,-0.0959931088597,1.33889438434,-0.656261282402,0.0348240843283,0.0230920211096,1.56468402008,-1.42853678756,0.862183146395,-1.0383462648,0.0248412479802
5.0,0.465915638494,-0.617445110303,0.0593761002873,0.744470171133,-0.0959931088597,1.33889438434,-0.656261282402,0.0271441825142,0.0192358536511,1.56527075602,-1.40496663045,0.86101504278,-1.02045882179,0.0253630823172
5.02,0.465933082199,-0.631826646243,0.0593411962323,0.744505125122,-0.0959931088597,1.33889438434,-0.656261282402,0.0271441825142,0.0192358536511,1.56527075602,-1.40496663045,0.86101504278,-1.02045882179,0.0253630823172
5.04,0.465933082199,-0.631826646243,0.0593411962323,0.744505125122,-0.0959931088597,1.33889438434,-0.656261282402,0.0199578564013,0.0156093782497,1.56567888979,-1.38305968865,0.859705440403,-1.00386345804,0.0258578913229
5.06,0.465933082199,-0.646871375873,0.0593411962323,0.744470171133,-0.0959931088597,1.33889438434,-0.656261282402,0.0199578564013,0.0156093782497,1.56567888979,-1.38305968865,0.859705440403,-1.00386345804,0.0258578913229
5.08,0.465933082199,-0.646871375873,0.0593411962323,0.744470171133,-0.0959931088597,1.33889438434,-0.656261282402,0.0124096397564,0.0118133614807,1.56599606959,-1.36011508513,0.858056286253,-0.986490257073,0.0263750045072
5.1,0.465915638494,-0.662247735638,0.0593411962323,0.744452727428,-0.0959931088597,1.33889438434,-0.656278726108,0.0124096397564,0.0118133614807,1.56599606959,-1.36011508513,0.858056286253,-0.986490257073,0.0263750045072
5.12,0.465915638494,-0.662247735638,0.0593411962323,0.744452727428,-0.0959931088597,1.33889438434,-0.656278726108,0.00469680052796,0.00793457118563,1.56618517412,-1.33679462946,0.856087365043,-0.968880632685,0.0269049034235
5.14,0.465915638494,-0.676280197738,0.0593411962323,0.744435283723,-0.0959931088597,1.33889438434,-0.656261282402,-0.00234411978575,0.00439396751184,1.56624209337,-1.3155984617,0.854088806102,-0.952881716248,0.0273887884548
5.16,0.465915638494,-0.676280197738,0.0593411962323,0.744435283723,-0.0959931088597,1.33889438434,-0.656261282402,-0.00234411978575,0.00439396751184,1.56624209337,-1.3155984617,0.854088806102,-0.952881716248,0.0273887884548
5.18,0.465898194788,-0.691726332323,0.0593761002873,0.744417840017,-0.0959931088597,1.33889438434,-0.656261282402,-0.0100994863991,0.000508004745734,1.56617635706,-1.29240007233,0.851592624711,-0.935399182255,0.0279213665952
5.2,0.465898194788,-0.691726332323,0.0593761002873,0.744417840017,-0.0959931088597,1.33889438434,-0.656261282402,-0.0100994863991,0.000508004745734,1.56617635706,-1.29240007233,0.851592624711,-0.935399182255,0.0279213665952
5.22,0.465950559193,-0.707713554663,0.0593237400436,0.744487614838,-0.0959931088597,1.33889438434,-0.656261282402,-0.0180844790791,-0.00352796409833,1.5659518496,-1.26865090797,0.848797863031,-0.91754381696,0.0284744028481
5.24,0.465950559193,-0.707713554663,0.0593237400436,0.744487614838,-0.0959931088597,1.33889438434,-0.656261282402,-0.0180844790791,-0.00352796409833,1.5659518496,-1.26865090797,0.848797863031,-0.91754381696,0.0284744028481
5.26,0.465898194788,-0.725864994862,0.0593411962323,0.744347998618,-0.0959931088597,1.33887694064,-0.656261282402,-0.027223228103,-0.00811628278283,1.5655641505,-1.24154342336,0.845199748549,-0.897264741091,0.0290948562335
5.28,0.465898194788,-0.725864994862,0.0593411962323,0.744347998618,-0.0959931088597,1.33887694064,-0.656261282402,-0.027223228103,-0.00811628278283,1.5655641505,-1.24154342336,0.845199748549,-0.897264741091,0.0290948562335
5.3,0.465915638494,-0.745185762518,0.0593411962323,0.744470171133,-0.0959931088597,1.33889438434,-0.656261282402,-0.0368566948156,-0.0129599565801,1.56489621211,-1.21338945012,0.841043863832,-0.876228982418,0.0297604391329
5.32,0.465915638494,-0.745185762518,0.0593411962323,0.744470171133,-0.0959931088597,1.33889438434,-0.656261282402,-0.0368566948156,-0.0129599565801,1.56489621211,-1.21338945012,0.841043863832,-0.876228982418,0.0297604391329
5.34,0.465880751083,-0.766915159642,0.0593411962323,0.744313111208,-0.0959931088597,1.33887694064,-0.656261282402,-0.0477659502961,-0.0184448247349,1.56394963243,-1.18157024826,0.835832108344,-0.852595071187,0.0304967548928
5.36,0.465880751083,-0.766915159642,0.0593411962323,0.744313111208,-0.0959931088597,1.33887694064,-0.656261282402,-0.0477659502961,-0.0184448247349,1.56394963243,-1.18157024826,0.835832108344,-0.852595071187,0.0304967548928
5.38,0.465915638494,-0.788312860052,0.0593062880161,0.744295667502,-0.0959931088597,1.33887694064,-0.656261282402,-0.0584391800001,-0.0238276037837,1.56273404839,-1.15082193871,0.830274261072,-0.829830042001,0.0312206538869
5.4,0.465915638494,-0.788312860052,0.0593062880161,0.744295667502,-0.0959931088597,1.33887694064,-0.656261282402,-0.0584391800001,-0.0238276037837,1.56273404839,-1.15082193871,0.830274261072,-0.829830042001,0.0312206538869
5.42,0.465915638494,-0.810059634303,0.0593062880161,0.744260780092,-0.0959931088597,1.33887694064,-0.656261282402,-0.0692718876192,-0.0292750226948,1.56123905276,-1.11995495196,0.824121466097,-0.807108369447,0.03194974754
5.44,0.465915638494,-0.810059634303,0.0593062880161,0.744260780092,-0.0959931088597,1.33887694064,-0.656261282402,-0.0692718876192,-0.0292750226948,1.56123905276,-1.11995495196,0.824121466097,-0.807108369447,0.03194974754
5.46,0.465898194788,-0.831579573807,0.0593411962323,0.744243269808,-0.0959931088597,1.33887694064,-0.656261282402,-0.0799615278199,-0.0346349234111,1.55949776132,-1.0898621394,0.817551726828,-0.785080965088,0.0326647697334
5.48,0.465898194788,-0.831579573807,0.0593411962323,0.744243269808,-0.0959931088597,1.33887694064,-0.656261282402,-0.0799615278199,-0.0346349234111,1.55949776132,-1.0898621394,0.817551726828,-0.785080965088,0.0326647697334
5.5,0.465915638494,-0.851703217952,0.0593411962323,0.744225826103,-0.0959931088597,1.33887694064,-0.656261282402,-0.0899191121742,-0.0396438360669,1.55763711658,-1.0621002199,0.811026943845,-0.764872508898,0.0333263480238
5.52,0.465915638494,-0.851703217952,0.0593411962323,0.744225826103,-0.0959931088597,1.33887694064,-0.656261282402,-0.0899191121742,-0.0396438360669,1.55763711658,-1.0621002199,0.811026943845,-0.764872508898,0.0333263480238
5.54,0.465898194788,-0.871215999522,0.0593411962323,0.744156051282,-0.0959931088597,1.33885949693,-0.656261282402,-0.0995596677113,-0.0444898183165,1.55562815079,-1.03545777737,0.804313982489,-0.745631638821,0.0339591082353
5.56,0.465898194788,-0.871215999522,0.0593411962323,0.744156051282,-0.0959931088597,1.33885949693,-0.656261282402,-0.0995596677113,-0.0444898183165,1.55562815079,-1.03545777737,0.804313982489,-0.745631638821,0.0339591082353
5.58,0.465898194788,-0.888512232117,0.0593237400436,0.744173494987,-0.0959931088597,1.33887694064,-0.656261282402,-0.108044040855,-0.0487627713068,1.5536570478,-1.01230062388,0.798123536564,-0.729012113995,0.0345161350291
5.6,0.465898194788,-0.888512232117,0.0593237400436,0.744173494987,-0.0959931088597,1.33887694064,-0.656261282402,-0.108044040855,-0.0487627713068,1.5536570478,-1.01230062388,0.798123536564,-0.729012113995,0.0345161350291
5.62,0.465898194788,-0.905249933252,0.0592888359885,0.744121097293,-0.0959931088597,1.33887694064,-0.656261282402,-0.1162444316,-0.0529002602849,1.55160378955,-0.990053431496,0.791863068286,-0.713149714171,0.0350470012949
5.64,0.465898194788,-0.905249933252,0.0592888359885,0.744121097293,-0.0959931088597,1.33887694064,-0.656261282402,-0.1162444316,-0.0529002602849,1.55160378955,-0.990053431496,0.791863068286,-0.713149714171,0.0350470012949
5.66,0.465915638494,-0.919928145337,0.0592888359885,0.744138607577,-0.0959931088597,1.33885949693,-0.656261282402,-0.123394463679,-0.0564977320261,1.54967266889,-0.970853651729,0.786164849796,-0.699506998176,0.03550944771
5.68,0.465915638494,-0.919928145337,0.0592888359885,0.744138607577,-0.0959931088597,1.33885949693,-0.656261282402,-0.123394463679,-0.0564977320261,1.54967266889,-0.970853651729,0.786164849796,-0.699506998176,0.03550944771
5.7,0.465915638494,-0.933594089892,0.0593062880161,0.744121097293,-0.0959931088597,1.33885949693,-0.656278726108,-0.130041441538,-0.0598333876322,1.54777009741,-0.953171122618,0.780663538146,-0.687023941788,0.0359344464962
5.72,0.465915638494,-0.933594089892,0.0593062880161,0.744121097293,-0.0959931088597,1.33885949693,-0.656278726108,-0.130041441538,-0.0598333876322,1.54777009741,-0.953171122618,0.780663538146,-0.687023941788,0.0359344464962
5.74,0.465898194788,-0.946771277807,0.0593237400436,0.744051322472,-0.0959931088597,1.33884205323,-0.656261282402,-0.136447585248,-0.0630453183558,1.54584702276,-0.936195674781,0.775211030819,-0.675106210518,0.0363382610314
5.76,0.465898194788,-0.946771277807,0.0593237400436,0.744051322472,-0.0959931088597,1.33884205323,-0.656261282402,-0.136447585248,-0.0630453183558,1.54584702276,-0.936195674781,0.775211030819,-0.675106210518,0.0363382610314
5.78,0.465933082199,-0.958395177017,0.0593062880161,0.744121097293,-0.0959931088597,1.33885949693,-0.656261282402,-0.142026211616,-0.0658628437388,1.54405549851,-0.921574337978,0.770362007065,-0.664877542365,0.0366952019423
5.8,0.465933082199,-0.958395177017,0.0593062880161,0.744121097293,-0.0959931088597,1.33885949693,-0.656261282402,-0.142026211616,-0.0658628437388,1.54405549851,-0.921574337978,0.770362007065,-0.664877542365,0.0366952019423
5.82,0.465898194788,-0.968465720942,0.0593062880161,0.743632407233,-0.0959931088597,1.33882460952,-0.656278726108,-0.147032290077,-0.068378006705,1.54249936079,-0.908279624763,0.765804923248,-0.655658626859,0.0369834384537
5.84,0.465898194788,-0.968465720942,0.0593062880161,0.743632407233,-0.0959931088597,1.33882460952,-0.656278726108,-0.147032290077,-0.068378006705,1.54249936079,-0.908279624763,0.765804923248,-0.655658626859,0.0369834384537
5.86,0.465898194788,-0.977035307277,0.0593062880161,0.743318287382,-0.0959931088597,1.33885949693,-0.656278726108,-0.151241702922,-0.070497786143,1.54111114364,-0.897255540493,0.761943100667,-0.648018503116,0.0372298593058
5.88,0.465898194788,-0.977035307277,0.0593062880161,0.743318287382,-0.0959931088597,1.33885949693,-0.656278726108,-0.151241702922,-0.070497786143,1.54111114364,-0.897255540493,0.761943100667,-0.648018503116,0.0372298593058
5.9,0.465915638494,-0.983981696927,0.0592888359885,0.743353174793,-0.0959931088597,1.33885949693,-0.656261282402,-0.15454979547,-0.0721710156588,1.53993692414,-0.88868862749,0.758901303091,-0.642099988055,0.0374378063923
5.92,0.465915638494,-0.983981696927,0.0592888359885,0.743353174793,-0.0959931088597,1.33885949693,-0.656261282402,-0.15454979547,-0.0721710156588,1.53993692414,-0.88868862749,0.758901303091,-0.642099988055,0.0374378063923
5.94,0.465898194788,-0.989287512767,0.0593237400436,0.743335731088,-0.0959931088597,1.33884205323,-0.656261282402,-0.157097227194,-0.0734348532815,1.53902859825,-0.882135714386,0.756479769695,-0.637593389402,0.037594287381
5.96,0.465898194788,-0.989287512767,0.0593237400436,0.743335731088,-0.0959931088597,1.33884205323,-0.656261282402,-0.157097227194,-0.0734348532815,1.53902859825,-0.882135714386,0.756479769695,-0.637593389402,0.037594287381
5.98,0.465915638494,-0.993598504782,0.0593062880161,0.743353174793,-0.0959931088597,1.33884205323,-0.656261282402,-0.159142820906,-0.0744735378772,1.53827511123,-0.876865749665,0.754551204757,-0.633972934571,0.037721930346
6.0,0.465915638494,-0.993598504782,0.0593062880161,0.743353174793,-0.0959931088597,1.33884205323,-0.656261282402,-0.159142820906,-0.0744735378772,1.53827511123,-0.876865749665,0.754551204757,-0.633972934571,0.037721930346
6.02,0.465898194788,-0.996722659056,0.0593062880161,0.743300843677,-0.0959931088597,1.33884205323,-0.656261282402,-0.160648895478,-0.0752278673927,1.53772769953,-0.872984774455,0.753107829143,-0.631331495666,0.0378119125623
6.04,0.465898194788,-0.996722659056,0.0593062880161,0.743300843677,-0.0959931088597,1.33884205323,-0.656261282402,-0.160648895478,-0.0752278673927,1.53772769953,-0.872984774455,0.753107829143,-0.631331495666,0.0378119125623
6.06,0.465898194788,-0.998275947762,0.0593237400436,0.743353174793,-0.0959931088597,1.33885949693,-0.656261282402,-0.161372392097,-0.07558448584,1.53744506211,-0.871185704866,0.752416778196,-0.630095134662,0.037859217675
6.08,0.465898194788,-0.998275947762,0.0593237400436,0.743353174793,-0.0959931088597,1.33885949693,-0.656261282402,-0.161372392097,-0.07558448584,1.53744506211,-0.871185704866,0.752416778196,-0.630095134662,0.037859217675
6.1,0.465915638494,-0.998712306707,0.0593062880161,0.743370618498,-0.0959931088597,1.33884205323,-0.656261282402,-0.161571450753,-0.0756945859778,1.53736868315,-0.870646032268,0.752228831696,-0.629718788573,0.0378725787071
6.12,0.465915638494,-0.998712306707,0.0593062880161,0.743370618498,-0.0959931088597,1.33884205323,-0.656261282402,-0.161571450753,-0.0756945859778,1.53736868315,-0.870646032268,0.752228831696,-0.629718788573,0.0378725787071
6.14,0.465915638494,-0.998537803076,0.0593062880161,0.743353174793,-0.0959931088597,1.33884205323,-0.656261282402,-0.16149414508,-0.0756558736342,1.53740108887,-0.8708370037,0.752301186649,-0.629848409022,0.0378668772005
6.16,0.465915638494,-0.998537803076,0.0593062880161,0.743353174793,-0.0959931088597,1.33884205323,-0.656261282402,-0.16149414508,-0.0756558736342,1.53740108887,-0.8708370037,0.752301186649,-0.629848409022,0.0378668772005
6.18,0.465898194788,-0.997909430217,0.0593062880161,0.743283399972,-0.0959931088597,1.33884205323,-0.656261282402,-0.161219320262,-0.0755148462663,1.53751817891,-0.87151628023,0.752558605518,-0.630326604225,0.037846104134
6.2,0.465898194788,-0.997909430217,0.0593062880161,0.743283399972,-0.0959931088597,1.33884205323,-0.656261282402,-0.161219320262,-0.0755148462663,1.53751817891,-0.87151628023,0.752558605518,-0.630326604225,0.037846104134
6.22,0.465950559193,-0.995815053757,0.0592713797998,0.743353174793,-0.0959931088597,1.33885949693,-0.656261282402,-0.160188962164,-0.0750203745541,1.53788202015,-0.874159452707,0.753578684546,-0.632104727142,0.0377870604574
6.24,0.465950559193,-0.995815053757,0.0592713797998,0.743353174793,-0.0959931088597,1.33885949693,-0.656261282402,-0.160188962164,-0.0750203745541,1.53788202015,-0.874159452707,0.753578684546,-0.632104727142,0.0377870604574
6.26,0.465915638494,-0.991347001817,0.0593062880161,0.743213558573,-0.0959931088597,1.33882460952,-0.656278726108,-0.158116537946,-0.0739585942392,1.53868252464,-0.879438508044,0.755489593442,-0.635736786976,0.0376509094495
6.28,0.465915638494,-0.991347001817,0.0593062880161,0.743213558573,-0.0959931088597,1.33882460952,-0.656278726108,-0.158116537946,-0.0739585942392,1.53868252464,-0.879438508044,0.755489593442,-0.635736786976,0.0376509094495
6.3,0.465915638494,-0.983877034696,0.0593062880161,0.743283399972,-0.0959931088597,1.33882460952,-0.656278726108,-0.154527827581,-0.0721534129301,1.53996550321,-0.888708128458,0.758875012488,-0.642107358575,0.037432346023
6.32,0.465915638494,-0.983877034696,0.0593062880161,0.743283399972,-0.0959931088597,1.33882460952,-0.656278726108,-0.154527827581,-0.0721534129301,1.53996550321,-0.888708128458,0.758875012488,-0.642107358575,0.037432346023
6.34,0.465933082199,-0.973195561617,0.0593062880161,0.742655027113,-0.0959931088597,1.33884205323,-0.656278726108,-0.149615668909,-0.0696925482204,1.54180544083,-0.901167974203,0.763352324091,-0.650653466136,0.0370928569284
6.36,0.465933082199,-0.973195561617,0.0593062880161,0.742655027113,-0.0959931088597,1.33884205323,-0.656278726108,-0.149615668909,-0.0696925482204,1.54180544083,-0.901167974203,0.763352324091,-0.650653466136,0.0370928569284
6.38,0.465898194788,-0.960367447541,0.0593237400436,0.742707424807,-0.0959931088597,1.33884205323,-0.656261282402,-0.14343971385,-0.0665733978041,1.54387288761,-0.917273403415,0.768938392896,-0.661840349586,0.0367083025012
6.4,0.465933082199,-0.943106102357,0.0592713797998,0.742463079777,-0.0960105608872,1.33887694064,-0.656261282402,-0.14343971385,-0.0665733978041,1.54387288761,-0.917273403415,0.768938392896,-0.661840349586,0.0367083025012
6.42,0.465933082199,-0.943106102357,0.0592713797998,0.742463079777,-0.0960105608872,1.33887694064,-0.656261282402,-0.135173504094,-0.0624491976588,1.54653866735,-0.93882826372,0.776183890252,-0.676887171626,0.0361738757017
6.44,0.465915638494,-0.924867443632,0.0593062880161,0.742497967188,-0.0959931088597,1.33887694064,-0.656261282402,-0.135173504094,-0.0624491976588,1.54653866735,-0.93882826372,0.776183890252,-0.676887171626,0.0361738757017
6.46,0.465915638494,-0.924867443632,0.0593062880161,0.742497967188,-0.0959931088597,1.33887694064,-0.656261282402,-0.126324355081,-0.0579793445619,1.54915899201,-0.96231861486,0.783601580419,-0.693387388672,0.035610918625
6.48,0.465898194788,-0.903609292862,0.0593411962323,0.742724868513,-0.0959931088597,1.33887694064,-0.656261282402,-0.126324355081,-0.0579793445619,1.54915899201,-0.96231861486,0.783601580419,-0.693387388672,0.035610918625
6.5,0.465898194788,-0.903609292862,0.0593411962323,0.742724868513,-0.0959931088597,1.33887694064,-0.656261282402,-0.115896473402,-0.0527175260103,1.55196397775,-0.990372801903,0.791966554212,-0.71327958208,0.0349508085182
6.52,0.465933082199,-0.881077085828,0.0593062880161,0.742515410893,-0.0959931088597,1.33891182805,-0.656261282402,-0.115896473402,-0.0527175260103,1.55196397775,-0.990372801903,0.791966554212,-0.71327958208,0.0349508085182
6.54,0.465933082199,-0.881077085828,0.0593062880161,0.742515410893,-0.0959931088597,1.33891182805,-0.656261282402,-0.104914782355,-0.0472162148386,1.55471059515,-1.02002549627,0.800315749494,-0.734450648996,0.034225955529
6.56,0.465933082199,-0.856555231142,0.0593062880161,0.742672470818,-0.0959931088597,1.33889438434,-0.656278726108,-0.0927937867682,-0.0411194378114,1.55734678295,-1.05334584188,0.808945775263,-0.758474427368,0.0334373281625
6.58,0.465933082199,-0.856555231142,0.0593062880161,0.742672470818,-0.0959931088597,1.33889438434,-0.656278726108,-0.0927937867682,-0.0411194378114,1.55734678295,-1.05334584188,0.808945775263,-0.758474427368,0.0334373281625
6.6,0.465933082199,-0.829904046007,0.0593062880161,0.742637583408,-0.0959931088597,1.33887694064,-0.656261282402,-0.0796234118377,-0.034496732621,1.55985959775,-1.08992163658,0.817659983318,-0.785042722777,0.032561102748
6.62,0.465933082199,-0.829904046007,0.0593062880161,0.742637583408,-0.0959931088597,1.33887694064,-0.656261282402,-0.0796234118377,-0.034496732621,1.55985959775,-1.08992163658,0.817659983318,-0.785042722777,0.032561102748
6.64,0.465915638494,-0.806115226412,0.0593062880161,0.742637583408,-0.0960105608872,1.33887694064,-0.656278726108,-0.067809540336,-0.0285577994062,1.56176342922,-1.12320668771,0.824849467964,-0.809448777574,0.0317699029881
6.66,0.465915638494,-0.806115226412,0.0593062880161,0.742637583408,-0.0960105608872,1.33887694064,-0.656278726108,-0.067809540336,-0.0285577994062,1.56176342922,-1.12320668771,0.824849467964,-0.809448777574,0.0317699029881
6.68,0.465933082199,-0.778294647243,0.0593411962323,0.742864484733,-0.0959931088597,1.33891182805,-0.656261282402,-0.0538833276981,-0.0215376130119,1.56354946401,-1.16314100875,0.832615196184,-0.838831999067,0.0308407656393
6.7,0.465933082199,-0.778294647243,0.0593411962323,0.742864484733,-0.0959931088597,1.33891182805,-0.656261282402,-0.0538833276981,-0.0215376130119,1.56354946401,-1.16314100875,0.832615196184,-0.838831999067,0.0308407656393
6.72,0.465933082199,-0.752254391262,0.0593411962323,0.742812153617,-0.0959931088597,1.33885949693,-0.656261282402,-0.0408907767701,-0.0150041497728,1.56488254327,-1.20059795422,0.839085978669,-0.866617499994,0.029954812947
6.74,0.465933082199,-0.752254391262,0.0593411962323,0.742812153617,-0.0959931088597,1.33885949693,-0.656261282402,-0.0408907767701,-0.0150041497728,1.56488254327,-1.20059795422,0.839085978669,-0.866617499994,0.029954812947
6.76,0.465933082199,-0.723246974353,0.0593237400436,0.742777199628,-0.0959931088597,1.33891182805,-0.656261282402,-0.0263726776224,-0.00771126333237,1.56589942692,-1.24311778135,0.845504112398,-0.898360561538,0.028961117916
6.78,0.465933082199,-0.723246974353,0.0593237400436,0.742777199628,-0.0959931088597,1.33891182805,-0.656261282402,-0.0263726776224,-0.00771126333237,1.56589942692,-1.24311778135,0.845504112398,-0.898360561538,0.028961117916
6.8,0.465950559193,-0.694815599187,0.0593411962323,0.743056498647,-0.0959931088597,1.33887694064,-0.656278726108,-0.0120400715857,-0.00049442142477,1.5663962446,-1.28570805969,0.850893757769,-0.930291433495,0.0279906284371
6.82,0.465950559193,-0.694815599187,0.0593411962323,0.743056498647,-0.0959931088597,1.33887694064,-0.656278726108,-0.0120400715857,-0.00049442142477,1.5663962446,-1.28570805969,0.850893757769,-0.930291433495,0.0279906284371
6.84,0.465933082199,-0.667518597488,0.0593411962323,0.743475347308,-0.0959931088597,1.33889438434,-0.656261282402,0.00177348716072,0.00645575423738,1.56640423276,-1.32734637852,0.85528038153,-0.961691084517,0.0270604597726
6.86,0.465933082199,-0.667518597488,0.0593411962323,0.743475347308,-0.0959931088597,1.33889438434,-0.656261282402,0.00177348716072,0.00645575423738,1.56640423276,-1.32734637852,0.85528038153,-0.961691084517,0.0270604597726
6.88,0.465950559193,-0.638197127307,0.0593411962323,0.743754579748,-0.0959931088597,1.33891182805,-0.656261282402,0.0165550163746,0.0138915970383,1.56597276546,-1.37223620478,0.858996735632,-0.995622423791,0.0260571618771
6.9,0.465950559193,-0.638197127307,0.0593411962323,0.743754579748,-0.0959931088597,1.33891182805,-0.656261282402,0.0165550163746,0.0138915970383,1.56597276546,-1.37223620478,0.858996735632,-0.995622423791,0.0260571618771
6.92,0.465950559193,-0.611685558393,0.0593411962323,0.743597519823,-0.0959931088597,1.33887694064,-0.656278726108,0.0297894808617,0.0205458708428,1.56525669113,-1.41241396991,0.861456254174,-1.0260735132,0.0251428415514
6.94,0.465950559193,-0.611685558393,0.0593411962323,0.743597519823,-0.0959931088597,1.33887694064,-0.656278726108,0.0297894808617,0.0205458708428,1.56525669113,-1.41241396991,0.861456254174,-1.0260735132,0.0251428415514
6.96,0.465950559193,-0.583289004059,0.0593411962323,0.743824421148,-0.0959931088597,1.33892927175,-0.656261282402,0.0440504218374,0.0277190121535,1.56395502929,-1.4564006294,0.863243810225,-1.05948662008,0.0241814897378
6.98,0.465950559193,-0.583289004059,0.0593411962323,0.743824421148,-0.0959931088597,1.33892927175,-0.656261282402,0.0440504218374,0.0277190121535,1.56395502929,-1.4564006294,0.863243810225,-1.05948662008,0.0241814897378
7.0,0.465950559193,-0.555136861333,0.0593586482598,0.743737136043,-0.0959931088597,1.33887694064,-0.656278726108,0.0580618929683,0.0347716962907,1.56230374908,-1.49950473004,0.864031018686,-1.09223798204,0.023232171699
7.02,0.465950559193,-0.555136861333,0.0593586482598,0.743737136043,-0.0959931088597,1.33887694064,-0.656278726108,0.0580618929683,0.0347716962907,1.56230374908,-1.49950473004,0.864031018686,-1.09223798204,0.023232171699
7.04,0.465950559193,-0.526426220438,0.0593411962323,0.743841864853,-0.0959931088597,1.33892927175,-0.656261282402,0.072360283314,0.0419556920322,1.56010318507,-1.54395682027,0.863930066203,-1.12606340447,0.0222861425599
7.06,0.465950559193,-0.526426220438,0.0593411962323,0.743841864853,-0.0959931088597,1.33892927175,-0.656261282402,0.072360283314,0.0419556920322,1.56010318507,-1.54395682027,0.863930066203,-1.12606340447,0.0222861425599
7.08,0.465968002898,-0.498274044423,0.0593411962323,0.743824421148,-0.0959931088597,1.33887694064,-0.656261282402,0.0862848966769,0.0489604131403,1.55754605887,-1.58714156908,0.862872116563,-1.15886782201,0.0213775900478
7.1,0.465968002898,-0.498274044423,0.0593411962323,0.743824421148,-0.0959931088597,1.33887694064,-0.656261282402,0.0862848966769,0.0489604131403,1.55754605887,-1.58714156908,0.862872116563,-1.15886782201,0.0213775900478
7.12,0.465950559193,-0.471762508798,0.0593586482598,0.743894262547,-0.0959931088597,1.33891182805,-0.656261282402,0.099354766183,0.0555382401637,1.55470194146,-1.62793047076,0.861012657141,-1.18983860629,0.0205496924087
7.14,0.465950559193,-0.471762508798,0.0593586482598,0.743894262547,-0.0959931088597,1.33891182805,-0.656261282402,0.099354766183,0.0555382401637,1.55470194146,-1.62793047076,0.861012657141,-1.18983860629,0.0205496924087
7.16,0.465950559193,-0.444168830954,0.0593761002873,0.743946593663,-0.0959931088597,1.33894684861,-0.656261282402,0.112875279554,0.0623444608625,1.55133581926,-1.67012262325,0.858212843899,-1.22179258552,0.0197199024656
7.18,0.465950559193,-0.444168830954,0.0593761002873,0.743946593663,-0.0959931088597,1.33894684861,-0.656261282402,0.112875279554,0.0623444608625,1.55133581926,-1.67012262325,0.858212843899,-1.22179258552,0.0197199024656
7.2,0.465968002898,-0.419646976268,0.0593761002873,0.743894262547,-0.0959931088597,1.33887694064,-0.656261282402,0.124795566559,0.0683419354616,1.54803784349,-1.70705712965,0.855027763428,-1.24968038823,0.0190132139771
7.22,0.465968002898,-0.419646976268,0.0593761002873,0.743894262547,-0.0959931088597,1.33887694064,-0.656261282402,0.124795566559,0.0683419354616,1.54803784349,-1.70705712965,0.855027763428,-1.24968038823,0.0190132139771
7.24,0.465950559193,-0.394461861314,0.0593761002873,0.743964037368,-0.0959931088597,1.33889438434,-0.656278726108,0.136989502431,0.0744717398467,1.54426294316,-1.74499319342,0.851001886713,-1.2782761734,0.0183292929027
7.26,0.465950559193,-0.394461861314,0.0593761002873,0.743964037368,-0.0959931088597,1.33889438434,-0.656278726108,0.136989502431,0.0744717398467,1.54426294316,-1.74499319342,0.851001886713,-1.2782761734,0.0183292929027
7.28,0.465950559193,-0.370795214234,0.0593761002873,0.744068766178,-0.0959931088597,1.33894684861,-0.656261282402,0.148374047602,0.080197272068,1.54038613418,-1.78041811093,0.846591835902,-1.30487080771,0.0177290395613
7.3,0.465950559193,-0.370795214234,0.0593761002873,0.744068766178,-0.0959931088597,1.33894684861,-0.656261282402,0.148374047602,0.080197272068,1.54038613418,-1.78041811093,0.846591835902,-1.30487080771,0.0177290395613
7.32,0.465968002898,-0.346709651914,0.059393556476,0.743998924778,-0.0959931088597,1.33891182805,-0.656261282402,0.159830790637,0.0859687656535,1.53619633932,-1.81569279315,0.841513811582,-1.33119712007,0.0171603398018
7.34,0.465968002898,-0.346709651914,0.059393556476,0.743998924778,-0.0959931088597,1.33891182805,-0.656261282402,0.159830790637,0.0859687656535,1.53619633932,-1.81569279315,0.841513811582,-1.33119712007,0.0171603398018
7.36,0.465950559193,-0.323584059299,0.0593761002873,0.743964037368,-0.0959931088597,1.33887694064,-0.656261282402,0.170758904937,0.0914539345566,1.53187526163,-1.84921280177,0.836065007955,-1.35616283599,0.0166655229408
7.38,0.465950559193,-0.323584059299,0.0593761002873,0.743964037368,-0.0959931088597,1.33887694064,-0.656261282402,0.170758904937,0.0914539345566,1.53187526163,-1.84921280177,0.836065007955,-1.35616283599,0.0166655229408
7.4,0.465933082199,-0.299760285714,0.0593586482598,0.743981481073,-0.0959931088597,1.33887694064,-0.656261282402,0.181930909038,0.0970614025882,1.52710777047,-1.8834290839,0.829847583382,-1.38151590643,0.0162149222429
7.42,0.465933082199,-0.299760285714,0.0593586482598,0.743981481073,-0.0959931088597,1.33887694064,-0.656261282402,0.181930909038,0.0970614025882,1.52710777047,-1.8834290839,0.829847583382,-1.38151590643,0.0162149222429
7.44,0.465950559193,-0.277280459729,0.0593761002873,0.744121097293,-0.0960105608872,1.33891182805,-0.656261282402,0.192392761407,0.102331086438,1.52229472473,-1.91548301686,0.823384145445,-1.40508309103,0.0158524680489
7.46,0.465950559193,-0.277280459729,0.0593761002873,0.744121097293,-0.0960105608872,1.33891182805,-0.656261282402,0.192392761407,0.102331086438,1.52229472473,-1.91548301686,0.823384145445,-1.40508309103,0.0158524680489
7.48,0.465968002898,-0.254643540529,0.0594110085035,0.744121097293,-0.0959931088597,1.33892927175,-0.656261282402,0.202794257889,0.1075830687,1.5172279148,-1.94708716984,0.816433556712,-1.42812382916,0.0155462933356
7.5,0.465968002898,-0.254643540529,0.0594110085035,0.744121097293,-0.0959931088597,1.33892927175,-0.656261282402,0.202794257889,0.1075830687,1.5172279148,-1.94708716984,0.816433556712,-1.42812382916,0.0155462933356
7.52,0.465968002898,-0.231727372244,0.0594110085035,0.744121097293,-0.0959756568322,1.33891182805,-0.656261282402,0.213225784648,0.112832518565,1.51183707511,-1.97854878244,0.808917856908,-1.45095373011,0.0153051208386
7.54,0.465968002898,-0.231727372244,0.0594110085035,0.744121097293,-0.0959756568322,1.33891182805,-0.656261282402,0.213225784648,0.112832518565,1.51183707511,-1.97854878244,0.808917856908,-1.45095373011,0.0153051208386
7.56,0.465950559193,-0.207659270274,0.0593761002873,0.744051322472,-0.0959931088597,1.33887694064,-0.656278726108,0.224058154238,0.118257968005,1.50591375661,-2.01091674692,0.800510582041,-1.47433893953,0.0151282827128
7.58,0.465950559193,-0.207659270274,0.0593761002873,0.744051322472,-0.0959931088597,1.33887694064,-0.656278726108,0.224058154238,0.118257968005,1.50591375661,-2.01091674692,0.800510582041,-1.47433893953,0.0151282827128
7.6,0.465950559193,-0.184254411929,0.0593586482598,0.744086209883,-0.0959931088597,1.33885949693,-0.656278726108,0.234478921103,0.123492014141,1.49984026813,-2.04200783491,0.791809475312,-1.49657651358,0.0150399151007
7.62,0.465950559193,-0.184254411929,0.0593586482598,0.744086209883,-0.0959931088597,1.33885949693,-0.656278726108,0.234478921103,0.123492014141,1.49984026813,-2.04200783491,0.791809475312,-1.49657651358,0.0150399151007
7.64,0.465933082199,-0.159732540599,0.0593586482598,0.744173494987,-0.0960105608872,1.33887694064,-0.656261282402,0.245264763349,0.128908005433,1.49316381801,-2.07409415211,0.782150767938,-1.51934194901,0.015035891394
7.66,0.465933082199,-0.159732540599,0.0593586482598,0.744173494987,-0.0960105608872,1.33887694064,-0.656261282402,0.245264763349,0.128908005433,1.49316381801,-2.07409415211,0.782150767938,-1.51934194901,0.015035891394
7.68,0.465950559193,-0.136345117637,0.059393556476,0.744103653588,-0.0959931088597,1.33891182805,-0.656261282402,0.25537375683,0.134013022219,1.48656907248,-2.10394988824,0.772531052866,-1.54021851842,0.0151097969615
7.7,0.465950559193,-0.136345117637,0.059393556476,0.744103653588,-0.0959931088597,1.33891182805,-0.656261282402,0.25537375683,0.134013022219,1.48656907248,-2.10394988824,0.772531052866,-1.54021851842,0.0151097969615
7.72,0.465950559193,-0.110025554315,0.059393556476,0.743981481073,-0.0959931088597,1.33889438434,-0.656261282402,0.26658900092,0.13965201681,1.47885718621,-2.13674361113,0.761225172599,-1.56297320517,0.0152861375016
7.74,0.465950559193,-0.110025554315,0.059393556476,0.743981481073,-0.0959931088597,1.33889438434,-0.656261282402,0.26658900092,0.13965201681,1.47885718621,-2.13674361113,0.761225172599,-1.56297320517,0.0152861375016
7.76,0.465968002898,-0.0828682354147,0.0594110085035,0.744208382398,-0.0959931088597,1.33882460952,-0.656278726108,0.278016902917,0.145414646141,1.47044555105,-2.17017195193,0.748834912828,-1.58583862752,0.0155814672331
7.78,0.465968002898,-0.0828682354147,0.0594110085035,0.744208382398,-0.0959931088597,1.33887694064,-0.656261282402,0.278016902917,0.145414646141,1.47044555105,-2.17017195193,0.748834912828,-1.58583862752,0.0155814672331
7.8,0.465968002898,-0.0563217749286,0.059393556476,0.744278223797,-0.0959931088597,1.33887694064,-0.656261282402,0.288964584485,0.150913548284,1.46192275393,-2.20208734766,0.736252465321,-1.6074485637,0.0159586983479
7.82,0.465968002898,-0.0283965064805,0.059393556476,0.744243269808,-0.0959931088597,1.33887694064,-0.656278726108,0.288964584485,0.150913548284,1.46192275393,-2.20208734766,0.736252465321,-1.6074485637,0.0159586983479
7.84,0.465968002898,-0.0283965064805,0.059393556476,0.744243269808,-0.0959931088597,1.33887694064,-0.656278726108,0.300244429368,0.156585905732,1.45265536735,-2.23466351478,0.722539005309,-1.62915159056,0.0164428731742
7.86,0.465968002898,-0.00202458187406,0.059393556476,0.744278223797,-0.0959931088597,1.33885949693,-0.656261282402,0.310690350014,0.161839689514,1.44356189488,-2.2647726189,0.709112982414,-1.64891887957,0.0169802058543
7.88,0.465968002898,-0.00202458187406,0.059393556476,0.744278223797,-0.0959931088597,1.33885949693,-0.656261282402,0.310690350014,0.161839689514,1.44356189488,-2.2647726189,0.709112982414,-1.64891887957,0.0169802058543
7.9,0.465985446604,0.0243124365968,0.0594110085035,0.744330554913,-0.0959931088597,1.33887694064,-0.656261282402,0.320898433879,0.166987606485,1.43416448073,-2.29419386758,0.695226424855,-1.66788880877,0.0175844925459
7.92,0.465985446604,0.0243124365968,0.0594110085035,0.744330554913,-0.0959931088597,1.33887694064,-0.656261282402,0.320898433879,0.166987606485,1.43416448073,-2.29419386758,0.695226424855,-1.66788880877,0.0175844925459
7.94,0.465968002898,0.0486074211661,0.059393556476,0.744295667502,-0.0959931088597,1.33885949693,-0.656261282402,0.3301205514,0.171611372688,1.42526586897,-2.32060448006,0.682114251415,-1.68470781085,0.0181908831849
7.96,0.465968002898,0.0486074211661,0.059393556476,0.744295667502,-0.0959931088597,1.33885949693,-0.656261282402,0.3301205514,0.171611372688,1.42526586897,-2.32060448006,0.682114251415,-1.68470781085,0.0181908831849
7.98,0.465968002898,0.0756774757673,0.059393556476,0.744278223797,-0.0959931088597,1.33882460952,-0.656278726108,0.340162400574,0.176661637186,1.41505351335,-2.3493646685,0.667095096902,-1.70266071053,0.0189184309049
8.0,0.465968002898,0.0756774757673,0.059393556476,0.744278223797,-0.0959931088597,1.33882460952,-0.656278726108,0.340162400574,0.176661637186,1.41505351335,-2.3493646685,0.667095096902,-1.70266071053,0.0189184309049
8.02,0.465985446604,0.101229099945,0.059393556476,0.744347998618,-0.0959931088597,1.33884205323,-0.656278726108,0.349411555117,0.181321227735,1.40509984341,-2.37603267903,0.652487231198,-1.71899129412,0.0196512144105
8.04,0.465985446604,0.101229099945,0.059393556476,0.744347998618,-0.0959931088597,1.33884205323,-0.656278726108,0.349411555117,0.181321227735,1.40509984341,-2.37603267903,0.652487231198,-1.71899129412,0.0196512144105
8.06,0.465968002898,0.126274573712,0.059393556476,0.744382952607,-0.0959931088597,1.33882460952,-0.656261282402,0.358260110134,0.18576400444,1.39510647016,-2.40153706241,0.637896242386,-1.73435556843,0.0204020461076
8.08,0.465968002898,0.126274573712,0.059393556476,0.744382952607,-0.0959931088597,1.33882460952,-0.656261282402,0.358260110134,0.18576400444,1.39510647016,-2.40153706241,0.637896242386,-1.73435556843,0.0204020461076
8.1,0.465968002898,0.15296065458,0.059393556476,0.744330554913,-0.0959931088597,1.33880716582,-0.656261282402,0.367429068724,0.190374799082,1.38422190976,-2.42801235243,0.622059569424,-1.74995324165,0.0212295536912
8.12,0.465968002898,0.15296065458,0.059393556476,0.744330554913,-0.0959931088597,1.33880716582,-0.656261282402,0.367429068724,0.190374799082,1.38422190976,-2.42801235243,0.622059569424,-1.74995324165,0.0212295536912
8.14,0.465968002898,0.177028739905,0.059393556476,0.744435283723,-0.0959931088597,1.33882460952,-0.656261282402,0.375480181147,0.194424523905,1.37411292486,-2.45154606758,0.607377643787,-1.76352672221,0.0220046184184
8.16,0.465968002898,0.177028739905,0.059393556476,0.744435283723,-0.0959931088597,1.33882460952,-0.656261282402,0.375480181147,0.194424523905,1.37411292486,-2.45154606758,0.607377643787,-1.76352672221,0.0220046184184
8.18,0.466002923598,0.202388375134,0.0594284605311,0.744330554913,-0.0959756568322,1.33882460952,-0.656278726108,0.383700922827,0.198591639559,1.36331202943,-2.47562125277,0.591793290273,-1.77702358959,0.0228315427863
8.2,0.466002923598,0.202388375134,0.0594284605311,0.744330554913,-0.0959756568322,1.33882460952,-0.656278726108,0.383700922827,0.198591639559,1.36331202943,-2.47562125277,0.591793290273,-1.77702358959,0.0228315427863
8.22,0.465968002898,0.226281940184,0.059393556476,0.744417840017,-0.0959931088597,1.33878972211,-0.656278726108,0.391259945422,0.202360408203,1.3528602706,-2.49795180456,0.576744885566,-1.78941726205,0.0236320226417
8.24,0.465968002898,0.226281940184,0.059393556476,0.744417840017,-0.0959931088597,1.33878972211,-0.656278726108,0.391259945422,0.202360408203,1.3528602706,-2.49795180456,0.576744885566,-1.78941726205,0.0236320226417
8.26,0.466002923598,0.253840680684,0.0594284605311,0.744313111208,-0.0959931088597,1.33878972211,-0.656278726108,0.39965727171,0.206613802049,1.3406302977,-2.52305300861,0.559251228991,-1.80285401461,0.0245601164127
8.28,0.466002923598,0.253840680684,0.0594284605311,0.744313111208,-0.0959931088597,1.33878972211,-0.656278726108,0.39965727171,0.206613802049,1.3406302977,-2.52305300861,0.559251228991,-1.80285401461,0.0245601164127
8.3,0.465985446604,0.282010317049,0.0594110085035,0.744470171133,-0.0959931088597,1.33878972211,-0.656278726108,0.407953932982,0.210772184023,1.32776695252,-2.54835613494,0.540890129187,-1.81611406921,0.0255296303004
8.32,0.465985446604,0.282010317049,0.0594110085035,0.744470171133,-0.0959931088597,1.33878972211,-0.656278726108,0.407953932982,0.210772184023,1.32776695252,-2.54835613494,0.540890129187,-1.81611406921,0.0255296303004
8.34,0.465985446604,0.310040287259,0.0594110085035,0.744435283723,-0.0959931088597,1.3387548347,-0.656278726108,0.415877395778,0.214757117374,1.31478881449,-2.5727985968,0.522506820002,-1.82850565442,0.0264926442709
8.36,0.465985446604,0.310040287259,0.0594110085035,0.744435283723,-0.0959931088597,1.3387548347,-0.656278726108,0.415877395778,0.214757117374,1.31478881449,-2.5727985968,0.522506820002,-1.82850565442,0.0264926442709
8.38,0.466002923598,0.340269396029,0.0594284605311,0.744487614838,-0.0959931088597,1.33878972211,-0.656278726108,0.424041166343,0.218879222721,1.30047780522,-2.59871875999,0.502289382828,-1.84118195411,0.0275381473088
8.4,0.466002923598,0.340269396029,0.0594284605311,0.744487614838,-0.0959931088597,1.33878972211,-0.656278726108,0.424041166343,0.218879222721,1.30047780522,-2.59871875999,0.502289382828,-1.84118195411,0.0275381473088
8.42,0.465968002898,0.368473903159,0.059393556476,0.744487614838,-0.0959931088597,1.338737391,-0.656278726108,0.431335155122,0.222515534334,1.28690924463,-2.62226421169,0.483256209003,-1.85238578599,0.0285105951054
8.44,0.465968002898,0.368473903159,0.059393556476,0.744487614838,-0.0959931088597,1.338737391,-0.656278726108,0.431335155122,0.222515534334,1.28690924463,-2.62226421169,0.483256209003,-1.85238578599,0.0285105951054
8.46,0.466002923598,0.396434098549,0.0594284605311,0.744522568827,-0.0959931088597,1.3387548347,-0.656278726108,0.438190698831,0.225996356302,1.27321618107,-2.64524494185,0.464111827545,-1.86280274348,0.029472829822
8.48,0.466002923598,0.396434098549,0.0594284605311,0.744522568827,-0.0959931088597,1.3387548347,-0.656278726108,0.438190698831,0.225996356302,1.27321618107,-2.64524494185,0.464111827545,-1.86280274348,0.029472829822
8.5,0.465985446604,0.424586241274,0.0594110085035,0.744487614838,-0.0959931088597,1.33871994729,-0.656278726108,0.444772692779,0.229290124422,1.25924903714,-2.66783112786,0.444700614722,-1.87274935444,0.0304323666511
8.52,0.465985446604,0.424586241274,0.0594110085035,0.744487614838,-0.0959931088597,1.33871994729,-0.656278726108,0.444772692779,0.229290124422,1.25924903714,-2.66783112786,0.444700614722,-1.87274935444,0.0304323666511
8.54,0.465968002898,0.451097810188,0.0594110085035,0.744540012532,-0.0959931088597,1.33871994729,-0.656278726108,0.450639250653,0.232231148972,1.24587592257,-2.68881358934,0.426160788307,-1.88161654841,0.0313320699115
8.56,0.465968002898,0.451097810188,0.0594110085035,0.744540012532,-0.0959931088597,1.33871994729,-0.656278726108,0.450639250653,0.232231148972,1.24587592257,-2.68881358934,0.426160788307,-1.88161654841,0.0313320699115
8.58,0.466002923598,0.477644266513,0.0594284605311,0.744505125122,-0.0959931088597,1.338737391,-0.656278726108,0.456179861919,0.23504397313,1.23234682557,-2.70942692065,0.407491385971,-1.88991418231,0.0322199195476
8.6,0.466002923598,0.477644266513,0.0594284605311,0.744505125122,-0.0959931088597,1.338737391,-0.656278726108,0.456179861919,0.23504397313,1.23234682557,-2.70942692065,0.407491385971,-1.88991418231,0.0322199195476
8.62,0.465950559193,0.503492575158,0.059393556476,0.744505125122,-0.0960105608872,1.33870250358,-0.656278726108,0.4612998577,0.237572043333,1.21901157648,-2.72913393798,0.389150770964,-1.89764523281,0.033075137215
8.64,0.466002923598,0.530161203998,0.0594110085035,0.744505125122,-0.0959931088597,1.33871994729,-0.656278726108,0.4612998577,0.237572043333,1.21901157648,-2.72913393798,0.389150770964,-1.89764523281,0.033075137215
8.66,0.466002923598,0.530161203998,0.0594110085035,0.744505125122,-0.0959931088597,1.33871994729,-0.656278726108,0.466214418741,0.24008413858,1.20509827082,-2.74924248854,0.37008845662,-1.90502557514,0.0339452874578
8.68,0.465968002898,0.555433570768,0.059393556476,0.744574899943,-0.0960105608872,1.33871994729,-0.656278726108,0.466214418741,0.24008413858,1.20509827082,-2.74924248854,0.37008845662,-1.90502557514,0.0339452874578
8.7,0.465968002898,0.555433570768,0.059393556476,0.744574899943,-0.0960105608872,1.33871994729,-0.656278726108,0.470590217148,0.242254800839,1.19175780388,-2.76802203939,0.351826107169,-1.91171101381,0.0347600202587
8.72,0.465968002898,0.581281912703,0.0594110085035,0.744470171133,-0.0959931088597,1.33868492672,-0.656278726108,0.470590217148,0.242254800839,1.19175780388,-2.76802203939,0.351826107169,-1.91171101381,0.0347600202587
8.74,0.465968002898,0.581281912703,0.0594110085035,0.744470171133,-0.0959931088597,1.33868492672,-0.656278726108,0.474752559847,0.244357526744,1.17805764324,-2.78686590545,0.333226070033,-1.91802254051,0.0355710200969
8.76,0.465985446604,0.607426964073,0.0594110085035,0.744470171133,-0.0959931088597,1.33865003931,-0.656278726108,0.474752559847,0.244357526744,1.17805764324,-2.78686590545,0.333226070033,-1.91802254051,0.0355710200969
8.78,0.465985446604,0.607426964073,0.0594110085035,0.744470171133,-0.0959931088597,1.33865003931,-0.656278726108,0.478631625696,0.246319173563,1.16404318778,-2.80573172486,0.314203666365,-1.92400447195,0.0363802987323
8.8,0.465968002898,0.632524793923,0.059393556476,0.744557456238,-0.0959931088597,1.33865003931,-0.656278726108,0.478631625696,0.246319173563,1.16404318778,-2.80573172486,0.314203666365,-1.92400447195,0.0363802987323
8.82,0.465968002898,0.632524793923,0.059393556476,0.744557456238,-0.0959931088597,1.33865003931,-0.656278726108,0.482045150691,0.248019276917,1.1504532167,-2.82369675473,0.295746940343,-1.92942782424,0.0371453643325
8.84,0.466002923598,0.658530162493,0.0594284605311,0.744470171133,-0.0959931088597,1.33863259561,-0.656278726108,0.482045150691,0.248019276917,1.1504532167,-2.82369675473,0.295746940343,-1.92942782424,0.0371453643325
8.86,0.466002923598,0.658530162493,0.0594284605311,0.744470171133,-0.0959931088597,1.33863259561,-0.656278726108,0.485256915346,0.249668908177,1.13634133937,-2.84199364151,0.276700275197,-1.93453326971,0.0379123562267
8.88,0.465968002898,0.683645436048,0.059393556476,0.744470171133,-0.0960105608872,1.3385977082,-0.656278726108,0.488070359455,0.251045863219,1.1225982929,-2.85947425689,0.258132283015,-1.93921561378,0.0386391382573
8.9,0.465968002898,0.683645436048,0.059393556476,0.744470171133,-0.0960105608872,1.3385977082,-0.656278726108,0.488070359455,0.251045863219,1.1225982929,-2.85947425689,0.258132283015,-1.93921561378,0.0386391382573
8.92,0.465968002898,0.708830551003,0.059393556476,0.744540012532,-0.0959931088597,1.3386151519,-0.656278726108,0.4905487642,0.25229595697,1.10871413561,-2.87695597518,0.239380058241,-1.9435159404,0.0393530470143
8.94,0.465968002898,0.708830551003,0.059393556476,0.744540012532,-0.0959931088597,1.3386151519,-0.656278726108,0.4905487642,0.25229595697,1.10871413561,-2.87695597518,0.239380058241,-1.9435159404,0.0393530470143
8.96,0.466002923598,0.732811384513,0.0594284605311,0.744557456238,-0.0959931088597,1.33863259561,-0.656278726108,0.492609810213,0.253367828809,1.09545068533,-2.89342691743,0.2215020943,-1.94721740164,0.0400127194915
8.98,0.466002923598,0.732811384513,0.0594284605311,0.744557456238,-0.0959931088597,1.33863259561,-0.656278726108,0.492609810213,0.253367828809,1.09545068533,-2.89342691743,0.2215020943,-1.94721740164,0.0400127194915
9.0,0.465985446604,0.756862059422,0.0594110085035,0.744470171133,-0.0959931088597,1.3385977082,-0.656278726108,0.494433427544,0.254266815681,1.08213572043,-2.90968507156,0.203612758316,-1.9506793291,0.0406510694567
9.02,0.465985446604,0.756862059422,0.0594110085035,0.744470171133,-0.0959931088597,1.3385977082,-0.656278726108,0.494433427544,0.254266815681,1.08213572043,-2.90968507156,0.203612758316,-1.9506793291,0.0406510694567
9.04,0.465968002898,0.779900400222,0.059393556476,0.744487614838,-0.0960105608872,1.33856282079,-0.656278726108,0.495900301179,0.25498407058,1.06930368878,-2.92519533176,0.186338478372,-1.95371289325,0.0412497520619
9.06,0.465968002898,0.779900400222,0.059393556476,0.744487614838,-0.0960105608872,1.33856282079,-0.656278726108,0.495900301179,0.25498407058,1.06930368878,-2.92519533176,0.186338478372,-1.95371289325,0.0412497520619
9.08,0.466002923598,0.802659442003,0.0594110085035,0.744417840017,-0.0959931088597,1.33856282079,-0.656278726108,0.497075544337,0.255606398529,1.05662169286,-2.94043122711,0.169309730577,-1.95636322538,0.0418197912986
9.1,0.466002923598,0.802659442003,0.0594110085035,0.744417840017,-0.0959931088597,1.33856282079,-0.656278726108,0.497075544337,0.255606398529,1.05662169286,-2.94043122711,0.169309730577,-1.95636322538,0.0418197912986
9.12,0.465968002898,0.826430884472,0.059393556476,0.744540012532,-0.0960105608872,1.33856282079,-0.656278726108,0.498025345843,0.256053243544,1.04328065934,-2.95632606031,0.151291393986,-1.95894227438,0.0424055929953
