GitHatake/ROS1EARs/catkin_ws/src/torobo_robot/torobo_EARs2021/scripts/arm/2021_kaiya_csv/test_manipulability_20220119_3_pvt_2.csv
time,joint_1,joint_2,joint_3,joint_4,joint_5,joint_6,joint_7,x,y,z,roll,pitch,yaw,manipulability
0.0,0.199351505964,1.02147141507,0.117094141447,0.161687300839,0.0127234497643,1.6994271406,-0.657186264828,0.559534095127,0.140387359593,1.11216419513,-3.06936222173,0.275729355927,-2.22356097286,0.0105752060747
0.02,0.199351505964,1.02147141507,0.117094141447,0.161687300839,0.0127234497643,1.6994271406,-0.657186264828,0.559534095127,0.140387359593,1.11216419513,-3.06936222173,0.275729355927,-2.22356097286,0.0105752060747
0.04,0.199351505964,1.02147141507,0.117094141447,0.161687300839,0.0127234497643,1.6994271406,-0.657186264828,0.559534095127,0.140387359593,1.11216419513,-3.06936222173,0.275729355927,-2.22356097286,0.0105752060747
0.06,0.199351505964,1.02147141507,0.117094141447,0.161687300839,0.0127234497643,1.6994271406,-0.657186264828,0.559534095127,0.140387359593,1.11216419513,-3.06936222173,0.275729355927,-2.22356097286,0.0105752060747
0.08,0.199351505964,1.02147141507,0.117094141447,0.161687300839,0.0127059966965,1.6994271406,-0.657168821123,0.559534862599,0.140384537884,1.11216386755,-3.06935428814,0.275720230291,-2.22358216774,0.0105752060632
0.1,0.199351505964,1.02147141507,0.117094141447,0.161687300839,0.0127059966965,1.6994271406,-0.657168821123,0.559534862599,0.140384537884,1.11216386755,-3.06935428814,0.275720230291,-2.22358216774,0.0105752060632
0.12,0.199334045614,1.02147141507,0.117094141447,0.16166984049,0.0127234497643,1.6994271406,-0.657168821123,0.5595375327,0.140377274281,1.11216977951,-3.06935611242,0.275744368125,-2.22359525064,0.0105740578189
0.14,0.199334045614,1.02147141507,0.117094141447,0.16166984049,0.0127234497643,1.6994271406,-0.657168821123,0.5595375327,0.140377274281,1.11216977951,-3.06935611242,0.275744368125,-2.22359525064,0.0105740578189
0.16,0.199334045614,1.02147141507,0.117094141447,0.16166984049,0.0127234497643,1.6994271406,-0.657168821123,0.5595375327,0.140377274281,1.11216977951,-3.06935611242,0.275744368125,-2.22359525064,0.0105740578189
0.18,0.199334045614,1.02147141507,0.117094141447,0.16166984049,0.0127059966965,1.6994271406,-0.657168821123,0.559538300123,0.14037445256,1.11216945193,-3.06934325631,0.275733983694,-2.22359836444,0.0105740578074
0.2,0.199334045614,1.02147141507,0.117094141447,0.16166984049,0.0127059966965,1.6994271406,-0.657168821123,0.559538300123,0.14037445256,1.11216945193,-3.06934325631,0.275733983694,-2.22359836444,0.0105740578074
0.22,0.199334045614,1.02145397136,0.117094141447,0.16166984049,0.0127234497643,1.6994271406,-0.657168821123,0.559535700193,0.140376904084,1.11217983152,-3.06934417691,0.275757497747,-2.22359200096,0.0105739555947
0.24,0.199334045614,1.02145397136,0.117094141447,0.16166984049,0.0127234497643,1.6994271406,-0.657168821123,0.559535700193,0.140376904084,1.11217983152,-3.06934417691,0.275757497747,-2.22359200096,0.0105739555947
0.26,0.199351505964,1.02147141507,0.117094141447,0.16166984049,0.0127059966965,1.69944458431,-0.657186264828,0.559533063174,0.140383553363,1.11216868693,-3.06934927193,0.275718950049,-2.22356385895,0.0105740268513
0.28,0.199351505964,1.02147141507,0.117094141447,0.16166984049,0.0127059966965,1.69944458431,-0.657186264828,0.559533063174,0.140383553363,1.11216868693,-3.06934927193,0.275718950049,-2.22356385895,0.0105740268513
0.3,0.199351505964,1.02147141507,0.117094141447,0.16166984049,0.0127059966965,1.69944458431,-0.657186264828,0.559533063174,0.140383553363,1.11216868693,-3.06934927193,0.275718950049,-2.22356385895,0.0105740268513
0.32,0.199351505964,1.02145397136,0.117094141447,0.16166984049,0.0127234497643,1.6994271406,-0.657168821123,0.559533249078,0.140386673752,1.11217983152,-3.06934417691,0.275757497747,-2.22357454061,0.0105739555947
0.34,0.199351505964,1.02145397136,0.117094141447,0.16166984049,0.0127234497643,1.6994271406,-0.657168821123,0.559533249078,0.140386673752,1.11217983152,-3.06934417691,0.275757497747,-2.22357454061,0.0105739555947
0.36,0.199334045614,1.02145397136,0.117094141447,0.16166984049,0.0127059966965,1.6994271406,-0.657168821123,0.559536467622,0.140374082364,1.11217950394,-3.06933132088,0.275747113351,-2.22359511491,0.0105739555832
0.38,0.199334045614,1.02145397136,0.117094141447,0.16166984049,0.0127059966965,1.6994271406,-0.657168821123,0.559536467622,0.140374082364,1.11217950394,-3.06933132088,0.275747113351,-2.22359511491,0.0105739555832
0.4,0.199351505964,1.02145397136,0.117094141447,0.16166984049,0.0127234497643,1.6994271406,-0.657186264828,0.559533249078,0.140386673752,1.11217983152,-3.06933925382,0.275756238519,-2.22355645929,0.0105739555947
0.42,0.199351505964,1.02145397136,0.117094141447,0.16166984049,0.0127234497643,1.6994271406,-0.657186264828,0.559533249078,0.140386673752,1.11217983152,-3.06933925382,0.275756238519,-2.22355645929,0.0105739555947
0.44,0.199351505964,1.02145397136,0.117094141447,0.16166984049,0.0127234497643,1.6994271406,-0.657186264828,0.559533249078,0.140386673752,1.11217983152,-3.06933925382,0.275756238519,-2.22355645929,0.0105739555947
0.46,0.199334045614,1.02147141507,0.117094141447,0.16166984049,0.0127234497643,1.69944458431,-0.657168821123,0.559534746813,0.140376605413,1.11216901451,-3.0693670504,0.275730593521,-2.22359628645,0.0105740268628
0.48,0.199334045614,1.02147141507,0.117094141447,0.16166984049,0.0127234497643,1.69944458431,-0.657168821123,0.559534746813,0.140376605413,1.11216901451,-3.0693670504,0.275730593521,-2.22359628645,0.0105740268628
0.5,0.199351505964,1.02147141507,0.117094141447,0.16166984049,0.0127234497643,1.69944458431,-0.657168821123,0.559532295703,0.140386375064,1.11216901451,-3.0693670504,0.275730593521,-2.2235788261,0.0105740268628
0.52,0.199351505964,1.02147141507,0.117094141447,0.16166984049,0.0127234497643,1.69944458431,-0.657168821123,0.559532295703,0.140386375064,1.11216901451,-3.0693670504,0.275730593521,-2.2235788261,0.0105740268628
0.54,0.199334045614,1.02147141507,0.117111593475,0.16166984049,0.0127234497643,1.6994271406,-0.657168821123,0.559536569448,0.140380809152,1.11217017844,-3.06936775556,0.275754167762,-2.22358930879,0.0105740572584
0.56,0.199334045614,1.02147141507,0.117111593475,0.16166984049,0.0127234497643,1.6994271406,-0.657168821123,0.559536569448,0.140380809152,1.11217017844,-3.06936775556,0.275754167762,-2.22358930879,0.0105740572584
0.58,0.199334045614,1.02147141507,0.117111593475,0.16166984049,0.0127234497643,1.6994271406,-0.657168821123,0.559536569448,0.140380809152,1.11217017844,-3.06936775556,0.275754167762,-2.22358930879,0.0105740572584
0.6,0.199351505964,1.02145397136,0.117094141447,0.16166984049,0.0127059966965,1.6994271406,-0.657186264828,0.559534016556,0.140383852045,1.11217950394,-3.06932639798,0.2757458539,-2.22355957331,0.0105739555832
0.62,0.199351505964,1.02145397136,0.117094141447,0.16166984049,0.0127059966965,1.6994271406,-0.657186264828,0.559534016556,0.140383852045,1.11217950394,-3.06932639798,0.2757458539,-2.22355957331,0.0105739555832
0.64,0.199351505964,1.02147141507,0.117094141447,0.16166984049,0.0127059966965,1.6994271406,-0.657168821123,0.55953584905,0.140384222273,1.11216945193,-3.06934325631,0.275733983694,-2.22358090409,0.0105740578074
0.66,0.199351505964,1.02147141507,0.117094141447,0.16166984049,0.0127059966965,1.6994271406,-0.657168821123,0.55953584905,0.140384222273,1.11216945193,-3.06934325631,0.275733983694,-2.22358090409,0.0105740578074
0.68,0.199351505964,1.02147141507,0.117094141447,0.16166984049,0.0127234497643,1.6994271406,-0.657186264828,0.559535081578,0.140387043981,1.11216977951,-3.06935118956,0.275743109105,-2.22355970902,0.0105740578189
0.7,0.199351505964,1.02147141507,0.117094141447,0.16166984049,0.0127234497643,1.6994271406,-0.657186264828,0.559535081578,0.140387043981,1.11216977951,-3.06935118956,0.275743109105,-2.22355970902,0.0105740578189
0.72,0.199351505964,1.02147141507,0.117094141447,0.16166984049,0.0127234497643,1.6994271406,-0.657186264828,0.559535081578,0.140387043981,1.11216977951,-3.06935118956,0.275743109105,-2.22355970902,0.0105740578189
0.74,0.199351505964,1.02147141507,0.117094141447,0.161687300839,0.0127234497643,1.6994271406,-0.657168821123,0.559534095127,0.140387359593,1.11216419513,-3.06936714433,0.275730614756,-2.22357905407,0.0105752060747
0.76,0.199351505964,1.02147141507,0.117094141447,0.161687300839,0.0127234497643,1.6994271406,-0.657168821123,0.559534095127,0.140387359593,1.11216419513,-3.06936714433,0.275730614756,-2.22357905407,0.0105752060747
0.78,0.199351505964,1.02147141507,0.117094141447,0.16166984049,0.0127059966965,1.69944458431,-0.657186264828,0.559533063174,0.140383553363,1.11216868693,-3.06934927193,0.275718950049,-2.22356385895,0.0105740268513
0.8,0.199351505964,1.02147141507,0.117094141447,0.16166984049,0.0127059966965,1.69944458431,-0.657186264828,0.559533063174,0.140383553363,1.11216868693,-3.06934927193,0.275718950049,-2.22356385895,0.0105740268513
0.82,0.199351505964,1.02145397136,0.117094141447,0.16166984049,0.0127059966965,1.6994271406,-0.657168821123,0.559534016556,0.140383852045,1.11217950394,-3.06933132088,0.275747113351,-2.22357765456,0.0105739555832
0.84,0.199351505964,1.02145397136,0.117094141447,0.16166984049,0.0127059966965,1.6994271406,-0.657168821123,0.559534016556,0.140383852045,1.11217950394,-3.06933132088,0.275747113351,-2.22357765456,0.0105739555832
0.86,0.199351505964,1.02145397136,0.117094141447,0.16166984049,0.0127059966965,1.6994271406,-0.657168821123,0.559534016556,0.140383852045,1.11217950394,-3.06933132088,0.275747113351,-2.22357765456,0.0105739555832
0.88,0.199351505964,1.02147141507,0.117094141447,0.16166984049,0.0127059966965,1.69944458431,-0.657186264828,0.559533063174,0.140383553363,1.11216868693,-3.06934927193,0.275718950049,-2.22356385895,0.0105740268513
0.9,0.199351505964,1.02147141507,0.117094141447,0.16166984049,0.0127059966965,1.69944458431,-0.657186264828,0.559533063174,0.140383553363,1.11216868693,-3.06934927193,0.275718950049,-2.22356385895,0.0105740268513
0.92,0.199351505964,1.02147141507,0.117094141447,0.16166984049,0.0127059966965,1.6994271406,-0.657168821123,0.55953584905,0.140384222273,1.11216945193,-3.06934325631,0.275733983694,-2.22358090409,0.0105740578074
0.94,0.199351505964,1.02147141507,0.117094141447,0.16166984049,0.0127059966965,1.6994271406,-0.657168821123,0.55953584905,0.140384222273,1.11216945193,-3.06934325631,0.275733983694,-2.22358090409,0.0105740578074
0.96,0.199351505964,1.02145397136,0.117094141447,0.16166984049,0.0127234497643,1.6994271406,-0.657168821123,0.559533249078,0.140386673752,1.11217983152,-3.06934417691,0.275757497747,-2.22357454061,0.0105739555947
0.98,0.199351505964,1.02145397136,0.117094141447,0.16166984049,0.0127234497643,1.6994271406,-0.657168821123,0.559533249078,0.140386673752,1.11217983152,-3.06934417691,0.275757497747,-2.22357454061,0.0105739555947
1.0,0.199351505964,1.02145397136,0.117094141447,0.16166984049,0.0127234497643,1.6994271406,-0.657168821123,0.559533249078,0.140386673752,1.11217983152,-3.06934417691,0.275757497747,-2.22357454061,0.0105739555947
1.02,0.199334045614,1.02147141507,0.117094141447,0.16166984049,0.0127234497643,1.6994271406,-0.657186264828,0.5595375327,0.140377274281,1.11216977951,-3.06935118956,0.275743109105,-2.22357716937,0.0105740578189
1.04,0.199334045614,1.02147141507,0.117094141447,0.16166984049,0.0127234497643,1.6994271406,-0.657186264828,0.5595375327,0.140377274281,1.11216977951,-3.06935118956,0.275743109105,-2.22357716937,0.0105740578189
1.06,0.199351505964,1.02147141507,0.117094141447,0.161652396784,0.0127059966965,1.6994271406,-0.657168821123,0.559536834467,0.140383906936,1.112175031,-3.06933223493,0.275747723973,-2.22357964149,0.0105729106458
1.08,0.199351505964,1.02147141507,0.117094141447,0.161652396784,0.0127059966965,1.6994271406,-0.657168821123,0.559536834467,0.140383906936,1.112175031,-3.06933223493,0.275747723973,-2.22357964149,0.0105729106458
1.1,0.199351505964,1.02147141507,0.117111593475,0.16166984049,0.0127059966965,1.69944458431,-0.657186264828,0.559532099889,0.140387088214,1.11216908581,-3.06936091485,0.275728749842,-2.22355791676,0.0105740262908
1.12,0.199351505964,1.02147141507,0.117111593475,0.16166984049,0.0127059966965,1.69944458431,-0.657186264828,0.559532099889,0.140387088214,1.11216908581,-3.06936091485,0.275728749842,-2.22355791676,0.0105740262908
1.14,0.199351505964,1.02147141507,0.117111593475,0.16166984049,0.0127234497643,1.6994271406,-0.657168821123,0.559534118265,0.140390578835,1.11217017844,-3.06936775556,0.275754167762,-2.22357184844,0.0105740572584
1.16,0.199351505964,1.02147141507,0.117111593475,0.16166984049,0.0127234497643,1.6994271406,-0.657168821123,0.559534118265,0.140390578835,1.11217017844,-3.06936775556,0.275754167762,-2.22357184844,0.0105740572584
1.18,0.199351505964,1.02147141507,0.117111593475,0.16166984049,0.0127234497643,1.6994271406,-0.657168821123,0.559534118265,0.140390578835,1.11217017844,-3.06936775556,0.275754167762,-2.22357184844,0.0105740572584
1.2,0.199334045614,1.02145397136,0.117094141447,0.16166984049,0.0127059966965,1.6994271406,-0.657186264828,0.559536467622,0.140374082364,1.11217950394,-3.06932639798,0.2757458539,-2.22357703366,0.0105739555832
1.22,0.199334045614,1.02145397136,0.117094141447,0.16166984049,0.0127059966965,1.6994271406,-0.657186264828,0.559536467622,0.140374082364,1.11217950394,-3.06932639798,0.2757458539,-2.22357703366,0.0105739555832
1.24,0.199351505964,1.02147141507,0.117094141447,0.16166984049,0.0127059966965,1.6994271406,-0.657168821123,0.55953584905,0.140384222273,1.11216945193,-3.06934325631,0.275733983694,-2.22358090409,0.0105740578074
1.26,0.199351505964,1.02147141507,0.117094141447,0.16166984049,0.0127059966965,1.6994271406,-0.657168821123,0.55953584905,0.140384222273,1.11216945193,-3.06934325631,0.275733983694,-2.22358090409,0.0105740578074
1.28,0.199351505964,1.02147141507,0.117111593475,0.16166984049,0.0127234497643,1.69944458431,-0.657168821123,0.559531332394,0.140389909904,1.11216941344,-3.06937869351,0.275740393146,-2.22357288409,0.0105740263023
1.3,0.199351505964,1.02147141507,0.117111593475,0.16166984049,0.0127234497643,1.69944458431,-0.657168821123,0.559531332394,0.140389909904,1.11216941344,-3.06937869351,0.275740393146,-2.22357288409,0.0105740263023
1.32,0.199351505964,1.02147141507,0.117111593475,0.16166984049,0.0127234497643,1.69944458431,-0.657168821123,0.559531332394,0.140389909904,1.11216941344,-3.06937869351,0.275740393146,-2.22357288409,0.0105740263023
1.34,0.199351505964,1.02147141507,0.117094141447,0.16166984049,0.0127234497643,1.69944458431,-0.657168821123,0.559532295703,0.140386375064,1.11216901451,-3.0693670504,0.275730593521,-2.2235788261,0.0105740268628
1.36,0.199351505964,1.02147141507,0.117094141447,0.16166984049,0.0127234497643,1.69944458431,-0.657168821123,0.559532295703,0.140386375064,1.11216901451,-3.0693670504,0.275730593521,-2.2235788261,0.0105740268628
1.38,0.199351505964,1.02147141507,0.117094141447,0.16166984049,0.0127234497643,1.6994271406,-0.657186264828,0.559535081578,0.140387043981,1.11216977951,-3.06935118956,0.275743109105,-2.22355970902,0.0105740578189
1.4,0.199351505964,1.02147141507,0.117094141447,0.16166984049,0.0127234497643,1.6994271406,-0.657186264828,0.559535081578,0.140387043981,1.11216977951,-3.06935118956,0.275743109105,-2.22355970902,0.0105740578189
1.42,0.199351505964,1.02147141507,0.117094141447,0.16166984049,0.0127059966965,1.6994271406,-0.657168821123,0.55953584905,0.140384222273,1.11216945193,-3.06934325631,0.275733983694,-2.22358090409,0.0105740578074
1.44,0.199351505964,1.02147141507,0.117094141447,0.16166984049,0.0127059966965,1.6994271406,-0.657168821123,0.55953584905,0.140384222273,1.11216945193,-3.06934325631,0.275733983694,-2.22358090409,0.0105740578074
1.46,0.199351505964,1.02147141507,0.117094141447,0.16166984049,0.0127059966965,1.6994271406,-0.657168821123,0.55953584905,0.140384222273,1.11216945193,-3.06934325631,0.275733983694,-2.22358090409,0.0105740578074
1.48,0.199351505964,1.02147141507,0.117094141447,0.16166984049,0.0127059966965,1.6994271406,-0.657168821123,0.55953584905,0.140384222273,1.11216945193,-3.06934325631,0.275733983694,-2.22358090409,0.0105740578074
1.5,0.199351505964,1.02147141507,0.117094141447,0.16166984049,0.0127059966965,1.6994271406,-0.657168821123,0.55953584905,0.140384222273,1.11216945193,-3.06934325631,0.275733983694,-2.22358090409,0.0105740578074
1.52,0.199351505964,1.02147141507,0.117094141447,0.16166984049,0.0127234497643,1.6994271406,-0.657168821123,0.559535081578,0.140387043981,1.11216977951,-3.06935611242,0.275744368125,-2.22357779029,0.0105740578189
1.54,0.199351505964,1.02147141507,0.117094141447,0.16166984049,0.0127234497643,1.6994271406,-0.657168821123,0.559535081578,0.140387043981,1.11216977951,-3.06935611242,0.275744368125,-2.22357779029,0.0105740578189
1.56,0.199351505964,1.02147141507,0.117111593475,0.16166984049,0.0127234497643,1.6994271406,-0.657186264828,0.559534118265,0.140390578835,1.11217017844,-3.06936283252,0.275752908944,-2.2235537671,0.0105740572584
1.58,0.199351505964,1.02147141507,0.117111593475,0.16166984049,0.0127234497643,1.6994271406,-0.657186264828,0.559534118265,0.140390578835,1.11217017844,-3.06936283252,0.275752908944,-2.2235537671,0.0105740572584
1.6,0.199351505964,1.02147141507,0.117111593475,0.16166984049,0.0127234497643,1.6994271406,-0.657186264828,0.559534118265,0.140390578835,1.11217017844,-3.06936283252,0.275752908944,-2.2235537671,0.0105740572584
1.62,0.199351505964,1.02147141507,0.117094141447,0.16166984049,0.0127059966965,1.6994271406,-0.657168821123,0.55953584905,0.140384222273,1.11216945193,-3.06934325631,0.275733983694,-2.22358090409,0.0105740578074
1.64,0.199351505964,1.02147141507,0.117094141447,0.16166984049,0.0127059966965,1.6994271406,-0.657168821123,0.55953584905,0.140384222273,1.11216945193,-3.06934325631,0.275733983694,-2.22358090409,0.0105740578074
1.66,0.199351505964,1.02147141507,0.117094141447,0.16166984049,0.0127059966965,1.6994271406,-0.657168821123,0.55953584905,0.140384222273,1.11216945193,-3.06934325631,0.275733983694,-2.22358090409,0.0105740578074
1.68,0.199351505964,1.02147141507,0.117094141447,0.16166984049,0.0127059966965,1.6994271406,-0.657168821123,0.55953584905,0.140384222273,1.11216945193,-3.06934325631,0.275733983694,-2.22358090409,0.0105740578074
1.7,0.199351505964,1.02147141507,0.117094141447,0.16166984049,0.0127234497643,1.6994271406,-0.657168821123,0.559535081578,0.140387043981,1.11216977951,-3.06935611242,0.275744368125,-2.22357779029,0.0105740578189
1.72,0.199351505964,1.02147141507,0.117094141447,0.16166984049,0.0127234497643,1.6994271406,-0.657168821123,0.559535081578,0.140387043981,1.11216977951,-3.06935611242,0.275744368125,-2.22357779029,0.0105740578189
1.74,0.199351505964,1.02147141507,0.117094141447,0.16166984049,0.0127234497643,1.6994271406,-0.657168821123,0.559535081578,0.140387043981,1.11216977951,-3.06935611242,0.275744368125,-2.22357779029,0.0105740578189
1.76,0.199508582534,1.02143646108,0.117094141447,0.16166984049,0.0127234497643,1.6994271406,-0.657168821123,0.559509351109,0.140474189617,1.11218992186,-3.06933219576,0.275770677444,-2.22341420179,0.0105738529771
1.78,0.199508582534,1.02143646108,0.117094141447,0.16166984049,0.0127234497643,1.6994271406,-0.657168821123,0.559509351109,0.140474189617,1.11218992186,-3.06933219576,0.275770677444,-2.22341420179,0.0105738529771
1.8,0.200119445109,1.02127940115,0.117094141447,0.161687300839,0.0127059966965,1.69930490151,-0.657186264828,0.559426231679,0.140814794715,1.11227988014,-3.06914132077,0.275960018319,-2.22275309236,0.0105742973755
1.82,0.200119445109,1.02127940115,0.117094141447,0.161687300839,0.0127059966965,1.69930490151,-0.657186264828,0.559426231679,0.140814794715,1.11227988014,-3.06914132077,0.275960018319,-2.22275309236,0.0105742973755
1.84,0.201184110334,1.02040674984,0.117111593475,0.161687300839,0.0127059966965,1.69900822536,-0.657186264828,0.559230422745,0.141406556719,1.11279618183,-3.06836956724,0.276860822347,-2.22150170724,0.0105697019597
1.86,0.201184110334,1.02040674984,0.117111593475,0.161687300839,0.0127059966965,1.69900822536,-0.657186264828,0.559230422745,0.141406556719,1.11279618183,-3.06836956724,0.276860822347,-2.22150170724,0.0105697019597
1.88,0.201184110334,1.02040674984,0.117111593475,0.161687300839,0.0127059966965,1.69900822536,-0.657186264828,0.559230422745,0.141406556719,1.11279618183,-3.06836956724,0.276860822347,-2.22150170724,0.0105697019597
1.9,0.202266202619,1.01937697203,0.117094141447,0.161739665244,0.0127059966965,1.69857186642,-0.657186264828,0.559035677439,0.142003584957,1.11339166338,-3.06741201808,0.277929184224,-2.2202098451,0.0105678610626
1.92,0.202266202619,1.01937697203,0.117094141447,0.161739665244,0.0127059966965,1.69857186642,-0.657186264828,0.559035677439,0.142003584957,1.11339166338,-3.06741201808,0.277929184224,-2.2202098451,0.0105678610626
1.94,0.203610116929,1.01796329954,0.117094141447,0.162385431874,0.0127059966965,1.69776905651,-0.657186264828,0.558785768264,0.142766600573,1.11403507534,-3.06634783951,0.279117959959,-2.21859833889,0.0106033506387
1.96,0.203610116929,1.01796329954,0.117094141447,0.162385431874,0.0127059966965,1.69776905651,-0.657186264828,0.558785768264,0.142766600573,1.11403507534,-3.06634783951,0.279117959959,-2.21859833889,0.0106033506387
1.98,0.205460165004,1.0159212542,0.117094141447,0.164898706929,0.0126885436287,1.69625065521,-0.657168821123,0.558404889507,0.143856448415,1.11447376006,-3.06557679079,0.279864354892,-2.21647781315,0.0107588236576
2.0,0.205460165004,1.0159212542,0.117094141447,0.164898706929,0.0126885436287,1.69625065521,-0.657168821123,0.558404889507,0.143856448415,1.11447376006,-3.06557679079,0.279864354892,-2.21647781315,0.0107588236576
2.02,0.205460165004,1.0159212542,0.117094141447,0.164898706929,0.0126885436287,1.69625065521,-0.657168821123,0.558404889507,0.143856448415,1.11447376006,-3.06557679079,0.279864354892,-2.21647781315,0.0107588236576
2.04,0.207380021189,1.01372214893,0.117111593475,0.16826718959,0.0126710905609,1.69476700817,-0.657186264828,0.557939357558,0.144997793454,1.11472695502,-3.06526227296,0.280034757769,-2.21428200501,0.0109690222534
2.06,0.207380021189,1.01372214893,0.117111593475,0.16826718959,0.0126710905609,1.69476700817,-0.657186264828,0.557939357558,0.144997793454,1.11472695502,-3.06526227296,0.280034757769,-2.21428200501,0.0109690222534
2.08,0.209456970589,1.01112157212,0.117094141447,0.172490896499,0.01251401087,1.69291704332,-0.657168821123,0.557422177901,0.14621569151,1.11494893047,-3.06486692167,0.280022333951,-2.21196753311,0.0112329223295
2.1,0.209456970589,1.01112157212,0.117094141447,0.172490896499,0.01251401087,1.69291704332,-0.657168821123,0.557422177901,0.14621569151,1.11494893047,-3.06486692167,0.280022333951,-2.21196753311,0.0112329223295
2.12,0.211865516834,1.00824182946,0.117094141447,0.17739525745,0.0123045709353,1.69160796649,-0.657168821123,0.55669761527,0.147594385516,1.11508678235,-3.06501783012,0.279233426776,-2.20933905885,0.0115378479122
2.14,0.211865516834,1.00824182946,0.117094141447,0.17739525745,0.0123045709353,1.69160796649,-0.657168821123,0.55669761527,0.147594385516,1.11508678235,-3.06501783012,0.279233426776,-2.20933905885,0.0115378479122
2.16,0.211865516834,1.00824182946,0.117094141447,0.17739525745,0.0123045709353,1.69160796649,-0.657168821123,0.55669761527,0.147594385516,1.11508678235,-3.06501783012,0.279233426776,-2.20933905885,0.0115378479122
2.18,0.214745309434,1.00499550267,0.11707668942,0.183957702494,0.0117111593475,1.68912962877,-0.657168821123,0.555965553845,0.149232609555,1.11494574479,-3.06493529022,0.278097939816,-2.20629279637,0.0119499406028
2.2,0.214745309434,1.00499550267,0.11707668942,0.183957702494,0.0117111593475,1.68912962877,-0.657168821123,0.555965553845,0.149232609555,1.11494574479,-3.06493529022,0.278097939816,-2.20629279637,0.0119499406028
2.22,0.217677466439,1.00150483085,0.117094141447,0.191096106059,0.0107337750662,1.68679097386,-0.657186264828,0.555148892884,0.150838041168,1.11474472025,-3.06486843567,0.276369986293,-2.20323124959,0.0123963107737
2.24,0.217677466439,1.00150483085,0.117094141447,0.191096106059,0.0107337750662,1.68679097386,-0.657186264828,0.555148892884,0.150838041168,1.11474472025,-3.06486843567,0.276369986293,-2.20323124959,0.0123963107737
2.26,0.220661971204,0.998153775247,0.117094141447,0.196995307479,0.00980874998841,1.68478374935,-0.657168821123,0.554348487551,0.152441633206,1.11484494452,-3.06435641213,0.275274352781,-2.20010200635,0.0127607625741
2.28,0.220661971204,0.998153775247,0.117094141447,0.196995307479,0.00980874998841,1.68478374935,-0.657168821123,0.554348487551,0.152441633206,1.11484494452,-3.06435641213,0.275274352781,-2.20010200635,0.0127607625741
2.3,0.220661971204,0.998153775247,0.117094141447,0.196995307479,0.00980874998841,1.68478374935,-0.657168821123,0.554348487551,0.152441633206,1.11484494452,-3.06435641213,0.275274352781,-2.20010200635,0.0127607625741
2.32,0.224344623649,0.994156969662,0.117094141447,0.204796938024,0.00907571177748,1.6818864964,-0.657186264828,0.553378335074,0.154508200694,1.11474375503,-3.0641739198,0.273977707995,-2.19616596422,0.0132445650294
2.34,0.224344623649,0.994156969662,0.117094141447,0.204796938024,0.00907571177748,1.6818864964,-0.657186264828,0.553378335074,0.154508200694,1.11474375503,-3.0641739198,0.273977707995,-2.19616596422,0.0132445650294
2.36,0.227556029739,0.990317290581,0.11707668942,0.212109861864,0.00822050053138,1.67951282092,-0.657168821123,0.552437827603,0.156257402859,1.11468025398,-3.06402395657,0.272453231159,-2.19278666497,0.0136947593891
2.38,0.227556029739,0.990317290581,0.11707668942,0.212109861864,0.00822050053138,1.67951282092,-0.657168821123,0.552437827603,0.156257402859,1.11468025398,-3.06402395657,0.272453231159,-2.19278666497,0.0136947593891
2.4,0.231343394349,0.985988854862,0.11705922907,0.219911492409,0.00705113042357,1.67668547595,-0.657168821123,0.551398395407,0.158281037225,1.11475013888,-3.06332024111,0.271077887298,-2.18877551243,0.0141717048524
2.42,0.231343394349,0.985988854862,0.11705922907,0.219911492409,0.00705113042357,1.67668547595,-0.657168821123,0.551398395407,0.158281037225,1.11475013888,-3.06332024111,0.271077887298,-2.18877551243,0.0141717048524
2.44,0.231343394349,0.985988854862,0.11705922907,0.219911492409,0.00705113042357,1.67668547595,-0.657168821123,0.551398395407,0.158281037225,1.11475013888,-3.06332024111,0.271077887298,-2.18877551243,0.0141717048524
2.46,0.235514736854,0.981189172787,0.11705922907,0.227940007634,0.00614355893373,1.67321218126,-0.657186264828,0.550305311018,0.160572909695,1.11504571839,-3.06222842199,0.270549733752,-2.18419737075,0.0146584543257
2.48,0.235514736854,0.981189172787,0.11705922907,0.227940007634,0.00614355893373,1.67321218126,-0.657186264828,0.550305311018,0.160572909695,1.11504571839,-3.06222842199,0.270549733752,-2.18419737075,0.0146584543257
2.5,0.239511525794,0.976581504627,0.117024325015,0.236910998924,0.00516617465248,1.67034994887,-0.657186264828,0.549091794423,0.162729687073,1.11489324937,-3.06217249915,0.268590323995,-2.17997334455,0.0152035468896
2.52,0.239511525794,0.976581504627,0.117024325015,0.236910998924,0.00516617465248,1.67034994887,-0.657186264828,0.549091794423,0.162729687073,1.11489324937,-3.06217249915,0.268590323995,-2.17997334455,0.0152035468896
2.54,0.244119210599,0.971677160322,0.116954516905,0.246091431189,0.00383972433358,1.66682432306,-0.657186264828,0.547838666713,0.165171385868,1.11485959855,-3.06134037071,0.26698157293,-2.17511656352,0.0157580038217
2.56,0.244119210599,0.971677160322,0.116954516905,0.246091431189,0.00383972433358,1.66682432306,-0.657186264828,0.547838666713,0.165171385868,1.11485959855,-3.06134037071,0.26698157293,-2.17511656352,0.0157580038217
2.58,0.244119210599,0.971677160322,0.116954516905,0.246091431189,0.00383972433358,1.66682432306,-0.657186264828,0.547838666713,0.165171385868,1.11485959855,-3.06134037071,0.26698157293,-2.17511656352,0.0157580038217
2.6,0.248569785544,0.966266615672,0.11681488404,0.254818077449,0.00280998006866,1.66326380985,-0.657186264828,0.546562412246,0.167529578208,1.11526110765,-3.06002655471,0.266274932901,-2.17026916519,0.0162754086427
2.62,0.248569785544,0.966266615672,0.11681488404,0.254818077449,0.00280998006866,1.66326380985,-0.657186264828,0.546562412246,0.167529578208,1.11526110765,-3.06002655471,0.266274932901,-2.17026916519,0.0162754086427
2.64,0.252985473079,0.961013197527,0.116343646007,0.264818813264,0.0016406094407,1.66001754963,-0.657168821123,0.545184964012,0.169761515918,1.11513047769,-3.05950459145,0.263933144798,-2.16576359625,0.0168715160019
2.66,0.252985473079,0.961013197527,0.116343646007,0.264818813264,0.0016406094407,1.66001754963,-0.657168821123,0.545184964012,0.169761515918,1.11513047769,-3.05950459145,0.263933144798,-2.16576359625,0.0168715160019
2.68,0.258204003814,0.955393261836,0.11599458049,0.274819549079,0.000174532921298,1.65614291656,-0.657186264828,0.543715012797,0.172414213459,1.11522730326,-3.05817864364,0.262245944785,-2.16030140732,0.0174614499547
2.7,0.258204003814,0.955393261836,0.11599458049,0.274819549079,0.000174532921298,1.65614291656,-0.657186264828,0.543715012797,0.172414213459,1.11522730326,-3.05817864364,0.262245944785,-2.16030140732,0.0174614499547
2.72,0.258204003814,0.955393261836,0.11599458049,0.274819549079,0.000174532921298,1.65614291656,-0.657186264828,0.543715012797,0.172414213459,1.11522730326,-3.05817864364,0.262245944785,-2.16030140732,0.0174614499547
2.74,0.263352726439,0.949633643347,0.115121920857,0.284802841189,-0.00123918380949,1.65253007223,-0.657186264828,0.542216359528,0.174882872817,1.11537997722,-3.05662041023,0.260219646554,-2.15512725462,0.0180438794997
2.76,0.263352726439,0.949633643347,0.115121920857,0.284802841189,-0.00123918380949,1.65253007223,-0.657186264828,0.542216359528,0.174882872817,1.11537997722,-3.05662041023,0.260219646554,-2.15512725462,0.0180438794997
2.78,0.268710890039,0.943629746406,0.114912479882,0.296426707109,-0.00263544704984,1.64862055175,-0.657168821123,0.540506462719,0.177619426027,1.11515897666,-3.05617223635,0.257683478828,-2.14952729271,0.0187234277192
2.8,0.268710890039,0.943629746406,0.114912479882,0.296426707109,-0.00263544704984,1.64862055175,-0.657168821123,0.540506462719,0.177619426027,1.11515897666,-3.05617223635,0.257683478828,-2.14952729271,0.0187234277192
2.82,0.274051593289,0.937747955402,0.11468558688,0.306828881169,-0.00396189736874,1.64450157365,-0.657168821123,0.538903375958,0.180339284782,1.11526711132,-3.05494100198,0.256213381938,-2.14384309869,0.0193225713453
2.84,0.274051593289,0.937747955402,0.11468558688,0.306828881169,-0.00396189736874,1.64450157365,-0.657168821123,0.538903375958,0.180339284782,1.11526711132,-3.05494100198,0.256213381938,-2.14384309869,0.0193225713453
2.86,0.274051593289,0.937747955402,0.11468558688,0.306828881169,-0.00396189736874,1.64450157365,-0.657168821123,0.538903375958,0.180339284782,1.11526711132,-3.05494100198,0.256213381938,-2.14384309869,0.0193225713453
2.88,0.279444660944,0.931517157137,0.114458693877,0.317981534024,-0.00537561406701,1.64015569422,-0.657168821123,0.537211658776,0.183059259477,1.11532911121,-3.05372843302,0.254536284374,-2.13808548968,0.0199601978562
2.9,0.279444660944,0.931517157137,0.114458693877,0.317981534024,-0.00537561406701,1.64015569422,-0.657168821123,0.537211658776,0.183059259477,1.11532911121,-3.05372843302,0.254536284374,-2.13808548968,0.0199601978562
2.92,0.285431147469,0.924972172442,0.11377801487,0.329518148129,-0.0064577183156,1.63565282145,-0.657186264828,0.535363637912,0.186020821572,1.11543615674,-3.05240484981,0.252869969306,-2.13183243955,0.0206126061773
2.94,0.285431147469,0.924972172442,0.11377801487,0.329518148129,-0.0064577183156,1.63565282145,-0.657186264828,0.535363637912,0.186020821572,1.11543615674,-3.05240484981,0.252869969306,-2.13183243955,0.0206126061773
2.96,0.291312905184,0.918043159917,0.11180579428,0.341438756774,-0.0077841686345,1.63146393538,-0.657186264828,0.533515379775,0.188523140269,1.11557994469,-3.05028125717,0.250114525176,-2.12630494071,0.0212768224825
2.98,0.291312905184,0.918043159917,0.11180579428,0.341438756774,-0.0077841686345,1.63146393538,-0.657186264828,0.533515379775,0.188523140269,1.11557994469,-3.05028125717,0.250114525176,-2.12630494071,0.0212768224825
3.0,0.291312905184,0.918043159917,0.11180579428,0.341438756774,-0.0077841686345,1.63146393538,-0.657186264828,0.533515379775,0.188523140269,1.11557994469,-3.05028125717,0.250114525176,-2.12630494071,0.0212768224825
3.02,0.297159742199,0.911637858022,0.111194923382,0.353813134779,-0.00938987115935,1.62751952748,-0.657168821123,0.53152341893,0.191261920491,1.11528514426,-3.04958449535,0.246968266369,-2.12039063262,0.0219682108502
3.04,0.297159742199,0.911637858022,0.111194923382,0.353813134779,-0.00938987115935,1.62751952748,-0.657168821123,0.53152341893,0.191261920491,1.11528514426,-3.04958449535,0.246968266369,-2.12039063262,0.0219682108502
3.06,0.303652395779,0.904255109427,0.110025554315,0.365768664124,-0.0111177477596,1.62244061297,-0.657186264828,0.52954177279,0.194189752716,1.11570268437,-3.04679974416,0.245410193934,-2.11379282217,0.022616491588
3.08,0.303652395779,0.904255109427,0.110025554315,0.365768664124,-0.0111177477596,1.62244061297,-0.657186264828,0.52954177279,0.194189752716,1.11570268437,-3.04679974416,0.245410193934,-2.11379282217,0.022616491588
3.1,0.309359616574,0.897727568437,0.109187798737,0.378003425909,-0.012636183385,1.61818195207,-0.657168821123,0.527580452957,0.196767002385,1.11551164428,-3.04566052055,0.242647515589,-2.10806347353,0.0232841403133
3.12,0.309359616574,0.897727568437,0.109187798737,0.378003425909,-0.012636183385,1.61818195207,-0.657168821123,0.527580452957,0.196767002385,1.11551164428,-3.04566052055,0.242647515589,-2.10806347353,0.0232841403133
3.14,0.309359616574,0.897727568437,0.109187798737,0.378003425909,-0.012636183385,1.61818195207,-0.657168821123,0.527580452957,0.196767002385,1.11551164428,-3.04566052055,0.242647515589,-2.10806347353,0.0232841403133
3.16,0.315852236864,0.890763668502,0.108559475812,0.390517420134,-0.0140673536712,1.61331249518,-0.657186264828,0.525433513963,0.199813113201,1.11549503926,-3.04419690437,0.240629909696,-2.10130231897,0.0239566342463
3.18,0.315852236864,0.890763668502,0.108559475812,0.390517420134,-0.0140673536712,1.61331249518,-0.657186264828,0.525433513963,0.199813113201,1.11549503926,-3.04419690437,0.240629909696,-2.10130231897,0.0239566342463
3.2,0.322501950369,0.883293701382,0.107459923177,0.403607389524,-0.0156556036484,1.60849550255,-0.657168821123,0.52316899695,0.202742550447,1.11554788451,-3.04238704779,0.23816125875,-2.09462709771,0.0246478899962
3.22,0.322501950369,0.883293701382,0.107459923177,0.403607389524,-0.0156556036484,1.60849550255,-0.657168821123,0.52316899695,0.202742550447,1.11554788451,-3.04238704779,0.23816125875,-2.09462709771,0.0246478899962
3.24,0.329116743174,0.875631653768,0.106587255222,0.416976624643,-0.0176452793868,1.60332923636,-0.657168821123,0.520890661984,0.205623024247,1.11561861602,-3.04022403597,0.235764016187,-2.0878588588,0.0253446181659
3.26,0.329116743174,0.875631653768,0.106587255222,0.416976624643,-0.0176452793868,1.60332923636,-0.657168821123,0.520890661984,0.205623024247,1.11561861602,-3.04022403597,0.235764016187,-2.0878588588,0.0253446181659
3.28,0.329116743174,0.875631653768,0.106587255222,0.416976624643,-0.0176452793868,1.60332923636,-0.657168821123,0.520890661984,0.205623024247,1.11561861602,-3.04022403597,0.235764016187,-2.0878588588,0.0253446181659
3.3,0.335574442764,0.868039514132,0.10636036222,0.430467998989,-0.0192858885674,1.59844233575,-0.657168821123,0.518473424373,0.208588817321,1.11560217182,-3.03900811249,0.23353570476,-2.08092669581,0.0260390596938
3.32,0.335574442764,0.868039514132,0.10636036222,0.430467998989,-0.0192858885674,1.59844233575,-0.657168821123,0.518473424373,0.208588817321,1.11560217182,-3.03900811249,0.23353570476,-2.08092669581,0.0260390596938
3.34,0.342485945004,0.860691652947,0.105836768105,0.443662697189,-0.021258111238,1.59345063977,-0.657168821123,0.516046164956,0.211644163187,1.11552911837,-3.03727335496,0.231088035092,-2.07372606817,0.0267106702038
3.36,0.342485945004,0.860691652947,0.105836768105,0.443662697189,-0.021258111238,1.59345063977,-0.657168821123,0.516046164956,0.211644163187,1.11552911837,-3.03727335496,0.231088035092,-2.07372606817,0.0267106702038
3.38,0.349240387319,0.852820214292,0.104737207147,0.458044199839,-0.0226892794437,1.58838930211,-0.657168821123,0.513494463384,0.214487335983,1.11534018626,-3.03596073869,0.228187509794,-2.06692059996,0.027433286273
3.4,0.349240387319,0.852820214292,0.104737207147,0.458044199839,-0.0226892794437,1.58838930211,-0.657168821123,0.513494463384,0.214487335983,1.11534018626,-3.03596073869,0.228187509794,-2.06692059996,0.027433286273
3.42,0.349240387319,0.852820214292,0.104737207147,0.458044199839,-0.0226892794437,1.58838930211,-0.657168821123,0.513494463384,0.214487335983,1.11534018626,-3.03596073869,0.228187509794,-2.06692059996,0.027433286273
3.44,0.356116968859,0.845088391858,0.103253676617,0.470785128678,-0.0245218754912,1.58339760612,-0.657168821123,0.511106838441,0.217208468518,1.11558728082,-3.03323464708,0.225991879234,-2.06016299777,0.0280516690563
3.46,0.356116968859,0.845088391858,0.103253676617,0.470785128678,-0.0245218754912,1.58339760612,-0.657168821123,0.511106838441,0.217208468518,1.11558728082,-3.03323464708,0.225991879234,-2.06016299777,0.0280516690563
3.48,0.363168120609,0.837443854528,0.102223932092,0.485288803843,-0.0260228601293,1.57824891679,-0.657168821123,0.508445670715,0.22013607515,1.11520856916,-3.03209123131,0.222891987353,-2.05307901084,0.0287637872248
3.5,0.363168120609,0.837443854528,0.102223932092,0.485288803843,-0.0260228601293,1.57824891679,-0.657168821123,0.508445670715,0.22013607515,1.11520856916,-3.03209123131,0.222891987353,-2.05307901084,0.0287637872248
3.52,0.370550869204,0.829293183432,0.101630521545,0.499233980838,-0.0278380020687,1.57259396053,-0.657186264828,0.505720363386,0.223276093893,1.11530620629,-3.02993755006,0.221033292135,-2.0452763459,0.0294237569667
3.54,0.370550869204,0.829293183432,0.101630521545,0.499233980838,-0.0278380020687,1.57259396053,-0.657186264828,0.505720363386,0.223276093893,1.11530620629,-3.02993755006,0.221033292135,-2.0452763459,0.0294237569667
3.56,0.370550869204,0.829293183432,0.101630521545,0.499233980838,-0.0278380020687,1.57259396053,-0.657186264828,0.505720363386,0.223276093893,1.11530620629,-3.02993755006,0.221033292135,-2.0452763459,0.0294237569667
3.58,0.377427450744,0.821247241147,0.100914938482,0.513231522238,-0.0293389846262,1.56734060896,-0.657186264828,0.503009277606,0.226108966332,1.11529754694,-3.02831930842,0.218871119118,-2.0380955274,0.0300758460316
3.6,0.377427450744,0.821247241147,0.100914938482,0.513231522238,-0.0293389846262,1.56734060896,-0.657186264828,0.503009277606,0.226108966332,1.11529754694,-3.02831930842,0.218871119118,-2.0380955274,0.0300758460316
3.62,0.384810199339,0.812921999842,0.0997281173871,0.528119191943,-0.0311890327012,1.56179044809,-0.657168821123,0.500163379355,0.228962293339,1.11513320432,-3.02635027682,0.216011189521,-2.03070277368,0.03076116186
3.64,0.384810199339,0.812921999842,0.0997281173871,0.528119191943,-0.0311890327012,1.56179044809,-0.657168821123,0.500163379355,0.228962293339,1.11513320432,-3.02635027682,0.216011189521,-2.03070277368,0.03076116186
3.66,0.391739145284,0.805155289997,0.0986809125122,0.541575678878,-0.0328820021255,1.55700820973,-0.657168821123,0.497440016104,0.231601802594,1.11509442872,-3.02455256727,0.213423462995,-2.02372685955,0.0313633034984
3.68,0.391739145284,0.805155289997,0.0986809125122,0.541575678878,-0.0328820021255,1.55700820973,-0.657168821123,0.497440016104,0.231601802594,1.11509442872,-3.02455256727,0.213423462995,-2.02372685955,0.0313633034984
3.7,0.391739145284,0.805155289997,0.0986809125122,0.541575678878,-0.0328820021255,1.55700820973,-0.657168821123,0.497440016104,0.231601802594,1.11509442872,-3.02455256727,0.213423462995,-2.02372685955,0.0313633034984
3.72,0.399313874504,0.796899890092,0.0977908008521,0.556812389133,-0.0346796920374,1.55140571774,-0.657151377418,0.494418545799,0.23453892076,1.11475292981,-3.02302779466,0.210456474885,-2.01600155777,0.0320434602817
3.74,0.399313874504,0.796899890092,0.0977908008521,0.556812389133,-0.0346796920374,1.55140571774,-0.657151377418,0.494418545799,0.23453892076,1.11475292981,-3.02302779466,0.210456474885,-2.01600155777,0.0320434602817
3.76,0.406452278069,0.789063338848,0.0968832288422,0.570146703553,-0.0365122880849,1.54585555687,-0.657151377418,0.491693861135,0.237262507721,1.11479683369,-3.02059606351,0.208606970764,-2.0086556572,0.0326151759178
3.78,0.406452278069,0.789063338848,0.0968832288422,0.570146703553,-0.0365122880849,1.54585555687,-0.657151377418,0.491693861135,0.237262507721,1.11479683369,-3.02059606351,0.208606970764,-2.0086556572,0.0326151759178
3.8,0.413869914074,0.780423977692,0.0960629252921,0.585592838139,-0.0379609103986,1.54047996621,-0.657151377418,0.488508573089,0.240054247685,1.11455712527,-3.01939681754,0.205830316892,-2.00099274062,0.0332701427972
3.82,0.413869914074,0.780423977692,0.0960629252921,0.585592838139,-0.0379609103986,1.54047996621,-0.657151377418,0.488508573089,0.240054247685,1.11455712527,-3.01939681754,0.205830316892,-2.00099274062,0.0332701427972
3.84,0.413869914074,0.780423977692,0.0960629252921,0.585592838139,-0.0379609103986,1.54047996621,-0.657151377418,0.488508573089,0.240054247685,1.11455712527,-3.01939681754,0.205830316892,-2.00099274062,0.0332701427972
3.86,0.421427199589,0.772203465198,0.0953822462847,0.599974374078,-0.0399331351498,1.5346680166,-0.657151377418,0.485489982031,0.242902565652,1.1144442218,-3.01721023752,0.203670681606,-1.99307989487,0.0338639985097
3.88,0.421427199589,0.772203465198,0.0953822462847,0.599974374078,-0.0399331351498,1.5346680166,-0.657151377418,0.485489982031,0.242902565652,1.1144442218,-3.01721023752,0.203670681606,-1.99307989487,0.0338639985097
3.9,0.428740140073,0.763633878863,0.0939859842146,0.614774758678,-0.0418180872799,1.52965887691,-0.657151377418,0.48239832069,0.24530578132,1.11432206686,-3.01524706111,0.200535297847,-1.98590323751,0.0344565079618
3.92,0.428740140073,0.763633878863,0.0939859842146,0.614774758678,-0.0418180872799,1.52965887691,-0.657151377418,0.48239832069,0.24530578132,1.11432206686,-3.01524706111,0.200535297847,-1.98590323751,0.0344565079618
3.94,0.436245061183,0.755291260432,0.0935845542922,0.629889329708,-0.0439299365736,1.5239691664,-0.657151377418,0.479189774084,0.248045250338,1.11399765163,-3.01355472683,0.197838038408,-1.97790809214,0.0350571216218
3.96,0.436245061183,0.755291260432,0.0935845542922,0.629889329708,-0.0439299365736,1.5239691664,-0.657151377418,0.479189774084,0.248045250338,1.11399765163,-3.01355472683,0.197838038408,-1.97790809214,0.0350571216218
3.98,0.436245061183,0.755291260432,0.0935845542922,0.629889329708,-0.0439299365736,1.5239691664,-0.657151377418,0.479189774084,0.248045250338,1.11399765163,-3.01355472683,0.197838038408,-1.97790809214,0.0350571216218
4.0,0.443435795864,0.747227807863,0.0931482203147,0.644358084173,-0.0454832793749,1.51871568168,-0.657151377418,0.47601717155,0.250657913777,1.11370628388,-3.0123439177,0.195423529059,-1.9702671343,0.0356156692753
4.02,0.443435795864,0.747227807863,0.0931482203147,0.644358084173,-0.0454832793749,1.51871568168,-0.657151377418,0.47601717155,0.250657913777,1.11370628388,-3.0123439177,0.195423529059,-1.9702671343,0.0356156692753
4.04,0.450853465158,0.738850235443,0.0926769822822,0.659298151572,-0.0472809713673,1.51300852746,-0.657151377418,0.47276424771,0.25328600763,1.11342673794,-3.0107180678,0.193062179813,-1.96236065126,0.0361769242294
4.06,0.450853465158,0.738850235443,0.0926769822822,0.659298151572,-0.0472809713673,1.51300852746,-0.657151377418,0.47276424771,0.25328600763,1.11342673794,-3.0107180678,0.193062179813,-1.96236065126,0.0361769242294
4.08,0.458707426819,0.730350490507,0.0908094821797,0.673644733523,-0.0494800849598,1.5073535712,-0.657151377418,0.469667148991,0.255623217289,1.11337103283,-3.00764935751,0.190352349995,-1.9548800429,0.0366910688014
4.1,0.458707426819,0.730350490507,0.0908094821797,0.673644733523,-0.0494800849598,1.5073535712,-0.657151377418,0.469667148991,0.255623217289,1.11337103283,-3.00764935751,0.190352349995,-1.9548800429,0.0366910688014
4.12,0.458707426819,0.730350490507,0.0908094821797,0.673644733523,-0.0494800849598,1.5073535712,-0.657151377418,0.469667148991,0.255623217289,1.11337103283,-3.00764935751,0.190352349995,-1.9548800429,0.0366910688014
4.14,0.466037811009,0.721833301867,0.0898844581422,0.688741860847,-0.0512777727911,1.50208277593,-0.657151377418,0.466355423172,0.25792442041,1.11305683716,-3.00608324656,0.187433730211,-1.94739262127,0.0372258249277
4.16,0.466037811009,0.721833301867,0.0898844581422,0.688741860847,-0.0512777727911,1.50208277593,-0.657151377418,0.466355423172,0.25792442041,1.11305683716,-3.00608324656,0.187433730211,-1.94739262127,0.0372258249277
4.18,0.473123850169,0.713857134402,0.0886452726422,0.703018601398,-0.0532325413536,1.49648015079,-0.657151377418,0.463335339858,0.260034722965,1.11272138737,-3.00388878133,0.184788454028,-1.94034544001,0.0377202483549
4.2,0.473123850169,0.713857134402,0.0886452726422,0.703018601398,-0.0532325413536,1.49648015079,-0.657151377418,0.463335339858,0.260034722965,1.11272138737,-3.00388878133,0.184788454028,-1.94034544001,0.0377202483549
4.22,0.480995288823,0.704990871922,0.0885580041822,0.718045887323,-0.0548033403435,1.49108711642,-0.657151377418,0.4596600428,0.262747735774,1.11259819705,-3.00257048672,0.182790592788,-1.93169487444,0.0382108918197
4.24,0.480995288823,0.704990871922,0.0885580041822,0.718045887323,-0.0548033403435,1.49108711642,-0.657151377418,0.4596600428,0.262747735774,1.11259819705,-3.00257048672,0.182790592788,-1.93169487444,0.0382108918197
4.26,0.480995288823,0.704990871922,0.0885580041822,0.718045887323,-0.0548033403435,1.49108711642,-0.657151377418,0.4596600428,0.262747735774,1.11259819705,-3.00257048672,0.182790592788,-1.93169487444,0.0382108918197
4.28,0.488063884278,0.697119433267,0.0882263906923,0.732654324587,-0.0564439474436,1.48541484961,-0.657151377418,0.456392500134,0.265049950793,1.11207922187,-3.00131280523,0.180449456476,-1.92407051797,0.0386935194294
4.3,0.488063884278,0.697119433267,0.0882263906923,0.732654324587,-0.0564439474436,1.48541484961,-0.657151377418,0.456392500134,0.265049950793,1.11207922187,-3.00131280523,0.180449456476,-1.92407051797,0.0386935194294
4.32,0.495272095953,0.689160709508,0.0878947772023,0.746791448918,-0.0581543709761,1.48014392119,-0.657151377418,0.453054725372,0.267339855713,1.11173332268,-2.99990125798,0.178186524272,-1.91630651647,0.0391365369762
4.34,0.495272095953,0.689160709508,0.0878947772023,0.746791448918,-0.0581543709761,1.48014392119,-0.657151377418,0.453054725372,0.267339855713,1.11173332268,-2.99990125798,0.178186524272,-1.91630651647,0.0391365369762
4.36,0.502707175663,0.680399175837,0.0869173970822,0.761556946108,-0.0598647945085,1.47427964046,-0.657151377418,0.449678535341,0.269472174573,1.11159678754,-2.99765690583,0.176220144085,-1.90862624525,0.0395718985248
4.38,0.502707175663,0.680399175837,0.0869173970822,0.761556946108,-0.0598647945085,1.47427964046,-0.657151377418,0.449678535341,0.269472174573,1.11159678754,-2.99765690583,0.176220144085,-1.90862624525,0.0395718985248
4.4,0.502707175663,0.680399175837,0.0869173970822,0.761556946108,-0.0598647945085,1.47427964046,-0.657151377418,0.449678535341,0.269472174573,1.11159678754,-2.99765690583,0.176220144085,-1.90862624525,0.0395718985248
4.42,0.509601234198,0.672946585843,0.0852418776048,0.775030876748,-0.061575218041,1.46942762727,-0.657133933713,0.446682240681,0.271152478676,1.11114494138,-2.9958141452,0.173219078512,-1.90219631772,0.0399711022008
4.44,0.509601234198,0.672946585843,0.0852418776048,0.775030876748,-0.061575218041,1.46942762727,-0.657133933713,0.446682240681,0.271152478676,1.11114494138,-2.9958141452,0.173219078512,-1.90219631772,0.0399711022008
4.46,0.517577401663,0.663801090923,0.0847706395723,0.790669025248,-0.063547438631,1.4638600227,-0.657133933713,0.442867103965,0.273432067609,1.11087710741,-2.99409124315,0.170679109858,-1.8936580743,0.0404022628208
4.48,0.517577401663,0.663801090923,0.0847706395723,0.790669025248,-0.063547438631,1.4638600227,-0.657133933713,0.442867103965,0.273432067609,1.11087710741,-2.99409124315,0.170679109858,-1.8936580743,0.0404022628208
4.5,0.524000213843,0.656662687358,0.0840899605648,0.803846279743,-0.0652404059748,1.4589905658,-0.657133933713,0.439844481348,0.275131627776,1.11034507409,-2.99275896718,0.168120964644,-1.88700128617,0.0407685918458
4.52,0.524000213843,0.656662687358,0.0840899605648,0.803846279743,-0.0652404059748,1.4589905658,-0.657133933713,0.439844481348,0.275131627776,1.11034507409,-2.99275896718,0.168120964644,-1.88700128617,0.0407685918458
4.54,0.524000213843,0.656662687358,0.0840899605648,0.803846279743,-0.0652404059748,1.4589905658,-0.657133933713,0.439844481348,0.275131627776,1.11034507409,-2.99275896718,0.168120964644,-1.88700128617,0.0407685918458
4.56,0.531522578658,0.648581791083,0.0831649365273,0.817966026947,-0.067003189751,1.45319605991,-0.657133933713,0.436480836885,0.277165289893,1.11000409974,-2.99063254802,0.166108760619,-1.87924852953,0.0411343296883
4.58,0.531522578658,0.648581791083,0.0831649365273,0.817966026947,-0.067003189751,1.45319605991,-0.657133933713,0.436480836885,0.277165289893,1.11000409974,-2.99063254802,0.166108760619,-1.87924852953,0.0411343296883
4.6,0.538556253413,0.640518405093,0.0826587944397,0.832347496308,-0.068608892796,1.44790768777,-0.657116490007,0.433037907384,0.279016219138,1.10953551854,-2.98932520842,0.163753180541,-1.87177723814,0.0414962479865
4.62,0.538556253413,0.640518405093,0.0826587944397,0.832347496308,-0.068608892796,1.44790768777,-0.657116490007,0.433037907384,0.279016219138,1.10953551854,-2.98932520842,0.163753180541,-1.87177723814,0.0414962479865
4.64,0.544996509298,0.632908755173,0.0822748248672,0.845751652127,-0.0700226110548,1.44303823088,-0.657116490007,0.429800780017,0.280671715991,1.10913118777,-2.98818659263,0.161666244922,-1.86484369109,0.0418168427172
4.66,0.544996509298,0.632908755173,0.0822748248672,0.845751652127,-0.0700226110548,1.44303823088,-0.657116490007,0.429800780017,0.280671715991,1.10913118777,-2.98818659263,0.161666244922,-1.86484369109,0.0418168427172
4.68,0.544996509298,0.632908755173,0.0822748248672,0.845751652127,-0.0700226110548,1.44303823088,-0.657116490007,0.429800780017,0.280671715991,1.10913118777,-2.98818659263,0.161666244922,-1.86484369109,0.0418168427172
4.7,0.552099992163,0.624950031413,0.0815592334823,0.859155807947,-0.0716632181548,1.43804653489,-0.657116490007,0.426431568276,0.282429361149,1.10889322616,-2.98641226173,0.159665430384,-1.8574269491,0.0421135211944
4.72,0.552099992163,0.624950031413,0.0815592334823,0.859155807947,-0.0716632181548,1.43804653489,-0.657116490007,0.426431568276,0.282429361149,1.10889322616,-2.98641226173,0.159665430384,-1.8574269491,0.0421135211944
4.74,0.558889321888,0.617462554008,0.0804247684698,0.872699513407,-0.0734259977698,1.43328187338,-0.657116490007,0.423223897439,0.283859177659,1.10834133678,-2.98491491912,0.156792645592,-1.85071638175,0.0424173651021
4.76,0.558889321888,0.617462554008,0.0804247684698,0.872699513407,-0.0734259977698,1.43328187338,-0.657116490007,0.423223897439,0.283859177659,1.10834133678,-2.98491491912,0.156792645592,-1.85071638175,0.0424173651021
4.78,0.565416862878,0.609957699478,0.0800407988972,0.885021560297,-0.0750840652197,1.42825528998,-0.657116490007,0.420100538272,0.285478945577,1.10821132907,-2.98289417592,0.155455847821,-1.84361177024,0.0426587138603
4.8,0.565416862878,0.609957699478,0.0800407988972,0.885021560297,-0.0750840652197,1.42825528998,-0.657116490007,0.420100538272,0.285478945577,1.10821132907,-2.98289417592,0.155455847821,-1.84361177024,0.0426587138603
4.82,0.571979291278,0.602592394588,0.0799011743547,0.899071466102,-0.0764279712072,1.42312404435,-0.657116490007,0.420100538272,0.285478945577,1.10821132907,-2.98289417592,0.155455847821,-1.84361177024,0.0426587138603
4.84,0.571979291278,0.602592394588,0.0799011743547,0.899071466102,-0.0764279712072,1.42312404435,-0.657116490007,0.416681585526,0.287078245703,1.10742126827,-2.98233901461,0.153029325091,-1.83638447791,0.0429576464963
4.86,0.571979291278,0.602592394588,0.0799011743547,0.899071466102,-0.0764279712072,1.42312404435,-0.657116490007,0.416681585526,0.287078245703,1.10742126827,-2.98233901461,0.153029325091,-1.83638447791,0.0429576464963
4.88,0.578594117373,0.595855395978,0.0794473883497,0.910642967617,-0.0780336742522,1.41835924969,-0.657116490007,0.41363653442,0.288709317509,1.10711820765,-2.98055203918,0.151513378324,-1.82931004179,0.0431709814397
4.9,0.578594117373,0.595855395978,0.0794473883497,0.910642967617,-0.0780336742522,1.41835924969,-0.657116490007,0.41363653442,0.288709317509,1.10711820765,-2.98055203918,0.151513378324,-1.82931004179,0.0431709814397
4.92,0.585156545773,0.588053798723,0.0786794408823,0.924762714822,-0.0796568293247,1.41359445502,-0.657116490007,0.410249269463,0.289927991096,1.1064808373,-2.97949897141,0.148663597583,-1.8225417322,0.0434330189137
4.94,0.585156545773,0.588053798723,0.0786794408823,0.924762714822,-0.0796568293247,1.41359445502,-0.657116490007,0.410249269463,0.289927991096,1.1064808373,-2.97949897141,0.148663597583,-1.8225417322,0.0434330189137
4.96,0.591212840408,0.581316800113,0.0774228033548,0.936456388852,-0.0813323404798,1.40888212463,-0.657116490007,0.410249269463,0.289927991096,1.1064808373,-2.97949897141,0.148663597583,-1.8225417322,0.0434330189137
4.98,0.591212840408,0.581316800113,0.0774228033548,0.936456388852,-0.0813323404798,1.40888212463,-0.657116490007,0.407496148677,0.290988792808,1.10610505018,-2.97744632851,0.146676606798,-1.81664746728,0.0436289948641
5.0,0.591212840408,0.581316800113,0.0774228033548,0.936456388852,-0.0813323404798,1.40888212463,-0.657116490007,0.407496148677,0.290988792808,1.10610505018,-2.97744632851,0.146676606798,-1.81664746728,0.0436289948641
5.02,0.597356420148,0.574352966758,0.0767595763748,0.948883164552,-0.0829729559022,1.40441413927,-0.657116490007,0.404435198208,0.2921308268,1.10558126244,-2.97613486598,0.144338091014,-1.81025264473,0.0438325397532
5.04,0.597356420148,0.574352966758,0.0767595763748,0.948883164552,-0.0829729559022,1.40441413927,-0.657116490007,0.404435198208,0.2921308268,1.10558126244,-2.97613486598,0.144338091014,-1.81025264473,0.0438325397532
5.06,0.603499933308,0.567441464518,0.0760614453398,0.960402334952,-0.0843168535673,1.4002426969,-0.657116490007,0.401423443264,0.293310114987,1.10531131236,-2.9747041244,0.142615601101,-1.80390295877,0.0439960479936
5.08,0.603499933308,0.567441464518,0.0760614453398,0.960402334952,-0.0843168535673,1.4002426969,-0.657116490007,0.401423443264,0.293310114987,1.10531131236,-2.9747041244,0.142615601101,-1.80390295877,0.0439960479936
5.1,0.609084981588,0.561123381148,0.0754680347923,0.971485146407,-0.0856956636098,1.39605394398,-0.657116490007,0.401423443264,0.293310114987,1.10531131236,-2.9747041244,0.142615601101,-1.80390295877,0.0439960479936
5.12,0.609084981588,0.561123381148,0.0754680347923,0.971485146407,-0.0856956636098,1.39605394398,-0.657116490007,0.398655335759,0.294328862021,1.10488388443,-2.97341167038,0.14082722318,-1.79805970212,0.0441540076959
5.14,0.609084981588,0.561123381148,0.0754680347923,0.971485146407,-0.0856956636098,1.39605394398,-0.657116490007,0.398655335759,0.294328862021,1.10488388443,-2.97341167038,0.14082722318,-1.79805970212,0.0441540076959
5.16,0.614949328888,0.554822708193,0.0752585938173,0.983109045617,-0.0870395695972,1.39156851491,-0.657116490007,0.395678343978,0.295528556551,1.10426961502,-2.97246877508,0.138994406037,-1.79161936181,0.0443194833729
5.18,0.614949328888,0.554822708193,0.0752585938173,0.983109045617,-0.0870395695972,1.39156851491,-0.657116490007,0.395678343978,0.295528556551,1.10426961502,-2.97246877508,0.138994406037,-1.79161936181,0.0443194833729
5.2,0.620656549683,0.548225359093,0.0748048078123,0.994401314692,-0.0882962071247,1.38730985401,-0.657116490007,0.392772972459,0.296559182667,1.103892215,-2.97123622514,0.137433665619,-1.78551941055,0.0444554078746
5.22,0.620656549683,0.548225359093,0.0748048078123,0.994401314692,-0.0882962071247,1.38730985401,-0.657116490007,0.392772972459,0.296559182667,1.103892215,-2.97123622514,0.137433665619,-1.78551941055,0.0444554078746
5.24,0.625840193008,0.542465773893,0.0741939452373,1.00537946392,-0.0895877487072,1.38350499576,-0.657116490007,0.390104531293,0.297329616436,1.10318167258,-2.97057628815,0.135069530403,-1.78018783273,0.0444554078746
5.26,0.625840193008,0.542465773893,0.0741939452373,1.00537946392,-0.0895877487072,1.38350499576,-0.657116490007,0.390104531293,0.297329616436,1.10318167258,-2.97057628815,0.135069530403,-1.78018783273,0.0446012352782
5.28,0.625840193008,0.542465773893,0.0741939452373,1.00537946392,-0.0895877487072,1.38350499576,-0.657116490007,0.390104531293,0.297329616436,1.10318167258,-2.97057628815,0.135069530403,-1.78018783273,0.0446012352782
5.3,0.631111054858,0.536566572473,0.0732689211998,1.01471697275,-0.0908792902898,1.37933368655,-0.657116490007,0.38772496236,0.298194807758,1.10309278209,-2.96844686121,0.134273055582,-1.77488197482,0.044682146909
5.32,0.631111054858,0.536566572473,0.0732689211998,1.01471697275,-0.0908792902898,1.37933368655,-0.657116490007,0.38772496236,0.298194807758,1.10309278209,-2.96844686121,0.134273055582,-1.77488197482,0.044682146909
5.34,0.636312141888,0.530754622868,0.0725882421923,1.02552055177,-0.0919613992197,1.3758256376,-0.657116490007,0.385015477297,0.298902498699,1.10243720054,-2.96798072418,0.131967414942,-1.769633767,0.0448055321306
5.36,0.636312141888,0.530754622868,0.0725882421923,1.02552055177,-0.0919613992197,1.3758256376,-0.657116490007,0.385015477297,0.298902498699,1.10243720054,-2.96798072418,0.131967414942,-1.769633767,0.0448055321306
5.38,0.641007095153,0.525361555213,0.0723264451348,1.03505007452,-0.0934100256946,1.37198589194,-0.657116490007,0.382637323316,0.299644566734,1.10201472049,-2.96666349012,0.130521654874,-1.76444899396,0.0448947582968
5.4,0.641007095153,0.525361555213,0.0723264451348,1.03505007452,-0.0934100256946,1.37198589194,-0.657116490007,0.382637323316,0.299644566734,1.10201472049,-2.96666349012,0.130521654874,-1.76444899396,0.0448947582968
5.42,0.641007095153,0.525361555213,0.0723264451348,1.03505007452,-0.0934100256946,1.37198589194,-0.657116490007,0.382637323316,0.299644566734,1.10201472049,-2.96666349012,0.130521654874,-1.76444899396,0.0448947582968
5.44,0.645789266943,0.519671778123,0.0718552071022,1.04438758335,-0.0945270303572,1.36863483634,-0.657116490007,0.380182111894,0.300325717322,1.10177155587,-2.9655186586,0.12920267512,-1.75940780046,0.0449640909435
5.46,0.645789266943,0.519671778123,0.0718552071022,1.04438758335,-0.0945270303572,1.36863483634,-0.657116490007,0.380182111894,0.300325717322,1.10177155587,-2.9655186586,0.12920267512,-1.75940780046,0.0449640909435
5.48,0.650222431473,0.514697592418,0.0711745280948,1.05344585975,-0.0956091392871,1.36544090725,-0.657116490007,0.377945744089,0.300846798441,1.10126137962,-2.96473657192,0.127403915622,-1.75496180446,0.0450438486409
5.5,0.650222431473,0.514697592418,0.0711745280948,1.05344585975,-0.0956091392871,1.36544090725,-0.657116490007,0.377945744089,0.300846798441,1.10126137962,-2.96473657192,0.127403915622,-1.75496180446,0.0450438486409
5.52,0.654987159558,0.509566313499,0.0705811175472,1.06194560468,-0.0967785083547,1.36208985165,-0.657116490007,0.375677225548,0.30155005211,1.1010149493,-2.96336674949,0.126257500582,-1.75004259251,0.045095909887
5.54,0.654987159558,0.509566313499,0.0705811175472,1.06194560468,-0.0967785083547,1.36208985165,-0.657116490007,0.375677225548,0.30155005211,1.1010149493,-2.96336674949,0.126257500582,-1.75004259251,0.045095909887
5.56,0.654987159558,0.509566313499,0.0705811175472,1.06194560468,-0.0967785083547,1.36208985165,-0.657116490007,0.375677225548,0.30155005211,1.1010149493,-2.96336674949,0.126257500582,-1.75004259251,0.045095909887
5.58,0.659088693953,0.505080817854,0.0702495040572,1.07007883207,-0.0977908008521,1.35880857087,-0.657116490007,0.373616104112,0.302147767494,1.10057185181,-2.96247049101,0.125050318468,-1.74563216806,0.045154051901
5.6,0.659088693953,0.505080817854,0.0702495040572,1.07007883207,-0.0977908008521,1.35880857087,-0.657116490007,0.373616104112,0.302147767494,1.10057185181,-2.96247049101,0.125050318468,-1.74563216806,0.045154051901
5.62,0.663190228348,0.500630242908,0.0697957180523,1.07887525315,-0.0987856329997,1.3558589868,-0.657098979723,0.371452531226,0.302591866582,1.09987260227,-2.96219944013,0.123017796234,-1.74141943894,0.045227920801
5.64,0.663190228348,0.500630242908,0.0697957180523,1.07887525315,-0.0987856329997,1.3558589868,-0.657098979723,0.371452531226,0.302591866582,1.09987260227,-2.96219944013,0.123017796234,-1.74141943894,0.045227920801
5.66,0.666837960093,0.496458900403,0.0696037291048,1.08564713917,-0.0996233968996,1.35285707162,-0.657116490007,0.369641008495,0.303177252767,1.09971429885,-2.96102528416,0.122575843159,-1.73734871299,0.0452519102705
5.68,0.666837960093,0.496458900403,0.0696037291048,1.08564713917,-0.0996233968996,1.35285707162,-0.657116490007,0.369641008495,0.303177252767,1.09971429885,-2.96102528416,0.122575843159,-1.73734871299,0.0452519102705
5.7,0.666837960093,0.496458900403,0.0696037291048,1.08564713917,-0.0996233968996,1.35285707162,-0.657116490007,0.369641008495,0.303177252767,1.09971429885,-2.96102528416,0.122575843159,-1.73734871299,0.0452519102705
5.72,0.670503135543,0.492409730414,0.068940506286,1.09268081393,-0.100146991015,1.35013438888,-0.657116490007,0.367840149952,0.303606994786,1.09939032994,-2.96035898666,0.121672303495,-1.73376660472,0.0452854155147
5.74,0.670503135543,0.492409730414,0.068940506286,1.09268081393,-0.100146991015,1.35013438888,-0.657116490007,0.367840149952,0.303606994786,1.09939032994,-2.96035898666,0.121672303495,-1.73376660472,0.0452854155147
5.76,0.674063582183,0.488378037418,0.0681376547635,1.09981921749,-0.100949842537,1.3476035869,-0.657098979723,0.366098388281,0.303878603098,1.09901481368,-2.95962929407,0.120312163094,-1.73042857237,0.0453197162461
5.78,0.674063582183,0.488378037418,0.0681376547635,1.09981921749,-0.100949842537,1.3476035869,-0.657098979723,0.366098388281,0.303878603098,1.09901481368,-2.95962929407,0.120312163094,-1.73042857237,0.0453197162461
5.8,0.677048120238,0.484904842593,0.0679631220048,1.10601512835,-0.101647973572,1.34582339687,-0.657098979723,0.364443560561,0.304169840176,1.09866101275,-2.95945817941,0.118951023815,-1.72724484671,0.0453489798339
5.82,0.677048120238,0.484904842593,0.0679631220048,1.10601512835,-0.101647973572,1.34582339687,-0.657098979723,0.364443560561,0.304169840176,1.09866101275,-2.95945817941,0.118951023815,-1.72724484671,0.0453489798339
5.84,0.677048120238,0.484904842593,0.0679631220048,1.10601512835,-0.101647973572,1.34582339687,-0.657098979723,0.364443560561,0.304169840176,1.09866101275,-2.95945817941,0.118951023815,-1.72724484671,0.0453489798339
5.86,0.679980260598,0.481763244613,0.0678409494898,1.11132094419,-0.102450825095,1.34343227768,-0.657116490007,0.363020041937,0.304619872383,1.09846752964,-2.95850170179,0.118461555779,-1.72393854168,0.0453611234966
5.88,0.679980260598,0.481763244613,0.0678409494898,1.11132094419,-0.102450825095,1.34343227768,-0.657116490007,0.363020041937,0.304619872383,1.09846752964,-2.95850170179,0.118461555779,-1.72393854168,0.0453611234966
5.9,0.682668055928,0.478778706559,0.0677536810298,1.11641730241,-0.103166408157,1.34154729226,-0.657098979723,0.361629842906,0.304968451719,1.09824893694,-2.95792289985,0.117696985162,-1.72096689704,0.0453742809414
5.92,0.682668055928,0.478778706559,0.0677536810298,1.11641730241,-0.103166408157,1.34154729226,-0.657098979723,0.361629842906,0.304968451719,1.09824893694,-2.95792289985,0.117696985162,-1.72096689704,0.0453742809414
5.94,0.684989400292,0.475916374309,0.067579148271,1.12137404441,-0.10365510654,1.34001144726,-0.657098979723,0.360331978983,0.305162573916,1.09800198838,-2.95770497124,0.116791142411,-1.71849817362,0.045388577581
5.96,0.684989400292,0.475916374309,0.067579148271,1.12137404441,-0.10365510654,1.34001144726,-0.657098979723,0.360331978983,0.305162573916,1.09800198838,-2.95770497124,0.116791142411,-1.71849817362,0.045388577581
5.98,0.684989400292,0.475916374309,0.067579148271,1.12137404441,-0.10365510654,1.34001144726,-0.657098979723,0.360331978983,0.305162573916,1.09800198838,-2.95770497124,0.116791142411,-1.71849817362,0.045388577581
6.0,0.687293234372,0.473385638904,0.0673871634848,1.12613883907,-0.104283421142,1.33840569428,-0.657098979723,0.359116908847,0.30537105651,1.09766493711,-2.95743228205,0.115751570254,-1.71605257586,0.045407278712
6.02,0.687293234372,0.473385638904,0.0673871634848,1.12613883907,-0.104283421142,1.33840569428,-0.657098979723,0.359116908847,0.30537105651,1.09766493711,-2.95743228205,0.115751570254,-1.71605257586,0.045407278712
6.04,0.689055980698,0.471395991253,0.0672649909698,1.12980401452,-0.104824475607,1.33690473669,-0.657098979723,0.358213749081,0.305552661957,1.09743480861,-2.95699077202,0.115162561162,-1.71410926112,0.0454173979566
6.06,0.689055980698,0.471395991253,0.0672649909698,1.12980401452,-0.104824475607,1.33690473669,-0.657098979723,0.358213749081,0.305552661957,1.09743480861,-2.95699077202,0.115162561162,-1.71410926112,0.0454173979566
6.08,0.690818793602,0.469458674718,0.0671951745373,1.13320740124,-0.105365530072,1.33571789895,-0.657098979723,0.357298692872,0.305741999868,1.09725600006,-2.95663482854,0.114510271009,-1.71215947227,0.0454241406567
6.1,0.690818793602,0.469458674718,0.0671951745373,1.13320740124,-0.105365530072,1.33571789895,-0.657098979723,0.357298692872,0.305741999868,1.09725600006,-2.95663482854,0.114510271009,-1.71215947227,0.0454241406567
6.12,0.690818793602,0.469458674718,0.0671951745373,1.13320740124,-0.105365530072,1.33571789895,-0.657098979723,0.357298692872,0.305741999868,1.09725600006,-2.95663482854,0.114510271009,-1.71215947227,0.0454241406567
6.14,0.692319751193,0.467940240133,0.0671951745373,1.13572062636,-0.105662231185,1.33460096919,-0.657098979723,0.356559982653,0.306000678897,1.09717180031,-2.95625970833,0.114360884096,-1.71044629347,0.0454240331825
6.16,0.692319751193,0.467940240133,0.0671951745373,1.13572062636,-0.105662231185,1.33460096919,-0.657098979723,0.356559982653,0.306000678897,1.09717180031,-2.95625970833,0.114360884096,-1.71044629347,0.0454240331825
6.18,0.693401860123,0.466701037989,0.0671951745373,1.13778018199,-0.1057844037,1.33400748374,-0.657098979723,0.355947927539,0.306135940081,1.09708738362,-2.95625261374,0.114060025012,-1.70925241076,0.0454258572709
6.2,0.693401860123,0.466701037989,0.0671951745373,1.13778018199,-0.1057844037,1.33400748374,-0.657098979723,0.355947927539,0.306135940081,1.09708738362,-2.95625261374,0.114060025012,-1.70925241076,0.0454258572709
6.22,0.694239624023,0.465653849758,0.0671777225098,1.13915890048,-0.105941488592,1.33343157516,-0.657116490007,0.35552212412,0.306260027874,1.09713977345,-2.95592144847,0.114102758035,-1.70828515331,0.0454184977943
6.24,0.694239624023,0.465653849758,0.0671777225098,1.13915890048,-0.105941488592,1.33343157516,-0.657116490007,0.35552212412,0.306260027874,1.09713977345,-2.95592144847,0.114102758035,-1.70828515331,0.0454184977943
6.26,0.694239624023,0.465653849758,0.0671777225098,1.13915890048,-0.105941488592,1.33343157516,-0.657116490007,0.35552212412,0.306260027874,1.09713977345,-2.95592144847,0.114102758035,-1.70828515331,0.0454184977943
6.28,0.694850486598,0.465112795293,0.0671602704823,1.14071232235,-0.106133469217,1.33297777251,-0.657098979723,0.355167397389,0.306294591573,1.09689240695,-2.956097106,0.113525093598,-1.70763930545,0.0454326519982
6.3,0.694850486598,0.465112795293,0.0671602704823,1.14071232235,-0.106133469217,1.33297777251,-0.657098979723,0.355167397389,0.306294591573,1.09689240695,-2.956097106,0.113525093598,-1.70763930545,0.0454326519982
6.32,0.695112275333,0.464746277748,0.0671602704823,1.14130567464,-0.106273102082,1.33266365265,-0.657098979723,0.355034493032,0.30631871736,1.09687854565,-2.955917032,0.113491364089,-1.70731062453,0.0454317325973
6.34,0.695112275333,0.464746277748,0.0671602704823,1.14130567464,-0.106273102082,1.33266365265,-0.657098979723,0.355034493032,0.30631871736,1.09687854565,-2.955917032,0.113491364089,-1.70731062453,0.0454317325973
6.36,0.695147162743,0.464693913343,0.0671428142936,1.14146280114,-0.106308006137,1.33250652615,-0.657098979723,0.355025882818,0.306319369395,1.0968563645,-2.95584905824,0.113502969909,-1.70726576477,0.0454325190327
6.38,0.695147162743,0.464693913343,0.0671428142936,1.14146280114,-0.106308006137,1.33250652615,-0.657098979723,0.355025882818,0.306319369395,1.0968563645,-2.95584905824,0.113502969909,-1.70726576477,0.0454325190327
6.4,0.695147162743,0.464693913343,0.0671428142936,1.14146280114,-0.106308006137,1.33250652615,-0.657098979723,0.355025882818,0.306319369395,1.0968563645,-2.95584905824,0.113502969909,-1.70726576477,0.0454325190327
6.42,0.695164673027,0.464676469638,0.0671428142936,1.14149768855,-0.106342910192,1.33243675133,-0.657098979723,0.355026839534,0.306324563076,1.09685571867,-2.9557881512,0.113521138931,-1.7072337934,0.0454322608238
6.44,0.695164673027,0.464676469638,0.0671428142936,1.14149768855,-0.106342910192,1.33243675133,-0.657098979723,0.355026839534,0.306324563076,1.09685571867,-2.9557881512,0.113521138931,-1.7072337934,0.0454322608238
6.46,0.695199560438,0.464693913343,0.0671602704823,1.14149768855,-0.106342910192,1.33240186392,-0.657098979723,0.355017213947,0.30634702655,1.09684879849,-2.95578390588,0.113540665449,-1.70718016387,0.0454325873952
6.48,0.695199560438,0.464693913343,0.0671602704823,1.14149768855,-0.106342910192,1.33240186392,-0.657098979723,0.355017213947,0.30634702655,1.09684879849,-2.95578390588,0.113540665449,-1.70718016387,0.0454325873952
6.5,0.695217004143,0.464676469638,0.0671602704823,1.14151513226,-0.10636036222,1.33236684335,-0.657081536018,0.355014430805,0.306352210521,1.09685256974,-2.95574940967,0.113559521719,-1.70717205205,0.0454321658928
6.52,0.695217004143,0.464676469638,0.0671602704823,1.14151513226,-0.10636036222,1.33236684335,-0.657081536018,0.355014430805,0.306352210521,1.09685256974,-2.95574940967,0.113559521719,-1.70717205205,0.0454321658928
6.54,0.695217004143,0.464676469638,0.0671602704823,1.14151513226,-0.10636036222,1.33236684335,-0.657081536018,0.355014430805,0.306352210521,1.09685256974,-2.95574940967,0.113559521719,-1.70717205205,0.0454321658928
6.56,0.695217004143,0.464658992644,0.0671428142936,1.14151513226,-0.10636036222,1.33234939965,-0.657098979723,0.355019594027,0.306348225401,1.09686130122,-2.95571883931,0.113577517359,-1.70716583182,0.0454314943301
6.58,0.695217004143,0.464658992644,0.0671428142936,1.14151513226,-0.10636036222,1.33234939965,-0.657098979723,0.355019594027,0.306348225401,1.09686130122,-2.95571883931,0.113577517359,-1.70716583182,0.0454314943301
6.6,0.695251891553,0.464658992644,0.0671602704823,1.14151513226,-0.10636036222,1.33233195594,-0.657098979723,0.355006661007,0.306367630807,1.09686196129,-2.95571371136,0.113596360869,-1.70711342947,0.0454313527464
6.62,0.695251891553,0.464658992644,0.0671602704823,1.14151513226,-0.10636036222,1.33233195594,-0.657098979723,0.355006661007,0.306367630807,1.09686196129,-2.95571371136,0.113596360869,-1.70711342947,0.0454313527464
6.64,0.695251891553,0.464658992644,0.0671602704823,1.14151513226,-0.106377814247,1.33233195594,-0.657081536018,0.355008639196,0.306365545234,1.09686218084,-2.95570199631,0.113588642998,-1.70712853306,0.0454313508347
6.66,0.695251891553,0.464658992644,0.0671602704823,1.14151513226,-0.106377814247,1.33233195594,-0.657081536018,0.355008639196,0.306365545234,1.09686218084,-2.95570199631,0.113588642998,-1.70712853306,0.0454313508347
6.68,0.695251891553,0.464658992644,0.0671602704823,1.14151513226,-0.106377814247,1.33233195594,-0.657081536018,0.355008639196,0.306365545234,1.09686218084,-2.95570199631,0.113588642998,-1.70712853306,0.0454313508347
6.7,0.695251891553,0.464658992644,0.0671428142936,1.14153257596,-0.106377814247,1.33233195594,-0.657081536018,0.355010605832,0.306358581409,1.09685629087,-2.95570720108,0.113569806144,-1.70714420381,0.045431770987
6.72,0.695251891553,0.464658992644,0.0671428142936,1.14153257596,-0.106377814247,1.33233195594,-0.657081536018,0.355010605832,0.306358581409,1.09685629087,-2.95570720108,0.113569806144,-1.70714420381,0.045431770987
6.74,0.695286845542,0.464658992644,0.0671428142936,1.14153257596,-0.106395274597,1.33231451224,-0.657081536018,0.355003951772,0.306370935456,1.0968571093,-2.9556825778,0.113572432841,-1.70710452863,0.0454316543909
6.76,0.695286845542,0.464658992644,0.0671428142936,1.14153257596,-0.106395274597,1.33231451224,-0.657081536018,0.355003951772,0.306370935456,1.0968571093,-2.9556825778,0.113572432841,-1.70710452863,0.0454316543909
6.78,0.695286845542,0.464658992644,0.0671428142936,1.14153257596,-0.106395274597,1.33231451224,-0.657081536018,0.355003951772,0.306370935456,1.0968571093,-2.9556825778,0.113572432841,-1.70710452863,0.0454316543909
6.8,0.695286845542,0.464658992644,0.0671428142936,1.14153257596,-0.106395274597,1.33231451224,-0.657081536018,0.355003951772,0.306370935456,1.0968571093,-2.9556825778,0.113572432841,-1.70710452863,0.0454316543909
6.82,0.695286845542,0.464658992644,0.0671428142936,1.14153257596,-0.106395274597,1.33231451224,-0.657081536018,0.355003951772,0.306370935456,1.0968571093,-2.9556825778,0.113572432841,-1.70710452863,0.0454316543909
6.84,0.695286845542,0.464658992644,0.0671428142936,1.14151513226,-0.106395274597,1.33231451224,-0.657081536018,0.35500630566,0.306372911067,1.09686293798,-2.95567155465,0.113585999668,-1.70710380377,0.045431261154
6.86,0.695286845542,0.464658992644,0.0671428142936,1.14151513226,-0.106395274597,1.33231451224,-0.657081536018,0.35500630566,0.306372911067,1.09686293798,-2.95567155465,0.113585999668,-1.70710380377,0.045431261154
6.88,0.695304289247,0.464641548939,0.0671428142936,1.14153257596,-0.106395274597,1.33229706853,-0.657081536018,0.354999452441,0.306378133209,1.09686588676,-2.95565980375,0.113598897359,-1.70708317466,0.045430956979
6.9,0.695304289247,0.464641548939,0.0671428142936,1.14153257596,-0.106395274597,1.33229706853,-0.657081536018,0.354999452441,0.306378133209,1.09686588676,-2.95565980375,0.113598897359,-1.70708317466,0.045430956979
6.92,0.695304289247,0.464641548939,0.0671428142936,1.14151513226,-0.106395274597,1.33231451224,-0.657081536018,0.354999730832,0.306378077053,1.09687111668,-2.95565972662,0.11359889067,-1.70708501938,0.0454306784356
6.94,0.695304289247,0.464641548939,0.0671428142936,1.14151513226,-0.106395274597,1.33231451224,-0.657081536018,0.354999730832,0.306378077053,1.09687111668,-2.95565972662,0.11359889067,-1.70708501938,0.0454306784356
6.96,0.695304289247,0.464641548939,0.0671428142936,1.14151513226,-0.106395274597,1.33231451224,-0.657081536018,0.354999730832,0.306378077053,1.09687111668,-2.95565972662,0.11359889067,-1.70708501938,0.0454306784356
6.98,0.695304289247,0.464624105233,0.0671428142936,1.14153257596,-0.106412726625,1.33229706853,-0.657081536018,0.355000200149,0.306375021109,1.09687428509,-2.95563430486,0.113600846523,-1.70707968311,0.0454303723458
7.0,0.695304289247,0.464624105233,0.0671428142936,1.14153257596,-0.106412726625,1.33229706853,-0.657081536018,0.355000200149,0.306375021109,1.09687428509,-2.95563430486,0.113600846523,-1.70707968311,0.0454303723458
7.02,0.695321732953,0.464624105233,0.0671428142936,1.14151513226,-0.106395274597,1.33229706853,-0.657081536018,0.354995231156,0.306385274575,1.09687989426,-2.9556369524,0.113625355105,-1.70706366477,0.0454299810141
7.04,0.695321732953,0.464624105233,0.0671428142936,1.14151513226,-0.106395274597,1.33229706853,-0.657081536018,0.354995231156,0.306385274575,1.09687989426,-2.9556369524,0.113625355105,-1.70706366477,0.0454299810141
7.06,0.695304289247,0.464624105233,0.0671428142936,1.14151513226,-0.106395274597,1.33229706853,-0.657081536018,0.355000575597,0.306379082097,1.09687989426,-2.9556369524,0.113625355105,-1.70708110848,0.0454299810141
7.08,0.695304289247,0.464624105233,0.0671428142936,1.14151513226,-0.106395274597,1.33229706853,-0.657081536018,0.355000575597,0.306379082097,1.09687989426,-2.9556369524,0.113625355105,-1.70708110848,0.0454299810141
7.1,0.695304289247,0.464624105233,0.0671428142936,1.14151513226,-0.106395274597,1.33229706853,-0.657081536018,0.355000575597,0.306379082097,1.09687989426,-2.9556369524,0.113625355105,-1.70708110848,0.0454299810141
7.12,0.695304289247,0.464624105233,0.0671428142936,1.14153257596,-0.106412726625,1.33229706853,-0.657081536018,0.355000200149,0.306375021109,1.09687428509,-2.95563430486,0.113600846523,-1.70707968311,0.0454303723458
7.14,0.695304289247,0.464624105233,0.0671428142936,1.14153257596,-0.106412726625,1.33229706853,-0.657081536018,0.355000200149,0.306375021109,1.09687428509,-2.95563430486,0.113600846523,-1.70707968311,0.0454303723458
7.16,0.695304289247,0.464624105233,0.0671428142936,1.14153257596,-0.106412726625,1.33229706853,-0.657081536018,0.355000200149,0.306375021109,1.09687428509,-2.95563430486,0.113600846523,-1.70707968311,0.0454303723458
7.18,0.695304289247,0.464624105233,0.0671428142936,1.14153257596,-0.106412726625,1.33229706853,-0.657081536018,0.355000200149,0.306375021109,1.09687428509,-2.95563430486,0.113600846523,-1.70707968311,0.0454303723458
7.2,0.695321732953,0.464624105233,0.0671428142936,1.14153257596,-0.106412726625,1.33229706853,-0.657081536018,0.35499485578,0.306381213581,1.09687428509,-2.95563430486,0.113600846523,-1.7070622394,0.0454303723458
7.22,0.695321732953,0.464624105233,0.0671428142936,1.14153257596,-0.106412726625,1.33229706853,-0.657081536018,0.35499485578,0.306381213581,1.09687428509,-2.95563430486,0.113600846523,-1.7070622394,0.0454303723458
7.24,0.695321732953,0.464624105233,0.0671428142936,1.14153257596,-0.106412726625,1.33229706853,-0.657081536018,0.35499485578,0.306381213581,1.09687428509,-2.95563430486,0.113600846523,-1.7070622394,0.0454303723458
7.26,0.695304289247,0.464624105233,0.0671428142936,1.14151513226,-0.106412726625,1.33229706853,-0.657081536018,0.355002553836,0.306376996619,1.09688011393,-2.95562328158,0.113614413281,-1.70707895788,0.0454299791016
7.28,0.695304289247,0.464624105233,0.0671428142936,1.14151513226,-0.106412726625,1.33229706853,-0.657081536018,0.355002553836,0.306376996619,1.09688011393,-2.95562328158,0.113614413281,-1.70707895788,0.0454299791016
7.3,0.695304289247,0.464641548939,0.0671428142936,1.14151513226,-0.106430178652,1.33229706853,-0.657081536018,0.355005762692,0.306375937841,1.09687215493,-2.95562143895,0.113590580523,-1.7070781482,0.0454305599134
7.32,0.695304289247,0.464641548939,0.0671428142936,1.14151513226,-0.106430178652,1.33229706853,-0.657081536018,0.355005762692,0.306375937841,1.09687215493,-2.95562143895,0.113590580523,-1.7070781482,0.0454305599134
7.34,0.695304289247,0.464624105233,0.0671428142936,1.14151513226,-0.106412726625,1.33229706853,-0.657064092313,0.355002553836,0.306376996619,1.09688011393,-2.95562523772,0.113617638593,-1.70709621206,0.0454299791016
7.36,0.695304289247,0.464624105233,0.0671428142936,1.14151513226,-0.106412726625,1.33229706853,-0.657064092313,0.355002553836,0.306376996619,1.09688011393,-2.95562523772,0.113617638593,-1.70709621206,0.0454299791016
7.38,0.695304289247,0.464624105233,0.0671428142936,1.14151513226,-0.106412726625,1.33229706853,-0.657064092313,0.355002553836,0.306376996619,1.09688011393,-2.95562523772,0.113617638593,-1.70709621206,0.0454299791016
7.4,0.695321732953,0.464641548939,0.0671428142936,1.14153257596,-0.106430178652,1.33229706853,-0.657081536018,0.35499806458,0.306380154797,1.09686632614,-2.95563246221,0.11357701378,-1.70706142943,0.0454309531535
7.42,0.695321732953,0.464641548939,0.0671428142936,1.14153257596,-0.106430178652,1.33229706853,-0.657081536018,0.35499806458,0.306380154797,1.09686632614,-2.95563246221,0.11357701378,-1.70706142943,0.0454309531535
7.44,0.695321732953,0.464711357049,0.0671428142936,1.14151513226,-0.106430178652,1.33229706853,-0.657081536018,0.35500534196,0.306386238324,1.09683942416,-2.95566877376,0.113538992143,-1.70706606851,0.0454328918789
7.46,0.695321732953,0.464711357049,0.0671428142936,1.14151513226,-0.106430178652,1.33229706853,-0.657081536018,0.35500534196,0.306386238324,1.09683942416,-2.95566877376,0.113538992143,-1.70706606851,0.0454328918789
7.48,0.695286845542,0.465584041648,0.067125362266,1.14153257596,-0.10644763068,1.33226218112,-0.657081536018,0.355085527603,0.306420093552,1.09642573746,-2.95623010597,0.112891418906,-1.70717617604,0.0454622268594
7.5,0.695286845542,0.465584041648,0.067125362266,1.14153257596,-0.10644763068,1.33226218112,-0.657081536018,0.355085527603,0.306420093552,1.09642573746,-2.95623010597,0.112891418906,-1.70717617604,0.0454622268594
7.52,0.695286845542,0.465584041648,0.067125362266,1.14153257596,-0.10644763068,1.33226218112,-0.657081536018,0.355085527603,0.306420093552,1.09642573746,-2.95623010597,0.112891418906,-1.70717617604,0.0454622268594
7.54,0.695129719038,0.470854936788,0.0670380979673,1.14223072364,-0.106482534735,1.33226218112,-0.657081536018,0.355428908564,0.306559621305,1.09372032446,-2.96018601512,0.10840361256,-1.7078255366,0.0456538122456
7.56,0.695129719038,0.470854936788,0.0670380979673,1.14223072364,-0.106482534735,1.33226218112,-0.657081536018,0.355428908564,0.306559621305,1.09372032446,-2.96018601512,0.10840361256,-1.7078255366,0.0456538122456
7.58,0.695094831628,0.477853690844,0.0663923230148,1.14233538587,-0.10669197571,1.33226218112,-0.657081536018,0.356076599826,0.306715699799,1.09039926029,-2.96460454307,0.102815350454,-1.70888808408,0.0458897875283
7.6,0.695094831628,0.477853690844,0.0663923230148,1.14233538587,-0.10669197571,1.33226218112,-0.657081536018,0.356076599826,0.306715699799,1.09039926029,-2.96460454307,0.102815350454,-1.70888808408,0.0458897875283
7.62,0.694571254157,0.486388356478,0.0655894714923,1.14230049846,-0.107878805127,1.33224473742,-0.657064092313,0.357123714332,0.306619231229,1.08641000217,-2.96913251061,0.0955469882821,-1.71052564328,0.046172608039
7.64,0.694571254157,0.486388356478,0.0655894714923,1.14230049846,-0.107878805127,1.33224473742,-0.657064092313,0.357123714332,0.306619231229,1.08641000217,-2.96913251061,0.0955469882821,-1.71052564328,0.046172608039
7.66,0.694571254157,0.486388356478,0.0655894714923,1.14230049846,-0.107878805127,1.33224473742,-0.657064092313,0.357123714332,0.306619231229,1.08641000217,-2.96913251061,0.0955469882821,-1.71052564328,0.046172608039
7.68,0.693524032638,0.499443405169,0.0650484211885,1.1425622872,-0.111753429875,1.33226218112,-0.657081536018,0.35876329148,0.306246831953,1.08022106077,-2.97488977954,0.0830589194398,-1.71229276051,0.0466087137498
7.7,0.693524032638,0.499443405169,0.0650484211885,1.1425622872,-0.111753429875,1.33226218112,-0.657081536018,0.35876329148,0.306246831953,1.08022106077,-2.97488977954,0.0830589194398,-1.71229276051,0.0466087137498
7.72,0.693384416418,0.511713087653,0.0647866199698,1.14273685741,-0.115802599865,1.33213994203,-0.657064092313,0.360000784608,0.306198024189,1.07442867639,-2.97993103778,0.0713121041102,-1.71274235281,0.0470127575372
7.74,0.693384416418,0.511713087653,0.0647866199698,1.14273685741,-0.115802599865,1.33213994203,-0.657064092313,0.360000784608,0.306198024189,1.07442867639,-2.97993103778,0.0713121041102,-1.71274235281,0.0470127575372
7.76,0.692948057473,0.528311172568,0.0647342638873,1.14266708259,-0.118577671977,1.33207016721,-0.657081536018,0.361317504598,0.306406460997,1.06663803499,-2.98882052693,0.0573615272516,-1.71352275301,0.0475484729742
7.78,0.692948057473,0.528311172568,0.0647342638873,1.14266708259,-0.118577671977,1.33207016721,-0.657081536018,0.361317504598,0.306406460997,1.06663803499,-2.98882052693,0.0573615272516,-1.71352275301,0.0475484729742
7.8,0.692948057473,0.528311172568,0.0647342638873,1.14266708259,-0.118577671977,1.33207016721,-0.657081536018,0.361317504598,0.306406460997,1.06663803499,-2.98882052693,0.0573615272516,-1.71352275301,0.0475484729742
7.82,0.692215022383,0.548155550983,0.0645073708848,1.14299864614,-0.119607416502,1.33201783609,-0.657064092313,0.362538675309,0.306637453675,1.05713521819,-3.00143159131,0.0417046299207,-1.71496452869,0.0481910288908
7.84,0.692215022383,0.548155550983,0.0645073708848,1.14299864614,-0.119607416502,1.33201783609,-0.657064092313,0.362538675309,0.306637453675,1.05713521819,-3.00143159131,0.0417046299207,-1.71496452869,0.0481910288908
7.86,0.692476811118,0.558819547068,0.0646644474548,1.14287654021,-0.11962486853,1.33165125197,-0.657064092313,0.362892905386,0.307172702133,1.05211497751,-3.00832848845,0.0342161630837,-1.71480180342,0.0485239723979
7.88,0.692476811118,0.558819547068,0.0646644474548,1.14287654021,-0.11962486853,1.33165125197,-0.657064092313,0.362892905386,0.307172702133,1.05211497751,-3.00832848845,0.0342161630837,-1.71480180342,0.0485239723979
7.9,0.692337194898,0.566743316838,0.0645946351835,1.14273685741,-0.119642320557,1.32866678049,-0.657064092313,0.363614861164,0.307699370948,1.04844211959,-3.01167913028,0.0307500822644,-1.71486107957,0.0487526934447
7.92,0.692337194898,0.566743316838,0.0645946351835,1.14273685741,-0.119642320557,1.32866678049,-0.657064092313,0.363614861164,0.307699370948,1.04844211959,-3.01167913028,0.0307500822644,-1.71486107957,0.0487526934447
7.94,0.692337194898,0.566743316838,0.0645946351835,1.14273685741,-0.119642320557,1.32866678049,-0.657064092313,0.363614861164,0.307699370948,1.04844211959,-3.01167913028,0.0307500822644,-1.71486107957,0.0487526934447
7.96,0.692145247562,0.575330346878,0.0645422749398,1.14228305476,-0.119764493072,1.32517617525,-0.657064092313,0.364471437092,0.308300303146,1.04455170906,-3.0148934146,0.0273760718243,-1.71489751334,0.0489908835166
7.98,0.692145247562,0.575330346878,0.0645422749398,1.14228305476,-0.119764493072,1.32517617525,-0.657064092313,0.364471437092,0.308300303146,1.04455170906,-3.0148934146,0.0273760718243,-1.71489751334,0.0489908835166
8.0,0.692302307488,0.581980060383,0.0646295433998,1.13943826608,-0.1197819451,1.32103975345,-0.657064092313,0.365566066279,0.309418851183,1.0423346613,-3.01504718554,0.027921514269,-1.71442589012,0.0491126298577
8.02,0.692302307488,0.581980060383,0.0646295433998,1.13943826608,-0.1197819451,1.32103975345,-0.657064092313,0.365566066279,0.309418851183,1.0423346613,-3.01504718554,0.027921514269,-1.71442589012,0.0491126298577
8.04,0.692232466088,0.589415140093,0.064577183156,1.13303283103,-0.1197819451,1.31714767667,-0.657046648608,0.367331341178,0.310883869306,1.04084202207,-3.01359297574,0.0304183755347,-1.71442117443,0.0491828328282
8.06,0.692232466088,0.589415140093,0.064577183156,1.13303283103,-0.1197819451,1.31714767667,-0.657046648608,0.367331341178,0.310883869306,1.04084202207,-3.01359297574,0.0304183755347,-1.71442117443,0.0491828328282
8.08,0.692232466088,0.589415140093,0.064577183156,1.13303283103,-0.1197819451,1.31714767667,-0.657046648608,0.367331341178,0.310883869306,1.04084202207,-3.01359297574,0.0304183755347,-1.71442117443,0.0491828328282
8.1,0.691726332323,0.596570987363,0.0639837684473,1.11983819941,-0.120043742157,1.31306358598,-0.657046648608,0.370515706892,0.312927944969,1.04161817048,-3.00712494725,0.0381717366914,-1.71529540411,0.0490895136693
8.12,0.691726332323,0.596570987363,0.0639837684473,1.11983819941,-0.120043742157,1.31306358598,-0.657046648608,0.370515706892,0.312927944969,1.04161817048,-3.00712494725,0.0381717366914,-1.71529540411,0.0490895136693
8.14,0.691761219733,0.602313095568,0.0632856374123,1.10798739887,-0.122522113157,1.31044556547,-0.657064092313,0.373359119347,0.314474849373,1.04266394236,-2.99968731768,0.0433546071935,-1.71537201476,0.0489800149655
8.16,0.691761219733,0.602313095568,0.0632856374123,1.10798739887,-0.122522113157,1.31044556547,-0.657064092313,0.373359119347,0.314474849373,1.04266394236,-2.99968731768,0.0433546071935,-1.71537201476,0.0489800149655
8.18,0.691691444913,0.606711372688,0.063215825141,1.10063953769,-0.129224174422,1.31016633303,-0.657064092313,0.375500156551,0.314748311357,1.04295344657,-2.99262403206,0.0418164640346,-1.71452239907,0.0489402001764
8.2,0.691691444913,0.606711372688,0.063215825141,1.10063953769,-0.129224174422,1.31016633303,-0.657064092313,0.375500156551,0.314748311357,1.04295344657,-2.99262403206,0.0418164640346,-1.71452239907,0.0489402001764
8.22,0.691691444913,0.606711372688,0.063215825141,1.10063953769,-0.129224174422,1.31016633303,-0.657064092313,0.375500156551,0.314748311357,1.04295344657,-2.99262403206,0.0418164640346,-1.71452239907,0.0489402001764
8.24,0.690923522412,0.611755333213,0.0630587444098,1.09165110269,-0.138928209125,1.31006153764,-0.657046648608,0.378476540786,0.314582788387,1.04349862398,-2.98271188856,0.0390206422984,-1.71405801846,0.0488767807007
8.26,0.690923522412,0.611755333213,0.0630587444098,1.09165110269,-0.138928209125,1.31006153764,-0.657046648608,0.378476540786,0.314582788387,1.04349862398,-2.98271188856,0.0390206422984,-1.71405801846,0.0488767807007
8.28,0.690085758512,0.616415399068,0.0630762005985,1.08583915309,-0.14727087749,1.31006153764,-0.657064092313,0.380741631815,0.314156652877,1.04320253529,-2.97574198087,0.0348638074987,-1.71372809536,0.0488755156824
8.3,0.690085758512,0.616415399068,0.0630762005985,1.08583915309,-0.14727087749,1.31006153764,-0.657064092313,0.380741631815,0.314156652877,1.04320253529,-2.97574198087,0.0348638074987,-1.71372809536,0.0488755156824
8.32,0.689474895937,0.621581532108,0.0629889321386,1.08025410481,-0.153920590994,1.30993943171,-0.657046648608,0.382760070408,0.313978098163,1.04255931358,-2.97044612443,0.0312662689097,-1.71357903325,0.0488925337062
8.34,0.689474895937,0.621581532108,0.0629889321386,1.08025410481,-0.153920590994,1.30993943171,-0.657046648608,0.382760070408,0.313978098163,1.04255931358,-2.97044612443,0.0312662689097,-1.71357903325,0.0488925337062
8.36,0.689474895937,0.621581532108,0.0629889321386,1.08025410481,-0.153920590994,1.30993943171,-0.657046648608,0.382760070408,0.313978098163,1.04255931358,-2.97044612443,0.0312662689097,-1.71357903325,0.0488925337062
8.38,0.689265438318,0.627445879408,0.0629365718948,1.07517519029,-0.156032427805,1.30800211517,-0.657046648608,0.384287530571,0.314659890485,1.04135840595,-2.96833438483,0.0310222022596,-1.71345157914,0.0489307766469
8.4,0.689265438318,0.627445879408,0.0629365718948,1.07517519029,-0.156032427805,1.30800211517,-0.657046648608,0.384287530571,0.314659890485,1.04135840595,-2.96833438483,0.0310222022596,-1.71345157914,0.0489307766469
8.42,0.689073424403,0.630151118443,0.0630412923823,1.0719987049,-0.156206964725,1.30430205231,-0.657046648608,0.385370515417,0.315508015226,1.04111623018,-2.96577530599,0.0342921884116,-1.71313553734,0.0489078578243
8.44,0.689073424403,0.630151118443,0.0630412923823,1.0719987049,-0.156206964725,1.30430205231,-0.657046648608,0.385370515417,0.315508015226,1.04111623018,-2.96577530599,0.0342921884116,-1.71313553734,0.0489078578243
8.46,0.687764414148,0.632332780008,0.0629889321386,1.07034062081,-0.156259329129,1.29868198346,-0.657046648608,0.386803379818,0.315908634361,1.04069176246,-2.96266874829,0.0382863510345,-1.71376880689,0.0488942327286
8.48,0.687764414148,0.632332780008,0.0629889321386,1.07034062081,-0.156259329129,1.29868198346,-0.657046648608,0.386803379818,0.315908634361,1.04069176246,-2.96266874829,0.0382863510345,-1.71376880689,0.0488942327286
8.5,0.687764414148,0.632332780008,0.0629889321386,1.07034062081,-0.156259329129,1.29868198346,-0.657046648608,0.386803379818,0.315908634361,1.04069176246,-2.96266874829,0.0382863510345,-1.71376880689,0.0488942327286
8.52,0.685844607897,0.634863515413,0.0629889321386,1.0694854132,-0.15632913724,1.2899553372,-0.657046648608,0.388673110866,0.316351023621,1.03991361179,-2.95839864059,0.0438307999108,-1.71451163177,0.0488884957583
8.54,0.685844607897,0.634863515413,0.0629889321386,1.0694854132,-0.15632913724,1.2899553372,-0.657046648608,0.388673110866,0.316351023621,1.03991361179,-2.95839864059,0.0438307999108,-1.71451163177,0.0488884957583
8.56,0.683610548638,0.636888117053,0.0630587444098,1.06901416685,-0.15632913724,1.28238064127,-0.657046648608,0.390403718766,0.316496866103,1.03924132329,-2.95482054944,0.048624331448,-1.715653633,0.048882605531
8.58,0.683610548638,0.636888117053,0.0630587444098,1.06901416685,-0.15632913724,1.28238064127,-0.657046648608,0.390403718766,0.316496866103,1.03924132329,-2.95482054944,0.048624331448,-1.715653633,0.048882605531
8.6,0.679788313262,0.640919810048,0.0629889321386,1.06869998042,-0.15632913724,1.27358422019,-0.657046648608,0.392843653875,0.316135141021,1.03754416706,-2.95188100268,0.0527103954698,-1.71836523778,0.0489303196904
8.62,0.679788313262,0.640919810048,0.0629889321386,1.06869998042,-0.15632913724,1.27358422019,-0.657046648608,0.392843653875,0.316135141021,1.03754416706,-2.95188100268,0.0527103954698,-1.71836523778,0.0489303196904
8.64,0.679788313262,0.640919810048,0.0629889321386,1.06869998042,-0.15632913724,1.27358422019,-0.657046648608,0.392843653875,0.316135141021,1.03754416706,-2.95188100268,0.0527103954698,-1.71836523778,0.0489303196904
8.66,0.675110803703,0.645876552048,0.0629016678398,1.06869998042,-0.156381501644,1.26932555929,-0.657046648608,0.394981379269,0.314854564234,1.03515684883,-2.95252803553,0.0523055371129,-1.72264178599,0.0490477411115
8.68,0.675110803703,0.645876552048,0.0629016678398,1.06869998042,-0.156381501644,1.26932555929,-0.657046648608,0.394981379269,0.314854564234,1.03515684883,-2.95252803553,0.0523055371129,-1.72264178599,0.0490477411115
8.7,0.672754638507,0.647744027183,0.062971480111,1.0686302056,-0.156381501644,1.26812127785,-0.657046648608,0.39590633682,0.314127602239,1.03426773331,-2.95303584158,0.05195012149,-1.72483093971,0.0490929699842
8.72,0.672754638507,0.647744027183,0.062971480111,1.0686302056,-0.156381501644,1.26812127785,-0.657046648608,0.39590633682,0.314127602239,1.03426773331,-2.95303584158,0.05195012149,-1.72483093971,0.0490929699842
8.74,0.671567800768,0.647813868583,0.0630238403548,1.06854292049,-0.156364041295,1.26710901032,-0.657046648608,0.396403321306,0.313805391263,1.03428716507,-2.95243783436,0.0527854325112,-1.72583264922,0.0490846087505
8.76,0.671567800768,0.647813868583,0.0630238403548,1.06854292049,-0.156364041295,1.26710901032,-0.657046648608,0.396403321306,0.313805391263,1.03428716507,-2.95243783436,0.0527854325112,-1.72583264922,0.0490846087505
8.78,0.671567800768,0.647813868583,0.0630238403548,1.06854292049,-0.156364041295,1.26710901032,-0.657046648608,0.396403321306,0.313805391263,1.03428716507,-2.95243783436,0.0527854325112,-1.72583264922,0.0490846087505
8.8,0.669752656748,0.647936041098,0.0629365718948,1.06847314567,-0.156381501644,1.26655054544,-0.657046648608,0.397077230323,0.313132730469,1.03426325015,-2.95207838047,0.0531367952023,-1.727633436,0.0490820725105
8.82,0.669752656748,0.647936041098,0.0629365718948,1.06847314567,-0.156381501644,1.26655054544,-0.657046648608,0.397077230323,0.313132730469,1.03426325015,-2.95207838047,0.0531367952023,-1.727633436,0.0490820725105
8.84,0.668478533903,0.648127988433,0.062971480111,1.06847314567,-0.156364041295,1.26639341893,-0.657029204903,0.397489181921,0.312660854182,1.03417002239,-2.95214116839,0.0531463188651,-1.72888438388,0.0490865968626
8.86,0.668478533903,0.648127988433,0.062971480111,1.06847314567,-0.156364041295,1.26639341893,-0.657029204903,0.397489181921,0.312660854182,1.03417002239,-2.95214116839,0.0531463188651,-1.72888438388,0.0490865968626
8.88,0.667204477638,0.648773804998,0.0630238403548,1.06840330427,-0.156364041295,1.26630620041,-0.657029204903,0.397911675423,0.312200694126,1.03386831527,-2.95250390252,0.0528141529691,-1.73012841824,0.0491036428566
8.9,0.667204477638,0.648773804998,0.0630238403548,1.06840330427,-0.156364041295,1.26630620041,-0.657029204903,0.397911675423,0.312200694126,1.03386831527,-2.95250390252,0.0528141529691,-1.73012841824,0.0491036428566
8.92,0.667204477638,0.648773804998,0.0630238403548,1.06840330427,-0.156364041295,1.26630620041,-0.657029204903,0.397911675423,0.312200694126,1.03386831527,-2.95250390252,0.0528141529691,-1.73012841824,0.0491036428566
8.94,0.665738407458,0.650152590073,0.0629365718948,1.06808911784,-0.156381501644,1.26623642559,-0.657029204903,0.398483288753,0.31166107293,1.03327482403,-2.95314266976,0.052048758947,-1.73169876739,0.0491368763176
8.96,0.665738407458,0.650152590073,0.0629365718948,1.06808911784,-0.156381501644,1.26623642559,-0.657029204903,0.398483288753,0.31166107293,1.03327482403,-2.95314266976,0.052048758947,-1.73169876739,0.0491368763176
8.98,0.664743583632,0.651897959272,0.0630063841661,1.06758298408,-0.156364041295,1.26620140502,-0.657029204903,0.39890164385,0.311386815163,1.03255599733,-2.95402539172,0.0512203927825,-1.73270140416,0.0491763168296
9.0,0.664743583632,0.651897959272,0.0630063841661,1.06758298408,-0.156364041295,1.26620140502,-0.657029204903,0.39890164385,0.311386815163,1.03255599733,-2.95402539172,0.0512203927825,-1.73270140416,0.0491763168296
9.02,0.664377066087,0.654271568173,0.0630238403548,1.06725135394,-0.156346597589,1.2661316302,-0.657011761198,0.399124132007,0.311338170058,1.03146330867,-2.95540177249,0.0498045444704,-1.73314784383,0.0492389390497
9.04,0.664377066087,0.654271568173,0.0630238403548,1.06725135394,-0.156346597589,1.2661316302,-0.657011761198,0.399124132007,0.311338170058,1.03146330867,-2.95540177249,0.0498045444704,-1.73314784383,0.0492389390497
9.06,0.664307224688,0.657273549933,0.0630238403548,1.06686739269,-0.156364041295,1.26595705999,-0.657029204903,0.399124132007,0.311338170058,1.03146330867,-2.95540177249,0.0498045444704,-1.73314784383,0.0492389390497
9.08,0.664307224688,0.657273549933,0.0630238403548,1.06686739269,-0.156364041295,1.26595705999,-0.657029204903,0.399294407338,0.311425546141,1.03007214952,-2.95706958285,0.0480124763441,-1.73327398912,0.0493181342452
9.1,0.664307224688,0.657273549933,0.0630238403548,1.06686739269,-0.156364041295,1.26595705999,-0.657029204903,0.399294407338,0.311425546141,1.03007214952,-2.95706958285,0.0480124763441,-1.73327398912,0.0493181342452
9.12,0.664219939583,0.660258087987,0.062971480111,1.06629148411,-0.156381501644,1.26588728517,-0.657011761198,0.399498747791,0.311500195586,1.02874818292,-2.95864515858,0.0462836069793,-1.73350551767,0.0493924717506
9.14,0.664219939583,0.660258087987,0.062971480111,1.06629148411,-0.156381501644,1.26588728517,-0.657011761198,0.399498747791,0.311500195586,1.02874818292,-2.95864515858,0.0462836069793,-1.73350551767,0.0493924717506
9.16,0.664272337277,0.663312400863,0.0629889321386,1.06355129108,-0.156381501644,1.26590472887,-0.657011761198,0.399994758372,0.311923909006,1.02808143995,-2.95898065848,0.0461342534461,-1.73356284901,0.0494129466129
9.18,0.664272337277,0.663312400863,0.0629889321386,1.06355129108,-0.156381501644,1.26590472887,-0.657011761198,0.399994758372,0.311923909006,1.02808143995,-2.95898065848,0.0461342534461,-1.73356284901,0.0494129466129
9.2,0.664254826993,0.665040259778,0.0630238403548,1.05944975669,-0.156364041295,1.26590472887,-0.657011761198,0.399994758372,0.311923909006,1.02808143995,-2.95898065848,0.0461342534461,-1.73356284901,0.0494129466129
9.22,0.664254826993,0.665040259778,0.0630238403548,1.05944975669,-0.156364041295,1.26590472887,-0.657011761198,0.400712881904,0.312485263702,1.02852489786,-2.95755635644,0.0480383794765,-1.73364769543,0.0493569664265
9.24,0.664254826993,0.665040259778,0.0630238403548,1.05944975669,-0.156364041295,1.26590472887,-0.657011761198,0.400712881904,0.312485263702,1.02852489786,-2.95755635644,0.0480383794765,-1.73364769543,0.0493569664265
9.26,0.664027992247,0.667012463723,0.0629540280835,1.0538472647,-0.156381501644,1.26590472887,-0.657011761198,0.401779687973,0.313121192576,1.02932988931,-2.95526256191,0.0508497476578,-1.73403132864,0.0492669150295
