GitHatake/ROS1EARs/catkin_ws/src/torobo_robot/torobo_EARs2021/scripts/arm/2021_kaiya_csv/test_manipulability_20220119_6_pvt_2.csv
time,joint_1,joint_2,joint_3,joint_4,joint_5,joint_6,joint_7,x,y,z,roll,pitch,yaw,manipulability
0.0,-0.339501440239,0.130602984465,0.363464830044,1.05306183192,-0.0587303294961,1.48070238607,-6.98131733957e-05,0.393012192687,-0.0138168437304,1.26755166404,-3.13264064516,0.485218296707,-3.13884592482,0.0306091845975
0.02,-0.339518883944,0.130602984465,0.363464830044,1.0530793422,-0.0587303294961,1.48070238607,-6.98131733957e-05,0.393011342012,-0.0138234234488,1.26754543574,-3.13264028167,0.485200808156,-3.13886238828,0.0306097108163
0.04,-0.339518883944,0.130602984465,0.363464830044,1.0530793422,-0.0587303294961,1.48070238607,-6.98131733957e-05,0.393011342012,-0.0138234234488,1.26754543574,-3.13264028167,0.485200808156,-3.13886238828,0.0306097108163
0.06,-0.339518883944,0.130602984465,0.363464830044,1.0530793422,-0.0587303294961,1.48070238607,-6.98131733957e-05,0.393011342012,-0.0138234234488,1.26754543574,-3.13264028167,0.485200808156,-3.13886238828,0.0306097108163
0.08,-0.339501440239,0.130602984465,0.363464830044,1.0530793422,-0.0587303294961,1.48070238607,-6.98131733957e-05,0.393011583084,-0.0138165678727,1.26754543574,-3.13264028167,0.485200808156,-3.13884494457,0.0306097108163
0.1,-0.339501440239,0.130602984465,0.363464830044,1.0530793422,-0.0587303294961,1.48070238607,-6.98131733957e-05,0.393011583084,-0.0138165678727,1.26754543574,-3.13264028167,0.485200808156,-3.13884494457,0.0306097108163
0.12,-0.339518883944,0.130602984465,0.363464830044,1.0530793422,-0.0587303294961,1.48070238607,-6.98131733957e-05,0.393011342012,-0.0138234234488,1.26754543574,-3.13264028167,0.485200808156,-3.13886238828,0.0306097108163
0.14,-0.339518883944,0.130602984465,0.363464830044,1.0530793422,-0.0587303294961,1.48070238607,-6.98131733957e-05,0.393011342012,-0.0138234234488,1.26754543574,-3.13264028167,0.485200808156,-3.13886238828,0.0306097108163
0.16,-0.339501440239,0.130602984465,0.363464830044,1.0530793422,-0.0587303294961,1.48070238607,-6.98131733957e-05,0.393011583084,-0.0138165678727,1.26754543574,-3.13264028167,0.485200808156,-3.13884494457,0.0306097108163
0.18,-0.339501440239,0.130602984465,0.363464830044,1.0530793422,-0.0587303294961,1.48070238607,-6.98131733957e-05,0.393011583084,-0.0138165678727,1.26754543574,-3.13264028167,0.485200808156,-3.13884494457,0.0306097108163
0.2,-0.339501440239,0.130602984465,0.363464830044,1.0530793422,-0.0587303294961,1.48070238607,-6.98131733957e-05,0.393011583084,-0.0138165678727,1.26754543574,-3.13264028167,0.485200808156,-3.13884494457,0.0306097108163
0.22,-0.339501440239,0.130602984465,0.363464830044,1.0530793422,-0.0587303294961,1.48070238607,-6.98131733957e-05,0.393011583084,-0.0138165678727,1.26754543574,-3.13264028167,0.485200808156,-3.13884494457,0.0306097108163
0.24,-0.339501440239,0.130602984465,0.363464830044,1.0530793422,-0.0587303294961,1.48070238607,-6.98131733957e-05,0.393011583084,-0.0138165678727,1.26754543574,-3.13264028167,0.485200808156,-3.13884494457,0.0306097108163
0.26,-0.339501440239,0.130602984465,0.363464830044,1.05306183192,-0.0587303294961,1.48070238607,-6.98131733957e-05,0.393012192687,-0.0138168437304,1.26755166404,-3.13264064516,0.485218296707,-3.13884592482,0.0306091845975
0.28,-0.339501440239,0.130602984465,0.363464830044,1.05306183192,-0.0587303294961,1.48070238607,-6.98131733957e-05,0.393012192687,-0.0138168437304,1.26755166404,-3.13264064516,0.485218296707,-3.13884592482,0.0306091845975
0.3,-0.339501440239,0.130602984465,0.363464830044,1.0530793422,-0.0587303294961,1.48070238607,-6.98131733957e-05,0.393011583084,-0.0138165678727,1.26754543574,-3.13264028167,0.485200808156,-3.13884494457,0.0306097108163
0.32,-0.339501440239,0.130602984465,0.363464830044,1.0530793422,-0.0587303294961,1.48070238607,-6.98131733957e-05,0.393011583084,-0.0138165678727,1.26754543574,-3.13264028167,0.485200808156,-3.13884494457,0.0306097108163
0.34,-0.339501440239,0.130602984465,0.363464830044,1.0530793422,-0.0587303294961,1.48070238607,-6.98131733957e-05,0.393011583084,-0.0138165678727,1.26754543574,-3.13264028167,0.485200808156,-3.13884494457,0.0306097108163
0.36,-0.339501440239,0.130602984465,0.363464830044,1.05306183192,-0.0587303294961,1.48070238607,-6.98131733957e-05,0.393012192687,-0.0138168437304,1.26755166404,-3.13264064516,0.485218296707,-3.13884592482,0.0306091845975
0.38,-0.339501440239,0.130602984465,0.363464830044,1.05306183192,-0.0587303294961,1.48070238607,-6.98131733957e-05,0.393012192687,-0.0138168437304,1.26755166404,-3.13264064516,0.485218296707,-3.13884592482,0.0306091845975
0.4,-0.339518883944,0.130602984465,0.363464830044,1.0530793422,-0.0587303294961,1.48070238607,-6.98131733957e-05,0.393011342012,-0.0138234234488,1.26754543574,-3.13264028167,0.485200808156,-3.13886238828,0.0306097108163
0.42,-0.339518883944,0.130602984465,0.363464830044,1.0530793422,-0.0587303294961,1.48070238607,-6.98131733957e-05,0.393011342012,-0.0138234234488,1.26754543574,-3.13264028167,0.485200808156,-3.13886238828,0.0306097108163
0.44,-0.339518883944,0.130602984465,0.363464830044,1.0530793422,-0.0587303294961,1.48070238607,-6.98131733957e-05,0.393011342012,-0.0138234234488,1.26754543574,-3.13264028167,0.485200808156,-3.13886238828,0.0306097108163
0.46,-0.339518883944,0.130602984465,0.363464830044,1.0530793422,-0.0587303294961,1.48070238607,-6.98131733957e-05,0.393011342012,-0.0138234234488,1.26754543574,-3.13264028167,0.485200808156,-3.13886238828,0.0306097108163
0.48,-0.339518883944,0.130602984465,0.363464830044,1.0530793422,-0.0587303294961,1.48070238607,-6.98131733957e-05,0.393011342012,-0.0138234234488,1.26754543574,-3.13264028167,0.485200808156,-3.13886238828,0.0306097108163
0.5,-0.339501440239,0.130602984465,0.363464830044,1.0530793422,-0.0587303294961,1.48070238607,-6.98131733957e-05,0.393011583084,-0.0138165678727,1.26754543574,-3.13264028167,0.485200808156,-3.13884494457,0.0306097108163
0.52,-0.339501440239,0.130602984465,0.363464830044,1.0530793422,-0.0587303294961,1.48070238607,-6.98131733957e-05,0.393011583084,-0.0138165678727,1.26754543574,-3.13264028167,0.485200808156,-3.13884494457,0.0306097108163
0.54,-0.339518883944,0.130602984465,0.363464830044,1.0530793422,-0.0587303294961,1.48068494236,-6.98131733957e-05,0.393013965154,-0.0138234164937,1.2675468188,-3.13264019812,0.485218251162,-3.13886221174,0.0306096701982
0.56,-0.339518883944,0.130602984465,0.363464830044,1.0530793422,-0.0587303294961,1.48068494236,-6.98131733957e-05,0.393013965154,-0.0138234164937,1.2675468188,-3.13264019812,0.485218251162,-3.13886221174,0.0306096701982
0.58,-0.339501440239,0.130602984465,0.363464830044,1.0530793422,-0.0587303294961,1.48070238607,-6.98131733957e-05,0.393011583084,-0.0138165678727,1.26754543574,-3.13264028167,0.485200808156,-3.13884494457,0.0306097108163
0.6,-0.339501440239,0.130602984465,0.363464830044,1.0530793422,-0.0587303294961,1.48070238607,-6.98131733957e-05,0.393011583084,-0.0138165678727,1.26754543574,-3.13264028167,0.485200808156,-3.13884494457,0.0306097108163
0.62,-0.339501440239,0.130602984465,0.363464830044,1.0530793422,-0.0587303294961,1.48070238607,-6.98131733957e-05,0.393011583084,-0.0138165678727,1.26754543574,-3.13264028167,0.485200808156,-3.13884494457,0.0306097108163
0.64,-0.339501440239,0.130620444815,0.363464830044,1.0530793422,-0.0587303294961,1.48070238607,-5.2359878015e-05,0.393015905507,-0.0138180944488,1.26753888493,-3.13265610733,0.485184516509,-3.13886776363,0.0306102734605
0.66,-0.339501440239,0.130620444815,0.363464830044,1.0530793422,-0.0587303294961,1.48070238607,-5.2359878015e-05,0.393015905507,-0.0138180944488,1.26753888493,-3.13265610733,0.485184516509,-3.13886776363,0.0306102734605
0.68,-0.339501440239,0.130602984465,0.363464830044,1.0530793422,-0.0587303294961,1.48070238607,-6.98131733957e-05,0.393011583084,-0.0138165678727,1.26754543574,-3.13264028167,0.485200808156,-3.13884494457,0.0306097108163
0.7,-0.339501440239,0.130602984465,0.363464830044,1.0530793422,-0.0587303294961,1.48070238607,-6.98131733957e-05,0.393011583084,-0.0138165678727,1.26754543574,-3.13264028167,0.485200808156,-3.13884494457,0.0306097108163
0.72,-0.339501440239,0.130602984465,0.363464830044,1.0530793422,-0.0587303294961,1.48070238607,-6.98131733957e-05,0.393011583084,-0.0138165678727,1.26754543574,-3.13264028167,0.485200808156,-3.13884494457,0.0306097108163
0.74,-0.339501440239,0.130602984465,0.363464830044,1.0530793422,-0.0587303294961,1.48070238607,-6.98131733957e-05,0.393011583084,-0.0138165678727,1.26754543574,-3.13264028167,0.485200808156,-3.13884494457,0.0306097108163
0.76,-0.339501440239,0.130602984465,0.363464830044,1.0530793422,-0.0587303294961,1.48070238607,-6.98131733957e-05,0.393011583084,-0.0138165678727,1.26754543574,-3.13264028167,0.485200808156,-3.13884494457,0.0306097108163
0.78,-0.339518883944,0.130602984465,0.363464830044,1.0530793422,-0.0587303294961,1.48070238607,-6.98131733957e-05,0.393011342012,-0.0138234234488,1.26754543574,-3.13264028167,0.485200808156,-3.13886238828,0.0306097108163
0.8,-0.339518883944,0.130602984465,0.363464830044,1.0530793422,-0.0587303294961,1.48070238607,-6.98131733957e-05,0.393011342012,-0.0138234234488,1.26754543574,-3.13264028167,0.485200808156,-3.13886238828,0.0306097108163
0.82,-0.339501440239,0.130602984465,0.363464830044,1.05306183192,-0.0587303294961,1.48070238607,-6.98131733957e-05,0.393012192687,-0.0138168437304,1.26755166404,-3.13264064516,0.485218296707,-3.13884592482,0.0306091845975
0.84,-0.339501440239,0.130602984465,0.363464830044,1.05306183192,-0.0587303294961,1.48070238607,-6.98131733957e-05,0.393012192687,-0.0138168437304,1.26755166404,-3.13264064516,0.485218296707,-3.13884592482,0.0306091845975
0.86,-0.339501440239,0.130602984465,0.363464830044,1.05306183192,-0.0587303294961,1.48070238607,-6.98131733957e-05,0.393012192687,-0.0138168437304,1.26755166404,-3.13264064516,0.485218296707,-3.13884592482,0.0306091845975
0.88,-0.339501440239,0.130602984465,0.363464830044,1.05306183192,-0.0587303294961,1.48070238607,-6.98131733957e-05,0.393012192687,-0.0138168437304,1.26755166404,-3.13264064516,0.485218296707,-3.13884592482,0.0306091845975
0.9,-0.339501440239,0.130602984465,0.363464830044,1.05306183192,-0.0587303294961,1.48070238607,-6.98131733957e-05,0.393012192687,-0.0138168437304,1.26755166404,-3.13264064516,0.485218296707,-3.13884592482,0.0306091845975
0.92,-0.339501440239,0.130602984465,0.363464830044,1.0530793422,-0.0587303294961,1.48070238607,-6.98131733957e-05,0.393011583084,-0.0138165678727,1.26754543574,-3.13264028167,0.485200808156,-3.13884494457,0.0306097108163
0.94,-0.339501440239,0.130602984465,0.363464830044,1.0530793422,-0.0587303294961,1.48070238607,-6.98131733957e-05,0.393011583084,-0.0138165678727,1.26754543574,-3.13264028167,0.485200808156,-3.13884494457,0.0306097108163
0.96,-0.339501440239,0.130602984465,0.363464830044,1.0530793422,-0.0587303294961,1.48070238607,-6.98131733957e-05,0.393011583084,-0.0138165678727,1.26754543574,-3.13264028167,0.485200808156,-3.13884494457,0.0306097108163
0.98,-0.339501440239,0.130602984465,0.363464830044,1.0530793422,-0.0587303294961,1.48070238607,-6.98131733957e-05,0.393011583084,-0.0138165678727,1.26754543574,-3.13264028167,0.485200808156,-3.13884494457,0.0306097108163
1.0,-0.339501440239,0.130602984465,0.363464830044,1.0530793422,-0.0587303294961,1.48070238607,-6.98131733957e-05,0.393011583084,-0.0138165678727,1.26754543574,-3.13264028167,0.485200808156,-3.13884494457,0.0306097108163
1.02,-0.339501440239,0.130602984465,0.363464830044,1.0530793422,-0.0587303294961,1.48070238607,-6.98131733957e-05,0.393011583084,-0.0138165678727,1.26754543574,-3.13264028167,0.485200808156,-3.13884494457,0.0306097108163
1.04,-0.339501440239,0.130602984465,0.363464830044,1.0530793422,-0.0587303294961,1.48070238607,-6.98131733957e-05,0.393011583084,-0.0138165678727,1.26754543574,-3.13264028167,0.485200808156,-3.13884494457,0.0306097108163
1.06,-0.339501440239,0.130602984465,0.363464830044,1.0530793422,-0.0587303294961,1.48070238607,-6.98131733957e-05,0.393011583084,-0.0138165678727,1.26754543574,-3.13264028167,0.485200808156,-3.13884494457,0.0306097108163
1.08,-0.339501440239,0.130602984465,0.363464830044,1.0530793422,-0.0587303294961,1.48070238607,-6.98131733957e-05,0.393011583084,-0.0138165678727,1.26754543574,-3.13264028167,0.485200808156,-3.13884494457,0.0306097108163
1.1,-0.339501440239,0.130602984465,0.363464830044,1.0530793422,-0.0587303294961,1.48070238607,-6.98131733957e-05,0.393011583084,-0.0138165678727,1.26754543574,-3.13264028167,0.485200808156,-3.13884494457,0.0306097108163
1.12,-0.339501440239,0.130602984465,0.363464830044,1.0530793422,-0.0587303294961,1.48070238607,-6.98131733957e-05,0.393011583084,-0.0138165678727,1.26754543574,-3.13264028167,0.485200808156,-3.13884494457,0.0306097108163
1.14,-0.339501440239,0.130602984465,0.363464830044,1.05306183192,-0.0587303294961,1.48070238607,-6.98131733957e-05,0.393012192687,-0.0138168437304,1.26755166404,-3.13264064516,0.485218296707,-3.13884592482,0.0306091845975
1.16,-0.339501440239,0.130602984465,0.363464830044,1.05306183192,-0.0587303294961,1.48070238607,-6.98131733957e-05,0.393012192687,-0.0138168437304,1.26755166404,-3.13264064516,0.485218296707,-3.13884592482,0.0306091845975
1.18,-0.339501440239,0.130602984465,0.363464830044,1.05306183192,-0.0587303294961,1.48070238607,-6.98131733957e-05,0.393012192687,-0.0138168437304,1.26755166404,-3.13264064516,0.485218296707,-3.13884592482,0.0306091845975
1.2,-0.339501440239,0.130620444815,0.363464830044,1.05306183192,-0.0587303294961,1.48068494236,-6.98131733957e-05,0.393019138352,-0.0138183633525,1.26754649628,-3.13264718604,0.485219292011,-3.13884883799,0.0306097066274
1.22,-0.339501440239,0.130620444815,0.363464830044,1.05306183192,-0.0587303294961,1.48068494236,-6.98131733957e-05,0.393019138352,-0.0138183633525,1.26754649628,-3.13264718604,0.485219292011,-3.13884883799,0.0306097066274
1.24,-0.339518883944,0.130602984465,0.363464830044,1.0530793422,-0.0587303294961,1.48070238607,-6.98131733957e-05,0.393011342012,-0.0138234234488,1.26754543574,-3.13264028167,0.485200808156,-3.13886238828,0.0306097108163
1.26,-0.339518883944,0.130602984465,0.363464830044,1.0530793422,-0.0587303294961,1.48070238607,-6.98131733957e-05,0.393011342012,-0.0138234234488,1.26754543574,-3.13264028167,0.485200808156,-3.13886238828,0.0306097108163
1.28,-0.339501440239,0.130602984465,0.363464830044,1.05306183192,-0.0587303294961,1.48070238607,-6.98131733957e-05,0.393012192687,-0.0138168437304,1.26755166404,-3.13264064516,0.485218296707,-3.13884592482,0.0306091845975
1.3,-0.339501440239,0.130602984465,0.363464830044,1.05306183192,-0.0587303294961,1.48070238607,-6.98131733957e-05,0.393012192687,-0.0138168437304,1.26755166404,-3.13264064516,0.485218296707,-3.13884592482,0.0306091845975
1.32,-0.339501440239,0.130602984465,0.363464830044,1.05306183192,-0.0587303294961,1.48070238607,-6.98131733957e-05,0.393012192687,-0.0138168437304,1.26755166404,-3.13264064516,0.485218296707,-3.13884592482,0.0306091845975
1.34,-0.339501440239,0.130602984465,0.363464830044,1.0530793422,-0.0587303294961,1.48070238607,-6.98131733957e-05,0.393011583084,-0.0138165678727,1.26754543574,-3.13264028167,0.485200808156,-3.13884494457,0.0306097108163
1.36,-0.339501440239,0.130602984465,0.363464830044,1.0530793422,-0.0587303294961,1.48070238607,-6.98131733957e-05,0.393011583084,-0.0138165678727,1.26754543574,-3.13264028167,0.485200808156,-3.13884494457,0.0306097108163
1.38,-0.339518883944,0.130620444815,0.363464830044,1.0530793422,-0.0587303294961,1.48070238607,-6.98131733957e-05,0.393015664408,-0.0138249501002,1.26753888493,-3.132646906,0.485184360458,-3.13886547773,0.0306102734605
1.4,-0.339518883944,0.130620444815,0.363464830044,1.0530793422,-0.0587303294961,1.48070238607,-6.98131733957e-05,0.393015664408,-0.0138249501002,1.26753888493,-3.132646906,0.485184360458,-3.13886547773,0.0306102734605
1.42,-0.339501440239,0.130620444815,0.363464830044,1.0530793422,-0.0587303294961,1.48070238607,-6.98131733957e-05,0.393015905507,-0.0138180944488,1.26753888493,-3.132646906,0.485184360458,-3.13884803402,0.0306102734605
1.44,-0.339501440239,0.130620444815,0.363464830044,1.0530793422,-0.0587303294961,1.48070238607,-6.98131733957e-05,0.393015905507,-0.0138180944488,1.26753888493,-3.132646906,0.485184360458,-3.13884803402,0.0306102734605
1.46,-0.339501440239,0.130620444815,0.363464830044,1.0530793422,-0.0587303294961,1.48070238607,-6.98131733957e-05,0.393015905507,-0.0138180944488,1.26753888493,-3.132646906,0.485184360458,-3.13884803402,0.0306102734605
1.48,-0.339466552829,0.130864789845,0.363464830044,1.05306183192,-0.0587303294961,1.48070238607,-6.98131733957e-05,0.393077477117,-0.0138260167391,1.26745343074,-3.13273996081,0.484971673337,-3.13885734754,0.0306176223334
1.5,-0.339466552829,0.130864789845,0.363464830044,1.05306183192,-0.0587303294961,1.48070238607,-6.98131733957e-05,0.393077477117,-0.0138260167391,1.26745343074,-3.13273996081,0.484971673337,-3.13885734754,0.0306176223334
1.52,-0.339379267724,0.13163272899,0.363464830044,1.05306183192,-0.0587303294961,1.48070238607,-6.98131733957e-05,0.39326863032,-0.0138587658218,1.26716518472,-3.13303112908,0.484248243289,-3.13890570705,0.0306423878287
1.54,-0.339379267724,0.13163272899,0.363464830044,1.05306183192,-0.0587303294961,1.48070238607,-6.98131733957e-05,0.39326863032,-0.0138587658218,1.26716518472,-3.13303112908,0.484248243289,-3.13890570705,0.0306423878287
1.56,-0.339222207799,0.132854462462,0.363447353049,1.05306183192,-0.0587303294961,1.48071982977,-6.98131733957e-05,0.393569915962,-0.0139097384867,1.26670463807,-3.13349151194,0.483079029346,-3.13898018951,0.0306820481085
1.58,-0.339222207799,0.132854462462,0.363447353049,1.05306183192,-0.0587303294961,1.48071982977,-6.98131733957e-05,0.393569915962,-0.0139097384867,1.26670463807,-3.13349151194,0.483079029346,-3.13898018951,0.0306820481085
1.6,-0.339222207799,0.132854462462,0.363447353049,1.05306183192,-0.0587303294961,1.48071982977,-6.98131733957e-05,0.393569915962,-0.0139097384867,1.26670463807,-3.13349151194,0.483079029346,-3.13898018951,0.0306820481085
1.62,-0.338925498364,0.134477617535,0.363307736829,1.05302694451,-0.0587303294961,1.48071982977,-6.98131733957e-05,0.393975134424,-0.0139844920948,1.2661045585,-3.13408627762,0.481578283426,-3.13909938174,0.0307348728205
1.64,-0.338925498364,0.134477617535,0.363307736829,1.05302694451,-0.0587303294961,1.48071982977,-6.98131733957e-05,0.393975134424,-0.0139844920948,1.2661045585,-3.13408627762,0.481578283426,-3.13909938174,0.0307348728205
1.66,-0.338174986279,0.136624375045,0.362208184194,1.05280004318,-0.0587303294961,1.48078973775,-6.98131733957e-05,0.394508893301,-0.0142711952923,1.26535387743,-3.13474247889,0.479661971785,-3.13975304119,0.030808599599
1.68,-0.338174986279,0.136624375045,0.362208184194,1.05280004318,-0.0587303294961,1.48078973775,-6.98131733957e-05,0.394508893301,-0.0142711952923,1.26535387743,-3.13474247889,0.479661971785,-3.13975304119,0.030808599599
1.7,-0.337215049864,0.139015477585,0.360480291989,1.05150854321,-0.0587303294961,1.48117363242,-5.2359878015e-05,0.395095070624,-0.0147371297285,1.26485281663,-3.13542443175,0.478233954319,-3.14089931167,0.030865220007
1.72,-0.337215049864,0.139015477585,0.360480291989,1.05150854321,-0.0587303294961,1.48117363242,-5.2359878015e-05,0.395095070624,-0.0147371297285,1.26485281663,-3.13542443175,0.478233954319,-3.14089931167,0.030865220007
1.74,-0.337215049864,0.139015477585,0.360480291989,1.05150854321,-0.0587303294961,1.48117363242,-5.2359878015e-05,0.395095070624,-0.0147371297285,1.26485281663,-3.13542443175,0.478233954319,-3.14089931167,0.030865220007
1.76,-0.336551856174,0.141895270185,0.359084029919,1.04944905416,-0.0587477815236,1.48208123772,-6.98131733957e-05,0.39574649563,-0.0152583672789,1.26440181148,-3.13630957081,0.476600380265,3.14106276499,0.0309125980152
1.78,-0.336551856174,0.141895270185,0.359084029919,1.04944905416,-0.0587477815236,1.48208123772,-6.98131733957e-05,0.39574649563,-0.0152583672789,1.26440181148,-3.13630957081,0.476600380265,3.14106276499,0.0309125980152
1.8,-0.335173037809,0.145351021305,0.357251442194,1.04611544227,-0.0587303294961,1.48309350525,-6.98131733957e-05,0.39658022295,-0.0157157432396,1.26416605339,-3.13740397147,0.475566804937,3.13996140746,0.0309446394217
1.82,-0.335173037809,0.145351021305,0.357251442194,1.04611544227,-0.0587303294961,1.48309350525,-6.98131733957e-05,0.39658022295,-0.0157157432396,1.26416605339,-3.13740397147,0.475566804937,3.13996140746,0.0309446394217
1.84,-0.334143293284,0.14924309808,0.355366490064,1.04252004164,-0.0587303294961,1.48424545558,-6.98131733957e-05,0.397503566262,-0.0163731456331,1.26384054333,-3.13862237852,0.47423532449,3.13838180292,0.0309836018489
1.86,-0.334143293284,0.14924309808,0.355366490064,1.04252004164,-0.0587303294961,1.48424545558,-6.98131733957e-05,0.397503566262,-0.0163731456331,1.26384054333,-3.13862237852,0.47423532449,3.13838180292,0.0309836018489
1.88,-0.332834283029,0.15336207618,0.353097576684,1.03871524997,-0.0587303294961,1.48569408206,-6.98131733957e-05,0.397503566262,-0.0163731456331,1.26384054333,-3.13862237852,0.47423532449,3.13838180292,0.0309836018489
1.9,-0.332834283029,0.15336207618,0.353097576684,1.03871524997,-0.0587303294961,1.48569408206,-6.98131733957e-05,0.39844808415,-0.0170773195882,1.26346710825,-3.13984779607,0.472577328346,3.1366872145,0.0310275960427
1.92,-0.332834283029,0.15336207618,0.353097576684,1.03871524997,-0.0587303294961,1.48569408206,-6.98131733957e-05,0.39844808415,-0.0170773195882,1.26346710825,-3.13984779607,0.472577328346,3.1366872145,0.0310275960427
1.94,-0.331071503414,0.157585783089,0.350497033169,1.03447409935,-0.0586954212798,1.48640967344,-6.98131733957e-05,0.39955181505,-0.0177275847541,1.26325228129,-3.14107917729,0.471965902805,3.13510684843,0.0310627981966
1.96,-0.331071503414,0.157585783089,0.350497033169,1.03447409935,-0.0586954212798,1.48640967344,-6.98131733957e-05,0.39955181505,-0.0177275847541,1.26325228129,-3.14107917729,0.471965902805,3.13510684843,0.0310627981966
1.98,-0.329657797639,0.162280719709,0.348315371604,1.03012821993,-0.0587128774685,1.4878234125,-6.98131733957e-05,0.400664164728,-0.0184149006227,1.26283940212,3.14071301992,0.470328163073,3.13349114442,0.0311075171764
2.0,-0.329657797639,0.162280719709,0.348315371604,1.03012821993,-0.0587128774685,1.4878234125,-6.98131733957e-05,0.400664164728,-0.0184149006227,1.26283940212,3.14071301992,0.470328163073,3.13349114442,0.0311075171764
2.02,-0.327964826134,0.167464346389,0.345208661034,1.02534604814,-0.0587128774685,1.48962104624,-6.98131733957e-05,0.400664164728,-0.0184149006227,1.26283940212,3.14071301992,0.470328163073,3.13349114442,0.0311075171764
2.04,-0.327964826134,0.167464346389,0.345208661034,1.02534604814,-0.0587128774685,1.48962104624,-6.98131733957e-05,0.401854091875,-0.0193617102173,1.26233713164,3.13930890525,0.46822265366,3.13122039301,0.0311635579641
2.06,-0.327964826134,0.167464346389,0.345208661034,1.02534604814,-0.0587128774685,1.48962104624,-6.98131733957e-05,0.401854091875,-0.0193617102173,1.26233713164,3.13930890525,0.46822265366,3.13122039301,0.0311635579641
2.08,-0.326184569524,0.172927222154,0.342189268859,1.02040674984,-0.0587128774685,1.49143625684,-6.98131733957e-05,0.40311634165,-0.0202639776166,1.26177183982,3.13782715802,0.465985584365,3.12908070675,0.0312225411396
2.1,-0.326184569524,0.172927222154,0.342189268859,1.02040674984,-0.0587128774685,1.49143625684,-6.98131733957e-05,0.40311634165,-0.0202639776166,1.26177183982,3.13782715802,0.465985584365,3.12908070675,0.0312225411396
2.12,-0.324369425504,0.178529730784,0.339606169049,1.01503115918,-0.0586954212798,1.49302443296,-6.98131733957e-05,0.40446618423,-0.0210103558133,1.26132061739,3.13622499197,0.464291470645,3.12733280458,0.031267513462
2.14,-0.324369425504,0.178529730784,0.339606169049,1.01503115918,-0.0586954212798,1.49302443296,-6.98131733957e-05,0.40446618423,-0.0210103558133,1.26132061739,3.13622499197,0.464291470645,3.12733280458,0.031267513462
2.16,-0.322379777854,0.184830370449,0.336429650369,1.00955077313,-0.0587128774685,1.49483964355,-6.98131733957e-05,0.40446618423,-0.0210103558133,1.26132061739,3.13622499197,0.464291470645,3.12733280458,0.031267513462
2.18,-0.322379777854,0.184830370449,0.336429650369,1.00955077313,-0.0587128774685,1.49483964355,-6.98131733957e-05,0.40595401348,-0.0219561224601,1.26059204433,3.13457300381,0.461767049252,3.1251355172,0.0313374897627
2.2,-0.322379777854,0.184830370449,0.336429650369,1.00955077313,-0.0587128774685,1.49483964355,-6.98131733957e-05,0.40595401348,-0.0219561224601,1.26059204433,3.13457300381,0.461767049252,3.1251355172,0.0313374897627
2.22,-0.320442461319,0.190834300679,0.333113548759,1.00429735499,-0.0586954212798,1.49677696009,-6.98131733957e-05,0.407338807098,-0.0229313460462,1.25987365207,3.13306769306,0.459157392046,3.12284397677,0.0314050287053
2.24,-0.320442461319,0.190834300679,0.333113548759,1.00429735499,-0.0586954212798,1.49677696009,-6.98131733957e-05,0.407338807098,-0.0229313460462,1.25987365207,3.13306769306,0.459157392046,3.12284397677,0.0314050287053
2.26,-0.318260799754,0.197675994809,0.329378531909,0.998485405382,-0.0586605172248,1.498504819,-6.98131733957e-05,0.408980627724,-0.0240252825158,1.25901418849,3.1313895352,0.45647801561,3.1202819466,0.0314853629888
2.28,-0.318260799754,0.197675994809,0.329378531909,0.998485405382,-0.0586605172248,1.498504819,-6.98131733957e-05,0.408980627724,-0.0240252825158,1.25901418849,3.1313895352,0.45647801561,3.1202819466,0.0314853629888
2.3,-0.315956965674,0.204692209214,0.325695879464,0.991748473351,-0.0585907049535,1.50061657259,-6.98131733957e-05,0.408980627724,-0.0240252825158,1.25901418849,3.1313895352,0.45647801561,3.1202819466,0.0314853629888
2.32,-0.315956965674,0.204692209214,0.325695879464,0.991748473351,-0.0585907049535,1.50061657259,-6.98131733957e-05,0.410644001667,-0.0250700726571,1.2583659265,3.12964411661,0.454159274488,3.11782400841,0.0315404058402
2.34,-0.315956965674,0.204692209214,0.325695879464,0.991748473351,-0.0585907049535,1.50061657259,-6.98131733957e-05,0.410644001667,-0.0250700726571,1.2583659265,3.12964411661,0.454159274488,3.11782400841,0.0315404058402
2.36,-0.313722939704,0.211690979914,0.322117955829,0.985412879697,-0.0585383447098,1.50257146599,-6.98131733957e-05,0.412308120306,-0.0260915499082,1.2575791189,3.12797217346,0.451605845291,3.115451165,0.031605279471
2.38,-0.313722939704,0.211690979914,0.322117955829,0.985412879697,-0.0585383447098,1.50257146599,-6.98131733957e-05,0.412308120306,-0.0260915499082,1.2575791189,3.12797217346,0.451605845291,3.115451165,0.031605279471
2.4,-0.311453993034,0.218934095644,0.318033898429,0.979077352622,-0.0584685282773,1.50492756461,-6.98131733957e-05,0.413963099409,-0.0272827344961,1.25663549471,3.12638710608,0.448372443232,3.11267178118,0.0316813118152
2.42,-0.311453993034,0.218934095644,0.318033898429,0.979077352622,-0.0584685282773,1.50492756461,-6.98131733957e-05,0.413963099409,-0.0272827344961,1.25663549471,3.12638710608,0.448372443232,3.11267178118,0.0316813118152
2.44,-0.309010542734,0.226648457729,0.314403610389,0.972445082822,-0.0583987160061,1.50709178247,-6.98131733957e-05,0.415778405613,-0.0282763069623,1.25561067959,3.12461047374,0.445186963721,3.11040885933,0.03175849629
2.46,-0.309010542734,0.226648457729,0.314403610389,0.972445082822,-0.0583987160061,1.50709178247,-6.98131733957e-05,0.415778405613,-0.0282763069623,1.25561067959,3.12461047374,0.445186963721,3.11040885933,0.03175849629
2.48,-0.309010542734,0.226648457729,0.314403610389,0.972445082822,-0.0583987160061,1.50709178247,-6.98131733957e-05,0.415778405613,-0.0282763069623,1.25561067959,3.12461047374,0.445186963721,3.11040885933,0.03175849629
2.5,-0.306444919919,0.234572244144,0.310459169209,0.965446362056,-0.0582067312198,1.50904654271,-6.98131733957e-05,0.417688470706,-0.0293241353608,1.25461668549,3.12277834752,0.442340286916,3.10795922037,0.0318309072999
2.52,-0.306444919919,0.234572244144,0.310459169209,0.965446362056,-0.0582067312198,1.50904654271,-6.98131733957e-05,0.417688470706,-0.0293241353608,1.25461668549,3.12277834752,0.442340286916,3.10795922037,0.0318309072999
2.54,-0.303652395779,0.243316350754,0.306026037969,0.957679585632,-0.0580496504886,1.51166456322,-6.98131733957e-05,0.419721053153,-0.0305197536937,1.25347387499,3.12092368406,0.438758746184,3.10520111937,0.0319076903685
2.56,-0.303652395779,0.243316350754,0.306026037969,0.957679585632,-0.0580496504886,1.51166456322,-6.98131733957e-05,0.419721053153,-0.0305197536937,1.25347387499,3.12092368406,0.438758746184,3.10520111937,0.0319076903685
2.58,-0.300964567159,0.251693923174,0.301662714839,0.950803037382,-0.0578227574861,1.51410801352,-6.98131733957e-05,0.421649424037,-0.0316599757338,1.25215900519,3.11920518817,0.434804903935,3.10255926819,0.0319986400603
2.6,-0.300964567159,0.251693923174,0.301662714839,0.950803037382,-0.0578227574861,1.51410801352,-6.98131733957e-05,0.421649424037,-0.0316599757338,1.25215900519,3.11920518817,0.434804903935,3.10255926819,0.0319986400603
2.62,-0.300964567159,0.251693923174,0.301662714839,0.950803037382,-0.0578227574861,1.51410801352,-6.98131733957e-05,0.421649424037,-0.0316599757338,1.25215900519,3.11920518817,0.434804903935,3.10255926819,0.0319986400603
2.64,-0.298241851129,0.259809706859,0.296932874164,0.943210831167,-0.0576307726998,1.51686571682,-6.98131733957e-05,0.423489541321,-0.0329034869093,1.25114747531,3.11776259345,0.431463725617,3.09966298827,0.0320554522003
2.66,-0.298241851129,0.259809706859,0.296932874164,0.943210831167,-0.0576307726998,1.51686571682,-6.98131733957e-05,0.423489541321,-0.0329034869093,1.25114747531,3.11776259345,0.431463725617,3.09966298827,0.0320554522003
2.68,-0.295431883284,0.268728350389,0.292237920899,0.935234663702,-0.0572642509936,1.51904737839,-6.98131733957e-05,0.425623121331,-0.0341260130305,1.2499544518,3.11598289025,0.428290367099,3.09677844773,0.0321234973936
2.7,-0.295431883284,0.268728350389,0.292237920899,0.935234663702,-0.0572642509936,1.51904737839,-6.98131733957e-05,0.425623121331,-0.0341260130305,1.2499544518,3.11598289025,0.428290367099,3.09677844773,0.0321234973936
2.72,-0.292569551034,0.277908782654,0.287769902249,0.927502841267,-0.0570024539361,1.52185727966,-6.98131733957e-05,0.427708849977,-0.0352569305853,1.2485003678,3.11428913828,0.423990267632,3.09420556552,0.0322046850962
2.74,-0.292569551034,0.277908782654,0.287769902249,0.927502841267,-0.0570024539361,1.52185727966,-6.98131733957e-05,0.427708849977,-0.0352569305853,1.2485003678,3.11428913828,0.423990267632,3.09420556552,0.0322046850962
2.76,-0.292569551034,0.277908782654,0.287769902249,0.927502841267,-0.0570024539361,1.52185727966,-6.98131733957e-05,0.427708849977,-0.0352569305853,1.2485003678,3.11428913828,0.423990267632,3.09420556552,0.0322046850962
2.78,-0.289585012979,0.287246291489,0.283074948984,0.919509230097,-0.0567057486623,1.5245974061,-6.98131733957e-05,0.429848126283,-0.0364102593867,1.24704295444,3.11267523003,0.419836881333,3.09157175146,0.0322798723702
2.8,-0.289585012979,0.287246291489,0.283074948984,0.919509230097,-0.0567057486623,1.5245974061,-6.98131733957e-05,0.429848126283,-0.0364102593867,1.24704295444,3.11267523003,0.419836881333,3.09157175146,0.0322798723702
2.82,-0.286652872619,0.296548879624,0.278345108309,0.911131657677,-0.0562868667123,1.52730277829,-8.72664606492e-05,0.431993471726,-0.0375687640199,1.24570740085,3.11105363955,0.416116853267,3.08889027805,0.0323362139881
2.84,-0.286652872619,0.296548879624,0.278345108309,0.911131657677,-0.0562868667123,1.52730277829,-8.72664606492e-05,0.431993471726,-0.0375687640199,1.24570740085,3.11105363955,0.416116853267,3.08889027805,0.0323362139881
2.86,-0.283476387229,0.306218018594,0.273039309114,0.902946099172,-0.0559378011948,1.53002546103,-8.72664606492e-05,0.434204091261,-0.0388329353369,1.24410424723,3.10969960758,0.411776518673,3.0859988198,0.032411284473
2.88,-0.283476387229,0.306218018594,0.273039309114,0.902946099172,-0.0559378011948,1.53002546103,-8.72664606492e-05,0.434204091261,-0.0388329353369,1.24410424723,3.10969960758,0.411776518673,3.0859988198,0.032411284473
2.9,-0.283476387229,0.306218018594,0.273039309114,0.902946099172,-0.0559378011948,1.53002546103,-8.72664606492e-05,0.434204091261,-0.0388329353369,1.24410424723,3.10969960758,0.411776518673,3.0859988198,0.032411284473
2.92,-0.280299868549,0.315695143649,0.267820778379,0.894725586677,-0.0556934561648,1.53271325636,-8.72664606492e-05,0.43637014441,-0.0400527537653,1.24257005567,3.10858564318,0.407683873152,3.08325994004,0.0324731455572
2.94,-0.280299868549,0.315695143649,0.267820778379,0.894725586677,-0.0556934561648,1.53271325636,-8.72664606492e-05,0.43637014441,-0.0400527537653,1.24257005567,3.10858564318,0.407683873152,3.08325994004,0.0324731455572
2.96,-0.277193191269,0.325573706949,0.262776767919,0.885702264272,-0.0554840151898,1.53564539672,-0.00010471975603,0.438618599289,-0.0412765294052,1.2410988096,3.10744911486,0.403753302263,3.08056764215,0.0325135716382
2.98,-0.277193191269,0.325573706949,0.262776767919,0.885702264272,-0.0554840151898,1.53564539672,-0.00010471975603,0.438618599289,-0.0412765294052,1.2410988096,3.10744911486,0.403753302263,3.08056764215,0.0325135716382
3.0,-0.273981785179,0.335888629194,0.257837486269,0.876993061717,-0.0552571221873,1.53831574835,-0.000122173051411,0.440989454267,-0.04241537658,1.2393183953,3.10628073733,0.399338160673,3.07810601913,0.0325753449955
3.02,-0.273981785179,0.335888629194,0.257837486269,0.876993061717,-0.0552571221873,1.53831574835,-0.000122173051411,0.440989454267,-0.04241537658,1.2393183953,3.10628073733,0.399338160673,3.07810601913,0.0325753449955
3.04,-0.273981785179,0.335888629194,0.257837486269,0.876993061717,-0.0552571221873,1.53831574835,-0.000122173051411,0.440989454267,-0.04241537658,1.2393183953,3.10628073733,0.399338160673,3.07810601913,0.0325753449955
3.06,-0.270822743494,0.345365754249,0.252985473079,0.868685264117,-0.0550476853736,1.54081152977,-0.000139626346791,0.443169729739,-0.0434655525783,1.23774821797,3.10541195359,0.395510252514,3.07582784581,0.032617070112
3.08,-0.270822743494,0.345365754249,0.252985473079,0.868685264117,-0.0550476853736,1.54081152977,-0.000139626346791,0.443169729739,-0.0434655525783,1.23774821797,3.10541195359,0.395510252514,3.07582784581,0.032617070112
3.1,-0.267401896429,0.356047160749,0.247208427529,0.859295424167,-0.0547160718836,1.54376111383,-0.000139626346791,0.445585000957,-0.0447749056223,1.23593824827,3.1045673679,0.391050515329,3.07291942524,0.0326581344654
3.12,-0.267401896429,0.356047160749,0.247208427529,0.859295424167,-0.0547160718836,1.54376111383,-0.000139626346791,0.445585000957,-0.0447749056223,1.23593824827,3.1045673679,0.391050515329,3.07291942524,0.0326581344654
3.14,-0.264155586284,0.366257354184,0.241588475194,0.850551334202,-0.0544193666098,1.54714705684,-0.000157079625918,0.447778762982,-0.0460352681093,1.23405764457,3.10397019703,0.385973135775,3.07017319103,0.0326995896088
3.16,-0.264155586284,0.366257354184,0.241588475194,0.850551334202,-0.0544193666098,1.54714705684,-0.000157079625918,0.447778762982,-0.0460352681093,1.23405764457,3.10397019703,0.385973135775,3.07017319103,0.0326995896088
3.18,-0.264155586284,0.366257354184,0.241588475194,0.850551334202,-0.0544193666098,1.54714705684,-0.000157079625918,0.447778762982,-0.0460352681093,1.23405764457,3.10397019703,0.385973135775,3.07017319103,0.0326995896088
3.2,-0.260787103624,0.377183105714,0.236125599429,0.841335997882,-0.0541750215798,1.55000942238,-0.000157079625918,0.450232109861,-0.0472341662269,1.23202574913,3.10331601833,0.381184959917,3.06760247022,0.0327412183633
3.22,-0.260787103624,0.377183105714,0.236125599429,0.841335997882,-0.0541750215798,1.55000942238,-0.000157079625918,0.450232109861,-0.0472341662269,1.23202574913,3.10331601833,0.381184959917,3.06760247022,0.0327412183633
3.24,-0.257331352504,0.388196142349,0.230680167369,0.831352672482,-0.0536863273586,1.55348271707,-0.000174532921298,0.452640828426,-0.048341498308,1.23014649695,3.1025127375,0.376456066051,3.06516070317,0.0327474272124
3.26,-0.257331352504,0.388196142349,0.230680167369,0.831352672482,-0.0536863273586,1.55348271707,-0.000174532921298,0.452640828426,-0.048341498308,1.23014649695,3.1025127375,0.376456066051,3.06516070317,0.0327474272124
3.28,-0.254137390119,0.398266686274,0.225671077609,0.823009987473,-0.0533198098136,1.55643230114,-0.000174532921298,0.454827536825,-0.049315247108,1.2281421137,3.10200504705,0.371564089538,3.06305599299,0.0327779161108
3.3,-0.254137390119,0.398266686274,0.225671077609,0.823009987473,-0.0533198098136,1.55643230114,-0.000174532921298,0.454827536825,-0.049315247108,1.2281421137,3.10200504705,0.371564089538,3.06305599299,0.0327779161108
3.32,-0.254137390119,0.398266686274,0.225671077609,0.823009987473,-0.0533198098136,1.55643230114,-0.000174532921298,0.454827536825,-0.049315247108,1.2281421137,3.10200504705,0.371564089538,3.06305599299,0.0327779161108
3.34,-0.250437293969,0.409140073399,0.219667147379,0.813236186272,-0.052848571781,1.55969600506,-0.000174532921298,0.457201293732,-0.0504345810044,1.22618819864,3.10172898055,0.3669177425,3.06057291356,0.0327747590297
3.36,-0.250437293969,0.409140073399,0.219667147379,0.813236186272,-0.052848571781,1.55969600506,-0.000174532921298,0.457201293732,-0.0504345810044,1.22618819864,3.10172898055,0.3669177425,3.06057291356,0.0327747590297
3.38,-0.247033907254,0.419926208709,0.214169350914,0.804125578762,-0.0526216787786,1.5624186878,-0.000174532921298,0.459588104805,-0.0515133232903,1.22405999823,3.10164984202,0.362264771084,3.05830671952,0.0327868306619
3.4,-0.247033907254,0.419926208709,0.214169350914,0.804125578762,-0.0526216787786,1.5624186878,-0.000174532921298,0.459588104805,-0.0515133232903,1.22405999823,3.10164984202,0.362264771084,3.05830671952,0.0327868306619
3.42,-0.243613060189,0.430869437234,0.208811187314,0.794718228527,-0.0523424255323,1.56543817984,-0.000174532921298,0.461967353703,-0.0525144994925,1.22191471817,3.10155080799,0.357458684741,3.05620689459,0.0327833558388
3.44,-0.243613060189,0.430869437234,0.208811187314,0.794718228527,-0.0523424255323,1.56543817984,-0.000174532921298,0.461967353703,-0.0525144994925,1.22191471817,3.10155080799,0.357458684741,3.05620689459,0.0327833558388
3.46,-0.243613060189,0.430869437234,0.208811187314,0.794718228527,-0.0523424255323,1.56543817984,-0.000174532921298,0.461967353703,-0.0525144994925,1.22191471817,3.10155080799,0.357458684741,3.05620689459,0.0327833558388
3.48,-0.240035136554,0.442440972038,0.202789813379,0.784455670688,-0.0520457202586,1.56866699635,-0.000174532921298,0.464466689238,-0.0536871865885,1.21970740356,3.10173023561,0.352625433901,3.05372717159,0.0327586826672
3.5,-0.240035136554,0.442440972038,0.202789813379,0.784455670688,-0.0520457202586,1.56866699635,-0.000174532921298,0.464466689238,-0.0536871865885,1.21970740356,3.10173023561,0.352625433901,3.05372717159,0.0327586826672
3.52,-0.236579385434,0.453087457839,0.197204748454,0.774943658222,-0.0516617465248,1.5717388195,-0.000174532921298,0.466747786182,-0.0546571009337,1.21766283793,3.1019328044,0.34814044829,3.05164633904,0.0327243865627
3.54,-0.236579385434,0.453087457839,0.197204748454,0.774943658222,-0.0516617465248,1.5717388195,-0.000174532921298,0.466747786182,-0.0546571009337,1.21766283793,3.1019328044,0.34814044829,3.05164633904,0.0327243865627
3.56,-0.232949097394,0.464484489013,0.191131010114,0.765291962958,-0.0512079605198,1.57498507972,-0.000174532921298,0.469144803023,-0.0557024910504,1.21526274697,3.10230470697,0.342843971781,3.04940774368,0.0327012709172
3.58,-0.232949097394,0.464484489013,0.191131010114,0.765291962958,-0.0512079605198,1.57498507972,-0.000174532921298,0.469144803023,-0.0557024910504,1.21526274697,3.10230470697,0.342843971781,3.04940774368,0.0327012709172
3.6,-0.232949097394,0.464484489013,0.191131010114,0.765291962958,-0.0512079605198,1.57498507972,-0.000174532921298,0.469144803023,-0.0557024910504,1.21526274697,3.10230470697,0.342843971781,3.04940774368,0.0327012709172
3.62,-0.229196636839,0.475410240543,0.185144523589,0.755832281608,-0.0508588950023,1.57840591014,-0.000174532921298,0.471397520575,-0.0566145181952,1.2129797909,3.1029557439,0.337652608067,3.04748307621,0.0326609754047
3.64,-0.229196636839,0.475410240543,0.185144523589,0.755832281608,-0.0508588950023,1.57840591014,-0.000174532921298,0.471397520575,-0.0566145181952,1.2129797909,3.1029557439,0.337652608067,3.04748307621,0.0326609754047
3.66,-0.225828154179,0.486650145214,0.179821280689,0.746302758858,-0.0505098294848,1.58137307106,-0.000174532921298,0.473770449656,-0.05748312105,1.21058343574,3.10336164552,0.332712776137,3.04569146934,0.0326186925016
3.68,-0.225828154179,0.486650145214,0.179821280689,0.746302758858,-0.0505098294848,1.58137307106,-0.000174532921298,0.473770449656,-0.05748312105,1.21058343574,3.10336164552,0.332712776137,3.04569146934,0.0326186925016
3.7,-0.222197866139,0.497732989958,0.174166407654,0.736703461288,-0.0501258557511,1.58467166239,-0.000174532921298,0.476051175709,-0.0582878689841,1.20822897346,3.10404250247,0.327646427021,3.04400752878,0.0325588905705
3.72,-0.222197866139,0.497732989958,0.174166407654,0.736703461288,-0.0501258557511,1.58467166239,-0.000174532921298,0.476051175709,-0.0582878689841,1.20822897346,3.10404250247,0.327646427021,3.04400752878,0.0325588905705
3.74,-0.222197866139,0.497732989958,0.174166407654,0.736703461288,-0.0501258557511,1.58467166239,-0.000174532921298,0.476051175709,-0.0582878689841,1.20822897346,3.10404250247,0.327646427021,3.04400752878,0.0325588905705
3.76,-0.218672306909,0.508414396459,0.168494090914,0.726912149803,-0.0498291504773,1.58781326037,-0.000174532921298,0.478263983885,-0.0591213224805,1.20611024423,3.10498612516,0.323326684322,3.04227023849,0.0324690828083
3.78,-0.218672306909,0.508414396459,0.168494090914,0.726912149803,-0.0498291504773,1.58781326037,-0.000174532921298,0.478263983885,-0.0591213224805,1.20611024423,3.10498612516,0.323326684322,3.04227023849,0.0324690828083
3.8,-0.215076922924,0.519846315043,0.162490160684,0.717190679718,-0.0495673492586,1.59116431597,-0.000174532921298,0.480561976719,-0.0600279057944,1.20356089944,3.10617011465,0.31796601865,3.04042536077,0.0323964529817
3.82,-0.215076922924,0.519846315043,0.162490160684,0.717190679718,-0.0495673492586,1.59116431597,-0.000174532921298,0.480561976719,-0.0600279057944,1.20356089944,3.10617011465,0.31796601865,3.04042536077,0.0323964529817
3.84,-0.211446634884,0.531557466068,0.156608386325,0.707329593413,-0.0494102726886,1.59411390004,-0.000174532921298,0.482970596909,-0.0608835738778,1.20091675885,3.1074853623,0.312878075725,3.0387395665,0.032317295749
3.86,-0.211446634884,0.531557466068,0.156608386325,0.707329593413,-0.0494102726886,1.59411390004,-0.000174532921298,0.482970596909,-0.0608835738778,1.20091675885,3.1074853623,0.312878075725,3.0387395665,0.032317295749
3.88,-0.211446634884,0.531557466068,0.156608386325,0.707329593413,-0.0494102726886,1.59411390004,-0.000174532921298,0.482970596909,-0.0608835738778,1.20091675885,3.1074853623,0.312878075725,3.0387395665,0.032317295749
3.9,-0.208147960334,0.542029448238,0.151040798394,0.698376045828,-0.0491659234974,1.59716827949,-0.000191986216679,0.485042378897,-0.0616703490359,1.19854432531,3.10884223251,0.30803450216,3.03716112246,0.0322305066149
3.92,-0.208147960334,0.542029448238,0.151040798394,0.698376045828,-0.0491659234974,1.59716827949,-0.000191986216679,0.485042378897,-0.0616703490359,1.19854432531,3.10884223251,0.30803450216,3.03716112246,0.0322305066149
3.94,-0.204238423209,0.553950056883,0.1448972353,0.688253104208,-0.0488692182236,1.60030987747,-0.000174532921298,0.487445642618,-0.0623928475551,1.19581317128,3.11038194778,0.302801458645,3.03568863264,0.0321253407234
3.96,-0.204238423209,0.553950056883,0.1448972353,0.688253104208,-0.0488692182236,1.60030987747,-0.000174532921298,0.487445642618,-0.0623928475551,1.19581317128,3.11038194778,0.302801458645,3.03568863264,0.0321253407234
3.98,-0.200922304954,0.564352197653,0.139312178697,0.678566588112,-0.0485725129498,1.60336412377,-0.000191986216679,0.489514143578,-0.0631221535217,1.19366921244,3.11191601957,0.29876762496,3.03419936171,0.0319839428989
4.0,-0.200922304954,0.564352197653,0.139312178697,0.678566588112,-0.0485725129498,1.60336412377,-0.000191986216679,0.489514143578,-0.0631221535217,1.19366921244,3.11191601957,0.29876762496,3.03419936171,0.0319839428989
4.02,-0.200922304954,0.564352197653,0.139312178697,0.678566588112,-0.0485725129498,1.60336412377,-0.000191986216679,0.489514143578,-0.0631221535217,1.19366921244,3.11191601957,0.29876762496,3.03419936171,0.0319839428989
4.04,-0.197326920969,0.574963829333,0.13353514147,0.669421026613,-0.0482059954048,1.60638361581,-0.000191986216679,0.49158841864,-0.0637234204898,1.19121759362,3.11358571655,0.294017068195,3.03294923895,0.0318650513746
4.06,-0.197326920969,0.574963829333,0.13353514147,0.669421026613,-0.0482059954048,1.60638361581,-0.000191986216679,0.49158841864,-0.0637234204898,1.19121759362,3.11358571655,0.294017068195,3.03294923895,0.0318650513746
4.08,-0.193626824819,0.587181147413,0.127915180812,0.659420324087,-0.0476823971286,1.61018847406,-0.000191986216679,0.493875543729,-0.0642317709052,1.18819463995,3.11496656214,0.287748945009,3.03190086585,0.0317393858437
4.1,-0.193626824819,0.587181147413,0.127915180812,0.659420324087,-0.0476823971286,1.61018847406,-0.000191986216679,0.493875543729,-0.0642317709052,1.18819463995,3.11496656214,0.287748945009,3.03190086585,0.0317393858437
4.12,-0.190450322784,0.597024790013,0.122731554132,0.650606392723,-0.0473682356661,1.61284124882,-0.000191986216679,0.495803885518,-0.0647673311191,1.18599580129,3.11663803403,0.283840632224,3.0307990864,0.031595981606
4.14,-0.190450322784,0.597024790013,0.122731554132,0.650606392723,-0.0473682356661,1.61284124882,-0.000191986216679,0.495803885518,-0.0647673311191,1.18599580129,3.11663803403,0.283840632224,3.0307990864,0.031595981606
4.16,-0.190450322784,0.597024790013,0.122731554132,0.650606392723,-0.0473682356661,1.61284124882,-0.000191986216679,0.495803885518,-0.0647673311191,1.18599580129,3.11663803403,0.283840632224,3.0307990864,0.031595981606
4.18,-0.186820051389,0.608142555458,0.11698942096,0.640867478932,-0.0469144496611,1.61619230442,-0.000191986216679,0.497899591785,-0.0652532057701,1.18340342711,3.11847838036,0.278869462489,3.02977205389,0.0314329596234
4.2,-0.186820051389,0.608142555458,0.11698942096,0.640867478932,-0.0469144496611,1.61619230442,-0.000191986216679,0.497899591785,-0.0652532057701,1.18340342711,3.11847838036,0.278869462489,3.02977205389,0.0314329596234
4.22,-0.183416648029,0.618684345738,0.111317095897,0.631791758833,-0.0464257596011,1.61943869779,-0.00020943951206,0.499836530319,-0.0657545981761,1.18086482382,3.12041500344,0.273927852645,3.02871212394,0.0312764395745
4.24,-0.183416648029,0.618684345738,0.111317095897,0.631791758833,-0.0464257596011,1.61943869779,-0.00020943951206,0.499836530319,-0.0657545981761,1.18086482382,3.12041500344,0.273927852645,3.02871212394,0.0312764395745
4.26,-0.179891088799,0.629906773413,0.105557510697,0.621808433433,-0.0461814104099,1.62244061297,-0.000226892807441,0.501971047066,-0.0662798426077,1.17826986397,3.1226821888,0.269462674247,3.02769367206,0.0310856330428
4.28,-0.179891088799,0.629906773413,0.105557510697,0.621808433433,-0.0461814104099,1.62244061297,-0.000226892807441,0.501971047066,-0.0662798426077,1.17826986397,3.1226821888,0.269462674247,3.02769367206,0.0310856330428
4.3,-0.179891088799,0.629906773413,0.105557510697,0.621808433433,-0.0461814104099,1.62244061297,-0.000226892807441,0.501971047066,-0.0662798426077,1.17826986397,3.1226821888,0.269462674247,3.02769367206,0.0310856330428
4.32,-0.176679682709,0.640361278588,0.100164443042,0.613029456058,-0.0457101723774,1.62532042221,-0.000226892807441,0.503890272849,-0.066725271958,1.17565646375,3.12467755349,0.264707484589,3.026753789,0.0309237218487
4.34,-0.176679682709,0.640361278588,0.100164443042,0.613029456058,-0.0457101723774,1.62532042221,-0.000226892807441,0.503890272849,-0.066725271958,1.17565646375,3.12467755349,0.264707484589,3.026753789,0.0309237218487
4.36,-0.173276295994,0.650658723838,0.0948237397922,0.604791499858,-0.0452912945886,1.62811287978,-0.000226892807441,0.505755059543,-0.0670190327677,1.17293043828,3.12680562835,0.259667207473,3.02613417993,0.0307762045645
4.38,-0.173276295994,0.650658723838,0.0948237397922,0.604791499858,-0.0452912945886,1.62811287978,-0.000226892807441,0.505755059543,-0.0670190327677,1.17293043828,3.12680562835,0.259667207473,3.02613417993,0.0307762045645
4.4,-0.16990779669,0.660973612793,0.0890990586472,0.594878015858,-0.0449422290711,1.63109748441,-0.000226892807441,0.507669538535,-0.0674658253206,1.17071338022,3.12930670872,0.256086587802,3.02519626793,0.0305357530121
4.42,-0.16990779669,0.660973612793,0.0890990586472,0.594878015858,-0.0449422290711,1.63109748441,-0.000226892807441,0.507669538535,-0.0674658253206,1.17071338022,3.12930670872,0.256086587802,3.02519626793,0.0305357530121
4.44,-0.16990779669,0.660973612793,0.0890990586472,0.594878015858,-0.0449422290711,1.63109748441,-0.000226892807441,0.507669538535,-0.0674658253206,1.17071338022,3.12930670872,0.256086587802,3.02519626793,0.0305357530121
4.46,-0.166661486545,0.671236170633,0.0837583470748,0.586849517278,-0.0446978840411,1.63401218106,-0.000226892807441,0.509441808054,-0.0677979799885,1.16789511334,3.13179626624,0.250769297223,3.02454656714,0.030380044941
4.48,-0.166661486545,0.671236170633,0.0837583470748,0.586849517278,-0.0446978840411,1.63401218106,-0.000226892807441,0.509441808054,-0.0677979799885,1.16789511334,3.13179626624,0.250769297223,3.02454656714,0.030380044941
4.5,-0.163676981779,0.681324158263,0.0788888818572,0.577843638578,-0.0445931635536,1.63683952604,-0.000261799381947,0.511245658133,-0.0681376706853,1.16547759527,3.13420590365,0.246713429774,3.02395852693,0.0301619940135
4.52,-0.163676981779,0.681324158263,0.0788888818572,0.577843638578,-0.0445931635536,1.63683952604,-0.000261799381947,0.511245658133,-0.0681376706853,1.16547759527,3.13420590365,0.246713429774,3.02395852693,0.0301619940135
4.54,-0.160413211284,0.691464543588,0.0738274276923,0.569047150918,-0.0444011746061,1.63966700416,-0.000261799381947,0.513038278861,-0.0683442312571,1.1629454978,3.13672712953,0.242399131861,3.0235682219,0.0299473442323
4.56,-0.160413211284,0.691464543588,0.0738274276923,0.569047150918,-0.0444011746061,1.63966700416,-0.000261799381947,0.513038278861,-0.0683442312571,1.1629454978,3.13672712953,0.242399131861,3.0235682219,0.0299473442323
4.58,-0.160413211284,0.691464543588,0.0738274276923,0.569047150918,-0.0444011746061,1.63966700416,-0.000261799381947,0.513038278861,-0.0683442312571,1.1629454978,3.13672712953,0.242399131861,3.0235682219,0.0299473442323
4.6,-0.157603226795,0.700592594803,0.0692023033435,0.561193155968,-0.0441568295761,1.64265147564,-0.000261799381947,0.514549234998,-0.0685685910275,1.16061264927,3.13904284006,0.238018500162,3.02310563508,0.0297479528006
4.62,-0.157603226795,0.700592594803,0.0692023033435,0.561193155968,-0.0441568295761,1.64265147564,-0.000261799381947,0.514549234998,-0.0685685910275,1.16061264927,3.13904284006,0.238018500162,3.02310563508,0.0297479528006
4.64,-0.154391820705,0.710191958952,0.0640884889348,0.553374081718,-0.0439299365736,1.6450950591,-0.000261799381947,0.516211359655,-0.0687286139335,1.15802804152,-3.14143376877,0.233669622899,3.02279092453,0.02955724865
4.66,-0.154391820705,0.710191958952,0.0640884889348,0.553374081718,-0.0439299365736,1.6450950591,-0.000261799381947,0.516211359655,-0.0687286139335,1.15802804152,-3.14143376877,0.233669622899,3.02279092453,0.02955724865
4.68,-0.15123277902,0.720262502877,0.0586954212798,0.543949321068,-0.0438077640586,1.6483064319,-0.000279252693583,0.517900651374,-0.0690155311336,1.15567295874,-3.13839099555,0.229690539597,3.02224692243,0.0292815745372
4.7,-0.15123277902,0.720262502877,0.0586954212798,0.543949321068,-0.0438077640586,1.6483064319,-0.000279252693583,0.517900651374,-0.0690155311336,1.15567295874,-3.13839099555,0.229690539597,3.02224692243,0.0292815745372
4.72,-0.15123277902,0.720262502877,0.0586954212798,0.543949321068,-0.0438077640586,1.6483064319,-0.000279252693583,0.517900651374,-0.0690155311336,1.15567295874,-3.13839099555,0.229690539597,3.02224692243,0.0292815745372
4.74,-0.148283178309,0.729198540178,0.0540353928761,0.537072706238,-0.0435459628399,1.65080221331,-0.000296705988964,0.519350968971,-0.0690827891817,1.15310316872,-3.13583909959,0.225040389577,3.02211126263,0.0291099878322
4.76,-0.148283178309,0.729198540178,0.0540353928761,0.537072706238,-0.0435459628399,1.65080221331,-0.000296705988964,0.519350968971,-0.0690827891817,1.15310316872,-3.13583909959,0.225040389577,3.02211126263,0.0291099878322
4.78,-0.14554300193,0.738256816573,0.0495324452036,0.528607882003,-0.0433016178099,1.65333288214,-0.000296705988964,0.520905706554,-0.06922574061,1.15097123389,-3.13334234807,0.221831769413,3.02182323019,0.0288498300128
4.8,-0.14554300193,0.738256816573,0.0495324452036,0.528607882003,-0.0433016178099,1.65333288214,-0.000296705988964,0.520905706554,-0.06922574061,1.15097123389,-3.13334234807,0.221831769413,3.02182323019,0.0288498300128
4.82,-0.14275047779,0.746948575422,0.0450644015861,0.521260020819,-0.0431445370786,1.65544476889,-0.000296705988964,0.5223818895,-0.0693019174104,1.14867456521,-3.13070191014,0.218300977743,3.02169296822,0.0286366193096
4.84,-0.14275047779,0.746948575422,0.0450644015861,0.521260020819,-0.0431445370786,1.65544476889,-0.000296705988964,0.5223818895,-0.0693019174104,1.14867456521,-3.13070191014,0.218300977743,3.02169296822,0.0286366193096
4.86,-0.14275047779,0.746948575422,0.0450644015861,0.521260020819,-0.0431445370786,1.65544476889,-0.000296705988964,0.5223818895,-0.0693019174104,1.14867456521,-3.13070191014,0.218300977743,3.02169296822,0.0286366193096
4.88,-0.140010318054,0.755500651473,0.0402123842349,0.513423502863,-0.0430223645636,1.6579231066,-0.000296705988964,0.523781514706,-0.0694968436859,1.14658395246,-3.12770433254,0.2150349411,3.02131003048,0.0283859540277
4.9,-0.140010318054,0.755500651473,0.0402123842349,0.513423502863,-0.0430223645636,1.6579231066,-0.000296705988964,0.523781514706,-0.0694968436859,1.14658395246,-3.12770433254,0.2150349411,3.02131003048,0.0283859540277
4.92,-0.137357410135,0.764140079207,0.0357792488336,0.507122863198,-0.0427082072624,1.66031422578,-0.000296705988964,0.52509065945,-0.0695404023772,1.14394622666,-3.12511795058,0.210248028196,3.02118788203,0.0282148169245
4.94,-0.137357410135,0.764140079207,0.0357792488336,0.507122863198,-0.0427082072624,1.66031422578,-0.000296705988964,0.52509065945,-0.0695404023772,1.14394622666,-3.12511795058,0.210248028196,3.02118788203,0.0282148169245
4.96,-0.134879047457,0.771767172832,0.031834805573,0.499495769574,-0.0423765937724,1.6623563377,-0.000296705988964,0.52641182525,-0.0695238256154,1.14227601838,-3.12283893261,0.208161321034,3.02118597541,0.0279463222861
4.98,-0.134879047457,0.771767172832,0.031834805573,0.499495769574,-0.0423765937724,1.6623563377,-0.000296705988964,0.52641182525,-0.0695238256154,1.14227601838,-3.12283893261,0.208161321034,3.02118597541,0.0279463222861
5.0,-0.134879047457,0.771767172832,0.031834805573,0.499495769574,-0.0423765937724,1.6623563377,-0.000296705988964,0.52641182525,-0.0695238256154,1.14227601838,-3.12283893261,0.208161321034,3.02118597541,0.0279463222861
5.02,-0.132086514995,0.780615991607,0.0277507356893,0.492392286708,-0.0420624364711,1.66474745689,-0.000296705988964,0.527804392211,-0.0693712200547,1.1397663533,-3.12041145635,0.203986062882,3.02145854905,0.0277241458973
5.04,-0.132086514995,0.780615991607,0.0277507356893,0.492392286708,-0.0420624364711,1.66474745689,-0.000296705988964,0.527804392211,-0.0693712200547,1.1397663533,-3.12041145635,0.203986062882,3.02145854905,0.0277241458973
5.06,-0.129695420777,0.787579824962,0.0242775304612,0.486056759633,-0.0416784627374,1.66712099921,-0.000296705988964,0.528872007974,-0.0691842391648,1.13800546628,-3.11842011417,0.200956553045,3.02173577261,0.0275011754975
5.08,-0.129695420777,0.787579824962,0.0242775304612,0.486056759633,-0.0416784627374,1.66712099921,-0.000296705988964,0.528872007974,-0.0691842391648,1.13800546628,-3.11842011417,0.200956553045,3.02173577261,0.0275011754975
5.1,-0.127374126347,0.795416376207,0.0206123383662,0.479616470459,-0.0413643012749,1.66897109722,-0.000296705988964,0.530124948118,-0.0691105994244,1.13582308619,-3.11619235699,0.197686622321,3.02186740806,0.0272878616563
5.12,-0.127374126347,0.795416376207,0.0206123383662,0.479616470459,-0.0413643012749,1.66897109722,-0.000296705988964,0.530124948118,-0.0691105994244,1.13582308619,-3.11619235699,0.197686622321,3.02186740806,0.0272878616563
5.14,-0.127374126347,0.795416376207,0.0206123383662,0.479616470459,-0.0413643012749,1.66897109722,-0.000296705988964,0.530124948118,-0.0691105994244,1.13582308619,-3.11619235699,0.197686622321,3.02186740806,0.0272878616563
5.16,-0.125017936185,0.802519825783,0.0167377073768,0.473106406463,-0.0411199562449,1.67150176605,-0.000296705988964,0.531157539844,-0.069046987076,1.13402537333,-3.1137043076,0.194544284972,3.02192414815,0.0270482898531
5.18,-0.125017936185,0.802519825783,0.0167377073768,0.473106406463,-0.0411199562449,1.67150176605,-0.000296705988964,0.531157539844,-0.069046987076,1.13402537333,-3.1137043076,0.194544284972,3.02192414815,0.0270482898531
5.2,-0.12274900616,0.808907750552,0.01308996939,0.466840654209,-0.0407534386999,1.67361365279,-0.000296705988964,0.532144641168,-0.068924363025,1.13254008365,-3.11145958249,0.192298441478,3.02207736849,0.0268067700931
5.22,-0.12274900616,0.808907750552,0.01308996939,0.466840654209,-0.0407534386999,1.67361365279,-0.000296705988964,0.532144641168,-0.068924363025,1.13254008365,-3.11145958249,0.192298441478,3.02207736849,0.0268067700931
5.24,-0.120654613055,0.816185770337,0.00940732422716,0.461988641019,-0.0404567334261,1.67506227926,-0.000296705988964,0.533218108237,-0.0689119949662,1.13014185553,-3.10907868328,0.188417570867,3.0220917266,0.0266613966969
5.26,-0.120654613055,0.816185770337,0.00940732422716,0.461988641019,-0.0404567334261,1.67506227926,-0.000296705988964,0.533218108237,-0.0689119949662,1.13014185553,-3.10907868328,0.188417570867,3.0220917266,0.0266613966969
5.28,-0.120654613055,0.816185770337,0.00940732422716,0.461988641019,-0.0404567334261,1.67506227926,-0.000296705988964,0.533218108237,-0.0689119949662,1.13014185553,-3.10907868328,0.188417570867,3.0220917266,0.0266613966969
5.3,-0.118734748547,0.822102448752,0.00591666593123,0.456682858468,-0.0402996526949,1.67680758189,-0.000296705988964,0.534091488627,-0.0689294035474,1.1286060034,-3.10667629756,0.186061291569,3.0220330724,0.0264603462599
5.32,-0.118734748547,0.822102448752,0.00591666593123,0.456682858468,-0.0402996526949,1.67680758189,-0.000296705988964,0.534091488627,-0.0689294035474,1.1286060034,-3.10667629756,0.186061291569,3.0220330724,0.0264603462599
5.34,-0.116832336067,0.828350690723,0.00275762034507,0.451045445783,-0.0401425719636,1.67886713751,-0.000296705988964,0.534983272623,-0.0688555343882,1.12698190723,-3.10449849993,0.183395599139,3.02214688879,0.0262417517132
5.36,-0.116832336067,0.828350690723,0.00275762034507,0.451045445783,-0.0401425719636,1.67886713751,-0.000296705988964,0.534983272623,-0.0688555343882,1.12698190723,-3.10449849993,0.183395599139,3.02214688879,0.0262417517132
5.38,-0.114999748342,0.834529157873,3.49065866979e-05,0.445634934423,-0.0399680392049,1.68059499643,-0.000296705988964,0.535906813168,-0.0686894059807,1.12532650661,-3.10263801535,0.180907134204,3.02246189347,0.0260333348864
5.4,-0.114999748342,0.834529157873,3.49065866979e-05,0.445634934423,-0.0399680392049,1.68059499643,-0.000296705988964,0.535906813168,-0.0686894059807,1.12532650661,-3.10263801535,0.180907134204,3.02246189347,0.0260333348864
5.42,-0.114999748342,0.834529157873,3.49065866979e-05,0.445634934423,-0.0399680392049,1.68059499643,-0.000296705988964,0.535906813168,-0.0686894059807,1.12532650661,-3.10263801535,0.180907134204,3.02246189347,0.0260333348864
5.44,-0.11335913292,0.839590628682,-0.00286234005233,0.441201769894,-0.0398982269336,1.68197384808,-0.000296705988964,0.536647732879,-0.0686639973674,1.1239720786,-3.10052204512,0.17891142106,3.02251145169,0.0258604050546
5.46,-0.11335913292,0.839590628682,-0.00286234005233,0.441201769894,-0.0398982269336,1.68197384808,-0.000296705988964,0.536647732879,-0.0686639973674,1.1239720786,-3.10052204512,0.17891142106,3.02251145169,0.0258604050546
5.48,-0.111788342252,0.844564814387,-0.00541052072279,0.437170076898,-0.0397236941749,1.68330023546,-0.000296705988964,0.537359217561,-0.0685526735197,1.12253347393,-3.09875354326,0.17665518769,3.022705718,0.0257073227955
5.5,-0.111788342252,0.844564814387,-0.00541052072279,0.437170076898,-0.0397236941749,1.68330023546,-0.000296705988964,0.537359217561,-0.0685526735197,1.12253347393,-3.09875354326,0.17665518769,3.022705718,0.0257073227955
5.52,-0.110287351372,0.849189926253,-0.00797615446107,0.433033655093,-0.0395317093886,1.684626756,-0.000296705988964,0.538028526812,-0.0684697756388,1.12131454942,-3.09697643103,0.174855383509,3.02283655783,0.0255403595873
5.54,-0.110287351372,0.849189926253,-0.00797615446107,0.433033655093,-0.0395317093886,1.684626756,-0.000296705988964,0.538028526812,-0.0684697756388,1.12131454942,-3.09697643103,0.174855383509,3.02283655783,0.0255403595873
5.56,-0.110287351372,0.849189926253,-0.00797615446107,0.433033655093,-0.0395317093886,1.684626756,-0.000296705988964,0.538028526812,-0.0684697756388,1.12131454942,-3.09697643103,0.174855383509,3.02283655783,0.0255403595873
5.58,-0.108821281192,0.853815038118,-0.0105592423075,0.429246273839,-0.0393746286574,1.68598803079,-0.000296705988964,0.538655340748,-0.0684060226548,1.11998203388,-3.09513654297,0.172674896165,3.02292893913,0.0253917218106
5.6,-0.108821281192,0.853815038118,-0.0105592423075,0.429246273839,-0.0393746286574,1.68598803079,-0.000296705988964,0.538655340748,-0.0684060226548,1.11998203388,-3.09513654297,0.172674896165,3.02292893913,0.0253917218106
5.62,-0.10751227926,0.857899128807,-0.0120776779328,0.425284388953,-0.0392349999536,1.68673850959,-0.000296705988964,0.539358838232,-0.0681456509482,1.11900647882,-3.0940839084,0.171814109409,3.02346170831,0.0252254442939
5.64,-0.10751227926,0.857899128807,-0.0120776779328,0.425284388953,-0.0392349999536,1.68673850959,-0.000296705988964,0.539358838232,-0.0681456509482,1.11900647882,-3.0940839084,0.171814109409,3.02346170831,0.0252254442939
5.66,-0.10636036222,0.861424688037,-0.0146782193671,0.422107870274,-0.0392000958986,1.68780324139,-0.000296705988964,0.539828140674,-0.0682533876509,1.11808391392,-3.09209566194,0.170423724512,3.02324611471,0.0250927923665
5.68,-0.10636036222,0.861424688037,-0.0146782193671,0.422107870274,-0.0392000958986,1.68780324139,-0.000296705988964,0.539828140674,-0.0682533876509,1.11808391392,-3.09209566194,0.170423724512,3.02324611471,0.0250927923665
5.7,-0.10636036222,0.861424688037,-0.0146782193671,0.422107870274,-0.0392000958986,1.68780324139,-0.000296705988964,0.539828140674,-0.0682533876509,1.11808391392,-3.09209566194,0.170423724512,3.02324611471,0.0250927923665
5.72,-0.105365530072,0.864845518458,-0.0164060949271,0.419053557399,-0.0390953754111,1.68862349501,-0.000296705988964,0.540335426995,-0.0682004168292,1.11717807638,-3.09083687155,0.169253762139,3.02335575306,0.0249658253062
5.74,-0.105365530072,0.864845518458,-0.0164060949271,0.419053557399,-0.0390953754111,1.68862349501,-0.000296705988964,0.540335426995,-0.0682004168292,1.11717807638,-3.09083687155,0.169253762139,3.02335575306,0.0249658253062
5.76,-0.104527766172,0.867812612807,-0.0168947870678,0.416714802619,-0.0389033906249,1.68961831883,-0.000296705988964,0.540736553766,-0.0678732274115,1.11627552608,-3.09062102041,0.167635684751,3.02394734846,0.0248717457735
5.78,-0.104527766172,0.867812612807,-0.0168947870678,0.416714802619,-0.0389033906249,1.68961831883,-0.000296705988964,0.540736553766,-0.0678732274115,1.11627552608,-3.09062102041,0.167635684751,3.02394734846,0.0248717457735
5.8,-0.10348056962,0.870640024357,-0.0191811680799,0.414533141054,-0.0387463098936,1.69022924799,-0.000296705988964,0.541121618775,-0.0679180987025,1.11542504819,-3.08897374674,0.166402879032,3.02383593713,0.0247858677501
5.82,-0.10348056962,0.870640024357,-0.0191811680799,0.414533141054,-0.0387463098936,1.69022924799,-0.000296705988964,0.541121618775,-0.0679180987025,1.11542504819,-3.08897374674,0.166402879032,3.02383593713,0.0247858677501
5.84,-0.103061695992,0.872559897187,-0.0196174999768,0.412822725844,-0.0386241373786,1.69099717049,-0.000296705988964,0.541121618775,-0.0679180987025,1.11542504819,-3.08897374674,0.166402879032,3.02383593713,0.0247858677501
5.86,-0.103061695992,0.872559897187,-0.0196174999768,0.412822725844,-0.0386241373786,1.69099717049,-0.000296705988964,0.54136187507,-0.067801444946,1.1148995177,-3.08873633276,0.165430644241,3.02403312209,0.024712034241
5.88,-0.103061695992,0.872559897187,-0.0196174999768,0.412822725844,-0.0386241373786,1.69099717049,-0.000296705988964,0.54136187507,-0.067801444946,1.1148995177,-3.08873633276,0.165430644241,3.02403312209,0.024712034241
5.9,-0.102485737472,0.874427438902,-0.0208741375043,0.411775537614,-0.0386066811899,1.69167787446,-0.000296705988964,0.54153470069,-0.0678311536311,1.11420358876,-3.08775700035,0.163944809762,3.02394807281,0.0246765255794
5.92,-0.102485737472,0.874427438902,-0.0208741375043,0.411775537614,-0.0386066811899,1.69167787446,-0.000296705988964,0.54153470069,-0.0678311536311,1.11420358876,-3.08775700035,0.163944809762,3.02394807281,0.0246765255794
5.94,-0.101822510492,0.875771336567,-0.0217118951624,0.410518891764,-0.0385368689186,1.69221889564,-0.000296705988964,0.541712345964,-0.0676912735196,1.11385892694,-3.08715946289,0.163326768028,3.02418299097,0.0246209525987
5.96,-0.101822510492,0.875771336567,-0.0217118951624,0.410518891764,-0.0385368689186,1.69221889564,-0.000296705988964,0.541712345964,-0.0676912735196,1.11385892694,-3.08715946289,0.163326768028,3.02418299097,0.0246209525987
5.98,-0.101647973572,0.876696318992,-0.021834069758,0.409262245914,-0.0384845086749,1.69241090955,-0.000296705988964,0.541712345964,-0.0676912735196,1.11385892694,-3.08715946289,0.163326768028,3.02418299097,0.0246209525987
6.0,-0.101647973572,0.876696318992,-0.021834069758,0.409262245914,-0.0384845086749,1.69241090955,-0.000296705988964,0.541893935347,-0.0676321026312,1.1137458061,-3.08710454243,0.16346777241,3.02431369001,0.0245604461626
6.02,-0.101647973572,0.876696318992,-0.021834069758,0.409262245914,-0.0384845086749,1.69241090955,-0.000296705988964,0.541893935347,-0.0676321026312,1.1137458061,-3.08710454243,0.16346777241,3.02431369001,0.0245604461626
6.04,-0.101613069517,0.877289737862,-0.0218515217856,0.408913205363,-0.0384670566474,1.69246324067,-0.000261799381947,0.541980579796,-0.0676218962434,1.1135304642,-3.0871053309,0.163173164118,3.02431086952,0.0245488999105
6.06,-0.101613069517,0.877289737862,-0.0218515217856,0.408913205363,-0.0384670566474,1.69246324067,-0.000261799381947,0.541980579796,-0.0676218962434,1.1135304642,-3.0871053309,0.163173164118,3.02431086952,0.0245488999105
6.08,-0.101578165462,0.877342135557,-0.021834069758,0.408668860333,-0.0384146964036,1.69249812808,-0.000261799381947,0.542004880225,-0.0675905816152,1.11357732612,-3.0871697691,0.163329704855,3.02436339791,0.0245351319239
6.1,-0.101578165462,0.877342135557,-0.021834069758,0.408668860333,-0.0384146964036,1.69249812808,-0.000261799381947,0.542004880225,-0.0675905816152,1.11357732612,-3.0871697691,0.163329704855,3.02436339791,0.0245351319239
6.12,-0.101560705112,0.877377022967,-0.021834069758,0.408651383339,-0.0383972443761,1.69249812808,-0.000261799381947,0.542004880225,-0.0675905816152,1.11357732612,-3.0871697691,0.163329704855,3.02436339791,0.0245351319239
6.14,-0.101560705112,0.877377022967,-0.021834069758,0.408651383339,-0.0383972443761,1.69249812808,-0.000261799381947,0.542011655909,-0.0675786606537,1.1135636304,-3.08718622003,0.16331218552,3.02438338115,0.0245346469363
6.16,-0.101560705112,0.877377022967,-0.021834069758,0.408651383339,-0.0383972443761,1.69249812808,-0.000261799381947,0.542011655909,-0.0675786606537,1.1135636304,-3.08718622003,0.16331218552,3.02438338115,0.0245346469363
6.18,-0.101578165462,0.877377022967,-0.0218515217856,0.408599018934,-0.0383797881874,1.69251557178,-0.000261799381947,0.542011699422,-0.0675896869856,1.11357967328,-3.08718984771,0.163347223919,3.02435902625,0.0245314692657
6.2,-0.101578165462,0.877377022967,-0.0218515217856,0.408599018934,-0.0383797881874,1.69251557178,-0.000261799381947,0.542011699422,-0.0675896869856,1.11357967328,-3.08718984771,0.163347223919,3.02435902625,0.0245314692657
6.22,-0.101543253085,0.877411910377,-0.0218515217856,0.408633939634,-0.0383797881874,1.69251557178,-0.000261799381947,0.542014915884,-0.0675709965903,1.11354960666,-3.08718923446,0.163277425065,3.02439345152,0.0245340756218
6.24,-0.101543253085,0.877411910377,-0.0218515217856,0.408633939634,-0.0383797881874,1.69251557178,-0.000261799381947,0.542014915884,-0.0675709965903,1.11354960666,-3.08718923446,0.163277425065,3.02439345152,0.0245340756218
6.26,-0.101560705112,0.877377022967,-0.0218515217856,0.408599018934,-0.0383623361599,1.69251557178,-0.000261799381947,0.542014915884,-0.0675709965903,1.11354960666,-3.08718923446,0.163277425065,3.02439345152,0.0245340756218
6.28,-0.101560705112,0.877377022967,-0.0218515217856,0.408599018934,-0.0383623361599,1.69251557178,-0.000261799381947,0.542013249979,-0.0675773060343,1.11357951543,-3.08720682185,0.163347113243,3.02437863127,0.0245314691038
6.3,-0.101560705112,0.877377022967,-0.0218515217856,0.408599018934,-0.0383623361599,1.69251557178,-0.000261799381947,0.542013249979,-0.0675773060343,1.11357951543,-3.08720682185,0.163347113243,3.02437863127,0.0245314691038
6.32,-0.101578165462,0.877411910377,-0.0218689758937,0.408616495929,-0.0383623361599,1.69251557178,-0.000261799381947,0.542013775024,-0.0675916748744,1.11355511614,-3.0871926355,0.163294965784,3.02435202784,0.0245330454509
6.34,-0.101578165462,0.877411910377,-0.0218689758937,0.408616495929,-0.0383623361599,1.69251557178,-0.000261799381947,0.542013775024,-0.0675916748744,1.11355511614,-3.0871926355,0.163294965784,3.02435202784,0.0245330454509
6.36,-0.101560705112,0.877394466672,-0.0218689758937,0.408599018934,-0.0383448841324,1.69253301549,-0.000261799381947,0.542011992736,-0.0675788346473,1.11356951467,-3.08721007718,0.163312353262,3.02437091595,0.0245316537946
6.38,-0.101560705112,0.877394466672,-0.0218689758937,0.408599018934,-0.0383448841324,1.69253301549,-0.000261799381947,0.542011992736,-0.0675788346473,1.11356951467,-3.08721007718,0.163312353262,3.02437091595,0.0245316537946
6.4,-0.101560705112,0.877411910377,-0.0218689758937,0.408616495929,-0.0383448841324,1.69253301549,-0.000261799381947,0.54201241982,-0.0675789509154,1.11355447619,-3.08720977053,0.163277437198,3.02437067188,0.0245329579481
6.42,-0.101560705112,0.877411910377,-0.0218689758937,0.408616495929,-0.0383448841324,1.69253301549,-0.000261799381947,0.54201241982,-0.0675789509154,1.11355447619,-3.08720977053,0.163277437198,3.02437067188,0.0245329579481
6.44,-0.101560705112,0.877411910377,-0.0218689758937,0.408616495929,-0.0383448841324,1.69253301549,-0.000261799381947,0.54201241982,-0.0675789509154,1.11355447619,-3.08720977053,0.163277437198,3.02437067188,0.0245329579481
6.46,-0.101560705112,0.877411910377,-0.0218689758937,0.408599018934,-0.0383448841324,1.69253301549,-0.000261799381947,0.542013876749,-0.0675790266496,1.11355998916,-3.08720980032,0.163294911696,3.02437096096,0.0245319268619
6.48,-0.101560705112,0.877411910377,-0.0218689758937,0.408599018934,-0.0383448841324,1.69253301549,-0.000261799381947,0.542013876749,-0.0675790266496,1.11355998916,-3.08720980032,0.163294911696,3.02437096096,0.0245319268619
6.5,-0.101560705112,0.877411910377,-0.0218689758937,0.408599018934,-0.0383448841324,1.69253301549,-0.000261799381947,0.542013876749,-0.0675790266496,1.11355998916,-3.08720980032,0.163294911696,3.02437096096,0.0245319268619
6.52,-0.101560705112,0.877411910377,-0.0218689758937,0.408599018934,-0.0383448841324,1.69253301549,-0.000261799381947,0.542013876749,-0.0675790266496,1.11355998916,-3.08720980032,0.163294911696,3.02437096096,0.0245319268619
6.54,-0.101560705112,0.877429354082,-0.0218689758937,0.408599018934,-0.0383448841324,1.6925504592,-0.000261799381947,0.542012854781,-0.0675788756598,1.11354998156,-3.08720968423,0.163260052214,3.02437004502,0.0245321125776
6.56,-0.101560705112,0.877429354082,-0.0218689758937,0.408599018934,-0.0383448841324,1.6925504592,-0.000261799381947,0.542012854781,-0.0675788756598,1.11354998156,-3.08720968423,0.163260052214,3.02437004502,0.0245321125776
6.58,-0.101560705112,0.877429354082,-0.0218689758937,0.408599018934,-0.0383448841324,1.6925504592,-0.000261799381947,0.542012854781,-0.0675788756598,1.11354998156,-3.08720968423,0.163260052214,3.02437004502,0.0245321125776
6.6,-0.101560705112,0.877446797788,-0.0218689758937,0.408599018934,-0.0383274321049,1.6925504592,-0.000261799381947,0.542015108948,-0.0675761504092,1.11354029824,-3.08722638155,0.16324249998,3.02437223526,0.0245323854678
6.62,-0.101560705112,0.877446797788,-0.0218689758937,0.408599018934,-0.0383274321049,1.6925504592,-0.000261799381947,0.542015108948,-0.0675761504092,1.11354029824,-3.08722638155,0.16324249998,3.02437223526,0.0245323854678
6.64,-0.101543253085,0.877446797788,-0.0218689758937,0.408599018934,-0.0383274321049,1.6925679029,-0.000261799381947,0.542013382367,-0.0675663482133,1.11353981629,-3.08722654223,0.163225082048,3.02438872664,0.0245322981147
6.66,-0.101543253085,0.877446797788,-0.0218689758937,0.408599018934,-0.0383274321049,1.6925679029,-0.000261799381947,0.542013382367,-0.0675663482133,1.11353981629,-3.08722654223,0.163225082048,3.02438872664,0.0245322981147
6.68,-0.101560705112,0.877464308072,-0.0218689758937,0.408599018934,-0.0383274321049,1.6925679029,-0.000261799381947,0.542014093801,-0.0675760001179,1.11353025442,-3.08722626433,0.163207573911,3.02437131977,0.0245325722008
6.7,-0.101560705112,0.877464308072,-0.0218689758937,0.408599018934,-0.0383274321049,1.6925679029,-0.000261799381947,0.542014093801,-0.0675760001179,1.11353025442,-3.08722626433,0.163207573911,3.02437131977,0.0245325722008
6.72,-0.101560705112,0.877464308072,-0.0218689758937,0.408599018934,-0.0383274321049,1.6925679029,-0.000261799381947,0.542014093801,-0.0675760001179,1.11353025442,-3.08722626433,0.163207573911,3.02437131977,0.0245325722008
6.74,-0.101490897002,0.877481751777,-0.0218689758937,0.408599018934,-0.0383274321049,1.6925679029,-0.000261799381947,0.542020693179,-0.0675383547752,1.11352072888,-3.08722598748,0.163190132345,3.02444117286,0.0245328452377
6.76,-0.101490897002,0.877481751777,-0.0218689758937,0.408599018934,-0.0383274321049,1.6925679029,-0.000261799381947,0.542020693179,-0.0675383547752,1.11352072888,-3.08722598748,0.163190132345,3.02444117286,0.0245328452377
6.78,-0.101473444975,0.877481751777,-0.0218689758937,0.408599018934,-0.0383099759161,1.6925679029,-0.000261799381947,0.542022242083,-0.0675259774598,1.11352057109,-3.08724296575,0.163190021669,3.02446077093,0.0245328450758
6.8,-0.101473444975,0.877481751777,-0.0218689758937,0.408599018934,-0.0383099759161,1.6925679029,-0.000261799381947,0.542022242083,-0.0675259774598,1.11352057109,-3.08724296575,0.163190021669,3.02446077093,0.0245328450758
6.82,-0.10150834903,0.877481751777,-0.0218689758937,0.408599018934,-0.0383099759161,1.6925679029,-0.000244346102821,0.542019884822,-0.0675448961928,1.11352057109,-3.08724583527,0.163190969758,3.02440820471,0.0245328450758
6.84,-0.10150834903,0.877481751777,-0.0218689758937,0.408599018934,-0.0383099759161,1.6925679029,-0.000244346102821,0.542019884822,-0.0675448961928,1.11352057109,-3.08724583527,0.163190969758,3.02440820471,0.0245328450758
6.86,-0.10150834903,0.877481751777,-0.0218689758937,0.408599018934,-0.0383099759161,1.6925679029,-0.000244346102821,0.542019884822,-0.0675448961928,1.11352057109,-3.08724583527,0.163190969758,3.02440820471,0.0245328450758
6.88,-0.101490897002,0.877481751777,-0.0218689758937,0.408599018934,-0.0383099759161,1.6925679029,-0.000244346102821,0.542021063535,-0.0675354368366,1.11352057109,-3.08724583527,0.163190969758,3.02442565673,0.0245328450758
6.9,-0.101490897002,0.877481751777,-0.0218689758937,0.408599018934,-0.0383099759161,1.6925679029,-0.000244346102821,0.542021063535,-0.0675354368366,1.11352057109,-3.08724583527,0.163190969758,3.02442565673,0.0245328450758
6.92,-0.101490897002,0.877481751777,-0.0218689758937,0.408599018934,-0.0382925238886,1.69258534661,-0.000261799381947,0.542018527906,-0.0675321768253,1.11351993159,-3.0872601005,0.163172493092,3.02444450439,0.0245327575513
6.94,-0.101490897002,0.877481751777,-0.0218689758937,0.408599018934,-0.0382925238886,1.69258534661,-0.000261799381947,0.542018527906,-0.0675321768253,1.11351993159,-3.0872601005,0.163172493092,3.02444450439,0.0245327575513
6.96,-0.101490897002,0.877481751777,-0.0218689758937,0.408599018934,-0.0383099759161,1.69274247311,-0.000244346102821,0.541991982169,-0.0675320063494,1.11351575171,-3.08724743842,0.163016657286,3.02441604666,0.0245319704547
6.98,-0.101490897002,0.877481751777,-0.0218689758937,0.408599018934,-0.0383099759161,1.69274247311,-0.000244346102821,0.541991982169,-0.0675320063494,1.11351575171,-3.08724743842,0.163016657286,3.02441604666,0.0245319704547
7.0,-0.101490897002,0.877481751777,-0.0218689758937,0.408599018934,-0.0383099759161,1.69274247311,-0.000244346102821,0.541991982169,-0.0675320063494,1.11351575171,-3.08724743842,0.163016657286,3.02441604666,0.0245319704547
7.02,-0.101490897002,0.877534082892,-0.0218689758937,0.408564131524,-0.0382750718611,1.69413876847,-0.000244346102821,0.541768644875,-0.0674994472205,1.1134595047,-3.08729336563,0.161604756011,3.02434425689,0.0245237096316
7.04,-0.101490897002,0.877534082892,-0.0218689758937,0.408564131524,-0.0382750718611,1.69413876847,-0.000244346102821,0.541768644875,-0.0674994472205,1.1134595047,-3.08729336563,0.161604756011,3.02434425689,0.0245237096316
7.06,-0.101490897002,0.877621367997,-0.0218689758937,0.408599018934,-0.0382750718611,1.70246394319,-0.000244346102821,0.540387030347,-0.0673360798831,1.11317910636,-3.08736557402,0.15316967873,3.02388672449,0.0244842993191
7.08,-0.101490897002,0.877621367997,-0.0218689758937,0.408599018934,-0.0382750718611,1.70246394319,-0.000244346102821,0.540387030347,-0.0673360798831,1.11317910636,-3.08736557402,0.15316967873,3.02388672449,0.0244842993191
7.1,-0.101490897002,0.877691142818,-0.0218689758937,0.408616495929,-0.0382750718611,1.71366892717,-0.000244346102821,0.538522081867,-0.0671144672832,1.11285568678,-3.08745728036,0.141893897655,3.02327314473,0.0244261616825
7.12,-0.101490897002,0.877691142818,-0.0218689758937,0.408616495929,-0.0382750718611,1.71366892717,-0.000244346102821,0.538522081867,-0.0671144672832,1.11285568678,-3.08745728036,0.141893897655,3.02327314473,0.0244261616825
7.14,-0.101490897002,0.877691142818,-0.0218689758937,0.408616495929,-0.0382750718611,1.71366892717,-0.000244346102821,0.538522081867,-0.0671144672832,1.11285568678,-3.08745728036,0.141893897655,3.02327314473,0.0244261616825
7.16,-0.101490897002,0.877691142818,-0.0218689758937,0.408599018934,-0.0382576156724,1.72353008005,-0.000244346102821,0.536874949,-0.0669147570689,1.11263203072,-3.08755014423,0.132064505943,3.0227378646,0.0243696494182
7.18,-0.101490897002,0.877691142818,-0.0218689758937,0.408599018934,-0.0382576156724,1.72353008005,-0.000244346102821,0.536874949,-0.0669147570689,1.11263203072,-3.08755014423,0.132064505943,3.0227378646,0.0243696494182
7.2,-0.101490897002,0.877708653102,-0.0218689758937,0.408599018934,-0.0381703513736,1.73035429718,-0.000244346102821,0.535736313719,-0.0667635215689,1.11247293544,-3.08768357882,0.125232008631,3.02238033855,0.0243301752803
7.22,-0.101490897002,0.877708653102,-0.0218689758937,0.408599018934,-0.0381703513736,1.73035429718,-0.000244346102821,0.535736313719,-0.0667635215689,1.11247293544,-3.08768357882,0.125232008631,3.02238033855,0.0243301752803
7.24,-0.101490897002,0.878057660363,-0.0218689758937,0.408564131524,-0.0381354431574,1.7314539164,-0.000244346102821,0.535593111034,-0.0667395634589,1.11227183116,-3.08771891845,0.123819624428,3.02232759172,0.0243270333078
7.26,-0.101490897002,0.878057660363,-0.0218689758937,0.408564131524,-0.0381354431574,1.7314539164,-0.000244346102821,0.535593111034,-0.0667395634589,1.11227183116,-3.08771891845,0.123819624428,3.02232759172,0.0243270333078
7.28,-0.101490897002,0.878057660363,-0.0218689758937,0.408564131524,-0.0381354431574,1.7314539164,-0.000244346102821,0.535593111034,-0.0667395634589,1.11227183116,-3.08771891845,0.123819624428,3.02232759172,0.0243270333078
7.3,-0.101490897002,0.879541240827,-0.0218689758937,0.408564131524,-0.0381179911299,1.73152369122,-0.000226892807441,0.535739526289,-0.0667513226265,1.11146957128,-3.08771185689,0.122267398495,3.02231231695,0.0243495485283
7.32,-0.101490897002,0.879541240827,-0.0218689758937,0.408564131524,-0.0381179911299,1.73152369122,-0.000226892807441,0.535739526289,-0.0667513226265,1.11146957128,-3.08771185689,0.122267398495,3.02231231695,0.0243495485283
7.34,-0.101490897002,0.882839898732,-0.0218689758937,0.408529210824,-0.0381005391024,1.73157602233,-0.000244346102821,0.536080601732,-0.0667828184503,1.10969811638,-3.08766805779,0.11895083538,3.02233752178,0.0243979965146
7.36,-0.101490897002,0.882839898732,-0.0218689758937,0.408529210824,-0.0381005391024,1.73157602233,-0.000244346102821,0.536080601732,-0.0667828184503,1.10969811638,-3.08766805779,0.11895083538,3.02233752178,0.0243979965146
7.38,-0.101490897002,0.889925904603,-0.0218689758937,0.408616495929,-0.0380830829136,1.73161090975,-0.000226892807441,0.536792002356,-0.0668525745787,1.10584076634,-3.08756013989,0.111744634166,3.02233403814,0.0245111875168
7.4,-0.101490897002,0.889925904603,-0.0218689758937,0.408616495929,-0.0380830829136,1.73161090975,-0.000226892807441,0.536792002356,-0.0668525745787,1.10584076634,-3.08756013989,0.111744634166,3.02233403814,0.0245111875168
7.42,-0.101490897002,0.889925904603,-0.0218689758937,0.408616495929,-0.0380830829136,1.73161090975,-0.000226892807441,0.536792002356,-0.0668525745787,1.10584076634,-3.08756013989,0.111744634166,3.02233403814,0.0245111875168
7.44,-0.101490897002,0.898408205832,-0.0218689758937,0.408599018934,-0.0380830829136,1.73162835345,-0.000226892807441,0.537622254475,-0.0669370042515,1.10125499931,-3.08740880581,0.10326372674,3.02234963647,0.0246381680368
7.46,-0.101490897002,0.898408205832,-0.0218689758937,0.408599018934,-0.0380830829136,1.73162835345,-0.000226892807441,0.537622254475,-0.0669370042515,1.10125499931,-3.08740880581,0.10326372674,3.02234963647,0.0246381680368
7.48,-0.101473444975,0.909368911352,-0.0218689758937,0.408651383339,-0.0380656308861,1.73162835345,-0.000226892807441,0.538636066169,-0.0670280050352,1.09529642346,-3.08723015491,0.0922522422505,3.02238808475,0.0248043369249
7.5,-0.101473444975,0.909368911352,-0.0218689758937,0.408651383339,-0.0380656308861,1.73162835345,-0.000226892807441,0.538636066169,-0.0670280050352,1.09529642346,-3.08723015491,0.0922522422505,3.02238808475,0.0248043369249
7.52,-0.101473444975,0.920102648967,-0.0218689758937,0.408633939634,-0.0380830829136,1.73161090975,-0.000226892807441,0.539573452011,-0.0671263741252,1.08947233577,-3.0870222109,0.0815551974239,3.02240310596,0.0249603997941
7.54,-0.101473444975,0.920102648967,-0.0218689758937,0.408633939634,-0.0380830829136,1.73161090975,-0.000226892807441,0.539573452011,-0.0671263741252,1.08947233577,-3.0870222109,0.0815551974239,3.02240310596,0.0249603997941
7.56,-0.101473444975,0.920102648967,-0.0218689758937,0.408633939634,-0.0380830829136,1.73161090975,-0.000226892807441,0.539573452011,-0.0671263741252,1.08947233577,-3.0870222109,0.0815551974239,3.02240310596,0.0249603997941
7.58,-0.101490897002,0.931709104472,-0.0219038820293,0.408267422089,-0.0380830829136,1.73161090975,-0.000226892807441,0.540546980755,-0.0672427674843,1.08326925219,-3.08678972794,0.070317514729,3.02238871867,0.0251052408885
7.6,-0.101490897002,0.931709104472,-0.0219038820293,0.408267422089,-0.0380830829136,1.73161090975,-0.000226892807441,0.540546980755,-0.0672427674843,1.08326925219,-3.08678972794,0.070317514729,3.02238871867,0.0251052408885
7.62,-0.101438532597,0.948568978122,-0.0218689758937,0.408773555854,-0.0380656308861,1.73152369122,-0.000226892807441,0.541748892097,-0.0673266227722,1.07392441952,-3.08653339602,0.0530406701842,3.02247714669,0.0253724750062
7.64,-0.101438532597,0.948568978122,-0.0218689758937,0.408773555854,-0.0380656308861,1.73152369122,-0.000226892807441,0.541748892097,-0.0673266227722,1.07392441952,-3.08653339602,0.0530406701842,3.02247714669,0.0253724750062
7.66,-0.101490897002,0.955305976732,-0.0218864279212,0.408511767119,-0.0380656308861,1.73161090975,-0.000226892807441,0.542207967805,-0.0674053761958,1.07032433297,-3.08640148766,0.0464796335101,3.02242108552,0.025448784707
7.68,-0.101490897002,0.955305976732,-0.0218864279212,0.408511767119,-0.0380656308861,1.73161090975,-0.000226892807441,0.542207967805,-0.0674053761958,1.07032433297,-3.08640148766,0.0464796335101,3.02242108552,0.025448784707
7.7,-0.101490897002,0.955305976732,-0.0218864279212,0.408511767119,-0.0380656308861,1.73161090975,-0.000226892807441,0.542207967805,-0.0674053761958,1.07032433297,-3.08640148766,0.0464796335101,3.02242108552,0.025448784707
7.72,-0.101455992947,0.959704187272,-0.0218864279212,0.408372150898,-0.0380481788586,1.73162835345,-0.000226892807441,0.542503558306,-0.0674127479335,1.06796292402,-3.08634152829,0.0422041347068,3.02246373585,0.0255001031679
7.74,-0.101455992947,0.959704187272,-0.0218864279212,0.408372150898,-0.0380481788586,1.73162835345,-0.000226892807441,0.542503558306,-0.0674127479335,1.06796292402,-3.08634152829,0.0422041347068,3.02246373585,0.0255001031679
7.76,-0.101438532597,0.964626041862,-0.0218689758937,0.408529210824,-0.0379958186149,1.73162835345,-0.000226892807441,0.542790708613,-0.0674196056468,1.06522433984,-3.08631939579,0.0371253110531,3.02249964887,0.025575975313
7.78,-0.101438532597,0.964626041862,-0.0218689758937,0.408529210824,-0.0379958186149,1.73162835345,-0.000226892807441,0.542790708613,-0.0674196056468,1.06522433984,-3.08631939579,0.0371253110531,3.02249964887,0.025575975313
7.8,-0.101490897002,0.967174220972,-0.0219038820293,0.408319786494,-0.0378910981274,1.73161090975,-0.000226892807441,0.542965324604,-0.0674569383429,1.06389305655,-3.08634947973,0.0348039376641,3.02245153573,0.0255975856262
7.82,-0.101490897002,0.967174220972,-0.0219038820293,0.408319786494,-0.0378910981274,1.73161090975,-0.000226892807441,0.542965324604,-0.0674569383429,1.06389305655,-3.08634947973,0.0348039376641,3.02245153573,0.0255975856262
7.84,-0.101490897002,0.967174220972,-0.0219038820293,0.408319786494,-0.0378910981274,1.73161090975,-0.000226892807441,0.542965324604,-0.0674569383429,1.06389305655,-3.08634947973,0.0348039376641,3.02245153573,0.0255975856262
7.86,-0.101438532597,0.971415371587,-0.0219038820293,0.408215057684,-0.0377689256124,1.73164593031,-0.000226892807441,0.543220813756,-0.0674330499714,1.06160266523,-3.08639520974,0.0306321374423,3.02252583473,0.0256475015856
7.88,-0.101438532597,0.971415371587,-0.0219038820293,0.408215057684,-0.0377689256124,1.73164593031,-0.000226892807441,0.543220813756,-0.0674330499714,1.06160266523,-3.08639520974,0.0306321374423,3.02252583473,0.0256475015856
7.9,-0.101455992947,0.976599014911,-0.0218864279212,0.408319786494,-0.0370707945774,1.73524119779,-0.000226892807441,0.542900232482,-0.0672773369008,1.05871281521,-3.08700943366,0.0217484392976,3.02243393414,0.0256992612366
7.92,-0.101455992947,0.976599014911,-0.0218864279212,0.408319786494,-0.0370707945774,1.73524119779,-0.000226892807441,0.542900232482,-0.0672773369008,1.05871281521,-3.08700943366,0.0217484392976,3.02243393414,0.0256992612366
7.94,-0.101473444975,0.978902848991,-0.0219038820293,0.408337230199,-0.0363901155699,1.74133251299,-0.00020943951206,0.542003828732,-0.0670670397902,1.05742445852,-3.08763039446,0.0133403801179,3.02217280915,0.0256907238212
7.96,-0.101473444975,0.978902848991,-0.0219038820293,0.408337230199,-0.0363901155699,1.74133251299,-0.00020943951206,0.542003828732,-0.0670670397902,1.05742445852,-3.08763039446,0.0133403801179,3.02217280915,0.0256907238212
7.98,-0.101473444975,0.978902848991,-0.0219038820293,0.408337230199,-0.0363901155699,1.74133251299,-0.00020943951206,0.542003828732,-0.0670670397902,1.05742445852,-3.08763039446,0.0133403801179,3.02217280915,0.0256907238212
8.0,-0.101455992947,0.979478757577,-0.0219038820293,0.408302309499,-0.0362155828111,1.74902931485,-0.00020943951206,0.540743444726,-0.0668755554112,1.05710706494,-3.0877971997,0.00511225293262,3.02180672068,0.0256445534228
8.02,-0.101455992947,0.979478757577,-0.0219038820293,0.408302309499,-0.0362155828111,1.74902931485,-0.00020943951206,0.540743444726,-0.0668755554112,1.05710706494,-3.0877971997,0.00511225293262,3.02180672068,0.0256445534228
8.04,-0.101455992947,0.979758056596,-0.0219038820293,0.408354673904,-0.0361283143511,1.7545097009,-0.00020943951206,0.539828669629,-0.0667504983327,1.05693673498,-3.08787932102,-0.000692649126436,3.02152701273,0.0256137153478
8.06,-0.101455992947,0.979758056596,-0.0219038820293,0.408354673904,-0.0361283143511,1.7545097009,-0.00020943951206,0.539828669629,-0.0667504983327,1.05693673498,-3.08787932102,-0.000692649126436,3.02152701273,0.0256137153478
8.08,-0.101455992947,0.979792944007,-0.0219038820293,0.408319786494,-0.0361108623236,1.75697059491,-0.000191986216679,0.539419515603,-0.0666978390479,1.05692868923,-3.08789626245,-0.00314922743955,3.02138132444,0.0255949314843
8.1,-0.101455992947,0.979792944007,-0.0219038820293,0.408319786494,-0.0361108623236,1.75697059491,-0.000191986216679,0.539419515603,-0.0666978390479,1.05692868923,-3.08789626245,-0.00314922743955,3.02138132444,0.0255949314843
8.12,-0.101455992947,0.979792944007,-0.0219038820293,0.408319786494,-0.0361108623236,1.75697059491,-0.000191986216679,0.539419515603,-0.0666978390479,1.05692868923,-3.08789626245,-0.00314922743955,3.02138132444,0.0255949314843
8.14,-0.101438532597,0.980142017847,-0.0219038820293,0.408302309499,-0.0360585020799,1.7584889962,-0.000191986216679,0.539185487009,-0.0666507093657,1.05674476515,-3.08794126579,-0.00499749273519,3.02132733396,0.0255877508536
8.16,-0.101438532597,0.980142017847,-0.0219038820293,0.408302309499,-0.0360585020799,1.7584889962,-0.000191986216679,0.539185487009,-0.0666507093657,1.05674476515,-3.08794126579,-0.00499749273519,3.02132733396,0.0255877508536
8.18,-0.101455992947,0.981171729082,-0.0219038820293,0.408319786494,-0.0358141570499,1.75859379159,-0.000191986216679,0.539222221867,-0.0666227573529,1.05617822351,-3.08816207924,-0.00615153538349,3.0213493821,0.0256013730353
8.2,-0.101455992947,0.981171729082,-0.0219038820293,0.408319786494,-0.0358141570499,1.75859379159,-0.000191986216679,0.539222221867,-0.0666227573529,1.05617822351,-3.08816207924,-0.00615153538349,3.0213493821,0.0256013730353
8.22,-0.101455992947,0.982864700587,-0.0219038820293,0.408232501389,-0.0357443447786,1.75864612271,-0.000191986216679,0.539310341853,-0.0666195121366,1.05528361839,-3.0881995271,-0.00780987884336,3.02136097804,0.0256175804234
8.24,-0.101455992947,0.982864700587,-0.0219038820293,0.408232501389,-0.0357443447786,1.75864612271,-0.000191986216679,0.539310341853,-0.0666195121366,1.05528361839,-3.0881995271,-0.00780987884336,3.02136097804,0.0256175804234
8.26,-0.101455992947,0.982864700587,-0.0219038820293,0.408232501389,-0.0357443447786,1.75864612271,-0.000191986216679,0.539310341853,-0.0666195121366,1.05528361839,-3.0881995271,-0.00780987884336,3.02136097804,0.0256175804234
8.28,-0.10142108057,0.986407703522,-0.0218864279212,0.408319786494,-0.0357094365624,1.75866356641,-0.000191986216679,0.539474611418,-0.0666070503023,1.05333239986,-3.0881813378,-0.0114575595258,3.02140902687,0.0256681697464
8.3,-0.10142108057,0.986407703522,-0.0218864279212,0.408319786494,-0.0357094365624,1.75866356641,-0.000191986216679,0.539474611418,-0.0666070503023,1.05333239986,-3.0881813378,-0.0114575595258,3.02140902687,0.0256681697464
8.32,-0.101455992947,0.989165340252,-0.0219038820293,0.408337230199,-0.0356745283462,1.75869845382,-0.000191986216679,0.539595007717,-0.0666370364849,1.05182842301,-3.08814926167,-0.0142670569515,3.02136798057,0.0257041438409
8.34,-0.101455992947,0.989165340252,-0.0219038820293,0.408337230199,-0.0356745283462,1.75869845382,-0.000191986216679,0.539595007717,-0.0666370364849,1.05182842301,-3.08814926167,-0.0142670569515,3.02136798057,0.0257041438409
8.36,-0.101455992947,0.990997927977,-0.0219038820293,0.408215057684,-0.0356745283462,1.75871589753,-0.000174532921298,0.53969100695,-0.0666462692793,1.0508680208,-3.08811540032,-0.0159936585528,3.02135134703,0.0257199186078
8.38,-0.101455992947,0.990997927977,-0.0219038820293,0.408215057684,-0.0356745283462,1.75871589753,-0.000174532921298,0.53969100695,-0.0666462692793,1.0508680208,-3.08811540032,-0.0159936585528,3.02135134703,0.0257199186078
8.4,-0.101455992947,0.990997927977,-0.0219038820293,0.408215057684,-0.0356745283462,1.75871589753,-0.000174532921298,0.53969100695,-0.0666462692793,1.0508680208,-3.08811540032,-0.0159936585528,3.02135134703,0.0257199186078
8.42,-0.10142108057,0.993668279602,-0.0219038820293,0.408389594604,-0.0356221681024,1.75871589753,-0.000191986216679,0.539793482847,-0.066629535212,1.0493645717,-3.08811598904,-0.0188394894797,3.02140936551,0.0257642121582
8.44,-0.10142108057,0.993668279602,-0.0219038820293,0.408389594604,-0.0356221681024,1.75871589753,-0.000191986216679,0.539793482847,-0.066629535212,1.0493645717,-3.08811598904,-0.0188394894797,3.02140936551,0.0257642121582
8.46,-0.101455992947,0.994715501122,-0.0219038820293,0.408302309499,-0.0355523558311,1.75873334123,-0.000191986216679,0.539845960862,-0.0666418570889,1.04882005394,-3.08816576019,-0.0198173609111,3.0213877826,0.0257720078302
8.48,-0.101455992947,0.994715501122,-0.0219038820293,0.408302309499,-0.0355523558311,1.75873334123,-0.000191986216679,0.539845960862,-0.0666418570889,1.04882005394,-3.08816576019,-0.0198173609111,3.0213877826,0.0257720078302
8.5,-0.10142108057,0.996705148772,-0.0219038820293,0.408267422089,-0.0354476353437,1.75875078494,-0.000174532921298,0.539937279486,-0.066614320424,1.04774727919,-3.08823159422,-0.0217892909643,3.02142374516,0.0257947620488
8.52,-0.10142108057,0.996705148772,-0.0219038820293,0.408267422089,-0.0354476353437,1.75875078494,-0.000174532921298,0.539937279486,-0.066614320424,1.04774727919,-3.08823159422,-0.0217892909643,3.02142374516,0.0257947620488
8.54,-0.10142108057,0.996705148772,-0.0219038820293,0.408267422089,-0.0354476353437,1.75875078494,-0.000174532921298,0.539937279486,-0.066614320424,1.04774727919,-3.08823159422,-0.0217892909643,3.02142374516,0.0257947620488
8.56,-0.101438532597,1.00017837689,-0.0219038820293,0.408302309499,-0.0353952792611,1.75908248165,-0.000174532921298,0.540021408172,-0.066622715979,1.04584870504,-3.08821750895,-0.025628526839,3.0213961826,0.025837893916
8.58,-0.101438532597,1.00017837689,-0.0219038820293,0.408302309499,-0.0353952792611,1.75908248165,-0.000174532921298,0.540021408172,-0.066622715979,1.04584870504,-3.08821750895,-0.025628526839,3.0213961826,0.025837893916
8.6,-0.101455992947,1.00370393612,-0.0219038820293,0.408372150898,-0.0353603710449,1.76002497436,-0.000174532921298,0.5399933178,-0.0666207786931,1.04391468891,-3.08818401619,-0.0301647853086,3.02133179877,0.025879109285
8.62,-0.101455992947,1.00370393612,-0.0219038820293,0.408372150898,-0.0353603710449,1.76002497436,-0.000174532921298,0.5399933178,-0.0666207786931,1.04391468891,-3.08818401619,-0.0301647853086,3.02133179877,0.025879109285
8.64,-0.101438532597,1.00674080529,-0.0219038820293,0.408337230199,-0.0353254628287,1.76250331207,-0.000174532921298,0.539696527206,-0.0665669764988,1.04228689002,-3.08815750772,-0.0356413490397,3.02122222404,0.0258965319331
8.66,-0.101438532597,1.00674080529,-0.0219038820293,0.408337230199,-0.0353254628287,1.76250331207,-0.000174532921298,0.539696527206,-0.0665669764988,1.04228689002,-3.08815750772,-0.0356413490397,3.02122222404,0.0258965319331
8.68,-0.10142108057,1.01017914599,-0.0218864279212,0.408424482014,-0.0352905587736,1.7636552624,-0.000174532921298,0.539696527206,-0.0665669764988,1.04228689002,-3.08815750772,-0.0356413490397,3.02122222404,0.0258965319331
8.7,-0.10142108057,1.01017914599,-0.0218864279212,0.408424482014,-0.0352905587736,1.7636552624,-0.000174532921298,0.539618208979,-0.0665356595984,1.04039938808,-3.08813880123,-0.040317242302,3.02119051145,0.0259354921757
8.72,-0.10142108057,1.01017914599,-0.0218864279212,0.408424482014,-0.0352905587736,1.7636552624,-0.000174532921298,0.539618208979,-0.0665356595984,1.04039938808,-3.08813880123,-0.040317242302,3.02119051145,0.0259354921757
8.74,-0.101438532597,1.01183716351,-0.0218864279212,0.408302309499,-0.0352731025849,1.76400426966,-0.000174532921298,0.539631402989,-0.0665419919793,1.03953576139,-3.08812475496,-0.0422014973197,3.02115874428,0.0259457077914
8.76,-0.101438532597,1.01183716351,-0.0218864279212,0.408302309499,-0.0352731025849,1.76400426966,-0.000174532921298,0.539631402989,-0.0665419919793,1.03953576139,-3.08812475496,-0.0422014973197,3.02115874428,0.0259457077914
8.78,-0.10142108057,1.01401882507,-0.0218689758937,0.408337230199,-0.0352381985299,1.7641089319,-0.000174532921298,0.539685469163,-0.0665273662486,1.03833995316,-3.08813216502,-0.0445228253139,3.02118472284,0.0259734875158
8.8,-0.10142108057,1.01401882507,-0.0218689758937,0.408337230199,-0.0352381985299,1.7641089319,-0.000174532921298,0.539685469163,-0.0665273662486,1.03833995316,-3.08813216502,-0.0445228253139,3.02118472284,0.0259734875158
8.82,-0.10142108057,1.01496131778,-0.0218689758937,0.408337230199,-0.0351858382861,1.76423117099,-0.000157079625918,0.539685469163,-0.0665273662486,1.03833995316,-3.08813216502,-0.0445228253139,3.02118472284,0.0259734875158
8.84,-0.10142108057,1.01496131778,-0.0218689758937,0.408337230199,-0.0351858382861,1.76423117099,-0.000157079625918,0.539696909925,-0.0665193640847,1.03782803351,-3.08816502346,-0.045586809238,3.02116999162,0.0259839723139
8.86,-0.10142108057,1.01496131778,-0.0218689758937,0.408337230199,-0.0351858382861,1.76423117099,-0.000157079625918,0.539696909925,-0.0665193640847,1.03782803351,-3.08816502346,-0.045586809238,3.02116999162,0.0259839723139
8.88,-0.101438532597,1.01494387408,-0.0218864279212,0.408302309499,-0.0351334780424,1.7644057412,-0.000157079625918,0.539670592223,-0.0665212900096,1.03784866339,-3.08820222247,-0.0457090240291,3.02114406713,0.0259803636245
8.9,-0.101438532597,1.01494387408,-0.0218864279212,0.408302309499,-0.0351334780424,1.7644057412,-0.000157079625918,0.539670592223,-0.0665212900096,1.03784866339,-3.08820222247,-0.0457090240291,3.02114406713,0.0259803636245
8.92,-0.10142108057,1.01490898667,-0.0218864279212,0.408284865794,-0.0350985698262,1.76482452328,-0.000157079625918,0.53960288346,-0.0664975792025,1.03787562143,-3.0882366197,-0.0460752417643,3.02114623657,0.0259758142983
8.94,-0.10142108057,1.01490898667,-0.0218864279212,0.408284865794,-0.0350985698262,1.76482452328,-0.000157079625918,0.53960288346,-0.0664975792025,1.03787562143,-3.0882366197,-0.0460752417643,3.02114623657,0.0259758142983
8.96,-0.10142108057,1.01497876149,-0.0218864279212,0.408337230199,-0.0350811177986,1.76557513523,-0.000157079625918,0.53960288346,-0.0664975792025,1.03787562143,-3.0882366197,-0.0460752417643,3.02114623657,0.0259758142983
8.98,-0.10142108057,1.01497876149,-0.0218864279212,0.408337230199,-0.0350811177986,1.76557513523,-0.000157079625918,0.539472400999,-0.0664791247394,1.03782835683,-3.08825043167,-0.0469470789363,3.02110848458,0.0259743168634
9.0,-0.10142108057,1.01497876149,-0.0218864279212,0.408337230199,-0.0350811177986,1.76557513523,-0.000157079625918,0.539472400999,-0.0664791247394,1.03782835683,-3.08825043167,-0.0469470789363,3.02110848458,0.0259743168634
