GitHatake/ROS1EARs/catkin_ws/src/torobo_robot/torobo_EARs2021/scripts/arm/2021_kaiya_csv/test_manipulability_2.csv
time,joint_1,joint_2,joint_3,joint_4,joint_5,joint_6,joint_7,x,y,z,roll,pitch,yaw,manipulability
0.0,1.09669506322,0.817128263047,-0.389138601769,1.29260824512,0.0274540283349,1.01934208462,0.388632468004,0.345630746873,0.337697354535,0.907850068383,-2.92320086057,0.145701659788,-2.69762482815,0.0530585733026
0.02,1.09669506322,0.817128263047,-0.389138601769,1.29260824512,0.0274540283349,1.01934208462,0.388632468004,0.345630746873,0.337697354535,0.907850068383,-2.92320086057,0.145701659788,-2.69762482815,0.0530585733026
0.04,1.09673001721,0.817128263047,-0.389138601769,1.29260824512,0.0274540283349,1.01934208462,0.388632468004,0.345618942792,0.337709435502,0.907850068383,-2.92320086057,0.145701659788,-2.69758987416,0.0530585733026
0.06,1.09673001721,0.817128263047,-0.389138601769,1.29260824512,0.0274540283349,1.01934208462,0.388632468004,0.345618942792,0.337709435502,0.907850068383,-2.92320086057,0.145701659788,-2.69758987416,0.0530585733026
0.08,1.09673001721,0.817128263047,-0.389138601769,1.29259080142,0.0274540283349,1.01934208462,0.388632468004,0.345621699325,0.337714339159,0.907854628112,-2.9232071316,0.145717232145,-2.69758595895,0.0530584950923
0.1,1.09673001721,0.817128263047,-0.389138601769,1.29259080142,0.0274540283349,1.01934208462,0.388632468004,0.345621699325,0.337714339159,0.907854628112,-2.9232071316,0.145717232145,-2.69758595895,0.0530584950923
0.12,1.0967125735,0.817128263047,-0.389138601769,1.29259080142,0.0274540283349,1.01934208462,0.388632468004,0.345627590262,0.337708310184,0.907854628112,-2.9232071316,0.145717232145,-2.69760340265,0.0530584950923
0.14,1.0967125735,0.817128263047,-0.389138601769,1.29259080142,0.0274540283349,1.01934208462,0.388632468004,0.345627590262,0.337708310184,0.907854628112,-2.9232071316,0.145717232145,-2.69760340265,0.0530584950923
0.16,1.09673001721,0.817128263047,-0.389138601769,1.29259080142,0.0274540283349,1.01934208462,0.388632468004,0.345621699325,0.337714339159,0.907854628112,-2.9232071316,0.145717232145,-2.69758595895,0.0530584950923
0.18,1.09673001721,0.817128263047,-0.389138601769,1.29259080142,0.0274540283349,1.01934208462,0.388632468004,0.345621699325,0.337714339159,0.907854628112,-2.9232071316,0.145717232145,-2.69758595895,0.0530584950923
0.2,1.09673001721,0.817128263047,-0.389138601769,1.29259080142,0.0274540283349,1.01935952832,0.388632468004,0.345619686683,0.337712167014,0.907854470527,-2.92320103503,0.145701472678,-2.69758949387,0.0530587861256
0.22,1.09673001721,0.817128263047,-0.389138601769,1.29259080142,0.0274540283349,1.01935952832,0.388632468004,0.345619686683,0.337712167014,0.907854470527,-2.92320103503,0.145701472678,-2.69758949387,0.0530587861256
0.24,1.0967125735,0.817128263047,-0.389138601769,1.29259080142,0.0274540283349,1.01934208462,0.388649911709,0.345627590262,0.337708310184,0.907854628112,-2.92320963083,0.145721011368,-2.69762061446,0.0530584950923
0.26,1.0967125735,0.817128263047,-0.389138601769,1.29259080142,0.0274540283349,1.01934208462,0.388649911709,0.345627590262,0.337708310184,0.907854628112,-2.92320963083,0.145721011368,-2.69762061446,0.0530584950923
0.28,1.0967125735,0.817128263047,-0.389138601769,1.29259080142,0.0274540283349,1.01934208462,0.388632468004,0.345627590262,0.337708310184,0.907854628112,-2.9232071316,0.145717232145,-2.69760340265,0.0530584950923
0.3,1.0967125735,0.817110819342,-0.389138601769,1.29259080142,0.0274540283349,1.01934208462,0.388632468004,0.345627590262,0.337708310184,0.907854628112,-2.9232071316,0.145717232145,-2.69760340265,0.0530584950923
0.32,1.0967125735,0.817110819342,-0.389138601769,1.29259080142,0.0274540283349,1.01934208462,0.388632468004,0.345628363844,0.337709817805,0.907862621705,-2.92321783958,0.145731089987,-2.69760495755,0.0530580476354
0.34,1.09673001721,0.817128263047,-0.389138601769,1.29260824512,0.0274540283349,1.01935952832,0.388632468004,0.345628363844,0.337709817805,0.907862621705,-2.92321783958,0.145731089987,-2.69760495755,0.0530580476354
0.36,1.09673001721,0.817128263047,-0.389138601769,1.29260824512,0.0274540283349,1.01935952832,0.388632468004,0.345616930137,0.337707263365,0.907849910848,-2.92319476395,0.145685900343,-2.69759340918,0.0530588643342
0.38,1.0967125735,0.817128263047,-0.389138601769,1.29259080142,0.0274540283349,1.01934208462,0.388632468004,0.345616930137,0.337707263365,0.907849910848,-2.92319476395,0.145685900343,-2.69759340918,0.0530588643342
0.4,1.0967125735,0.817128263047,-0.389138601769,1.29259080142,0.0274540283349,1.01934208462,0.388632468004,0.345627590262,0.337708310184,0.907854628112,-2.9232071316,0.145717232145,-2.69760340265,0.0530584950923
0.42,1.09673001721,0.817128263047,-0.389138601769,1.29259080142,0.0274540283349,1.01934208462,0.388632468004,0.345627590262,0.337708310184,0.907854628112,-2.9232071316,0.145717232145,-2.69760340265,0.0530584950923
0.44,1.09673001721,0.817128263047,-0.389138601769,1.29259080142,0.0274540283349,1.01934208462,0.388632468004,0.345621699325,0.337714339159,0.907854628112,-2.9232071316,0.145717232145,-2.69758595895,0.0530584950923
0.46,1.0967125735,0.817163150457,-0.389138601769,1.29260824512,0.0274540283349,1.01934208462,0.388632468004,0.345623286217,0.33770039082,0.907834081482,-2.92317944468,0.145673944137,-2.69760420886,0.0530594681766
0.48,1.0967125735,0.817163150457,-0.389138601769,1.29260824512,0.0274540283349,1.01934208462,0.388632468004,0.345623286217,0.33770039082,0.907834081482,-2.92317944468,0.145673944137,-2.69760420886,0.0530594681766
0.5,1.09673001721,0.817128263047,-0.389138601769,1.29259080142,0.0274540283349,1.01934208462,0.388632468004,0.345621699325,0.337714339159,0.907854628112,-2.9232071316,0.145717232145,-2.69758595895,0.0530584950923
0.52,1.09673001721,0.817128263047,-0.389138601769,1.29259080142,0.0274540283349,1.01934208462,0.388632468004,0.345621699325,0.337714339159,0.907854628112,-2.9232071316,0.145717232145,-2.69758595895,0.0530584950923
0.54,1.09669506322,0.817163150457,-0.389138601769,1.29260824512,0.0274540283349,1.01934208462,0.388632468004,0.345629199394,0.337694338807,0.907834081482,-2.92317944468,0.145673944137,-2.69762171914,0.0530594681766
0.56,1.09669506322,0.817163150457,-0.389138601769,1.29260824512,0.0274540283349,1.01934208462,0.388632468004,0.345629199394,0.337694338807,0.907834081482,-2.92317944468,0.145673944137,-2.69762171914,0.0530594681766
0.58,1.0967125735,0.817128263047,-0.389138601769,1.29259080142,0.0274540283349,1.01935952832,0.388632468004,0.345625577582,0.337706138075,0.907854470527,-2.92320103503,0.145701472678,-2.69760693758,0.0530587861256
0.6,1.0967125735,0.817128263047,-0.389138601769,1.29259080142,0.0274540283349,1.01935952832,0.388632468004,0.345625577582,0.337706138075,0.907854470527,-2.92320103503,0.145701472678,-2.69760693758,0.0530587861256
0.62,1.09666017581,0.817145706752,-0.389190966174,1.29259080142,0.0274540283349,1.01934208462,0.388632468004,0.345659911797,0.337674612404,0.907852489938,-2.92316576455,0.145726565785,-2.69768562715,0.0530586838567
0.64,1.09666017581,0.817145706752,-0.389190966174,1.29259080142,0.0274540283349,1.01934208462,0.388632468004,0.345659911797,0.337674612404,0.907852489938,-2.92316576455,0.145726565785,-2.69768562715,0.0530586838567
0.66,1.09659040099,0.817180594163,-0.389208409879,1.29262568883,0.0274191221993,1.01934208462,0.388632468004,0.345685078627,0.337629606813,0.907830616221,-2.92309110028,0.145682466787,-2.69775006594,0.053059655744
0.68,1.09659040099,0.817180594163,-0.389208409879,1.29262568883,0.0274191221993,1.01934208462,0.388632468004,0.345685078627,0.337629606813,0.907830616221,-2.92309110028,0.145682466787,-2.69775006594,0.053059655744
0.7,1.09666017581,0.817145706752,-0.389156078764,1.29260824512,0.0274365763074,1.01934208462,0.388632468004,0.345648664105,0.337677402867,0.907844669506,-2.92316467448,0.145699059797,-2.6976583795,0.0530589378217
0.72,1.09666017581,0.817145706752,-0.389156078764,1.29260824512,0.0274365763074,1.01934208462,0.388632468004,0.345648664105,0.337677402867,0.907844669506,-2.92316467448,0.145699059797,-2.6976583795,0.0530589378217
0.74,1.0966427321,0.817198037868,-0.389173522469,1.29260824512,0.0274365763074,1.01934208462,0.388632468004,0.345657362917,0.337662159314,0.907822640098,-2.92312233707,0.145665212108,-2.69768161368,0.0530601939254
0.76,1.0966427321,0.817198037868,-0.389173522469,1.29260824512,0.0274365763074,1.01934208462,0.388632468004,0.345657362917,0.337662159314,0.907822640098,-2.92312233707,0.145665212108,-2.69768161368,0.0530601939254
0.78,1.0966252884,0.817145706752,-0.389173522469,1.29257335771,0.0274365763074,1.01934208462,0.388632468004,0.345671088776,0.337670460304,0.907855739452,-2.92316700279,0.145737929943,-2.69769588956,0.0530586952111
0.8,1.0966252884,0.817145706752,-0.389173522469,1.29257335771,0.0274365763074,1.01934208462,0.388632468004,0.345671088776,0.337670460304,0.907855739452,-2.92316700279,0.145737929943,-2.69769588956,0.0530586952111
0.82,1.09660784469,0.817215548152,-0.389190966174,1.29259080142,0.0274365763074,1.01934208462,0.388632468004,0.345676253161,0.337648799357,0.90782112636,-2.92310764529,0.14567459961,-2.69772147794,0.0530604786785
0.84,1.09660784469,0.817215548152,-0.389190966174,1.29259080142,0.0274365763074,1.01934208462,0.388632468004,0.345676253161,0.337648799357,0.90782112636,-2.92310764529,0.14567459961,-2.69772147794,0.0530604786785
0.86,1.0966427321,0.817215548152,-0.389138601769,1.29259080142,0.0274540283349,1.01934208462,0.388632468004,0.345647303097,0.337676624795,0.907814630081,-2.92315355151,0.145647889794,-2.69766546595,0.0530607339173
0.88,1.0966427321,0.817215548152,-0.389138601769,1.29259080142,0.0274540283349,1.01934208462,0.388632468004,0.345647303097,0.337676624795,0.907814630081,-2.92315355151,0.145647889794,-2.69766546595,0.0530607339173
0.9,1.0966252884,0.817232991857,-0.389138601769,1.29255591401,0.0274540283349,1.01934208462,0.388632468004,0.345657933584,0.337678894533,0.90781575522,-2.92315538608,0.145665176142,-2.69767352359,0.0530610248446
0.92,1.0966252884,0.817232991857,-0.389138601769,1.29255591401,0.0274540283349,1.01934208462,0.388632468004,0.345657933584,0.337678894533,0.90781575522,-2.92315538608,0.145665176142,-2.69767352359,0.0530610248446
0.94,1.09666017581,0.817250435562,-0.389103714359,1.29255591401,0.027471482443,1.01934208462,0.388632468004,0.34563334745,0.337700511473,0.907803220141,-2.92318035394,0.145632348301,-2.69762643255,0.0530616411083
0.96,1.09666017581,0.817250435562,-0.389103714359,1.29255591401,0.027471482443,1.01934208462,0.388632468004,0.34563334745,0.337700511473,0.907803220141,-2.92318035394,0.145632348301,-2.69762643255,0.0530616411083
0.98,1.09666017581,0.817232991857,-0.389103714359,1.2925210266,0.0274889365511,1.01934208462,0.388632468004,0.345637865154,0.337713513934,0.907819692343,-2.92321885099,0.145673832492,-2.69763041198,0.0530610337392
1.0,1.09666017581,0.817232991857,-0.389103714359,1.2925210266,0.0274889365511,1.01934208462,0.388632468004,0.345637865154,0.337713513934,0.907819692343,-2.92321885099,0.145673832492,-2.69763041198,0.0530610337392
1.02,1.0965728907,0.817250435562,-0.389138601769,1.2925210266,0.0274889365511,1.01934208462,0.388632468004,0.345676827523,0.337672454786,0.907815599447,-2.92318771472,0.145675426434,-2.69773704854,0.0530613088368
1.04,1.0965728907,0.817250435562,-0.389138601769,1.2925210266,0.0274889365511,1.01934208462,0.388632468004,0.345676827523,0.337672454786,0.907815599447,-2.92318771472,0.145675426434,-2.69773704854,0.0530613088368
1.06,1.09659040099,0.817232991857,-0.389138601769,1.29248613919,0.0274889365511,1.01934208462,0.388632468004,0.345677202843,0.337689822686,0.907832712541,-2.92321096509,0.145720428569,-2.69771326132,0.0530607047683
1.08,1.09659040099,0.817232991857,-0.389138601769,1.29248613919,0.0274889365511,1.01934208462,0.388632468004,0.345677202843,0.337689822686,0.907832712541,-2.92321096509,0.145720428569,-2.69771326132,0.0530607047683
1.1,1.09639838707,0.817285322972,-0.389121158064,1.29246869548,0.0274889365511,1.01934208462,0.388632468004,0.345737343074,0.337628512011,0.907811339523,-2.92319532804,0.145686700389,-2.69788624332,0.0530620546972
1.12,1.09639838707,0.817285322972,-0.389121158064,1.29246869548,0.0274889365511,1.01934208462,0.388632468004,0.345737343074,0.337628512011,0.907811339523,-2.92319532804,0.145686700389,-2.69788624332,0.0530620546972
1.14,1.09617148575,0.817285322972,-0.389173522469,1.29245125178,0.0274889365511,1.01932464091,0.388649911709,0.345834110011,0.337543042284,0.907821912505,-2.92317953146,0.14574500509,-2.69815428075,0.0530614266753
1.16,1.09617148575,0.817285322972,-0.389173522469,1.29245125178,0.0274889365511,1.01932464091,0.388649911709,0.345834110011,0.337543042284,0.907821912505,-2.92317953146,0.14574500509,-2.69815428075,0.0530614266753
1.18,1.09519410563,0.817285322972,-0.389121158064,1.29229412527,0.0274889365511,1.01932464091,0.388632468004,0.346173363239,0.337263104071,0.907857132274,-2.92326418299,0.145858300924,-2.69904780708,0.0530609778637
1.2,1.09519410563,0.817285322972,-0.389121158064,1.29229412527,0.0274889365511,1.01932464091,0.388632468004,0.346173363239,0.337263104071,0.907857132274,-2.92326418299,0.145858300924,-2.69904780708,0.0530609778637
1.22,1.09264592652,0.817285322972,-0.389103714359,1.29224179416,0.0275063885787,1.01932464091,0.388632468004,0.347033096452,0.336400978839,0.90786822335,-2.92330845815,0.145893773775,-2.70158404787,0.0530608244868
1.24,1.09264592652,0.817285322972,-0.389103714359,1.29224179416,0.0275063885787,1.01932464091,0.388632468004,0.347033096452,0.336400978839,0.90786822335,-2.92330845815,0.145893773775,-2.70158404787,0.0530608244868
1.26,1.08873640604,0.817250435562,-0.389103714359,1.29220690675,0.0275063885787,1.01934208462,0.388632468004,0.348350737212,0.335052286693,0.907893177997,-2.92333631779,0.145936876323,-2.70549238669,0.0530600631785
1.28,1.08447781172,0.817267879267,-0.389086237364,1.29215457563,0.0275238426868,1.01935952832,0.388615024299,0.348350737212,0.335052286693,0.907893177997,-2.92333631779,0.145936876323,-2.70549238669,0.0530600631785
1.3,1.08447781172,0.817267879267,-0.389086237364,1.29215457563,0.0275238426868,1.01935952832,0.388615024299,0.349773207461,0.33358319979,0.907896112968,-2.9233613087,0.145938938483,-2.70972378865,0.053060648047
1.32,1.08025410481,0.817215548152,-0.388981541844,1.29206722395,0.0275238426868,1.01937697203,0.388615024299,0.349773207461,0.33358319979,0.907896112968,-2.9233613087,0.145938938483,-2.70972378865,0.053060648047
1.34,1.08025410481,0.817215548152,-0.388981541844,1.29206722395,0.0275238426868,1.01937697203,0.388615024299,0.351163252432,0.33215820197,0.907931081936,-2.92348004695,0.145996377121,-2.71387338602,0.053059718267
1.36,1.07601295419,0.817215548152,-0.388772084224,1.29187521003,0.0275238426868,1.01939448231,0.388615024299,0.351163252432,0.33215820197,0.907931081936,-2.92348004695,0.145996377121,-2.71387338602,0.053059718267
1.38,1.07601295419,0.817215548152,-0.388772084224,1.29187521003,0.0275238426868,1.01939448231,0.388615024299,0.352537737569,0.330774638218,0.907957737837,-2.92366563075,0.146059245071,-2.71794956131,0.053060172559
1.4,1.07234777874,0.817215548152,-0.388737196814,1.29140396368,0.0275412947143,1.01939448231,0.388615024299,0.352537737569,0.330774638218,0.907957737837,-2.92366563075,0.146059245071,-2.71794956131,0.053060172559
1.42,1.07234777874,0.817215548152,-0.388737196814,1.29140396368,0.0275412947143,1.01939448231,0.388615024299,0.35381351506,0.329622230788,0.9080765007,-2.92387071298,0.146461016517,-2.72149852711,0.0530581885188
1.44,1.06885710692,0.817163150457,-0.388492851784,1.28903042136,0.0275238426868,1.01939448231,0.388615024299,0.355288156427,0.329111361453,0.908695965688,-2.92488351265,0.14851756272,-2.72430699558,0.0530469091865
1.46,1.06885710692,0.817163150457,-0.388492851784,1.28903042136,0.0275238426868,1.01939448231,0.388615024299,0.355288156427,0.329111361453,0.908695965688,-2.92488351265,0.14851756272,-2.72430699558,0.0530469091865
1.48,1.06568055495,0.817215548152,-0.388300837869,1.2843005141,0.0275412947143,1.01942936972,0.388597547304,0.357049825508,0.329329762576,0.909894069554,-2.92666146294,0.152577278527,-2.72631249255,0.053026094695
1.5,1.06568055495,0.817215548152,-0.388300837869,1.2843005141,0.0275412947143,1.01942936972,0.388597547304,0.357049825508,0.329329762576,0.909894069554,-2.92666146294,0.152577278527,-2.72631249255,0.053026094695
1.52,1.06255646726,0.817250435562,-0.388335758569,1.27703993802,0.0275238426868,1.01941192602,0.388597547304,0.359283491649,0.330189809695,0.911806147643,-2.92920857631,0.159073336603,-2.72783870251,0.0529863471179
1.54,1.06255646726,0.817250435562,-0.388335758569,1.27703993802,0.0275238426868,1.01941192602,0.388597547304,0.359283491649,0.330189809695,0.911806147643,-2.92920857631,0.159073336603,-2.72783870251,0.0529863471179
1.56,1.05904835173,0.817232991857,-0.388353202274,1.26784204541,0.0275238426868,1.01946425713,0.388597547304,0.361941704852,0.331422154552,0.914274712497,-2.93247117333,0.167273943212,-2.7293620673,0.0529291240086
1.58,1.05904835173,0.817232991857,-0.388353202274,1.26784204541,0.0275238426868,1.01946425713,0.388597547304,0.361941704852,0.331422154552,0.914274712497,-2.93247117333,0.167273943212,-2.7293620673,0.0529291240086
1.6,1.0546850286,0.817285322972,-0.388370679269,1.25848715945,0.0275238426868,1.01972604587,0.388597547304,0.364872778979,0.332328000586,0.916775019412,-2.9356624365,0.175376004855,-2.73176409902,0.0528686362146
1.62,1.0546850286,0.817285322972,-0.388370679269,1.25848715945,0.0275238426868,1.01972604587,0.388597547304,0.364872778979,0.332328000586,0.916775019412,-2.9356624365,0.175376004855,-2.73176409902,0.0528686362146
1.64,1.0479654737,0.817302766678,-0.388248506754,1.25040619659,0.0275238426868,1.01986566209,0.388597547304,0.368352582865,0.33205120828,0.918953674558,-2.93853801051,0.182420236835,-2.73671559064,0.0528087015117
1.66,1.0479654737,0.817302766678,-0.388248506754,1.25040619659,0.0275238426868,1.01986566209,0.388597547304,0.368352582865,0.33205120828,0.918953674558,-2.93853801051,0.182420236835,-2.73671559064,0.0528087015117
1.68,1.03957045757,0.817320210383,-0.388021605429,1.24471648608,0.0275762029305,1.0200402323,0.388597547304,0.371959628692,0.330507190295,0.92047736726,-2.94065918206,0.18723702544,-2.74384088583,0.0527651573573
1.7,1.03957045757,0.817320210383,-0.388021605429,1.24471648608,0.0275762029305,1.0200402323,0.388597547304,0.371959628692,0.330507190295,0.92047736726,-2.94065918206,0.18723702544,-2.74384088583,0.0527651573573
1.72,1.02951735735,0.817250435562,-0.387742339699,1.23942811395,0.0276809213374,1.02017984852,0.388597547304,0.376026267713,0.328223633433,0.921933194423,-2.94277915829,0.191763926239,-2.7527224475,0.052719827439
1.74,1.02951735735,0.817250435562,-0.387742339699,1.23942811395,0.0276809213374,1.02017984852,0.388597547304,0.376026267713,0.328223633433,0.921933194423,-2.94277915829,0.191763926239,-2.7527224475,0.052719827439
1.76,1.02019729222,0.817285322972,-0.387515438374,1.2342270935,0.0285361331037,1.02100016871,0.388580103599,0.379679779558,0.326119330335,0.923288982246,-2.94521195743,0.195371099823,-2.76146446379,0.0526867431549
1.78,1.02019729222,0.817285322972,-0.387515438374,1.2342270935,0.0285361331037,1.02100016871,0.388580103599,0.379679779558,0.326119330335,0.923288982246,-2.94521195743,0.195371099823,-2.76146446379,0.0526867431549
1.8,1.01168010358,0.817285322972,-0.387183841529,1.227542426,0.0335103208893,1.02438611172,0.388597547304,0.382576215465,0.324832092021,0.924874441139,-2.95110814032,0.1970682591,-2.77195253729,0.0526782041939
1.82,1.01168010358,0.817285322972,-0.387183841529,1.227542426,0.0335103208893,1.02438611172,0.388597547304,0.382576215465,0.324832092021,0.924874441139,-2.95110814032,0.1970682591,-2.77195253729,0.0526782041939
1.84,1.00283128481,0.817337720667,-0.384304032284,1.21724491417,0.0423067815011,1.03302547288,0.388597547304,0.384469509148,0.324865577626,0.926946429696,-2.96144673088,0.195161322584,-2.78363500513,0.0527254361619
1.86,1.00283128481,0.817337720667,-0.384304032284,1.21724491417,0.0423067815011,1.03302547288,0.388597547304,0.384469509148,0.324865577626,0.926946429696,-2.96144673088,0.195161322584,-2.78363500513,0.0527254361619
1.88,0.994348983577,0.817355164372,-0.380272339289,1.20471354282,0.0509287072736,1.04506822075,0.388615024299,0.385885499694,0.325523163886,0.929512583189,-2.9719941215,0.191603295403,-2.79415703523,0.0527930040095
1.9,0.994348983577,0.817355164372,-0.380272339289,1.20471354282,0.0509287072736,1.04506822075,0.388615024299,0.385885499694,0.325523163886,0.929512583189,-2.9719941215,0.191603295403,-2.79415703523,0.0527930040095
1.92,0.985901569757,0.817390051782,-0.375594863019,1.19071596813,0.0582590914635,1.05929269676,0.388632468004,0.387187647473,0.326337497838,0.932458342848,-2.98154446329,0.187261159161,-2.8033881105,0.0528597846
1.94,0.985901569757,0.817390051782,-0.375594863019,1.19071596813,0.0582590914635,1.05929269676,0.388632468004,0.387187647473,0.326337497838,0.932458342848,-2.98154446329,0.187261159161,-2.8033881105,0.0528597846
1.96,0.977768342367,0.817477336887,-0.372365979934,1.17813213251,0.0609468992773,1.07227793734,0.388615024299,0.389116068881,0.326080853393,0.935334152406,-2.98591302313,0.184466871552,-2.81051313406,0.0529000412475
1.98,0.977768342367,0.817477336887,-0.372365979934,1.17813213251,0.0609468992773,1.07227793734,0.388615024299,0.389116068881,0.326080853393,0.935334152406,-2.98591302313,0.184466871552,-2.81051313406,0.0529000412475
2.0,0.970385593772,0.817512224297,-0.370812657939,1.1683408876,0.0609468992773,1.08196452002,0.388632468004,0.391450309291,0.324968146203,0.93777567428,-2.98701363988,0.183651764998,-2.81649186195,0.0529067854872
2.02,0.970385593772,0.817512224297,-0.370812657939,1.1683408876,0.0609468992773,1.08196452002,0.388632468004,0.391450309291,0.324968146203,0.93777567428,-2.98701363988,0.183651764998,-2.81649186195,0.0529067854872
2.04,0.963229746502,0.817529668002,-0.370638121019,1.16046938237,0.0609468992773,1.08966138846,0.388615024299,0.394002654858,0.323259494767,0.93986290933,-2.98729109462,0.183555994341,-2.8230915421,0.0528971045151
2.06,0.963229746502,0.817529668002,-0.370638121019,1.16046938237,0.0609468992773,1.08966138846,0.388615024299,0.394002654858,0.323259494767,0.93986290933,-2.98729109462,0.183555994341,-2.8230915421,0.0528971045151
2.08,0.957574923401,0.817564555413,-0.370323967879,1.15490177779,0.0609468992773,1.09601442582,0.388597547304,0.395820408127,0.321754412274,0.94129575852,-2.9872632731,0.182555363792,-2.82836571323,0.0528998863934
2.1,0.957574923401,0.817564555413,-0.370323967879,1.15490177779,0.0609468992773,1.09601442582,0.388597547304,0.395820408127,0.321754412274,0.94129575852,-2.9872632731,0.182555363792,-2.82836571323,0.0528998863934
2.12,0.952827572442,0.817634396812,-0.369538568384,1.15029410963,0.0609643513048,1.09988905889,0.388615024299,0.397379535614,0.320776463179,0.942436602989,-2.98803535405,0.1827299605,-2.83233112045,0.0528831950693
2.14,0.952827572442,0.817634396812,-0.369538568384,1.15029410963,0.0609643513048,1.09988905889,0.388615024299,0.397379535614,0.320776463179,0.942436602989,-2.98803535405,0.1827299605,-2.83233112045,0.0528831950693
2.16,0.948900608257,0.817704238212,-0.368334286939,1.14661149048,0.0609818033323,1.10009844993,0.388615024299,0.398891695647,0.320417230628,0.94334077582,-2.99000527261,0.185244859906,-2.8348753789,0.0528310758844
2.18,0.948900608257,0.817704238212,-0.368334286939,1.14661149048,0.0609818033323,1.10009844993,0.388615024299,0.398891695647,0.320417230628,0.94334077582,-2.99000527261,0.185244859906,-2.8348753789,0.0528310758844
2.2,0.945409936437,0.817878741842,-0.367409271224,1.14214350512,0.0609643513048,1.10015084763,0.388597547304,0.400480895248,0.320331565382,0.944457176532,-2.99205444849,0.18865308473,-2.83692993482,0.0527633794506
2.22,0.945409936437,0.817878741842,-0.367409271224,1.14214350512,0.0609643513048,1.10015084763,0.388597547304,0.400480895248,0.320331565382,0.944457176532,-2.99205444849,0.18865308473,-2.83692993482,0.0527633794506
2.24,0.942320736152,0.819344812022,-0.365698822724,1.13467347142,0.0609468992773,1.10020317874,0.388597547304,0.402175400922,0.321270888129,0.945735994971,-2.99489337217,0.193375612542,-2.83743952406,0.0526773406542
2.26,0.942320736152,0.819344812022,-0.365698822724,1.13467347142,0.0609468992773,1.10020317874,0.388597547304,0.402175400922,0.321270888129,0.945735994971,-2.99489337217,0.193375612542,-2.83743952406,0.0526773406542
2.28,0.938323930567,0.823376505018,-0.361597321619,1.12153117091,0.0609468992773,1.10030790755,0.388597547304,0.404352055836,0.323739414458,0.947171873163,-2.99970154227,0.20002781338,-2.83618132209,0.0525568328271
2.3,0.933489361082,0.833010756577,-0.356204253964,1.10006356252,0.0609468992773,1.10098861153,0.388580103599,0.404352055836,0.323739414458,0.947171873163,-2.99970154227,0.20002781338,-2.83618132209,0.0525568328271
2.32,0.933489361082,0.833010756577,-0.356204253964,1.10006356252,0.0609468992773,1.10098861153,0.388580103599,0.407488833943,0.327824952944,0.948128945368,-3.00481542913,0.208527162917,-2.83297261714,0.0524068886992
2.34,0.927607570077,0.848247500122,-0.350811186309,1.07363927871,0.0609468992773,1.10606752604,0.388580103599,0.407488833943,0.327824952944,0.948128945368,-3.00481542913,0.208527162917,-2.83297261714,0.0524068886992
2.36,0.927607570077,0.848247500122,-0.350811186309,1.07363927871,0.0609468992773,1.10606752604,0.388580103599,0.410926093677,0.331834248916,0.94759980554,-3.00697326814,0.212854739133,-2.82991742217,0.0523027389954
2.38,0.920120159252,0.869365968092,-0.343306265199,1.04100164034,0.0609468992773,1.11751685504,0.388580103599,0.410926093677,0.331834248916,0.94759980554,-3.00697326814,0.212854739133,-2.82991742217,0.0523027389954
2.4,0.920120159252,0.869365968092,-0.343306265199,1.04100164034,0.0609468992773,1.11751685504,0.388580103599,0.414206317022,0.3361746195,0.945480126583,-3.00723755208,0.211099982785,-2.82645524382,0.0522067334765
2.42,0.912789741772,0.890519323472,-0.336813644909,1.00848617449,0.0609468992773,1.13732637934,0.388597547304,0.414206317022,0.3361746195,0.945480126583,-3.00723755208,0.211099982785,-2.82645524382,0.0522067334765
2.44,0.912789741772,0.890519323472,-0.336813644909,1.00848617449,0.0609468992773,1.13732637934,0.388597547304,0.416512803418,0.339215359531,0.943107008685,-3.00413224303,0.201855053998,-2.82464090899,0.0521016460852
2.46,0.905092873327,0.911288784182,-0.331263484039,0.974940930817,0.0609643513048,1.16793941607,0.388597547304,0.417867322019,0.340771976967,0.941029001403,-2.99744330004,0.184245252471,-2.82511989491,0.0519476473564
2.48,0.905092873327,0.911288784182,-0.331263484039,0.974940930817,0.0609643513048,1.16793941607,0.388597547304,0.417867322019,0.340771976967,0.941029001403,-2.99744330004,0.184245252471,-2.82511989491,0.0519476473564
2.5,0.897989357172,0.929160925362,-0.326359106444,0.942233451047,0.0608247226011,1.20656350767,0.388632468004,0.418060365239,0.341330776606,0.940144048317,-2.98884183602,0.161220047554,-2.82709067766,0.0516777472096
2.52,0.897989357172,0.929160925362,-0.326359106444,0.942233451047,0.0608247226011,1.20656350767,0.388632468004,0.418060365239,0.341330776606,0.940144048317,-2.98884183602,0.161220047554,-2.82709067766,0.0516777472096
2.54,0.890658939693,0.944572172537,-0.323025527839,0.909613256382,0.0608072705736,1.24869578138,0.388632468004,0.418231682635,0.340979349185,0.940681043822,-2.97945790234,0.137582280532,-2.83108266438,0.0512126781584
2.56,0.890658939693,0.944572172537,-0.323025527839,0.909613256382,0.0608072705736,1.24869578138,0.388632468004,0.418231682635,0.340979349185,0.940681043822,-2.97945790234,0.137582280532,-2.83108266438,0.0512126781584
2.58,0.882682838807,0.958953708477,-0.321175496409,0.877219963042,0.0607549103298,1.29018223853,0.388632468004,0.418960126019,0.339919113709,0.941913509233,-2.96976810671,0.115853050486,-2.83671326457,0.050554661323
2.6,0.882682838807,0.958953708477,-0.321175496409,0.877219963042,0.0607549103298,1.29018223853,0.388632468004,0.418960126019,0.339919113709,0.941913509233,-2.96976810671,0.115853050486,-2.83671326457,0.050554661323
2.62,0.874270312397,0.971293199072,-0.321088211304,0.848526732562,0.0607374583023,1.32280249977,0.388632468004,0.420874002829,0.33838634355,0.943427882665,-2.96184803733,0.101386812123,-2.84335600927,0.0498064268348
2.64,0.874270312397,0.971293199072,-0.321088211304,0.848526732562,0.0607374583023,1.32280249977,0.388632468004,0.420874002829,0.33838634355,0.943427882665,-2.96184803733,0.101386812123,-2.84335600927,0.0498064268348
2.66,0.864583729723,0.983004316807,-0.321053323894,0.822067561342,0.0607549103298,1.34383374922,0.388632468004,0.424388510193,0.337032732799,0.944698368942,-2.95764286962,0.0960072001163,-2.84997892053,0.0489955499493
2.68,0.864583729723,0.983004316807,-0.321053323894,0.822067561342,0.0607549103298,1.34383374922,0.388632468004,0.424388510193,0.337032732799,0.944698368942,-2.95764286962,0.0960072001163,-2.84997892053,0.0489955499493
2.7,0.854635358312,0.992952688217,-0.321053323894,0.800791966867,0.0607549103298,1.34961081141,0.388632468004,0.429350902925,0.336099593216,0.945467333329,-2.95798562401,0.101364280949,-2.85554352146,0.0482684255922
2.72,0.854635358312,0.992952688217,-0.321053323894,0.800791966867,0.0607549103298,1.34961081141,0.388632468004,0.429350902925,0.336099593216,0.945467333329,-2.95798562401,0.101364280949,-2.85554352146,0.0482684255922
2.74,0.844879000817,1.00183646098,-0.321018403194,0.781959889272,0.060789818546,1.34962825511,0.388632468004,0.43469050168,0.335334482496,0.946120069482,-2.96014844964,0.11063450125,-2.86052785333,0.0475792959089
2.76,0.844879000817,1.00183646098,-0.321018403194,0.781959889272,0.060789818546,1.34962825511,0.388632468004,0.43469050168,0.335334482496,0.946120069482,-2.96014844964,0.11063450125,-2.86052785333,0.0475792959089
2.78,0.835698551907,1.00918425559,-0.321000959489,0.765065061633,0.0608072705736,1.34966314253,0.388632468004,0.439620093795,0.334410679858,0.947047229901,-2.96238803467,0.119459845301,-2.86546494175,0.0469251434485
2.8,0.835698551907,1.00918425559,-0.321000959489,0.765065061633,0.0608072705736,1.34966314253,0.388632468004,0.439620093795,0.334410679858,0.947047229901,-2.96238803467,0.119459845301,-2.86546494175,0.0469251434485
2.82,0.827425708297,1.01485658897,-0.320983515784,0.750770810798,0.0608072705736,1.34966314253,0.388632468004,0.44396175042,0.333374896414,0.948134374263,-2.96456583664,0.12741320038,-2.87017266438,0.0463442860342
2.84,0.818943407067,1.0192897535,-0.320843866274,0.737872855322,0.0608072705736,1.34964569882,0.388615024299,0.44396175042,0.333374896414,0.948134374263,-2.96456583664,0.12741320038,-2.87017266438,0.0463442860342
2.86,0.818943407067,1.0192897535,-0.320843866274,0.737872855322,0.0608072705736,1.34964569882,0.388615024299,0.448199663397,0.331999897866,0.949487355865,-2.9669819781,0.135126872764,-2.87541658023,0.0457949844599
2.88,0.811019570718,1.02222189386,-0.320634441944,0.726737646173,0.0608421787898,1.34962825511,0.388615024299,0.448199663397,0.331999897866,0.949487355865,-2.9669819781,0.135126872764,-2.87541658023,0.0457949844599
2.9,0.811019570718,1.02222189386,-0.320634441944,0.726737646173,0.0608421787898,1.34962825511,0.388615024299,0.452051273368,0.330561194653,0.951147882487,-2.96963514982,0.142502806004,-2.8806069223,0.045295729316
2.92,0.802676952287,1.02400215047,-0.320529713134,0.716632214837,0.0608421787898,1.34962825511,0.388615024299,0.452051273368,0.330561194653,0.951147882487,-2.96963514982,0.142502806004,-2.8806069223,0.045295729316
2.94,0.802676952287,1.02400215047,-0.320529713134,0.716632214837,0.0608421787898,1.34962825511,0.388615024299,0.455958782289,0.328694316738,0.953160232018,-2.972401016,0.149984423639,-2.88657941174,0.0448201302123
2.96,0.795102189777,1.02456061535,-0.320407540619,0.709266909948,0.0608770828448,1.34962825511,0.388597547304,0.459294755083,0.326659667949,0.955040125553,-2.97486336141,0.156036754121,-2.89247152816,0.0444568249283
2.98,0.795102189777,1.02456061535,-0.320407540619,0.709266909948,0.0608770828448,1.34962825511,0.388597547304,0.459294755083,0.326659667949,0.955040125553,-2.97486336141,0.156036754121,-2.89247152816,0.0444568249283
3.0,0.788225574948,1.02457805906,-0.320250480694,0.702774256368,0.0608770828448,1.34962825511,0.388597547304,0.46229409981,0.324768166187,0.956966023496,-2.9772876522,0.16177182803,-2.89790324287,0.04412578944
3.02,0.788225574948,1.02457805906,-0.320250480694,0.702774256368,0.0608770828448,1.34962825511,0.388597547304,0.46229409981,0.324768166187,0.956966023496,-2.9772876522,0.16177182803,-2.89790324287,0.04412578944
3.04,0.781453688928,1.02471774186,-0.320128274889,0.696473616703,0.0608945390335,1.34962825511,0.388615024299,0.465221320573,0.322846627396,0.958776590093,-2.97956775733,0.167245898713,-2.90330962859,0.0438040020028
3.06,0.781453688928,1.02471774186,-0.320128274889,0.696473616703,0.0608945390335,1.34962825511,0.388615024299,0.465221320573,0.322846627396,0.958776590093,-2.97956775733,0.167245898713,-2.90330962859,0.0438040020028
3.08,0.775502123103,1.02473518556,-0.319883929859,0.692005564763,0.0609468992773,1.34962825511,0.388597547304,0.467625156548,0.320979120547,0.960096110407,-2.98137462188,0.17111194603,-2.90822667326,0.0435731686793
3.1,0.775502123103,1.02473518556,-0.319883929859,0.692005564763,0.0609468992773,1.34962825511,0.388597547304,0.467625156548,0.320979120547,0.960096110407,-2.98137462188,0.17111194603,-2.90822667326,0.0435731686793
3.12,0.769952028812,1.02477007297,-0.319761757344,0.688514959522,0.0609992553598,1.34961081141,0.388615024299,0.469796628646,0.319067239772,0.961123534379,-2.98274488411,0.174162618008,-2.91303026615,0.0433921667737
3.14,0.769952028812,1.02477007297,-0.319761757344,0.688514959522,0.0609992553598,1.34961081141,0.388615024299,0.469796628646,0.319067239772,0.961123534379,-2.98274488411,0.174162618008,-2.91303026615,0.0433921667737
3.16,0.765588705682,1.02478751668,-0.319674505529,0.685076618818,0.0610516156036,1.34961081141,0.388615024299,0.471579576237,0.317679074956,0.962149839183,-2.98406928808,0.177178899456,-2.91666211594,0.0432128699063
3.18,0.765588705682,1.02478751668,-0.319674505529,0.685076618818,0.0610516156036,1.34961081141,0.388615024299,0.471579576237,0.317679074956,0.962149839183,-2.98406928808,0.177178899456,-2.91666211594,0.0432128699063
3.2,0.761574389813,1.02483991437,-0.319587253714,0.681516172178,0.0612261483623,1.34961081141,0.388615024299,0.473248273475,0.316482907247,0.963191855295,-2.98553371889,0.180235316651,-2.9199544562,0.043026999306
3.22,0.758083784572,1.02487480178,-0.319499968609,0.678112785463,0.0613134168223,1.34959323455,0.388615024299,0.473248273475,0.316482907247,0.963191855295,-2.98553371889,0.180235316651,-2.9199544562,0.043026999306
3.24,0.758083784572,1.02487480178,-0.319499968609,0.678112785463,0.0613134168223,1.34959323455,0.388615024299,0.474738028876,0.315487162898,0.964201482438,-2.98687359154,0.183211464238,-2.92273377379,0.0428483101374
3.26,0.755238862738,1.02525876303,-0.319482524904,0.674691955042,0.0614006811211,1.34959323455,0.388615024299,0.474738028876,0.315487162898,0.964201482438,-2.98687359154,0.183211464238,-2.92273377379,0.0428483101374
3.28,0.755238862738,1.02525876303,-0.319482524904,0.674691955042,0.0614006811211,1.34959323455,0.388615024299,0.476022667959,0.314763711211,0.965027846576,-2.98797790943,0.185918991353,-2.92486294757,0.0426737191139
3.3,0.752306722378,1.02869703716,-0.319377796094,0.667850227623,0.0614704975535,1.34962825511,0.388597547304,0.477631775447,0.314548082935,0.965177540306,-2.98872907355,0.189010545047,-2.9260397169,0.0423662714099
3.32,0.752306722378,1.02869703716,-0.319377796094,0.667850227623,0.0614704975535,1.34962825511,0.388597547304,0.477631775447,0.314548082935,0.965177540306,-2.98872907355,0.189010545047,-2.9260397169,0.0423662714099
3.34,0.750177391928,1.0348580606,-0.319290544279,0.658495275083,0.0615577618523,1.34962825511,0.388597547304,0.479206820263,0.31509062333,0.964561971629,-2.98897174273,0.192052667254,-2.9256582648,0.0419632515582
3.36,0.750177391928,1.0348580606,-0.319290544279,0.658495275083,0.0615577618523,1.34962825511,0.388597547304,0.479206820263,0.31509062333,0.964561971629,-2.98897174273,0.192052667254,-2.9256582648,0.0419632515582
3.38,0.748606592938,1.04485882971,-0.319203259174,0.642420767638,0.0616450303123,1.34966314253,0.388597547304,0.481256136157,0.316998660408,0.963829850412,-2.98958631939,0.197783680561,-2.92296892229,0.0412443410078
3.4,0.748606592938,1.04485882971,-0.319203259174,0.642420767638,0.0616450303123,1.34966314253,0.388597547304,0.481256136157,0.316998660408,0.963829850412,-2.98958631939,0.197783680561,-2.92296892229,0.0412443410078
3.42,0.747611769113,1.05751244015,-0.319273067284,0.620988179818,0.0616101220961,1.34966314253,0.388597547304,0.483651882733,0.320010849657,0.9632432031,-2.99050522049,0.206157302101,-2.91834112742,0.0402425855345
3.44,0.747611769113,1.05751244015,-0.319273067284,0.620988179818,0.0616101220961,1.34966314253,0.388597547304,0.483651882733,0.320010849657,0.9632432031,-2.99050522049,0.206157302101,-2.91834112742,0.0402425855345
3.46,0.745918797608,1.07055007843,-0.319238179874,0.595925237378,0.0616101220961,1.34966314253,0.388597547304,0.486560047682,0.323344326435,0.963536700612,-2.99262446916,0.217373584913,-2.91358505085,0.0390011142824
3.48,0.745918797608,1.07055007843,-0.319238179874,0.595925237378,0.0616101220961,1.34966314253,0.388597547304,0.486560047682,0.323344326435,0.963536700612,-2.99262446916,0.217373584913,-2.91358505085,0.0390011142824
3.5,0.742969213543,1.08473960045,-0.319046199249,0.569082038328,0.0616799343673,1.34971547364,0.388580103599,0.489890417495,0.326369910677,0.963692345455,-2.99496179379,0.229014411358,-2.9095416573,0.0376248338943
3.52,0.742969213543,1.08473960045,-0.319046199249,0.569082038328,0.0616799343673,1.34971547364,0.388580103599,0.489890417495,0.326369910677,0.963692345455,-2.99496179379,0.229014411358,-2.9095416573,0.0376248338943
3.54,0.738815348032,1.09756778111,-0.319150894769,0.545205966918,0.0616799343673,1.34969802994,0.388580103599,0.493324498774,0.328199001958,0.963724255783,-2.9966999733,0.239356850204,-2.90749843789,0.0363604757016
3.56,0.738815348032,1.09756778111,-0.319150894769,0.545205966918,0.0616799343673,1.34969802994,0.388580103599,0.493324498774,0.328199001958,0.963724255783,-2.9966999733,0.239356850204,-2.90749843789,0.0363604757016
3.58,0.734172725883,1.10903455381,-0.319150894769,0.528066827538,0.0615926700685,1.34973291735,0.388580103599,0.496206796329,0.328604729097,0.962406257167,-2.99679939094,0.24473391697,-2.90736803221,0.0354564559579
3.6,0.734172725883,1.10903455381,-0.319150894769,0.528066827538,0.0615926700685,1.34973291735,0.388580103599,0.496206796329,0.328604729097,0.962406257167,-2.99679939094,0.24473391697,-2.90736803221,0.0354564559579
3.62,0.729477839197,1.11962874179,-0.318993834844,0.514732513118,0.0618370150986,1.34973291735,0.388597547304,0.498671926922,0.328394590574,0.960356388508,-2.99651671311,0.247284168959,-2.90819741742,0.0347573471574
3.64,0.729477839197,1.11962874179,-0.318993834844,0.514732513118,0.0618370150986,1.34973291735,0.388597547304,0.498671926922,0.328394590574,0.960356388508,-2.99651671311,0.247284168959,-2.90819741742,0.0347573471574
3.66,0.725515921023,1.12921052907,-0.318784377224,0.504051073329,0.0621162683448,1.34969802994,0.388597547304,0.500637695523,0.328107916921,0.958043752317,-2.99593363673,0.248313162591,-2.90890889442,0.0341989387702
3.68,0.725515921023,1.12921052907,-0.318784377224,0.504051073329,0.0621162683448,1.34969802994,0.388597547304,0.500637695523,0.328107916921,0.958043752317,-2.99593363673,0.248313162591,-2.90890889442,0.0341989387702
3.7,0.721937964098,1.13720414024,-0.318836741629,0.493753661368,0.0633205456285,1.34971547364,0.388597547304,0.502431498566,0.32803286747,0.956522144654,-2.99667973541,0.250136425272,-2.9098209909,0.0336376092333
3.72,0.721937964098,1.13720414024,-0.318836741629,0.493753661368,0.0633205456285,1.34971547364,0.388597547304,0.502431498566,0.32803286747,0.956522144654,-2.99667973541,0.250136425272,-2.9098209909,0.0336376092333
3.74,0.718150616133,1.14333034286,-0.318714569114,0.484241615613,0.0648738884298,1.34971547364,0.388597547304,0.504213750787,0.327851235563,0.955827286502,-2.99856705704,0.252715263702,-2.91137518632,0.0330985816567
3.76,0.718150616133,1.14333034286,-0.318714569114,0.484241615613,0.0648738884298,1.34971547364,0.388597547304,0.504213750787,0.327851235563,0.955827286502,-2.99856705704,0.252715263702,-2.91137518632,0.0330985816567
3.78,0.713752405593,1.14847903219,-0.318435336674,0.473979057774,0.067456975756,1.34976780476,0.388597547304,0.506169390639,0.327683773116,0.955898561805,-3.00230733787,0.256365701703,-2.9137685245,0.0324954407801
3.8,0.713752405593,1.14847903219,-0.318435336674,0.473979057774,0.067456975756,1.34976780476,0.388597547304,0.506169390639,0.327683773116,0.955898561805,-3.00230733787,0.256365701703,-2.9137685245,0.0324954407801
3.82,0.708935279813,1.15303436924,-0.318365495274,0.463873593149,0.0708429146048,1.34976780476,0.388580103599,0.508228399823,0.327342936597,0.956263758193,-3.00690928538,0.260257042261,-2.91692276515,0.031890013277
3.84,0.703699305373,1.15685653803,-0.318278243459,0.454937522559,0.0733736416873,1.34976780476,0.388597547304,0.508228399823,0.327342936597,0.956263758193,-3.00690928538,0.260257042261,-2.91692276515,0.031890013277
3.86,0.703699305373,1.15685653803,-0.318278243459,0.454937522559,0.0733736416873,1.34976780476,0.388597547304,0.510402549759,0.326479071598,0.956727001431,-3.01066261026,0.264023903242,-2.920613093,0.0313479879794
3.88,0.698376045828,1.15970145987,-0.318225879054,0.447223177118,0.0757123798223,1.34976780476,0.388597547304,0.510402549759,0.326479071598,0.956727001431,-3.01066261026,0.264023903242,-2.920613093,0.0313479879794
3.9,0.698376045828,1.15970145987,-0.318225879054,0.447223177118,0.0757123798223,1.34976780476,0.388597547304,0.512539147586,0.325337437077,0.957398464488,-3.01425214132,0.267630207663,-2.92469023805,0.0308723007991
3.92,0.692948057473,1.16132465655,-0.318138627239,0.440486211798,0.0766024998048,1.34976780476,0.388597547304,0.512539147586,0.325337437077,0.957398464488,-3.01425214132,0.267630207663,-2.92469023805,0.0308723007991
3.94,0.692948057473,1.16132465655,-0.318138627239,0.440486211798,0.0766024998048,1.34976780476,0.388597547304,0.51477354561,0.323803686379,0.95854397719,-3.01671277676,0.271914242113,-2.92881881355,0.0304464500311
3.96,0.688375343302,1.16205769164,-0.318086262834,0.434866242818,0.0766024998048,1.34975036105,0.388597547304,0.516734022822,0.322400092803,0.959905694093,-3.018325834,0.276316205108,-2.93219090668,0.0300838752862
3.98,0.688375343302,1.16205769164,-0.318086262834,0.434866242818,0.0766024998048,1.34975036105,0.388597547304,0.516734022822,0.322400092803,0.959905694093,-3.018325834,0.276316205108,-2.93219090668,0.0300838752862
4.0,0.683523263533,1.16245903002,-0.317981534024,0.429263717544,0.0766374038598,1.34976780476,0.388597547304,0.518767996902,0.320857603356,0.961459819014,-3.0201559876,0.280932311273,-2.93590086272,0.0297183043274
4.02,0.683523263533,1.16245903002,-0.317981534024,0.429263717544,0.0766374038598,1.34976780476,0.388597547304,0.518767996902,0.320857603356,0.961459819014,-3.0201559876,0.280932311273,-2.93590086272,0.0297183043274
4.04,0.679299623202,1.16429168432,-0.317946613324,0.420729085198,0.0765850477772,1.34980269217,0.388597547304,0.520820090547,0.3200523848,0.963107358889,-3.0221438567,0.286962836438,-2.93822525353,0.0291703420743
4.06,0.679299623202,1.16429168432,-0.317946613324,0.420729085198,0.0765850477772,1.34980269217,0.388597547304,0.520820090547,0.3200523848,0.963107358889,-3.0221438567,0.286962836438,-2.93822525353,0.0291703420743
4.08,0.675250419923,1.16898657101,-0.317876805214,0.407953268949,0.0766374038598,1.34983757958,0.388580103599,0.52306747632,0.319981190743,0.964392546794,-3.02432706065,0.294217964827,-2.93919116979,0.0283618226572
4.1,0.675250419923,1.16898657101,-0.317876805214,0.407953268949,0.0766374038598,1.34983757958,0.388580103599,0.52306747632,0.319981190743,0.964392546794,-3.02432706065,0.294217964827,-2.93919116979,0.0283618226572
4.12,0.671463071958,1.17691040736,-0.317737188994,0.392332564154,0.0767595763748,1.35001214979,0.388580103599,0.525312602529,0.320433308407,0.964626747869,-3.0260248093,0.300977500394,-2.9389576984,0.0273821597734
4.14,0.671463071958,1.17691040736,-0.317737188994,0.392332564154,0.0767595763748,1.35001214979,0.388580103599,0.525312602529,0.320433308407,0.964626747869,-3.0260248093,0.300977500394,-2.9389576984,0.0273821597734
4.16,0.668880005437,1.18595117347,-0.317702268294,0.377532179554,0.0769864693773,1.35025649482,0.388580103599,0.5270323434,0.321319819434,0.963906456908,-3.02691855701,0.305932466369,-2.93756452289,0.0264550890224
4.18,0.668880005437,1.18595117347,-0.317702268294,0.377532179554,0.0769864693773,1.35025649482,0.388580103599,0.5270323434,0.321319819434,0.963906456908,-3.02691855701,0.305932466369,-2.93756452289,0.0264550890224
4.2,0.666768118693,1.19720862171,-0.317632460184,0.362696874254,0.0778940413873,1.35215892394,0.388562659894,0.528209684756,0.322334890197,0.96173166137,-3.0269291177,0.307144895048,-2.93571867989,0.0255359784572
4.22,0.666768118693,1.19720862171,-0.317632460184,0.362696874254,0.0778940413873,1.35215892394,0.388562659894,0.528209684756,0.322334890197,0.96173166137,-3.0269291177,0.307144895048,-2.93571867989,0.0255359784572
4.24,0.665144988588,1.20818670436,-0.317667380884,0.350689013794,0.0816639539698,1.35770908481,0.388597547304,0.528250528291,0.323158953603,0.958545842593,-3.02763253882,0.301749919807,-2.9351839231,0.0248080700921
4.26,0.665144988588,1.20818670436,-0.317667380884,0.350689013794,0.0816639539698,1.35770908481,0.388597547304,0.528250528291,0.323158953603,0.958545842593,-3.02763253882,0.301749919807,-2.9351839231,0.0248080700921
4.28,0.663434573378,1.21871111751,-0.317073962014,0.340548628469,0.0888372615897,1.36737822378,0.388597547304,0.527211385245,0.323844289813,0.954702663963,-3.03038206999,0.289828022511,-2.93635538583,0.0242080192067
4.3,0.663434573378,1.21871111751,-0.317073962014,0.340548628469,0.0888372615897,1.36737822378,0.388597547304,0.527211385245,0.323844289813,0.954702663963,-3.03038206999,0.289828022511,-2.93635538583,0.0242080192067
4.32,0.661636873063,1.22900849618,-0.317004153904,0.331839459204,0.0955916872596,1.38109643287,0.388597547304,0.525611084904,0.32368246403,0.950449477575,-3.03045038193,0.273428671902,-2.93821557231,0.0237065029553
4.34,0.661636873063,1.22900849618,-0.317004153904,0.331839459204,0.0955916872596,1.38109643287,0.388597547304,0.525611084904,0.32368246403,0.950449477575,-3.03045038193,0.273428671902,-2.93821557231,0.0237065029553
4.36,0.660362750218,1.23817150139,-0.316690000764,0.325259553809,0.0997106570372,1.39317413473,0.388597547304,0.524096368309,0.323303041983,0.946368271372,-3.0285238148,0.258439426469,-2.93925579448,0.0233325394622
4.38,0.660362750218,1.23817150139,-0.316690000764,0.325259553809,0.0997106570372,1.39317413473,0.388597547304,0.524096368309,0.323303041983,0.946368271372,-3.0285238148,0.258439426469,-2.93925579448,0.0233325394622
4.4,0.659001408848,1.24560651452,-0.316637636359,0.319796678044,0.102869707045,1.40434423129,0.388597547304,0.522814240145,0.322635530038,0.943092462355,-3.02616061645,0.245268133145,-2.94053007109,0.0230173503986
4.42,0.659001408848,1.24560651452,-0.316637636359,0.319796678044,0.102869707045,1.40434423129,0.388597547304,0.522814240145,0.322635530038,0.943092462355,-3.02616061645,0.245268133145,-2.94053007109,0.0230173503986
4.44,0.657884412508,1.25185482307,-0.316550351254,0.313338945164,0.10372491465,1.41425771529,0.388580103599,0.521946833925,0.322102569192,0.940986523776,-3.02292493621,0.235997425768,-2.94084279393,0.0226172901735
4.46,0.657884412508,1.25185482307,-0.316550351254,0.313338945164,0.10372491465,1.41425771529,0.388580103599,0.521946833925,0.322102569192,0.940986523776,-3.02292493621,0.235997425768,-2.94084279393,0.0226172901735
4.48,0.657413166153,1.25660217403,-0.316498020139,0.305258082179,0.103759827027,1.4243457695,0.388597547304,0.521125463479,0.322091879115,0.940339944324,-3.0200577937,0.229673507257,-2.94023228889,0.0220894621665
4.5,0.657413166153,1.25660217403,-0.316498020139,0.305258082179,0.103759827027,1.4243457695,0.388597547304,0.521125463479,0.322091879115,0.940339944324,-3.0200577937,0.229673507257,-2.94023228889,0.0220894621665
4.52,0.657029204903,1.25913284285,-0.316428178739,0.297351756114,0.10381218311,1.43233938067,0.388615024299,0.520652833141,0.3223810025,0.941049450215,-3.01890632086,0.227093458668,-2.93957199946,0.0215543418296
4.54,0.657029204903,1.25913284285,-0.316428178739,0.297351756114,0.10381218311,1.43233938067,0.388615024299,0.520652833141,0.3223810025,0.941049450215,-3.01890632086,0.227093458668,-2.93957199946,0.0215543418296
4.56,0.655109332073,1.26051169451,-0.316323483219,0.288537824749,0.103864547515,1.43808155545,0.388580103599,0.521105921788,0.322276239887,0.942805557176,-3.01939334103,0.228408652593,-2.94004719178,0.0209423748933
4.58,0.655109332073,1.26051169451,-0.316323483219,0.288537824749,0.103864547515,1.43808155545,0.388580103599,0.521105921788,0.322276239887,0.942805557176,-3.01939334103,0.228408652593,-2.94004719178,0.0209423748933
4.6,0.652020131787,1.26091316604,-0.316271118814,0.278903606479,0.103881999542,1.44244487858,0.388597547304,0.522235349643,0.321834113269,0.945458850975,-3.02101090177,0.232647183198,-2.9415061488,0.0202625223975
4.62,0.652020131787,1.26091316604,-0.316271118814,0.278903606479,0.103881999542,1.44244487858,0.388597547304,0.522235349643,0.321834113269,0.945458850975,-3.02101090177,0.232647183198,-2.9415061488,0.0202625223975
4.64,0.647482238448,1.26101782827,-0.316148946299,0.270543494409,0.104405593657,1.4455688997,0.388597547304,0.523843848236,0.320621372548,0.947910699297,-3.02330160206,0.236940246978,-2.94464908452,0.0196686635742
4.66,0.647482238448,1.26101782827,-0.316148946299,0.270543494409,0.104405593657,1.4455688997,0.388597547304,0.523843848236,0.320621372548,0.947910699297,-3.02330160206,0.236940246978,-2.94464908452,0.0196686635742
4.68,0.641495785213,1.26114006737,-0.315974409379,0.262218269749,0.106988685145,1.44979267319,0.388597547304,0.525554181831,0.318822238185,0.95024062197,-3.02719857651,0.23941547406,-2.94971170921,0.0190769975106
4.7,0.641495785213,1.26114006737,-0.315974409379,0.262218269749,0.106988685145,1.44979267319,0.388597547304,0.525554181831,0.318822238185,0.95024062197,-3.02719857651,0.23941547406,-2.94971170921,0.0190769975106
4.72,0.635160191558,1.26117495478,-0.315922044974,0.254486463959,0.111212383732,1.45740225653,0.388597547304,0.526713828789,0.316626358244,0.952290466681,-3.03119088377,0.237777770509,-2.95586822823,0.0185292940755
4.74,0.635160191558,1.26117495478,-0.315922044974,0.254486463959,0.111212383732,1.45740225653,0.388597547304,0.526713828789,0.316626358244,0.952290466681,-3.03119088377,0.237777770509,-2.95586822823,0.0185292940755
4.76,0.628702491968,1.26127961701,-0.315852236864,0.246126335244,0.117495563047,1.46956717692,0.388615024299,0.527113197502,0.314335256529,0.95429671947,-3.03571208339,0.231684417935,-2.96270768895,0.0179381340123
4.78,0.628702491968,1.26127961701,-0.315852236864,0.246126335244,0.117495563047,1.46956717692,0.388615024299,0.527113197502,0.314335256529,0.95429671947,-3.03571208339,0.231684417935,-2.96270768895,0.0179381340123
4.8,0.623082556278,1.26134939183,-0.315799872459,0.238289800644,0.122103231207,1.48178456157,0.388615024299,0.527322813857,0.312154663621,0.95621723195,-3.03840119514,0.225702542225,-2.96843962348,0.0173810511158
4.82,0.623082556278,1.26134939183,-0.315799872459,0.238289800644,0.122103231207,1.48178456157,0.388615024299,0.527322813857,0.312154663621,0.95621723195,-3.03840119514,0.225702542225,-2.96843962348,0.0173810511158
4.84,0.618143257983,1.26147163092,-0.315730064349,0.231186317779,0.123185340137,1.4910173416,0.388632468004,0.527960734956,0.309978873551,0.958069597056,-3.03853252196,0.223042428487,-2.97284595154,0.0168728135173
4.86,0.618143257983,1.26147163092,-0.315730064349,0.231186317779,0.123185340137,1.4910173416,0.388632468004,0.527960734956,0.309978873551,0.958069597056,-3.03853252196,0.223042428487,-2.97284595154,0.0168728135173
4.88,0.613046899763,1.26154140574,-0.315660256239,0.226229575779,0.12316788811,1.49649759449,0.388615024299,0.529101538434,0.307562146314,0.959420785195,-3.03824892541,0.222358641025,-2.97734536338,0.0165166220226
4.9,0.613046899763,1.26154140574,-0.315660256239,0.226229575779,0.12316788811,1.49649759449,0.388615024299,0.529101538434,0.307562146314,0.959420785195,-3.03824892541,0.222358641025,-2.97734536338,0.0165166220226
4.92,0.608858080263,1.26161131372,-0.315590448129,0.223873377294,0.123185340137,1.49881893886,0.388615024299,0.530211040997,0.30550954248,0.960045911613,-3.03825674047,0.222238274602,-2.98122638429,0.0163471132485
4.94,0.608858080263,1.26161131372,-0.315590448129,0.223873377294,0.123185340137,1.49881893886,0.388615024299,0.530211040997,0.30550954248,0.960045911613,-3.03825674047,0.222238274602,-2.98122638429,0.0163471132485
4.96,0.605053288593,1.26173341966,-0.315485719319,0.223594128209,0.123255148247,1.49930762892,0.388597547304,0.531297338271,0.303516948772,0.960037728088,-3.03827588694,0.221858260917,-2.98498362075,0.0163275670196
4.98,0.605053288593,1.26173341966,-0.315485719319,0.223594128209,0.123255148247,1.49930762892,0.388597547304,0.531297338271,0.303516948772,0.960037728088,-3.03827588694,0.221858260917,-2.98498362075,0.0163275670196
5.0,0.602313095568,1.26183808189,-0.315433354914,0.223489416044,0.12332496468,1.49934251633,0.388597547304,0.532113927318,0.302090461614,0.960000986968,-3.03836427708,0.221778460784,-2.98769585405,0.0163204438727
5.02,0.602313095568,1.26183808189,-0.315433354914,0.223489416044,0.12332496468,1.49934251633,0.388597547304,0.532113927318,0.302090461614,0.960000986968,-3.03836427708,0.221778460784,-2.98769585405,0.0163204438727
5.04,0.600393289318,1.26230932824,-0.315363546804,0.222913457524,0.123551857682,1.49934251633,0.388597547304,0.532690622784,0.301189665218,0.959883584148,-3.03862453697,0.221758297137,-2.98945974134,0.0162807365748
5.06,0.600393289318,1.26230932824,-0.315363546804,0.222913457524,0.123551857682,1.49934251633,0.388597547304,0.532690622784,0.301189665218,0.959883584148,-3.03862453697,0.221758297137,-2.98945974134,0.0162807365748
5.08,0.598682807529,1.26435144017,-0.315311182399,0.218480309639,0.123708934252,1.49942986801,0.388597547304,0.533419645428,0.300917095427,0.960015581699,-3.0393679637,0.22373685541,-2.99000835702,0.0159680332837
5.1,0.598682807529,1.26435144017,-0.315311182399,0.218480309639,0.123708934252,1.49942986801,0.388597547304,0.533419645428,0.300917095427,0.960015581699,-3.0393679637,0.22373685541,-2.99000835702,0.0159680332837
5.12,0.596797888688,1.2711756573,-0.315276261699,0.204378056074,0.123674030197,1.49974398786,0.388597547304,0.534691274488,0.301822785,0.960256607937,-3.04095423637,0.229949329266,-2.98812481428,0.01497048996
5.14,0.596797888688,1.2711756573,-0.315276261699,0.204378056074,0.123674030197,1.49974398786,0.388597547304,0.534691274488,0.301822785,0.960256607937,-3.04095423637,0.229949329266,-2.98812481428,0.01497048996
5.16,0.593743575813,1.28454485913,-0.315206453589,0.180240145995,0.123796202712,1.49995344548,0.388580103599,0.536716379673,0.303454844058,0.959634323161,-3.04323833562,0.239268484146,-2.98453188575,0.0132544711405
5.18,0.593743575813,1.28454485913,-0.315206453589,0.180240145995,0.123796202712,1.49995344548,0.388580103599,0.536716379673,0.303454844058,0.959634323161,-3.04323833562,0.239268484146,-2.98453188575,0.0132544711405
5.2,0.590340189098,1.30185860201,-0.315171566179,0.152489424869,0.123866019145,1.50030245274,0.388562659894,0.538824725525,0.305272473147,0.957707636745,-3.04492164355,0.248127979182,-2.98009602941,0.0112647465973
5.22,0.590340189098,1.30185860201,-0.315171566179,0.152489424869,0.123866019145,1.50030245274,0.388562659894,0.538824725525,0.305272473147,0.957707636745,-3.04492164355,0.248127979182,-2.98009602941,0.0112647465973
5.24,0.586866960983,1.32245349251,-0.315223930584,0.12168435758,0.125017936185,1.50171619181,0.388580103599,0.540649136576,0.307414409874,0.954624293377,-3.04686876001,0.255349503501,-2.97495996288,0.00903214923652
5.26,0.586866960983,1.32245349251,-0.315223930584,0.12168435758,0.125017936185,1.50171619181,0.388580103599,0.540649136576,0.307414409874,0.954624293377,-3.04686876001,0.255349503501,-2.97495996288,0.00903214923652
5.28,0.583655588183,1.34231521476,-0.315084281074,0.0927467987147,0.12571606722,1.50602718382,0.388580103599,0.541777127549,0.309095858487,0.951273350058,-3.04732165982,0.258918401208,-2.9702224254,0.00691267459164
5.3,0.583655588183,1.34231521476,-0.315084281074,0.0927467987147,0.12571606722,1.50602718382,0.388580103599,0.541777127549,0.309095858487,0.951273350058,-3.04732165982,0.258918401208,-2.9702224254,0.00691267459164
5.32,0.581316800113,1.35715061993,-0.315084281074,0.0707381941173,0.125820787707,1.5125198374,0.388597547304,0.542121218065,0.310031906707,0.94877448301,-3.04620502016,0.259081428263,-2.96680272582,0.00528728891278
5.34,0.581316800113,1.35715061993,-0.315084281074,0.0707381941173,0.125820787707,1.5125198374,0.388597547304,0.542121218065,0.310031906707,0.94877448301,-3.04620502016,0.259081428263,-2.96680272582,0.00528728891278
5.36,0.578786064708,1.36889662508,-0.315101758069,0.0550127771573,0.125890595817,1.52348047634,0.388597547304,0.541647737153,0.309602820478,0.946049288615,-3.04270848356,0.252308759993,-2.96567600722,0.00412129927672
5.38,0.578786064708,1.36889662508,-0.315101758069,0.0550127771573,0.125890595817,1.52348047634,0.388597547304,0.541647737153,0.309602820478,0.946049288615,-3.04270848356,0.252308759993,-2.96567600722,0.00412129927672
5.4,0.576412455808,1.37367886345,-0.315084281074,0.0491310194423,0.125820787707,1.53646565034,0.388597547304,0.540636509189,0.307841716101,0.94450639546,-3.03802919878,0.24125929049,-2.96750629756,0.00368473249021
5.42,0.576412455808,1.37367886345,-0.315084281074,0.0491310194423,0.125820787707,1.53646565034,0.388597547304,0.540636509189,0.307841716101,0.94450639546,-3.03802919878,0.24125929049,-2.96750629756,0.00368473249021
5.44,0.573340632649,1.37551138459,-0.314944664854,0.0462861308974,0.125820787707,1.55306380183,0.388597547304,0.539280468638,0.305068809426,0.943757302314,-3.03244744715,0.226801736865,-2.97143651251,0.00347312571674
5.46,0.573340632649,1.37551138459,-0.314944664854,0.0462861308974,0.125820787707,1.55306380183,0.388597547304,0.539280468638,0.305068809426,0.943757302314,-3.03244744715,0.226801736865,-2.97143651251,0.00347312571674
5.48,0.569675457198,1.37573828592,-0.314997029259,0.0455007355636,0.125820787707,1.5732397771,0.388615024299,0.537556875077,0.301397956311,0.943318631745,-3.0253875828,0.20876725337,-2.97706626119,0.00341402333231
5.5,0.569675457198,1.37573828592,-0.314997029259,0.0455007355636,0.125820787707,1.5732397771,0.388615024299,0.537556875077,0.301397956311,0.943318631745,-3.0253875828,0.20876725337,-2.97706626119,0.00341402333231
5.52,0.565905552938,1.3758256376,-0.314927221149,0.0455356396186,0.125820787707,1.59191479477,0.388632468004,0.535995502826,0.297730638288,0.942808431788,-3.01875023192,0.191471597028,-2.98295708936,0.00341523171214
5.54,0.565905552938,1.3758256376,-0.314927221149,0.0455356396186,0.125820787707,1.59191479477,0.388632468004,0.535995502826,0.297730638288,0.942808431788,-3.01875023192,0.191471597028,-2.98295708936,0.00341523171214
5.56,0.561961145048,1.37579075019,-0.314979585554,0.0455007355636,0.125838239735,1.60811147472,0.388632468004,0.534832214662,0.294204467538,0.942503861982,-3.01295657247,0.176678170386,-2.98880926649,0.00341035407205
5.58,0.561961145048,1.37579075019,-0.314979585554,0.0455007355636,0.125838239735,1.60811147472,0.388632468004,0.534832214662,0.294204467538,0.942503861982,-3.01295657247,0.176678170386,-2.98880926649,0.00341035407205
5.6,0.558435552528,1.3758256376,-0.314979585554,0.0454483753198,0.125820787707,1.61807728984,0.388632468004,0.534421347304,0.291460359399,0.942312668612,-3.00937571997,0.167555424271,-2.99353680009,0.00340463213232
5.62,0.558435552528,1.3758256376,-0.314979585554,0.0454483753198,0.125820787707,1.61807728984,0.388632468004,0.534421347304,0.291460359399,0.942312668612,-3.00937571997,0.167555424271,-2.99353680009,0.00340463213232
5.64,0.554648171273,1.37580819389,-0.314787571639,0.0453087466161,0.125820787707,1.62263262688,0.388632468004,0.534849655936,0.289094218815,0.942278634876,-3.00797102388,0.163442837989,-2.99784856525,0.00339321747985
5.66,0.551698587208,1.37579075019,-0.314717763529,0.0453087466161,0.125838239735,1.62242316926,0.388632468004,0.534849655936,0.289094218815,0.942278634876,-3.00797102388,0.163442837989,-2.99784856525,0.00339321747985
5.68,0.551698587208,1.37579075019,-0.314717763529,0.0453087466161,0.125838239735,1.62242316926,0.388632468004,0.535724011616,0.287547244614,0.942289811818,-3.00813295571,0.163616921767,-3.00076995977,0.00339325138704
5.7,0.548993314883,1.37577317333,-0.314630511714,0.0453087466161,0.125820787707,1.62245805667,0.388615024299,0.535724011616,0.287547244614,0.942289811818,-3.00813295571,0.163616921767,-3.00076995977,0.00339325138704
5.72,0.548993314883,1.37577317333,-0.314630511714,0.0453087466161,0.125820787707,1.62245805667,0.388615024299,0.536489553058,0.286105633878,0.942297351045,-3.00818811601,0.163571193125,-3.00345928209,0.00339323303336
5.74,0.546200790743,1.3758256376,-0.314665399124,0.0453436548323,0.125820787707,1.62247550038,0.388632468004,0.53728192404,0.284592815738,0.942255984725,-3.00812018095,0.163491819131,-3.00627835789,0.00339587767485
5.76,0.546200790743,1.3758256376,-0.314665399124,0.0453436548323,0.125820787707,1.62247550038,0.388632468004,0.53728192404,0.284592815738,0.942255984725,-3.00812018095,0.163491819131,-3.00627835789,0.00339587767485
5.78,0.543914400368,1.37580819389,-0.314665399124,0.0452389343449,0.12580333568,1.62242316926,0.388632468004,0.537947747878,0.283380722062,0.942299370439,-3.00816435747,0.16365627366,-3.00853319942,0.00338803225261
5.8,0.543914400368,1.37580819389,-0.314665399124,0.0452389343449,0.12580333568,1.62242316926,0.388632468004,0.537947747878,0.283380722062,0.942299370439,-3.00816435747,0.16365627366,-3.00853319942,0.00338803225261
5.82,0.541715295098,1.3758256376,-0.314665399124,0.0452738425611,0.12578587533,1.62242316926,0.388615024299,0.53856790337,0.282189024329,0.942278872767,-3.00812681539,0.163613361124,-3.01072237303,0.00339065855762
5.84,0.541715295098,1.3758256376,-0.314665399124,0.0452738425611,0.12578587533,1.62242316926,0.388615024299,0.53856790337,0.282189024329,0.942278872767,-3.00812681539,0.163613361124,-3.01072237303,0.00339065855762
5.86,0.539987402893,1.37580819389,-0.314682876119,0.0454134671036,0.12578587533,1.62242316926,0.388632468004,0.539048360412,0.281236297854,0.942248267349,-3.00807483197,0.163513460153,-3.01250464026,0.00340110804143
5.88,0.539987402893,1.37580819389,-0.314682876119,0.0454134671036,0.12578587533,1.62242316926,0.388632468004,0.539048360412,0.281236297854,0.942248267349,-3.00807483197,0.163513460153,-3.01250464026,0.00340110804143
5.9,0.538940214663,1.37573828592,-0.314717763529,0.0453785588874,0.12578587533,1.62244061297,0.388632468004,0.539348966501,0.280671848254,0.942302080259,-3.00807656904,0.1636064882,-3.01355146834,0.00339844468642
5.92,0.538940214663,1.37573828592,-0.314717763529,0.0453785588874,0.12578587533,1.62244061297,0.388632468004,0.539348966501,0.280671848254,0.942302080259,-3.00807656904,0.1636064882,-3.01355146834,0.00339844468642
5.94,0.538852962848,1.37570339851,-0.314735240524,0.0453261986436,0.12578587533,1.62242316926,0.388632468004,0.539382697633,0.280631934914,0.942339849455,-3.00809825334,0.163708218536,-3.01362654288,0.00339450357473
5.96,0.538852962848,1.37570339851,-0.314735240524,0.0453261986436,0.12578587533,1.62242316926,0.388632468004,0.539382697633,0.280631934914,0.942339849455,-3.00809825334,0.163708218536,-3.01362654288,0.00339450357473
5.98,0.539202003398,1.37570339851,-0.314717763529,0.0453436548323,0.12580333568,1.62242316926,0.388632468004,0.539280723435,0.280823054509,0.942333463192,-3.00812457279,0.163679066178,-3.01328106136,0.00339581139789
6.0,0.539202003398,1.37570339851,-0.314717763529,0.0453436548323,0.12580333568,1.62242316926,0.388632468004,0.539280723435,0.280823054509,0.942333463192,-3.00812457279,0.163679066178,-3.01328106136,0.00339581139789
6.02,0.539428904723,1.37575572962,-0.314700319824,0.0454832793749,0.125820787707,1.62242316926,0.388632468004,0.539202501056,0.280929501354,0.942258734948,-3.00808944815,0.163492528588,-3.01308481809,0.00340630499154
6.04,0.539394017313,1.37570339851,-0.314735240524,0.0453960150761,0.12578587533,1.62242316926,0.388632468004,0.539202501056,0.280929501354,0.942258734948,-3.00808944815,0.163492528588,-3.01308481809,0.00340630499154
6.06,0.539394017313,1.37570339851,-0.314735240524,0.0453960150761,0.12578587533,1.62242316926,0.388632468004,0.539226390197,0.280913964755,0.942318943436,-3.00807527025,0.163645683889,-3.01310294609,0.00339973405968
6.08,0.539202003398,1.37572084221,-0.314735240524,0.0456229080786,0.12578587533,1.62238828185,0.388632468004,0.539226390197,0.280913964755,0.942318943436,-3.00807527025,0.163645683889,-3.01310294609,0.00339973405968
6.1,0.539202003398,1.37572084221,-0.314735240524,0.0456229080786,0.12578587533,1.62238828185,0.388632468004,0.539270227473,0.280781032259,0.94224101664,-3.00800602037,0.163458465154,-3.01334619609,0.00341675093401
6.12,0.539498712833,1.3756685111,-0.314717763529,0.0458498010811,0.12578587533,1.62238828185,0.388632468004,0.539270227473,0.280781032259,0.94224101664,-3.00800602037,0.163458465154,-3.01334619609,0.00341675093401
6.14,0.539498712833,1.3756685111,-0.314717763529,0.0458498010811,0.12578587533,1.62238828185,0.388632468004,0.539173914716,0.280913720766,0.942204227213,-3.00796843285,0.163296366387,-3.01310888845,0.00343371583701
6.16,0.539498712833,1.3756685111,-0.314717763529,0.0458498010811,0.12578587533,1.62238828185,0.388632468004,0.539173914716,0.280913720766,0.942204227213,-3.00796843285,0.163296366387,-3.01310888845,0.00343371583701
6.18,0.539202003398,1.37577317333,-0.314752684229,0.0464955718723,0.125768423302,1.62242316926,0.388632468004,0.539210055322,0.280649010668,0.941948582405,-3.00765290407,0.162610408012,-3.01356631579,0.00348215492542
6.2,0.539202003398,1.37577317333,-0.314752684229,0.0464955718723,0.125768423302,1.62242316926,0.388632468004,0.539210055322,0.280649010668,0.941948582405,-3.00765290407,0.162610408012,-3.01356631579,0.00348215492542
6.22,0.538992579068,1.37572084221,-0.314752684229,0.0465653841436,0.125750971275,1.62244061297,0.388632468004,0.539266048148,0.280523987879,0.941959689108,-3.00762872018,0.162586520504,-3.01379884697,0.00348734729985
6.24,0.538992579068,1.37572084221,-0.314752684229,0.0465653841436,0.125750971275,1.62244061297,0.388632468004,0.539266048148,0.280523987879,0.941959689108,-3.00762872018,0.162586520504,-3.01379884697,0.00348734729985
6.26,0.539097307878,1.37580819389,-0.314752684229,0.0466177443873,0.125733519247,1.62242316926,0.388632468004,0.53923257737,0.280569196191,0.941891852888,-3.0075662187,0.162482220498,-3.01369932911,0.00349133051964
6.28,0.539097307878,1.37580819389,-0.314752684229,0.0466177443873,0.125733519247,1.62242316926,0.388632468004,0.53923257737,0.280569196191,0.941891852888,-3.0075662187,0.162482220498,-3.01369932911,0.00349133051964
6.3,0.539306732208,1.37580819389,-0.314735240524,0.0466002923598,0.12578587533,1.62238828185,0.388632468004,0.539174382887,0.280697901435,0.941895421778,-3.00764875894,0.162503010727,-3.01348032555,0.00349003079833
6.32,0.539306732208,1.37580819389,-0.314735240524,0.0466002923598,0.12578587533,1.62238828185,0.388632468004,0.539174382887,0.280697901435,0.941895421778,-3.00764875894,0.162503010727,-3.01348032555,0.00349003079833
6.34,0.539167115988,1.37570339851,-0.314752684229,0.0464781198448,0.12578587533,1.62240572556,0.388632468004,0.539225905151,0.280638914292,0.941995899369,-3.00770929723,0.162699330423,-3.01359921544,0.0034808061178
6.36,0.539167115988,1.37570339851,-0.314752684229,0.0464781198448,0.12578587533,1.62240572556,0.388632468004,0.539225905151,0.280638914292,0.941995899369,-3.00770929723,0.162699330423,-3.01359921544,0.0034808061178
6.38,0.539097307878,1.37573828592,-0.314752684229,0.0465653841436,0.125768423302,1.62242316926,0.388632468004,0.539236903837,0.280583912919,0.941948857313,-3.00764403814,0.16257986383,-3.01369077889,0.00348736246454
6.4,0.539097307878,1.37573828592,-0.314752684229,0.0465653841436,0.125768423302,1.62242316926,0.388632468004,0.539236903837,0.280583912919,0.941948857313,-3.00764403814,0.16257986383,-3.01369077889,0.00348736246454
6.42,0.539149672283,1.37570339851,-0.314735240524,0.0465304759274,0.12578587533,1.62245805667,0.388615024299,0.539218281583,0.280620568877,0.941978723118,-3.00768634305,0.162595276078,-3.01361799233,0.00348471698968
6.44,0.539149672283,1.37570339851,-0.314735240524,0.0465304759274,0.12578587533,1.62245805667,0.388615024299,0.539218281583,0.280620568877,0.941978723118,-3.00768634305,0.162595276078,-3.01361799233,0.00348471698968
6.46,0.538975135363,1.37572084221,-0.314752684229,0.0465304759274,0.125768423302,1.62245805667,0.388597547304,0.539269196993,0.280520576071,0.941969297852,-3.00764441315,0.162590457115,-3.0137746533,0.00348472825065
6.48,0.538975135363,1.37572084221,-0.314752684229,0.0465304759274,0.125768423302,1.62245805667,0.388597547304,0.539269196993,0.280520576071,0.941969297852,-3.00764441315,0.162590457115,-3.0137746533,0.00348472825065
6.5,0.538818042148,1.37561617998,-0.314717763529,0.0463559431686,0.12578587533,1.6225278315,0.388597547304,0.539315296793,0.280465918138,0.942082084632,-3.00776721275,0.162758362306,-3.01390202332,0.00347156996499
6.52,0.538818042148,1.37561617998,-0.314717763529,0.0463559431686,0.12578587533,1.6225278315,0.388597547304,0.539315296793,0.280465918138,0.942082084632,-3.00776721275,0.162758362306,-3.01390202332,0.00347156996499
6.54,0.538975135363,1.37586052501,-0.314595591014,0.0463035870861,0.125820787707,1.6225452752,0.388597547304,0.539245474259,0.280572984162,0.941943788722,-3.00782284806,0.1625040395,-3.01371230599,0.0034678018512
6.56,0.538975135363,1.37586052501,-0.314595591014,0.0463035870861,0.125820787707,1.6225452752,0.388597547304,0.539245474259,0.280572984162,0.941943788722,-3.00782284806,0.1625040395,-3.01371230599,0.0034678018512
6.58,0.538870406553,1.37577317333,-0.314246517174,0.0457799846486,0.12578587533,1.6225452752,0.388597547304,0.539285424676,0.280642403402,0.942142324274,-3.00831656033,0.16292961652,-3.01367577805,0.00342851942563
6.6,0.538870406553,1.37577317333,-0.314246517174,0.0457799846486,0.12578587533,1.6225452752,0.388597547304,0.539285424676,0.280642403402,0.942142324274,-3.00831656033,0.16292961652,-3.01367577805,0.00342851942563
6.62,0.538992579068,1.37586052501,-0.314176709064,0.0453785588874,0.12580333568,1.6225452752,0.388615024299,0.539264367703,0.280775116709,0.942206512088,-3.00849602419,0.163177427234,-3.01346195205,0.00339850094546
6.64,0.538992579068,1.37586052501,-0.314176709064,0.0453785588874,0.12580333568,1.6225452752,0.388615024299,0.539264367703,0.280775116709,0.942206512088,-3.00849602419,0.163177427234,-3.01346195205,0.00339850094546
6.66,0.538748234038,1.37600007465,-0.314106900954,0.0444884430661,0.12578587533,1.6225278315,0.388615024299,0.539379479663,0.280773032376,0.942386785586,-3.00878641479,0.16384221549,-3.01346966813,0.00333190441005
6.68,0.538748234038,1.37600007465,-0.314106900954,0.0444884430661,0.12578587533,1.6225278315,0.388615024299,0.539379479663,0.280773032376,0.942386785586,-3.00878641479,0.16384221549,-3.01346966813,0.00333190441005
6.7,0.538242100273,1.37606998263,-0.314019649139,0.0412770369761,0.12580333568,1.62249294409,0.388615024299,0.539714770298,0.280964579775,0.943303904374,-3.00992279042,0.166646793657,-3.01316346129,0.00309134501191
6.72,0.538242100273,1.37606998263,-0.314019649139,0.0412770369761,0.12580333568,1.62249294409,0.388615024299,0.539714770298,0.280964579775,0.943303904374,-3.00992279042,0.166646793657,-3.01316346129,0.00309134501191
6.74,0.536985454423,1.37680301772,-0.313949841029,0.0351509300699,0.125820787707,1.62249294409,0.388632468004,0.540397831706,0.28112723302,0.944694569325,-3.01172061934,0.171433875065,-3.01286695493,0.00263271426617
6.76,0.536985454423,1.37680301772,-0.313949841029,0.0351509300699,0.125820787707,1.62249294409,0.388632468004,0.540397831706,0.28112723302,0.944694569325,-3.01172061934,0.171433875065,-3.01286695493,0.00263271426617
6.78,0.535135389703,1.3807125382,-0.313897476624,0.0203679933362,0.125820787707,1.62249294409,0.388597547304,0.541587870609,0.282055298845,0.946763286405,-3.01502428231,0.181078042009,-3.01077124281,0.00152623707251
6.8,0.535135389703,1.3807125382,-0.313897476624,0.0203679933362,0.125820787707,1.62249294409,0.388597547304,0.541587870609,0.282055298845,0.946763286405,-3.01502428231,0.181078042009,-3.01077124281,0.00152623707251
6.82,0.532185805638,1.38776365666,-0.313897476624,-0.00223402154866,0.125838239735,1.6225278315,0.388597547304,0.543317584304,0.283336095302,0.949291213885,-3.01955932672,0.194843713484,-3.00771382844,0.000167520608957
6.84,0.532185805638,1.38776365666,-0.313897476624,-0.00223402154866,0.125838239735,1.6225278315,0.388597547304,0.543317584304,0.283336095302,0.949291213885,-3.01955932672,0.194843713484,-3.00771382844,0.000167520608957
6.86,0.529340917093,1.39633317642,-0.313845112219,-0.0283965064805,0.12580333568,1.6227024017,0.388580103599,0.545016088365,0.285064769812,0.951987558222,-3.02456326242,0.210286705839,-3.0036292145,0.0021305226717
6.88,0.529340917093,1.39633317642,-0.313845112219,-0.0283965064805,0.12580333568,1.6227024017,0.388580103599,0.545016088365,0.285064769812,0.951987558222,-3.02456326242,0.210286705839,-3.0036292145,0.0021305226717
6.9,0.527037083013,1.40385554123,-0.313862555924,-0.0488343141686,0.125820787707,1.62277217653,0.388580103599,0.546262823862,0.286324278733,0.953601037667,-3.02814610784,0.221656877871,-3.00049514152,0.00366515038393
6.92,0.527037083013,1.40385554123,-0.313862555924,-0.0488343141686,0.125820787707,1.62277217653,0.388580103599,0.546262823862,0.286324278733,0.953601037667,-3.02814610784,0.221656877871,-3.00049514152,0.00366515038393
6.94,0.525413919618,1.41076711005,-0.313862555924,-0.0657465522235,0.125855691762,1.62275473282,0.388580103599,0.547141940017,0.287497289795,0.954520770469,-3.03089975737,0.230485184987,-2.99757298091,0.00493560716513
6.96,0.525413919618,1.41076711005,-0.313862555924,-0.0657465522235,0.125855691762,1.62275473282,0.388580103599,0.547141940017,0.287497289795,0.954520770469,-3.03089975737,0.230485184987,-2.99757298091,0.00493560716513
6.98,0.524419095793,1.41553177156,-0.313827668514,-0.0766374038598,0.125838239735,1.62275473282,0.388580103599,0.547655765336,0.28826194753,0.954921690769,-3.03254502925,0.235870129633,-2.99562589257,0.00575387866493
7.0,0.524419095793,1.41553177156,-0.313827668514,-0.0766374038598,0.125838239735,1.62275473282,0.388580103599,0.547655765336,0.28826194753,0.954921690769,-3.03254502925,0.235870129633,-2.99562589257,0.00575387866493
7.02,0.524087465658,1.41935407351,-0.313845112219,-0.0845437465698,0.125820787707,1.6227024017,0.388597547304,0.547899778857,0.289016435155,0.954991591299,-3.03358060014,0.239508227386,-2.99380296424,0.00634817943452
7.04,0.524087465658,1.41935407351,-0.313845112219,-0.0845437465698,0.125820787707,1.6227024017,0.388597547304,0.547899778857,0.289016435155,0.954991591299,-3.03358060014,0.239508227386,-2.99380296424,0.00634817943452
7.06,0.523040277428,1.423577847,-0.313722939704,-0.0897797376547,0.125838239735,1.62271984541,0.388580103599,0.548202402973,0.289034513764,0.953984283543,-3.03375731989,0.240231353319,-2.99325820476,0.0067436285962
7.08,0.523040277428,1.423577847,-0.313722939704,-0.0897797376547,0.125838239735,1.62271984541,0.388580103599,0.548202402973,0.289034513764,0.953984283543,-3.03375731989,0.240231353319,-2.99325820476,0.0067436285962
7.1,0.521329862218,1.42975624757,-0.313600767189,-0.0948411918197,0.125855691762,1.62289441562,0.388562659894,0.548573056314,0.288598450478,0.951706676043,-3.03309546373,0.238830272233,-2.99326033904,0.00712843543907
7.12,0.518589669193,1.43680736603,-0.313530959079,-0.10077531394,0.12596041225,1.62315620435,0.388562659894,0.548573056314,0.288598450478,0.951706676043,-3.03309546373,0.238830272233,-2.99326033904,0.00712843543907
7.14,0.518589669193,1.43680736603,-0.313530959079,-0.10077531394,0.12596041225,1.62315620435,0.388562659894,0.549204022994,0.287679627164,0.949150850374,-3.03239889645,0.237305378691,-2.99403862349,0.0075796045848
7.16,0.514976858148,1.44504532223,-0.313461117679,-0.10932742328,0.125977864277,1.62333077456,0.388562659894,0.549204022994,0.287679627164,0.949150850374,-3.03239889645,0.237305378691,-2.99403862349,0.0075796045848
7.18,0.514976858148,1.44504532223,-0.313461117679,-0.10932742328,0.125977864277,1.62333077456,0.388562659894,0.550129720592,0.286575622239,0.946667357473,-3.0320537265,0.237140788985,-2.9949748468,0.00822780028696
7.2,0.511468742623,1.45230589831,-0.313408786564,-0.117757368427,0.12604768071,1.62336566197,0.388580103599,0.550129720592,0.286575622239,0.946667357473,-3.0320537265,0.237140788985,-2.9949748468,0.00822780028696
7.22,0.511468742623,1.45230589831,-0.313408786564,-0.117757368427,0.12604768071,1.62336566197,0.388580103599,0.551067855693,0.28554822676,0.944752287908,-3.03213585548,0.237887061734,-2.9959235598,0.0088657358457
7.24,0.507890818988,1.45834474924,-0.313391309569,-0.12662363923,0.12613494917,1.62348776791,0.388562659894,0.551067855693,0.28554822676,0.944752287908,-3.03213585548,0.237887061734,-2.9959235598,0.0088657358457
7.26,0.507890818988,1.45834474924,-0.313391309569,-0.12662363923,0.12613494917,1.62348776791,0.388562659894,0.552079084476,0.284557447137,0.943724917232,-3.0327616039,0.240083755027,-2.99691841078,0.00953437152923
7.28,0.504312895353,1.46344110746,-0.313391309569,-0.13468705851,0.126169853225,1.62371466924,0.388562659894,0.553087282596,0.283463686838,0.94303344093,-3.03338986644,0.242365668292,-2.99821010414,0.0101415110737
7.3,0.504312895353,1.46344110746,-0.313391309569,-0.13468705851,0.126169853225,1.62371466924,0.388562659894,0.553087282596,0.283463686838,0.94303344093,-3.03338986644,0.242365668292,-2.99821010414,0.0101415110737
7.32,0.500700051018,1.46794411339,-0.313408786564,-0.13985322484,0.126274573712,1.62593121821,0.388562659894,0.55372799498,0.28182419305,0.941754558578,-3.03267291869,0.240736566439,-3.00046161172,0.0105316243392
7.34,0.500700051018,1.46794411339,-0.313408786564,-0.13985322484,0.126274573712,1.62593121821,0.388562659894,0.55372799498,0.28182419305,0.941754558578,-3.03267291869,0.240736566439,-3.00046161172,0.0105316243392
7.36,0.498186792608,1.46953228951,-0.313426230269,-0.140551372519,0.126309477767,1.63542592013,0.388597547304,0.55372799498,0.28182419305,0.941754558578,-3.03267291869,0.240736566439,-3.00046161172,0.0105316243392
7.38,0.498186792608,1.46953228951,-0.313426230269,-0.140551372519,0.126309477767,1.63542592013,0.388597547304,0.553000014994,0.279672626524,0.940699403643,-3.02897699619,0.231143084128,-3.0037094454,0.0105833154266
7.4,0.496040018454,1.46963708489,-0.313408786564,-0.140586276574,0.12636183385,1.65607314174,0.388597547304,0.553000014994,0.279672626524,0.940699403643,-3.02897699619,0.231143084128,-3.0037094454,0.0105833154266
7.42,0.496040018454,1.46963708489,-0.313408786564,-0.140586276574,0.12636183385,1.65607314174,0.388597547304,0.55059291933,0.276756902736,0.940079834402,-3.02169071516,0.212071495481,-3.00811180496,0.0105773796186
7.44,0.494259795133,1.4696719723,-0.313443673974,-0.140586276574,0.126326929795,1.68059499643,0.388615024299,0.547504169681,0.273715971783,0.93948258389,-3.01289768795,0.189548591226,-3.01277702208,0.0105773796186
7.46,0.494259795133,1.4696719723,-0.313443673974,-0.140586276574,0.126326929795,1.68059499643,0.388615024299,0.547504169681,0.273715971783,0.93948258389,-3.01289768795,0.189548591226,-3.01277702208,0.010561285042
7.48,0.492915897468,1.4696719723,-0.313461117679,-0.140586276574,0.126309477767,1.70623391403,0.388632468004,0.544102422273,0.270848204145,0.938986104766,-3.0037197175,0.166047377457,-3.01734209556,0.0105376394436
7.5,0.492915897468,1.4696719723,-0.313461117679,-0.140586276574,0.126309477767,1.70623391403,0.388632468004,0.544102422273,0.270848204145,0.938986104766,-3.0037197175,0.166047377457,-3.01734209556,0.0105376394436
7.52,0.492636631738,1.46963708489,-0.313478594674,-0.140568816225,0.126309477767,1.72319851649,0.388615024299,0.541673281052,0.269293386513,0.938733335593,-2.99763144344,0.15052412212,-3.01984245257,0.0105168556189
7.54,0.492636631738,1.46963708489,-0.313478594674,-0.140568816225,0.126309477767,1.72319851649,0.388615024299,0.541673281052,0.269293386513,0.938733335593,-2.99763144344,0.15052412212,-3.01984245257,0.0105168556189
7.56,0.492968261873,1.46960219748,-0.313478594674,-0.140568816225,0.126344381822,1.72792829059,0.388615024299,0.541673281052,0.269293386513,0.938733335593,-2.99763144344,0.15052412212,-3.01984245257,0.0105168556189
7.58,0.492968261873,1.46960219748,-0.313478594674,-0.140568816225,0.126344381822,1.72792829059,0.388615024299,0.540882951328,0.269089755259,0.93868679092,-2.99597788666,0.146211629382,-3.02014779089,0.0105108485801
7.6,0.494155066323,1.46946251469,-0.313496038379,-0.140586276574,0.126344381822,1.72707314956,0.388615024299,0.540882951328,0.269089755259,0.93868679092,-2.99597788666,0.146211629382,-3.02014779089,0.0105108485801
7.62,0.494155066323,1.46946251469,-0.313496038379,-0.140586276574,0.126344381822,1.72707314956,0.388615024299,0.540699710747,0.269806637567,0.938788322951,-2.99632544903,0.147146780635,-3.01884737225,0.0105130390042
7.64,0.495429155878,1.46928794448,-0.313530959079,-0.14053391217,0.126309477767,1.72602586147,0.388615024299,0.540699710747,0.269806637567,0.938788322951,-2.99632544903,0.147146780635,-3.01884737225,0.0105130390042
7.66,0.495429155878,1.46928794448,-0.313530959079,-0.14053391217,0.126309477767,1.72602586147,0.388615024299,0.540523095167,0.270571780625,0.938894881627,-2.99668461243,0.148247773,-3.01745686916,0.0105102426041
7.68,0.497837718768,1.46886916239,-0.313548402784,-0.140499008114,0.126309477767,1.72314605222,0.388615024299,0.540523095167,0.270571780625,0.938894881627,-2.99668461243,0.148247773,-3.01745686916,0.0105102426041
7.7,0.497837718768,1.46886916239,-0.313548402784,-0.140499008114,0.126309477767,1.72314605222,0.388615024299,0.540318809507,0.272118917102,0.939179362181,-2.99784404976,0.151250366562,-3.01469194855,0.0105106583932
7.72,0.500298646063,1.46749031074,-0.313565846489,-0.140149934275,0.126309477767,1.71784036954,0.388615024299,0.540318809507,0.272118917102,0.939179362181,-2.99784404976,0.151250366562,-3.01469194855,0.0105106583932
7.74,0.500298646063,1.46749031074,-0.313565846489,-0.140149934275,0.126309477767,1.71784036954,0.388615024299,0.540494696696,0.273887940314,0.93999222931,-3.00012374507,0.157088580666,-3.01169170033,0.0104892113835
7.76,0.502881712583,1.46557043791,-0.313565846489,-0.140010318054,0.126309477767,1.70640835109,0.388615024299,0.540494696696,0.273887940314,0.93999222931,-3.00012374507,0.157088580666,-3.01169170033,0.0104892113835
7.78,0.502881712583,1.46557043791,-0.313565846489,-0.140010318054,0.126309477767,1.70640835109,0.388615024299,0.541566537368,0.276285624847,0.941307304753,-3.00487269921,0.16923066791,-3.00777190626,0.0104888421741
7.8,0.505168102958,1.4631095439,-0.313565846489,-0.139486715617,0.12629202574,1.68801269901,0.388597547304,0.541566537368,0.276285624847,0.941307304753,-3.00487269921,0.16923066791,-3.00777190626,0.0104888421741
7.82,0.505168102958,1.4631095439,-0.313565846489,-0.139486715617,0.12629202574,1.68801269901,0.388597547304,0.543737987274,0.279085411917,0.943011377059,-3.0121502251,0.187933821819,-3.00346483292,0.0104640160796
7.84,0.507175227603,1.46084053066,-0.313565846489,-0.137374862162,0.126326929795,1.66994847734,0.388597547304,0.543737987274,0.279085411917,0.943011377059,-3.0121502251,0.187933821819,-3.00346483292,0.0104640160796
7.86,0.507175227603,1.46084053066,-0.313565846489,-0.137374862162,0.126326929795,1.66994847734,0.388597547304,0.545841413748,0.281517502903,0.944178133522,-3.01877052526,0.204722387313,-2.99999062742,0.0103176779031
7.88,0.509723406713,1.45691356647,-0.313565846489,-0.129869949375,0.126326929795,1.65504343051,0.388597547304,0.545841413748,0.281517502903,0.944178133522,-3.01877052526,0.204722387313,-2.99999062742,0.0103176779031
7.9,0.509723406713,1.45691356647,-0.313565846489,-0.129869949375,0.126326929795,1.65504343051,0.388597547304,0.547205294803,0.283334978067,0.944702289365,-3.02313630344,0.215323871535,-2.9978521238,0.00976291164473
7.92,0.513301330348,1.45164263804,-0.313513482084,-0.119851761532,0.126396746227,1.64759084051,0.388597547304,0.547205294803,0.283334978067,0.944702289365,-3.02313630344,0.215323871535,-2.9978521238,0.00976291164473
7.94,0.513301330348,1.45164263804,-0.313513482084,-0.119851761532,0.126396746227,1.64759084051,0.388597547304,0.547150951622,0.284807295882,0.945104067554,-3.02467402763,0.218023421119,-2.99625343206,0.00901336893351
7.96,0.517664653478,1.44515011762,-0.313530959079,-0.10735520269,0.126344381822,1.6472417001,0.388597547304,0.547150951622,0.284807295882,0.945104067554,-3.02467402763,0.218023421119,-2.99625343206,0.00901336893351
7.98,0.517664653478,1.44515011762,-0.313530959079,-0.10735520269,0.126344381822,1.6472417001,0.388597547304,0.545809894126,0.285778438866,0.945321017774,-3.02318715386,0.213170258478,-2.99534599256,0.00807350602879
8.0,0.521678902768,1.43973950639,-0.313496038379,-0.0952949778247,0.126326929795,1.64731160807,0.388597547304,0.545809894126,0.285778438866,0.945321017774,-3.02318715386,0.213170258478,-2.99534599256,0.00807350602879
8.02,0.521678902768,1.43973950639,-0.313496038379,-0.0952949778247,0.126326929795,1.64731160807,0.388597547304,0.544440271626,0.286545857473,0.944992191489,-3.02137345621,0.207281819522,-2.99465454274,0.00716663802292
8.04,0.524995037668,1.43567299256,-0.313496038379,-0.0856956636098,0.126326929795,1.64729416437,0.388597547304,0.544440271626,0.286545857473,0.944992191489,-3.02137345621,0.207281819522,-2.99465454274,0.00716663802292
8.06,0.524995037668,1.43567299256,-0.313496038379,-0.0856956636098,0.126326929795,1.64729416437,0.388597547304,0.543298529043,0.287210747032,0.944586499855,-3.01985300697,0.202442564539,-2.99395996222,0.00644468212202
8.08,0.528433345083,1.43162378929,-0.313513482084,-0.0772831788123,0.126344381822,1.64731160807,0.388597547304,0.543298529043,0.287210747032,0.944586499855,-3.01985300697,0.202442564539,-2.99395996222,0.00644468212202
8.1,0.528433345083,1.43162378929,-0.313513482084,-0.0772831788123,0.126344381822,1.64731160807,0.388597547304,0.542153704708,0.288087071856,0.944529197674,-3.01869191191,0.198621752665,-2.99286229037,0.00581129007675
8.12,0.531871652498,1.42717324763,-0.313530959079,-0.0694990127785,0.126326929795,1.6473988266,0.388597547304,0.542153704708,0.288087071856,0.944529197674,-3.01869191191,0.198621752665,-2.99286229037,0.00581129007675
8.14,0.531871652498,1.42717324763,-0.313530959079,-0.0694990127785,0.126326929795,1.6473988266,0.388597547304,0.541039213651,0.289040293493,0.944907574519,-3.01782906405,0.195686500781,-2.99165406085,0.00522454106405
8.16,0.535536827948,1.42293203044,-0.313530959079,-0.0627445871085,0.126309477767,1.64734649548,0.388597547304,0.541039213651,0.289040293493,0.944907574519,-3.01782906405,0.195686500781,-2.99165406085,0.00522454106405
8.18,0.535536827948,1.42293203044,-0.313530959079,-0.0627445871085,0.126309477767,1.64734649548,0.388597547304,0.539902996255,0.29025400867,0.945470667121,-3.01728607277,0.193602452767,-2.98993886978,0.00471526331109
8.2,0.538713313338,1.41905739737,-0.313548402784,-0.0553792988635,0.126309477767,1.64729416437,0.388597547304,0.539902996255,0.29025400867,0.945470667121,-3.01728607277,0.193602452767,-2.98993886978,0.00471526331109
8.22,0.538713313338,1.41905739737,-0.313548402784,-0.0553792988635,0.126309477767,1.64729416437,0.388597547304,0.538852938245,0.291105115495,0.945624689445,-3.01641065401,0.190627242475,-2.98883435453,0.0041606726845
8.24,0.541959640128,1.41165727164,-0.313548402784,-0.0406312661849,0.126309477767,1.64727672066,0.388615024299,0.538852938245,0.291105115495,0.945624689445,-3.01641065401,0.190627242475,-2.98883435453,0.0041606726845
8.26,0.541959640128,1.41165727164,-0.313548402784,-0.0406312661849,0.126309477767,1.64727672066,0.388615024299,0.537599148573,0.291103662567,0.945711579244,-3.01453077709,0.18424294995,-2.98974550807,0.00305091571913
8.28,0.546706924508,1.39825304925,-0.313565846489,-0.0137531942893,0.126257121685,1.64727672066,0.388632468004,0.537599148573,0.291103662567,0.945711579244,-3.01453077709,0.18424294995,-2.98974550807,0.00305091571913
8.3,0.546706924508,1.39825304925,-0.313565846489,-0.0137531942893,0.126257121685,1.64727672066,0.388632468004,0.535572490193,0.290421690699,0.945823856107,-3.0110103287,0.172514777577,-2.99258001518,0.00103130280093
8.32,0.551506606583,1.38219605209,-0.313478594674,0.0220260545443,0.126257121685,1.64722425639,0.388615024299,0.535572490193,0.290421690699,0.945823856107,-3.0110103287,0.172514777577,-2.99258001518,0.00103130280093
8.34,0.551506606583,1.38219605209,-0.313478594674,0.0220260545443,0.126257121685,1.64722425639,0.388615024299,0.533057901013,0.288611105624,0.94489243347,-3.00581329773,0.155210109917,-2.99774539986,0.00164815323605
8.36,0.556794945428,1.36395739336,-0.313408786564,0.0648040761585,0.12629202574,1.64718936898,0.388615024299,0.533057901013,0.288611105624,0.94489243347,-3.00581329773,0.155210109917,-2.99774539986,0.00164815323605
8.38,0.556794945428,1.36395739336,-0.313408786564,0.0648040761585,0.12629202574,1.64718936898,0.388615024299,0.529882525654,0.286083940998,0.943223791516,-2.99919805416,0.133598252478,-3.00441253962,0.00483316639662
8.4,0.561454944704,1.34673100216,-0.313373865864,0.102642814042,0.12629202574,1.64708470675,0.388632468004,0.529882525654,0.286083940998,0.943223791516,-2.99919805416,0.133598252478,-3.00441253962,0.00483316639662
8.42,0.561454944704,1.34673100216,-0.313373865864,0.102642814042,0.12629202574,1.64708470675,0.388632468004,0.526929043383,0.283793795516,0.942431051868,-2.99376025135,0.115554412037,-3.01046304263,0.00762492097476
8.44,0.566115010558,1.32966160432,-0.313338945164,0.13740977454,0.126309477767,1.64689269283,0.388632468004,0.526929043383,0.283793795516,0.942431051868,-2.99376025135,0.115554412037,-3.01046304263,0.00762492097476
8.46,0.566115010558,1.32966160432,-0.313338945164,0.13740977454,0.126309477767,1.64689269283,0.388632468004,0.524004049323,0.281878117853,0.942454661568,-2.98934222033,0.100155163512,-3.01571131989,0.0101607737494
8.48,0.570024531038,1.31381406478,-0.313373865864,0.164706726304,0.126257121685,1.64432700344,0.388632468004,0.524004049323,0.281878117853,0.942454661568,-2.98934222033,0.100155163512,-3.01571131989,0.0101607737494
8.5,0.570024531038,1.31381406478,-0.313373865864,0.164706726304,0.126257121685,1.64432700344,0.388632468004,0.522013963582,0.28072226595,0.943936179151,-2.98771458314,0.0925065906906,-3.01936012987,0.0121263263676
8.52,0.573672262783,1.29901368018,-0.313391309569,0.185842654624,0.126257121685,1.63294744926,0.388632468004,0.522013963582,0.28072226595,0.943936179151,-2.98771458314,0.0925065906906,-3.01936012987,0.0121263263676
8.54,0.573672262783,1.29901368018,-0.313391309569,0.185842654624,0.126257121685,1.63294744926,0.388632468004,0.521744316739,0.280982040516,0.946604466913,-2.99108035295,0.0974046907698,-3.02032712289,0.0136386438272
8.56,0.577983254798,1.28524300681,-0.313391309569,0.202597816109,0.126257121685,1.61113083361,0.388632468004,0.521744316739,0.280982040516,0.946604466913,-2.99108035295,0.0974046907698,-3.02032712289,0.0136386438272
8.58,0.577983254798,1.28524300681,-0.313391309569,0.202597816109,0.126257121685,1.61113083361,0.388632468004,0.523074188235,0.283023214064,0.950010127082,-2.99936309428,0.114806745955,-3.01805583141,0.0148377459025
8.6,0.582084789193,1.27332243146,-0.313391309569,0.216839702539,0.126274573712,1.58512546504,0.388632468004,0.523074188235,0.283023214064,0.950010127082,-2.99936309428,0.114806745955,-3.01805583141,0.0148377459025
8.62,0.582084789193,1.27332243146,-0.313391309569,0.216839702539,0.126274573712,1.58512546504,0.388632468004,0.525142186154,0.285598254482,0.953158542362,-3.00923923416,0.136623136456,-3.01489310698,0.0158535594729
8.64,0.582084789193,1.27332243146,-0.313391309569,0.216839702539,0.126274573712,1.58512546504,0.388632468004,0.525142186154,0.285598254482,0.953158542362,-3.00923923416,0.136623136456,-3.01489310698,0.0158535594729
8.66,0.587739612293,1.26222210972,-0.313408786564,0.232058969089,0.126274573712,1.5575317872,0.388597547304,0.526831110178,0.288941275966,0.955630890518,-3.01895994968,0.158305744376,-3.01036789124,0.0169293147018
8.68,0.587739612293,1.26222210972,-0.313408786564,0.232058969089,0.126274573712,1.5575317872,0.388597547304,0.526831110178,0.288941275966,0.955630890518,-3.01895994968,0.158305744376,-3.01036789124,0.0169293147018
8.7,0.593970477138,1.25255297075,-0.313391309569,0.247662213534,0.126274573712,1.53384776299,0.388597547304,0.527625105857,0.292164874784,0.957124669461,-3.02654443091,0.174764766364,-3.00591472538,0.0180197915429
8.72,0.600829581683,1.24398345099,-0.313408786564,0.263771608389,0.126274573712,1.51396846387,0.388597547304,0.527625105857,0.292164874784,0.957124669461,-3.02654443091,0.174764766364,-3.00591472538,0.0180197915429
8.74,0.600829581683,1.24398345099,-0.313408786564,0.263771608389,0.126274573712,1.51396846387,0.388597547304,0.527543378004,0.295275247641,0.957758675078,-3.03207438246,0.186300620361,-3.00138415604,0.0191352357115
8.76,0.608421787898,1.23618185374,-0.313391309569,0.280387153654,0.126239661335,1.4994124243,0.388597547304,0.527543378004,0.295275247641,0.957758675078,-3.03207438246,0.186300620361,-3.00138415604,0.0191352357115
8.78,0.608421787898,1.23618185374,-0.313391309569,0.280387153654,0.126239661335,1.4994124243,0.388597547304,0.526345180542,0.29820485626,0.957662109831,-3.03517641764,0.191791793001,-2.99675444393,0.0202766224709
8.8,0.615315846433,1.22897360877,-0.313373865864,0.296129997674,0.126274573712,1.49175037669,0.388597547304,0.524353365637,0.300276167067,0.957309423333,-3.03589767195,0.191157914714,-2.99327850762,0.021348677473
8.82,0.615315846433,1.22897360877,-0.313373865864,0.296129997674,0.126274573712,1.49175037669,0.388597547304,0.524353365637,0.300276167067,0.957309423333,-3.03589767195,0.191157914714,-2.99327850762,0.021348677473
8.84,0.622349521188,1.22244606778,-0.313408786564,0.310354440399,0.126239661335,1.4910173416,0.388615024299,0.521394945294,0.301985336556,0.956856409466,-3.03422748557,0.184943436224,-2.9899673129,0.0223098001209
8.86,0.622349521188,1.22244606778,-0.313408786564,0.310354440399,0.126239661335,1.4910173416,0.388615024299,0.521394945294,0.301985336556,0.956856409466,-3.03422748557,0.184943436224,-2.9899673129,0.0223098001209
8.88,0.628161470793,1.21645954797,-0.313443673974,0.323182621054,0.126222209307,1.4910173416,0.388615024299,0.51876785932,0.303168720431,0.956493231558,-3.03253738664,0.178809566478,-2.98757608254,0.0231688101973
8.9,0.628161470793,1.21645954797,-0.313443673974,0.323182621054,0.126222209307,1.4910173416,0.388615024299,0.51876785932,0.303168720431,0.956493231558,-3.03253738664,0.178809566478,-2.98757608254,0.0231688101973
8.92,0.633763962778,1.21007168978,-0.313426230269,0.335766456679,0.12620475728,1.4910173416,0.388615024299,0.516210173803,0.304280188382,0.956442204076,-3.03116401947,0.173223792819,-2.9853623325,0.0240009823018
8.94,0.633763962778,1.21007168978,-0.313426230269,0.335766456679,0.12620475728,1.4910173416,0.388615024299,0.516210173803,0.304280188382,0.956442204076,-3.03116401947,0.173223792819,-2.9853623325,0.0240009823018
8.96,0.638319299822,1.20466121171,-0.313705495999,0.346988917644,0.12620475728,1.49098245419,0.388632468004,0.514076594567,0.304956938054,0.956242754492,-3.0295900446,0.168138831199,-2.98388572147,0.0247388023782
8.98,0.638319299822,1.20466121171,-0.313705495999,0.346988917644,0.12620475728,1.49098245419,0.388632468004,0.514076594567,0.304956938054,0.956242754492,-3.0295900446,0.168138831199,-2.98388572147,0.0247388023782
9.0,0.642542940153,1.19963462831,-0.313879999629,0.357076905274,0.126187305252,1.49098245419,0.388632468004,0.512097868277,0.305632421461,0.956156034543,-3.0282881246,0.163652239955,-2.98241517073,0.0253958015369
9.02,0.642542940153,1.19963462831,-0.313879999629,0.357076905274,0.126187305252,1.49098245419,0.388632468004,0.512097868277,0.305632421461,0.956156034543,-3.0282881246,0.163652239955,-2.98241517073,0.0253958015369
9.04,0.646103453373,1.19466037602,-0.314176709064,0.367723424364,0.126169853225,1.49098245419,0.388632468004,0.510271895252,0.305836892632,0.955875311719,-3.0266676421,0.15866998282,-2.98176512429,0.0260862445052
9.06,0.646103453373,1.19466037602,-0.314176709064,0.367723424364,0.126169853225,1.49098245419,0.388632468004,0.510271895252,0.305836892632,0.955875311719,-3.0266676421,0.15866998282,-2.98176512429,0.0260862445052
9.08,0.649855913928,1.18783615889,-0.314473418499,0.383047419724,0.126169853225,1.49093012307,0.388632468004,0.508012253783,0.30543821552,0.955267704288,-3.02432959411,0.151180621269,-2.98215381979,0.0270730385046
9.1,0.649855913928,1.18783615889,-0.314473418499,0.383047419724,0.126169853225,1.49093012307,0.388632468004,0.508012253783,0.30543821552,0.955267704288,-3.02432959411,0.151180621269,-2.98215381979,0.0270730385046
9.12,0.653695593008,1.18005200534,-0.315014472964,0.402088954939,0.12611748882,1.49094756678,0.388632468004,0.505402910032,0.304421832824,0.954120034912,-3.02087031635,0.141275523087,-2.98347681295,0.0282888590117
9.14,0.653695593008,1.18005200534,-0.315014472964,0.402088954939,0.12611748882,1.49094756678,0.388632468004,0.505402910032,0.304421832824,0.954120034912,-3.02087031635,0.141275523087,-2.98347681295,0.0282888590117
9.16,0.656976807208,1.16978951408,-0.315276261699,0.423748477374,0.125820787707,1.49082532769,0.388632468004,0.502752782988,0.302788757702,0.953633868231,-3.01773154848,0.131300752079,-2.98604469469,0.0296376345876
9.18,0.656976807208,1.16978951408,-0.315276261699,0.423748477374,0.125820787707,1.49082532769,0.388632468004,0.502752782988,0.302788757702,0.953633868231,-3.01773154848,0.131300752079,-2.98604469469,0.0296376345876
9.2,0.659717000233,1.15788638243,-0.315241374289,0.448828863519,0.125820787707,1.49077299657,0.388632468004,0.499830563081,0.300456722036,0.953053037215,-3.01467349379,0.11939284619,-2.9900412222,0.031167226794
9.22,0.659717000233,1.15788638243,-0.315241374289,0.448828863519,0.125820787707,1.49077299657,0.388632468004,0.499830563081,0.300456722036,0.953053037215,-3.01467349379,0.11939284619,-2.9900412222,0.031167226794
9.24,0.661322686633,1.14641947656,-0.315223930584,0.471378514259,0.125838239735,1.49059842636,0.388632468004,0.497431243493,0.297944940728,0.952974390005,-3.01235208592,0.109451708884,-2.99452316933,0.0325041411117
9.26,0.661322686633,1.14641947656,-0.315223930584,0.471378514259,0.125838239735,1.49059842636,0.388632468004,0.497431243493,0.297944940728,0.952974390005,-3.01235208592,0.109451708884,-2.99452316933,0.0325041411117
9.28,0.662771313108,1.13542395021,-0.315206453589,0.492008325458,0.125838239735,1.48932437009,0.388632468004,0.495359351667,0.295731866673,0.953196448483,-3.01087931656,0.101803904136,-2.99852286344,0.033695688724
