GitHatake/ROS1EARs/catkin_ws/src/torobo_robot/torobo_EARs2021/scripts/arm/2021_kaiya_csv/test_manipulability_20220119_5.csv
time,joint_1,joint_2,joint_3,joint_4,joint_5,joint_6,joint_7,x,y,z,roll,pitch,yaw,manipulability
0.0,-0.551140055748,1.08339570279,0.0522900652886,-0.0727104147073,-0.0998677419296,1.86306920168,-0.000296705988964,0.475998518521,-0.302817308632,1.14105535514,-3.10168235043,0.267982881676,2.57273686266,0.00467233805169
0.02,-0.551140055748,1.08339570279,0.0522900652886,-0.0727104147073,-0.0998677419296,1.86306920168,-0.000296705988964,0.475998518521,-0.302817308632,1.14105535514,-3.10168235043,0.267982881676,2.57273686266,0.00467233805169
0.04,-0.551140055748,1.08341314649,0.0522900652886,-0.0727104147073,-0.0998851939572,1.86308664539,-0.000314159251835,0.475996576425,-0.302819385359,1.14104483925,-3.10166210605,0.267947509932,2.57274909956,0.00467236017104
0.06,-0.551140055748,1.0834305902,0.0522900652886,-0.0727104147073,-0.0998851939572,1.86317386391,-0.000296705988964,0.475986553978,-0.302812922211,1.14103107459,-3.10166755492,0.267843616642,2.57272748965,0.00467229083153
0.08,-0.551140055748,1.0834305902,0.0522900652886,-0.0727104147073,-0.0998851939572,1.86317386391,-0.000296705988964,0.475986553978,-0.302812922211,1.14103107459,-3.10166755492,0.267843616642,2.57272748965,0.00467229083153
0.1,-0.551140055748,1.0834305902,0.0522900652886,-0.0727104147073,-0.0998677419296,1.86320875132,-0.000296705988964,0.475983291329,-0.302807464827,1.1410293959,-3.10168327922,0.267808561229,2.57273125845,0.00467224511813
0.12,-0.551140055748,1.0834305902,0.0522900652886,-0.0727104147073,-0.0998677419296,1.86320875132,-0.000296705988964,0.475983291329,-0.302807464827,1.1410293959,-3.10168327922,0.267808561229,2.57273125845,0.00467224511813
0.14,-0.551140055748,1.0834305902,0.0522900652886,-0.0727104147073,-0.0998677419296,1.86320875132,-0.000296705988964,0.475983291329,-0.302807464827,1.1410293959,-3.10168327922,0.267808561229,2.57273125845,0.00467224511813
0.16,-0.551140055748,1.0834480339,0.0523075173161,-0.0727104147073,-0.0998851939572,1.8632786593,-0.000314159251835,0.475975480048,-0.302802802594,1.14101638669,-3.10167961663,0.267720494071,2.57274526398,0.00467219843173
0.18,-0.551140055748,1.0834480339,0.0523075173161,-0.0727104147073,-0.0998851939572,1.8632786593,-0.000314159251835,0.475975480048,-0.302802802594,1.14101638669,-3.10167961663,0.267720494071,2.57274526398,0.00467219843173
0.2,-0.551140055748,1.0834480339,0.0522900652886,-0.0726929626798,-0.0998677419296,1.86336587783,-0.000296705988964,0.475963678672,-0.302794583615,1.14100728333,-3.1016839617,0.267616701014,2.57272585041,0.00467097019622
0.22,-0.551140055748,1.0834480339,0.0522900652886,-0.0726929626798,-0.0998677419296,1.86336587783,-0.000296705988964,0.475963678672,-0.302794583615,1.14100728333,-3.1016839617,0.267616701014,2.57272585041,0.00467097019622
0.24,-0.551140055748,1.0834480339,0.0522726090999,-0.0727104147073,-0.0998677419296,1.86336587783,-0.000296705988964,0.475962237317,-0.302796927963,1.14101262465,-3.10166873413,0.267634392325,2.57272089694,0.00467208394565
0.26,-0.551140055748,1.0834480339,0.0522726090999,-0.0727104147073,-0.0998677419296,1.86336587783,-0.000296705988964,0.475962237317,-0.302796927963,1.14101262465,-3.10166873413,0.267634392325,2.57272089694,0.00467208394565
0.28,-0.551140055748,1.0834480339,0.0522726090999,-0.0727104147073,-0.0998677419296,1.86336587783,-0.000296705988964,0.475962237317,-0.302796927963,1.14101262465,-3.10166873413,0.267634392325,2.57272089694,0.00467208394565
0.3,-0.551140055748,1.0834480339,0.0523075173161,-0.0727104147073,-0.0998677419296,1.86336587783,-0.000314159251835,0.475964990252,-0.302792721393,1.14101235579,-3.10169592975,0.267633149455,2.57274687055,0.00467208402516
0.32,-0.551140055748,1.0834480339,0.0523075173161,-0.0727104147073,-0.0998677419296,1.86336587783,-0.000314159251835,0.475964990252,-0.302792721393,1.14101235579,-3.10169592975,0.267633149455,2.57274687055,0.00467208402516
0.34,-0.551140055748,1.08346547761,0.0523075173161,-0.0727278667348,-0.0998677419296,1.86336587783,-0.000314159251835,0.475966946672,-0.302794204649,1.14100772354,-3.10169637245,0.267633126345,2.57274594724,0.0046732428484
0.36,-0.551140055748,1.08346547761,0.0523075173161,-0.0727278667348,-0.0998677419296,1.86336587783,-0.000314159251835,0.475966946672,-0.302794204649,1.14100772354,-3.10169637245,0.267633126345,2.57274594724,0.0046732428484
0.38,-0.551140055748,1.08346547761,0.0523075173161,-0.0727278667348,-0.0998677419296,1.86338332153,-0.000296705988964,0.47596453768,-0.302792663372,1.14100693932,-3.10170135047,0.267616392612,2.57272714275,0.00467321994839
0.4,-0.551140055748,1.08346547761,0.0523075173161,-0.0727278667348,-0.0998677419296,1.86338332153,-0.000296705988964,0.47596453768,-0.302792663372,1.14100693932,-3.10170135047,0.267616392612,2.57272714275,0.00467321994839
0.42,-0.551140055748,1.08346547761,0.0523075173161,-0.0727278667348,-0.0998677419296,1.86338332153,-0.000296705988964,0.47596453768,-0.302792663372,1.14100693932,-3.10170135047,0.267616392612,2.57272714275,0.00467321994839
0.44,-0.551140055748,1.08346547761,0.0522900652886,-0.0727278667348,-0.0998677419296,1.86338332153,-0.000314159251835,0.475963161433,-0.302794766336,1.14100707372,-3.10168058169,0.267615969591,2.57274128106,0.00467321990862
0.46,-0.551140055748,1.08346547761,0.0522900652886,-0.0727278667348,-0.0998677419296,1.86338332153,-0.000314159251835,0.475963161433,-0.302794766336,1.14100707372,-3.10168058169,0.267615969591,2.57274128106,0.00467321990862
0.48,-0.551140055748,1.08346547761,0.0522900652886,-0.0727278667348,-0.0998677419296,1.86338332153,-0.000314159251835,0.475963161433,-0.302794766336,1.14100707372,-3.10168058169,0.267615969591,2.57274128106,0.00467321990862
0.5,-0.551140055748,1.08346547761,0.0522900652886,-0.0727278667348,-0.0998677419296,1.86338332153,-0.000314159251835,0.475963161433,-0.302794766336,1.14100707372,-3.10168058169,0.267615969591,2.57274128106,0.00467321990862
0.52,-0.551122612043,1.08346547761,0.0523075173161,-0.0727278667348,-0.0998502899021,1.86334843412,-0.000314159251835,0.475976192381,-0.302785068249,1.14100839879,-3.10171150749,0.267650360702,2.57276932739,0.0046732657928
0.54,-0.551122612043,1.08346547761,0.0523075173161,-0.0727278667348,-0.0998502899021,1.86334843412,-0.000314159251835,0.475976192381,-0.302785068249,1.14100839879,-3.10171150749,0.267650360702,2.57276932739,0.0046732657928
0.56,-0.551122612043,1.08346547761,0.0523075173161,-0.0727278667348,-0.0998502899021,1.86334843412,-0.000314159251835,0.475976192381,-0.302785068249,1.14100839879,-3.10171150749,0.267650360702,2.57276932739,0.0046732657928
0.58,-0.551140055748,1.08346547761,0.0522900652886,-0.0727453270847,-0.0998677419296,1.86334843412,-0.000314159251835,0.475967914555,-0.302798089785,1.1410138516,-3.10168095224,0.267668255399,2.57274171631,0.00467438003506
0.6,-0.551140055748,1.08346547761,0.0522900652886,-0.0727453270847,-0.0998677419296,1.86334843412,-0.000314159251835,0.475967914555,-0.302798089785,1.1410138516,-3.10168095224,0.267668255399,2.57274171631,0.00467438003506
0.62,-0.551140055748,1.08346547761,0.0523075173161,-0.0727453270847,-0.0998502899021,1.86336587783,-0.000296705988964,0.475968436763,-0.302792070696,1.14101282386,-3.10171724933,0.267651052852,2.57273207081,0.00467435721706
0.64,-0.551140055748,1.08346547761,0.0523075173161,-0.0727453270847,-0.0998502899021,1.86336587783,-0.000296705988964,0.475968436763,-0.302792070696,1.14101282386,-3.10171724933,0.267651052852,2.57273207081,0.00467435721706
0.66,-0.551122612043,1.0834480339,0.0523075173161,-0.0727627791122,-0.0998502899021,1.86336587783,-0.000296705988964,0.475971632171,-0.302782766326,1.14102786983,-3.10171833307,0.267685911668,2.57274842166,0.00467542594373
0.68,-0.551122612043,1.0834480339,0.0523075173161,-0.0727627791122,-0.0998502899021,1.86336587783,-0.000296705988964,0.475971632171,-0.302782766326,1.14102786983,-3.10171833307,0.267685911668,2.57274842166,0.00467542594373
0.7,-0.551122612043,1.0834480339,0.0523075173161,-0.0727627791122,-0.0998502899021,1.86336587783,-0.000296705988964,0.475971632171,-0.302782766326,1.14102786983,-3.10171833307,0.267685911668,2.57274842166,0.00467542594373
0.72,-0.551122612043,1.08346547761,0.0523075173161,-0.0727627791122,-0.0998502899021,1.86336587783,-0.000296705988964,0.4759736536,-0.302784008799,1.14101803072,-3.10171801255,0.267668470702,2.57274850644,0.00467547100442
0.74,-0.551122612043,1.08346547761,0.0523075173161,-0.0727627791122,-0.0998502899021,1.86336587783,-0.000296705988964,0.4759736536,-0.302784008799,1.14101803072,-3.10171801255,0.267668470702,2.57274850644,0.00467547100442
0.76,-0.551122612043,1.0834480339,0.0523075173161,-0.0727627791122,-0.0998502899021,1.86334843412,-0.000314159251835,0.47597404115,-0.302784307522,1.14102865425,-3.10171335378,0.267702645709,2.57276722622,0.00467544885219
0.78,-0.551122612043,1.0834480339,0.0523075173161,-0.0727627791122,-0.0998502899021,1.86334843412,-0.000314159251835,0.47597404115,-0.302784307522,1.14102865425,-3.10171335378,0.267702645709,2.57276722622,0.00467544885219
0.8,-0.551105168338,1.0834480339,0.0523075173161,-0.0727627791122,-0.0998502899021,1.86336587783,-0.000296705988964,0.475976913752,-0.302774463571,1.14102786983,-3.10171833307,0.267685911668,2.57276586536,0.00467542594373
0.82,-0.551105168338,1.0834480339,0.0523075173161,-0.0727627791122,-0.0998502899021,1.86336587783,-0.000296705988964,0.475976913752,-0.302774463571,1.14102786983,-3.10171833307,0.267685911668,2.57276586536,0.00467542594373
0.84,-0.551105168338,1.0834480339,0.0523075173161,-0.0727627791122,-0.0998502899021,1.86336587783,-0.000296705988964,0.475976913752,-0.302774463571,1.14102786983,-3.10171833307,0.267685911668,2.57276586536,0.00467542594373
0.86,-0.551105168338,1.0834480339,0.0523075173161,-0.0727627791122,-0.0998328295522,1.86334843412,-0.000314159251835,0.475980878366,-0.302773628602,1.14102854523,-3.10172869212,0.267702450236,2.57278988748,0.00467544889806
0.88,-0.551105168338,1.0834480339,0.0523075173161,-0.0727627791122,-0.0998328295522,1.86334843412,-0.000314159251835,0.475980878366,-0.302773628602,1.14102854523,-3.10172869212,0.267702450236,2.57278988748,0.00467544889806
0.9,-0.551105168338,1.0834480339,0.0523075173161,-0.0727627791122,-0.0998328295522,1.86333099042,-0.000314159251835,0.475983287369,-0.302775169735,1.1410293297,-3.10172849596,0.267719880082,2.57279060835,0.0046754718051
0.92,-0.551105168338,1.0834480339,0.0523075173161,-0.0727627791122,-0.0998328295522,1.86333099042,-0.000314159251835,0.475983287369,-0.302775169735,1.1410293297,-3.10172849596,0.267719880082,2.57279060835,0.0046754718051
0.94,-0.551122612043,1.0834480339,0.0523075173161,-0.0727627791122,-0.0998328295522,1.86333099042,-0.000314159251835,0.475978005776,-0.302783472601,1.1410293297,-3.10172849596,0.267719880082,2.57277316465,0.0046754718051
0.96,-0.551122612043,1.0834480339,0.0523075173161,-0.0727627791122,-0.0998328295522,1.86333099042,-0.000314159251835,0.475978005776,-0.302783472601,1.1410293297,-3.10172849596,0.267719880082,2.57277316465,0.0046754718051
0.98,-0.551122612043,1.0834480339,0.0523075173161,-0.0727627791122,-0.0998328295522,1.86333099042,-0.000314159251835,0.475978005776,-0.302783472601,1.1410293297,-3.10172849596,0.267719880082,2.57277316465,0.0046754718051
1.0,-0.551122612043,1.0834480339,0.0523075173161,-0.0727627791122,-0.0998502899021,1.86333099042,-0.000314159251835,0.475976450118,-0.30278584871,1.14102943872,-3.10171315754,0.267720075544,2.57276794736,0.00467547175923
1.02,-0.551122612043,1.0834480339,0.0523075173161,-0.0727627791122,-0.0998502899021,1.86333099042,-0.000314159251835,0.475976450118,-0.30278584871,1.14102943872,-3.10171315754,0.267720075544,2.57276794736,0.00467547175923
1.04,-0.551105168338,1.0834305902,0.0523075173161,-0.0727802311397,-0.0998328295522,1.86333099042,-0.000314159251835,0.475981200592,-0.302774167848,1.14104437583,-3.10172957888,0.267754738923,2.57278951564,0.00467654051336
1.06,-0.551105168338,1.0834305902,0.0523075173161,-0.0727802311397,-0.0998328295522,1.86333099042,-0.000314159251835,0.475981200592,-0.302774167848,1.14104437583,-3.10172957888,0.267754738923,2.57278951564,0.00467654051336
1.08,-0.551105168338,1.0834305902,0.0523075173161,-0.0727802311397,-0.0998153775247,1.86333099042,-0.000314159251835,0.475982755451,-0.302771792832,1.14104426691,-3.1017449098,0.267754543636,2.57279473049,0.00467654055922
1.1,-0.551105168338,1.0834305902,0.0523075173161,-0.0727802311397,-0.0998153775247,1.86333099042,-0.000314159251835,0.475982755451,-0.302771792832,1.14104426691,-3.1017449098,0.267754543636,2.57279473049,0.00467654055922
1.12,-0.551105168338,1.0834305902,0.0523075173161,-0.0727802311397,-0.0998153775247,1.86333099042,-0.000314159251835,0.475982755451,-0.302771792832,1.14104426691,-3.1017449098,0.267754543636,2.57279473049,0.00467654055922
1.14,-0.551105168338,1.0834305902,0.0523075173161,-0.0727802311397,-0.0998153775247,1.86333099042,-0.000314159251835,0.475982755451,-0.302771792832,1.14104426691,-3.1017449098,0.267754543636,2.57279473049,0.00467654055922
1.16,-0.551105168338,1.0834305902,0.0523075173161,-0.0727802311397,-0.0998153775247,1.86333099042,-0.000314159251835,0.475982755451,-0.302771792832,1.14104426691,-3.1017449098,0.267754543636,2.57279473049,0.00467654055922
1.18,-0.551087724633,1.08339570279,0.0523249693436,-0.0728151351948,-0.0997979254972,1.86329610301,-0.000331612547216,0.475991610729,-0.302760089674,1.14107568568,-3.10177321496,0.267857958404,2.57283867058,0.00467872381607
1.2,-0.551087724633,1.08339570279,0.0523249693436,-0.0728151351948,-0.0997979254972,1.86329610301,-0.000331612547216,0.475991610729,-0.302760089674,1.14107568568,-3.10177321496,0.267857958404,2.57283867058,0.00467872381607
1.22,-0.551070247638,1.0833607488,0.0523249693436,-0.0728849516272,-0.0995535804672,1.86324363873,-0.000314159251835,0.476021597486,-0.302721620039,1.14111707493,-3.10199574375,0.268012981375,2.57290902214,0.00468315846364
1.24,-0.551070247638,1.0833607488,0.0523249693436,-0.0728849516272,-0.0995535804672,1.86324363873,-0.000314159251835,0.476021597486,-0.302721620039,1.14111707493,-3.10199574375,0.268012981375,2.57290902214,0.00468315846364
1.26,-0.551070247638,1.0833607488,0.0523249693436,-0.0728849516272,-0.0995535804672,1.86324363873,-0.000314159251835,0.476021597486,-0.302721620039,1.14111707493,-3.10199574375,0.268012981375,2.57290902214,0.00468315846364
1.28,-0.551070247638,1.08334330509,0.0523249693436,-0.0730071241422,-0.0995012243846,1.86320875132,-0.000314159251835,0.476028591154,-0.302718012288,1.14116461472,-3.10204699325,0.268186634805,2.57291895211,0.00469095579781
1.3,-0.551070247638,1.08334330509,0.0523249693436,-0.0730071241422,-0.0995012243846,1.86320875132,-0.000314159251835,0.476028591154,-0.302718012288,1.14116461472,-3.10204699325,0.268186634805,2.57291895211,0.00469095579781
1.32,-0.551052803933,1.08334330509,0.0523424255323,-0.0730245761698,-0.0992045149497,1.8629992937,-0.000331612547216,0.476090530772,-0.302685952266,1.14117729816,-3.1023172497,0.268409112396,2.57305457782,0.00469234602865
1.34,-0.551052803933,1.08334330509,0.0523424255323,-0.0730245761698,-0.0992045149497,1.8629992937,-0.000331612547216,0.476090530772,-0.302685952266,1.14117729816,-3.1023172497,0.268409112396,2.57305457782,0.00469234602865
1.36,-0.551052803933,1.08332586139,0.0523424255323,-0.0731118446297,-0.0970926698171,1.86298185,-0.000331612547216,0.476278494366,-0.302399829379,1.14120129071,-3.10417623881,0.26850843283,2.57368064286,0.00469789842823
1.38,-0.551052803933,1.08332586139,0.0523424255323,-0.0731118446297,-0.0970926698171,1.86298185,-0.000331612547216,0.476278494366,-0.302399829379,1.14120129071,-3.10417623881,0.26850843283,2.57368064286,0.00469789842823
1.4,-0.551052803933,1.08332586139,0.0523424255323,-0.0731118446297,-0.0970926698171,1.86298185,-0.000331612547216,0.476278494366,-0.302399829379,1.14120129071,-3.10417623881,0.26850843283,2.57368064286,0.00469789842823
1.42,-0.551070247638,1.0833607488,0.0523424255323,-0.0731118446297,-0.0940732443522,1.86298185,-0.000331612547216,0.476545404934,-0.301999007223,1.14116455239,-3.10682796452,0.268443126014,2.57456485229,0.00469799668448
1.44,-0.551070247638,1.0833607488,0.0523424255323,-0.0731118446297,-0.0940732443522,1.86298185,-0.000331612547216,0.476545404934,-0.301999007223,1.14116455239,-3.10682796452,0.268443126014,2.57456485229,0.00469799668448
1.46,-0.551035360228,1.08332586139,0.0523424255323,-0.0731991047673,-0.0910538272097,1.86298185,-0.000331612547216,0.476819047299,-0.301569005149,1.14119447813,-3.10948442219,0.268536989251,2.57549617445,0.00470348210515
1.48,-0.551035360228,1.08332586139,0.0523424255323,-0.0731991047673,-0.0910538272097,1.86298185,-0.000331612547216,0.476819047299,-0.301569005149,1.14119447813,-3.10948442219,0.268536989251,2.57549617445,0.00470348210515
1.5,-0.551087724633,1.08334330509,0.0523424255323,-0.0731467486848,-0.0881042181772,1.86301673741,-0.000331612547216,0.477061351839,-0.301188435171,1.14115321441,-3.11207326815,0.268407175304,2.57632660027,0.00470014732693
1.52,-0.551087724633,1.08334330509,0.0523424255323,-0.0731467486848,-0.0881042181772,1.86301673741,-0.000331612547216,0.477061351839,-0.301188435171,1.14115321441,-3.11207326815,0.268407175304,2.57632660027,0.00470014732693
1.54,-0.551087724633,1.08334330509,0.0523424255323,-0.0731467486848,-0.0881042181772,1.86301673741,-0.000331612547216,0.477061351839,-0.301188435171,1.14115321441,-3.11207326815,0.268407175304,2.57632660027,0.00470014732693
1.56,-0.551070247638,1.08337825908,0.0523424255323,-0.0731467486848,-0.0860098250722,1.86301673741,-0.000331612547216,0.477255403854,-0.300896172865,1.14112412437,-3.11391250132,0.268355636136,2.57696972646,0.00470024298344
1.58,-0.551070247638,1.08337825908,0.0523424255323,-0.0731467486848,-0.0860098250722,1.86301673741,-0.000331612547216,0.477255403854,-0.300896172865,1.14112412437,-3.11391250132,0.268355636136,2.57696972646,0.00470024298344
1.6,-0.551017883233,1.08339570279,0.0523249693436,-0.0731467486848,-0.0856258554997,1.86301673741,-0.000331612547216,0.477305653494,-0.300822002976,1.1411127297,-3.11423354879,0.26833548041,2.57713290031,0.00470028913571
1.62,-0.551017883233,1.08339570279,0.0523249693436,-0.0731467486848,-0.0856258554997,1.86301673741,-0.000331612547216,0.477305653494,-0.300822002976,1.1411127297,-3.11423354879,0.26833548041,2.57713290031,0.00470028913571
1.64,-0.551070247638,1.08341314649,0.0523424255323,-0.0730943926022,-0.0856607595547,1.86303431427,-0.000331612547216,0.477287967997,-0.300848635319,1.14108651773,-3.11421671818,0.268248262299,2.57707657757,0.00469696992068
1.66,-0.551070247638,1.08341314649,0.0523424255323,-0.0730943926022,-0.0856607595547,1.86303431427,-0.000331612547216,0.477287967997,-0.300848635319,1.14108651773,-3.11421671818,0.268248262299,2.57707657757,0.00469696992068
1.68,-0.551070247638,1.08341314649,0.0523424255323,-0.0730943926022,-0.0856607595547,1.86303431427,-0.000331612547216,0.477287967997,-0.300848635319,1.14108651773,-3.11421671818,0.268248262299,2.57707657757,0.00469696992068
1.7,-0.551122612043,1.0834305902,0.0523249693436,-0.0730769322523,-0.0856782115822,1.86308664539,-0.000331612547216,0.477264156322,-0.300874538132,1.14106928059,-3.11418487471,0.268161419205,2.57701463088,0.00469583187642
1.72,-0.551122612043,1.0834305902,0.0523249693436,-0.0730769322523,-0.0856782115822,1.86308664539,-0.000331612547216,0.477264156322,-0.300874538132,1.14106928059,-3.11418487471,0.268161419205,2.57701463088,0.00469583187642
1.74,-0.551140055748,1.08353531901,0.0523249693436,-0.0730071241422,-0.0856782115822,1.86308664539,-0.000331612547216,0.477271299396,-0.300889356481,1.14098935847,-3.11418066828,0.267987016612,2.57700152739,0.00469164819763
1.76,-0.551140055748,1.08353531901,0.0523249693436,-0.0730071241422,-0.0856782115822,1.86308664539,-0.000331612547216,0.477271299396,-0.300889356481,1.14098935847,-3.11418066828,0.267987016612,2.57700152739,0.00469164819763
1.78,-0.551140055748,1.08355276271,0.0523075173161,-0.0730071241422,-0.0856956636098,1.8631215328,-0.000331612547216,0.477265591435,-0.300892037715,1.1409781208,-3.11414937745,0.267935040077,2.57699144897,0.00469164741617
1.8,-0.551140055748,1.08355276271,0.0523075173161,-0.0730071241422,-0.0856956636098,1.8631215328,-0.000331612547216,0.477265591435,-0.300892037715,1.1409781208,-3.11414937745,0.267935040077,2.57699144897,0.00469164741617
1.82,-0.551140055748,1.08355276271,0.0523075173161,-0.0730071241422,-0.0856956636098,1.8631215328,-0.000331612547216,0.477265591435,-0.300892037715,1.1409781208,-3.11414937745,0.267935040077,2.57699144897,0.00469164741617
1.84,-0.551070247638,1.08358765012,0.0523075173161,-0.0730245761698,-0.0856782115822,1.86310408909,-0.000331612547216,0.477294526311,-0.300860588784,1.14096435832,-3.11416477107,0.267934881375,2.57706610772,0.00469287472974
1.86,-0.551070247638,1.08358765012,0.0523075173161,-0.0730245761698,-0.0856782115822,1.86310408909,-0.000331612547216,0.477294526311,-0.300860588784,1.14096435832,-3.11416477107,0.267934881375,2.57706610772,0.00469287472974
1.88,-0.551105168338,1.08381455145,0.0523075173161,-0.0730071241422,-0.0856782115822,1.86310408909,-0.000331612547216,0.477310352395,-0.300893160008,1.14083113467,-3.11416091927,0.267690579756,2.57703301262,0.00469234879029
1.9,-0.551105168338,1.08381455145,0.0523075173161,-0.0730071241422,-0.0856782115822,1.86310408909,-0.000331612547216,0.477310352395,-0.300893160008,1.14083113467,-3.11416091927,0.267690579756,2.57703301262,0.00469234879029
1.92,-0.551070247638,1.0851235617,0.0523075173161,-0.0731118446297,-0.0856782115822,1.8631389765,-0.000331612547216,0.477466759351,-0.300967751003,1.14012217351,-3.1141470441,0.266451347082,2.57706583457,0.00470237971912
1.94,-0.551070247638,1.0851235617,0.0523075173161,-0.0731118446297,-0.0856782115822,1.8631389765,-0.000331612547216,0.477466759351,-0.300967751003,1.14012217351,-3.1141470441,0.266451347082,2.57706583457,0.00470237971912
1.96,-0.551070247638,1.0851235617,0.0523075173161,-0.0731118446297,-0.0856782115822,1.8631389765,-0.000331612547216,0.477466759351,-0.300967751003,1.14012217351,-3.1141470441,0.266451347082,2.57706583457,0.00470237971912
1.98,-0.550982995823,1.08946944113,0.0523075173161,-0.0731118446297,-0.0856607595547,1.86308664539,-0.000331612547216,0.477997591716,-0.301232936351,1.13767044584,-3.11410145693,0.262158039252,2.57717559695,0.00471365331593
2.0,-0.550982995823,1.08946944113,0.0523075173161,-0.0731118446297,-0.0856607595547,1.86308664539,-0.000331612547216,0.477997591716,-0.301232936351,1.13767044584,-3.11410145693,0.262158039252,2.57717559695,0.00471365331593
2.02,-0.551070247638,1.09608420064,0.0522726090999,-0.0730943926022,-0.0856956636098,1.86301673741,-0.000331612547216,0.478712369037,-0.301742551597,1.13392863032,-3.11394552954,0.255597019073,2.577096596,0.00472950758609
2.04,-0.551070247638,1.09608420064,0.0522726090999,-0.0730943926022,-0.0856956636098,1.86301673741,-0.000331612547216,0.478712369037,-0.301742551597,1.13392863032,-3.11394552954,0.255597019073,2.577096596,0.00472950758609
2.06,-0.551070247638,1.10369385056,0.0522726090999,-0.0731118446297,-0.0856956636098,1.86285974406,-0.000314159251835,0.479556146725,-0.302261817289,1.12963086926,-3.11384407355,0.248162891911,2.57710837077,0.00475000601043
2.08,-0.551070247638,1.10369385056,0.0522726090999,-0.0731118446297,-0.0856956636098,1.86285974406,-0.000314159251835,0.479556146725,-0.302261817289,1.12963086926,-3.11384407355,0.248162891911,2.57710837077,0.00475000601043
2.1,-0.551070247638,1.10369385056,0.0522726090999,-0.0731118446297,-0.0856956636098,1.86285974406,-0.000314159251835,0.479556146725,-0.302261817289,1.12963086926,-3.11384407355,0.248162891911,2.57710837077,0.00475000601043
2.12,-0.551017883233,1.11175730313,0.0522900652886,-0.0731292966572,-0.0856956636098,1.86287718777,-0.000331612547216,0.480411464641,-0.302749862622,1.12506066915,-3.11374533937,0.240099452195,2.57720804273,0.00477112609396
2.14,-0.551017883233,1.11175730313,0.0522900652886,-0.0731292966572,-0.0856956636098,1.86287718777,-0.000331612547216,0.480411464641,-0.302749862622,1.12506066915,-3.11374533937,0.240099452195,2.57720804273,0.00477112609396
2.16,-0.550982995823,1.11912260802,0.0523075173161,-0.0730943926022,-0.0856607595547,1.86282485665,-0.000331612547216,0.481173868331,-0.303185040598,1.12086672395,-3.11368968599,0.232751793304,2.57728428965,0.00478693746984
2.18,-0.550982995823,1.11912260802,0.0523075173161,-0.0730943926022,-0.0856607595547,1.86282485665,-0.000331612547216,0.481173868331,-0.303185040598,1.12086672395,-3.11368968599,0.232751793304,2.57728428965,0.00478693746984
2.2,-0.551070247638,1.12601659998,0.0523075173161,-0.0731292966572,-0.0856258554997,1.86265028644,-0.000331612547216,0.48184418119,-0.303649600073,1.11696035751,-3.11362664961,0.226067487093,2.57723184354,0.00480607009892
2.22,-0.551070247638,1.12601659998,0.0523075173161,-0.0731292966572,-0.0856258554997,1.86265028644,-0.000331612547216,0.48184418119,-0.303649600073,1.11696035751,-3.11362664961,0.226067487093,2.57723184354,0.00480607009892
2.24,-0.551070247638,1.12601659998,0.0523075173161,-0.0731292966572,-0.0856258554997,1.86265028644,-0.000331612547216,0.48184418119,-0.303649600073,1.11696035751,-3.11362664961,0.226067487093,2.57723184354,0.00480607009892
2.26,-0.551017883233,1.13216011314,0.0523075173161,-0.0731118446297,-0.0855909431223,1.86087009641,-0.000296705988964,0.482689322758,-0.304131698752,1.11352043061,-3.1135696217,0.221687292876,2.57732932037,0.00482194577076
2.28,-0.551017883233,1.13216011314,0.0523075173161,-0.0731118446297,-0.0855909431223,1.86087009641,-0.000296705988964,0.482689322758,-0.304131698752,1.11352043061,-3.1135696217,0.221687292876,2.57732932037,0.00482194577076
2.3,-0.551000439528,1.13793717533,0.0523075173161,-0.0730769322523,-0.0855385870397,1.85453456934,-0.000314159251835,0.48411315121,-0.305000933276,1.11044635518,-3.11349150099,0.222208019298,2.57758111428,0.00484165978412
2.32,-0.551000439528,1.13793717533,0.0523075173161,-0.0730769322523,-0.0855385870397,1.85453456934,-0.000314159251835,0.48411315121,-0.305000933276,1.11044635518,-3.11349150099,0.222208019298,2.57758111428,0.00484165978412
2.34,-0.551070247638,1.14308599783,0.0523075173161,-0.0730420281973,-0.0855036829847,1.84570312769,-0.000331612547216,0.48578827121,-0.306092715607,1.10781825596,-3.11339023491,0.225851969547,2.57781104768,0.00486278270201
2.36,-0.551070247638,1.14308599783,0.0523075173161,-0.0730420281973,-0.0855036829847,1.84570312769,-0.000331612547216,0.48578827121,-0.306092715607,1.10781825596,-3.11339023491,0.225851969547,2.57781104768,0.00486278270201
2.38,-0.551070247638,1.14308599783,0.0523075173161,-0.0730420281973,-0.0855036829847,1.84570312769,-0.000331612547216,0.48578827121,-0.306092715607,1.10781825596,-3.11339023491,0.225851969547,2.57781104768,0.00486278270201
2.4,-0.551017883233,1.14804267325,0.0523075173161,-0.0730245761698,-0.0854687706073,1.83957705823,-0.000331612547216,0.487093547474,-0.306867963193,1.10519703858,-3.11331507312,0.227001639157,2.57806590455,0.00488079597022
2.42,-0.551017883233,1.14804267325,0.0523075173161,-0.0730245761698,-0.0854687706073,1.83957705823,-0.000331612547216,0.487093547474,-0.306867963193,1.10519703858,-3.11331507312,0.227001639157,2.57806590455,0.00488079597022
2.44,-0.550982995823,1.15437820032,0.0523075173161,-0.0730071241422,-0.0853989624972,1.83739539667,-0.000331612547216,0.48794701071,-0.307360529616,1.10162392519,-3.11328175726,0.222829469722,2.5782020676,0.00489682068515
2.46,-0.550982995823,1.15437820032,0.0523075173161,-0.0730071241422,-0.0853989624972,1.83739539667,-0.000331612547216,0.48794701071,-0.307360529616,1.10162392519,-3.11328175726,0.222829469722,2.5782020676,0.00489682068515
2.48,-0.551000439528,1.16193545255,0.0523075173161,-0.0730420281973,-0.0853465980923,1.83725571387,-0.000349065842597,0.48857453154,-0.307748779654,1.09727870483,-3.11322973024,0.215446399827,2.57823958303,0.00491634227231
2.5,-0.551000439528,1.16193545255,0.0523075173161,-0.0730420281973,-0.0853465980923,1.83725571387,-0.000349065842597,0.48857453154,-0.307748779654,1.09727870483,-3.11322973024,0.215446399827,2.57823958303,0.00491634227231
2.52,-0.550982995823,1.17053999287,0.0522900652886,-0.0730943926022,-0.0845437465698,1.83708127682,-0.000349065842597,0.48857453154,-0.307748779654,1.09727870483,-3.11322973024,0.215446399827,2.57823958303,0.00491634227231
2.54,-0.550982995823,1.17053999287,0.0522900652886,-0.0730943926022,-0.0845437465698,1.83708127682,-0.000349065842597,0.489333238072,-0.308052946715,1.09232558144,-3.11383554166,0.207063684592,2.57849436018,0.00493911869674
2.56,-0.550982995823,1.17053999287,0.0522900652886,-0.0730943926022,-0.0845437465698,1.83708127682,-0.000349065842597,0.489333238072,-0.308052946715,1.09232558144,-3.11383554166,0.207063684592,2.57849436018,0.00493911869674
2.58,-0.550982995823,1.17949354046,0.0522726090999,-0.0730420281973,-0.0800757029523,1.83713360793,-0.000349065842597,0.490363887427,-0.307828554191,1.08710936129,-3.11778170221,0.197977511152,2.57971363734,0.00495496760851
2.6,-0.550982995823,1.17949354046,0.0522726090999,-0.0730420281973,-0.0800757029523,1.83713360793,-0.000349065842597,0.490363887427,-0.307828554191,1.08710936129,-3.11778170221,0.197977511152,2.57971363734,0.00495496760851
2.62,-0.551017883233,1.18811539133,0.0522377050448,-0.0731118446297,-0.0746128271872,1.83715105164,-0.000349065842597,0.491414349815,-0.307453576516,1.08211656039,-3.12264998655,0.18937979972,2.58114991853,0.00497801464652
2.64,-0.551017883233,1.18811539133,0.0522377050448,-0.0731118446297,-0.0746128271872,1.83715105164,-0.000349065842597,0.491414349815,-0.307453576516,1.08211656039,-3.12264998655,0.18937979972,2.58114991853,0.00497801464652
2.66,-0.550982995823,1.19689450186,0.0522027968286,-0.0730594802248,-0.0700226110548,1.83720338275,-0.000349065842597,0.491414349815,-0.307453576516,1.08211656039,-3.12264998655,0.18937979972,2.58114991853,0.00497801464652
2.68,-0.550982995823,1.19689450186,0.0522027968286,-0.0730594802248,-0.0700226110548,1.83720338275,-0.000349065842597,0.4923733141,-0.307140688027,1.07699515033,-3.12673933693,0.180477835915,2.58242351636,0.00499269882576
2.7,-0.550982995823,1.19689450186,0.0522027968286,-0.0730594802248,-0.0700226110548,1.83720338275,-0.000349065842597,0.4923733141,-0.307140688027,1.07699515033,-3.12673933693,0.180477835915,2.58242351636,0.00499269882576
2.72,-0.551070247638,1.20459130373,0.0521853448011,-0.0733387376322,-0.0677711330573,1.83715105164,-0.000349065842597,0.493014093744,-0.307168191452,1.07260699868,-3.12873476128,0.173105100861,2.58293155032,0.00502753771514
2.74,-0.551070247638,1.20459130373,0.0521853448011,-0.0733387376322,-0.0677711330573,1.83715105164,-0.000349065842597,0.493014093744,-0.307168191452,1.07260699868,-3.12873476128,0.173105100861,2.58293155032,0.00502753771514
2.76,-0.550982995823,1.21270715399,0.0521678927736,-0.0735830826622,-0.0677536810298,1.83713360793,-0.000349065842597,0.493501700502,-0.307411943254,1.06796442353,-3.1286781703,0.165250968476,2.58301781376,0.0050606030004
2.78,-0.550982995823,1.21270715399,0.0521678927736,-0.0735830826622,-0.0677536810298,1.83713360793,-0.000349065842597,0.493501700502,-0.307411943254,1.06796442353,-3.1286781703,0.165250968476,2.58301781376,0.0050606030004
2.8,-0.550948075123,1.21904268107,0.0521853448011,-0.0742463096422,-0.0677187769748,1.83709872052,-0.000349065842597,0.493501700502,-0.307411943254,1.06796442353,-3.1286781703,0.165250968476,2.58301781376,0.0050606030004
2.82,-0.550948075123,1.21904268107,0.0521853448011,-0.0742463096422,-0.0677187769748,1.83709872052,-0.000349065842597,0.493871620749,-0.307616594422,1.06447925244,-3.12869533015,0.159612491609,2.58303854338,0.00511871199145
2.84,-0.550948075123,1.21904268107,0.0521853448011,-0.0742463096422,-0.0677187769748,1.83709872052,-0.000349065842597,0.493871620749,-0.307616594422,1.06447925244,-3.12869533015,0.159612491609,2.58303854338,0.00511871199145
2.86,-0.550982995823,1.22410415188,0.0512428687361,-0.0761312617723,-0.0677536810298,1.83720338275,-0.000349065842597,0.494079321575,-0.307964832864,1.06209876199,-3.1277754686,0.156335610378,2.58271854982,0.00525813578783
2.88,-0.550982995823,1.22410415188,0.0512428687361,-0.0761312617723,-0.0677536810298,1.83720338275,-0.000349065842597,0.494079321575,-0.307964832864,1.06209876199,-3.1277754686,0.156335610378,2.58271854982,0.00525813578783
2.9,-0.550982995823,1.22818824257,0.0507890827311,-0.0803200563047,-0.067788589246,1.8375000589,-0.000349065842597,0.494325407447,-0.308265722254,1.06096894034,-3.12738551334,0.156141187597,2.582406455,0.00555418210369
2.92,-0.550982995823,1.22818824257,0.0507890827311,-0.0803200563047,-0.067788589246,1.8375000589,-0.000349065842597,0.494325407447,-0.308265722254,1.06096894034,-3.12738551334,0.156141187597,2.582406455,0.00555418210369
2.94,-0.550982995823,1.23286568555,0.0506669102161,-0.0876678841998,-0.0677711330573,1.8393327132,-0.000349065842597,0.494325407447,-0.308265722254,1.06096894034,-3.12738551334,0.156141187597,2.582406455,0.00555418210369
2.96,-0.550982995823,1.23286568555,0.0506669102161,-0.0876678841998,-0.0677711330573,1.8393327132,-0.000349065842597,0.49450328149,-0.308505990584,1.06039551127,-3.12743831491,0.156969419518,2.58198784442,0.00606730361755
2.98,-0.550982995823,1.23286568555,0.0506669102161,-0.0876678841998,-0.0677711330573,1.8393327132,-0.000349065842597,0.49450328149,-0.308505990584,1.06039551127,-3.12743831491,0.156969419518,2.58198784442,0.00606730361755
3.0,-0.551017883233,1.23775258615,0.0503876569698,-0.0951029888772,-0.0677711330573,1.84463852904,-0.000349065842597,0.494168788172,-0.308478766333,1.05963207822,-3.12733303416,0.15420399755,2.58144857363,0.00658180038746
3.02,-0.551017883233,1.23775258615,0.0503876569698,-0.0951029888772,-0.0677711330573,1.84463852904,-0.000349065842597,0.494168788172,-0.308478766333,1.05963207822,-3.12733303416,0.15420399755,2.58144857363,0.00658180038746
3.04,-0.550948075123,1.2463221059,0.0503527487536,-0.10908307825,-0.0677187769748,1.853068366,-0.000349065842597,0.493795214714,-0.308402560234,1.05858937213,-3.12765093749,0.151165555375,2.58069740672,0.00754957827321
3.06,-0.550948075123,1.2463221059,0.0503527487536,-0.10908307825,-0.0677187769748,1.853068366,-0.000349065842597,0.493795214714,-0.308402560234,1.05858937213,-3.12765093749,0.151165555375,2.58069740672,0.00754957827321
3.08,-0.550913187713,1.26023246207,0.0502829364823,-0.133552593497,-0.0677187769748,1.86519839897,-0.000366519137977,0.493372454878,-0.308492655554,1.05744170728,-3.12811277698,0.149560630556,2.57932559018,0.0092435550892
3.1,-0.550913187713,1.26023246207,0.0502829364823,-0.133552593497,-0.0677187769748,1.86519839897,-0.000366519137977,0.493372454878,-0.308492655554,1.05744170728,-3.12811277698,0.149560630556,2.57932559018,0.0092435550892
3.12,-0.550913187713,1.26023246207,0.0502829364823,-0.133552593497,-0.0677187769748,1.86519839897,-0.000366519137977,0.493372454878,-0.308492655554,1.05744170728,-3.12811277698,0.149560630556,2.57932559018,0.0092435550892
3.14,-0.550982995823,1.27677814929,0.0502480282661,-0.164043499324,-0.0677536810298,1.87785214258,-0.000366519137977,0.493025855887,-0.308794716235,1.05648749711,-3.12871035687,0.15080861319,2.57751404438,0.0113534949648
3.16,-0.550982995823,1.27677814929,0.0502480282661,-0.164043499324,-0.0677536810298,1.87785214258,-0.000366519137977,0.493025855887,-0.308794716235,1.05648749711,-3.12871035687,0.15080861319,2.57751404438,0.0113534949648
3.18,-0.550948075123,1.29531361731,0.0502829364823,-0.198566106469,-0.0676838687585,1.89061041525,-0.000366519137977,0.492762678576,-0.309109927233,1.05550284978,-3.12955598696,0.153985736357,2.57564065584,0.0137388183581
3.2,-0.550948075123,1.29531361731,0.0502829364823,-0.198566106469,-0.0676838687585,1.89061041525,-0.000366519137977,0.492762678576,-0.309109927233,1.05550284978,-3.12955598696,0.153985736357,2.57564065584,0.0137388183581
3.22,-0.550965552118,1.31325559989,0.0503178405374,-0.230278745769,-0.0676140564873,1.90294990585,-0.000366519137977,0.492331119058,-0.309312637263,1.05399576783,-3.13032529655,0.155368461538,2.57386659692,0.0159216857686
3.24,-0.550965552118,1.31325559989,0.0503178405374,-0.230278745769,-0.0676140564873,1.90294990585,-0.000366519137977,0.492331119058,-0.309312637263,1.05399576783,-3.13032529655,0.155368461538,2.57386659692,0.0159216857686
3.26,-0.550965552118,1.31325559989,0.0503178405374,-0.230278745769,-0.0676140564873,1.90294990585,-0.000366519137977,0.492331119058,-0.309312637263,1.05399576783,-3.13032529655,0.155368461538,2.57386659692,0.0159216857686
3.28,-0.550948075123,1.32955694209,0.0503702007811,-0.257872390324,-0.0674744277835,1.91342185473,-0.000366519137977,0.491939722157,-0.309439556551,1.05224893343,-3.13106925885,0.156145409539,2.57238995886,0.0178152418864
3.3,-0.550948075123,1.32955694209,0.0503702007811,-0.257872390324,-0.0674744277835,1.91342185473,-0.000366519137977,0.491939722157,-0.309439556551,1.05224893343,-3.13106925885,0.156145409539,2.57238995886,0.0178152418864
3.32,-0.550878267013,1.34329259488,0.0504051089973,-0.280230060439,-0.0670730020223,1.91862300834,-0.000366519137977,0.492079633546,-0.309744209569,1.05058720535,-3.1318982971,0.159529860164,2.57138419115,0.0193616135693
3.34,-0.550878267013,1.34329259488,0.0504051089973,-0.280230060439,-0.0670730020223,1.91862300834,-0.000366519137977,0.492079633546,-0.309744209569,1.05058720535,-3.1318982971,0.159529860164,2.57138419115,0.0193616135693
3.36,-0.550860823308,1.35325854315,0.0503876569698,-0.295606420204,-0.066549403746,1.92019374075,-0.000366519137977,0.492451400433,-0.310110089516,1.04918481976,-3.13262746009,0.163344533063,2.57076635227,0.0204360092788
3.38,-0.550860823308,1.35325854315,0.0503876569698,-0.295606420204,-0.066549403746,1.92019374075,-0.000366519137977,0.492451400433,-0.310110089516,1.04918481976,-3.13262746009,0.163344533063,2.57076635227,0.0204360092788
3.4,-0.550860823308,1.35325854315,0.0503876569698,-0.295606420204,-0.066549403746,1.92019374075,-0.000366519137977,0.492451400433,-0.310110089516,1.04918481976,-3.13262746009,0.163344533063,2.57076635227,0.0204360092788
3.42,-0.550878267013,1.35973361987,0.0504051089973,-0.303617475079,-0.066305058716,1.92038575466,-0.000366519137977,0.49275833624,-0.310394019158,1.0477213451,-3.13297891995,0.164675302602,2.570419284,0.0210061976289
3.44,-0.550878267013,1.35973361987,0.0504051089973,-0.303617475079,-0.066305058716,1.92038575466,-0.000366519137977,0.49275833624,-0.310394019158,1.0477213451,-3.13297891995,0.164675302602,2.570419284,0.0210061976289
3.46,-0.550878267013,1.36383515427,0.0504051089973,-0.307282683819,-0.0660432574973,1.92089188843,-0.000366519137977,0.492891637758,-0.310485139966,1.04637558255,-3.13324063061,0.163726847102,2.57032037623,0.0212713668754
3.48,-0.550878267013,1.36383515427,0.0504051089973,-0.307282683819,-0.0660432574973,1.92089188843,-0.000366519137977,0.492891637758,-0.310485139966,1.04637558255,-3.13324063061,0.163726847102,2.57032037623,0.0212713668754
3.5,-0.550860823308,1.36673240722,0.0504225610249,-0.308504408969,-0.0646295433998,1.92260230364,-0.000366519137977,0.492891188166,-0.310219727503,1.04499165173,-3.13448725746,0.160335876894,2.57076086525,0.0213599326092
3.52,-0.550860823308,1.36673240722,0.0504225610249,-0.308504408969,-0.0646295433998,1.92260230364,-0.000366519137977,0.492891188166,-0.310219727503,1.04499165173,-3.13448725746,0.160335876894,2.57076086525,0.0213599326092
3.54,-0.550860823308,1.36673240722,0.0504225610249,-0.308504408969,-0.0646295433998,1.92260230364,-0.000366519137977,0.492891188166,-0.310219727503,1.04499165173,-3.13448725746,0.160335876894,2.57076086525,0.0213599326092
3.56,-0.550843379603,1.36809381517,0.0504400172136,-0.308085527019,-0.062273349076,1.92604057776,-0.000366519137977,0.492656378624,-0.309600652475,1.04398446267,-3.1365503402,0.155113855975,2.57161083779,0.0213200395428
3.58,-0.550843379603,1.36809381517,0.0504400172136,-0.308085527019,-0.062273349076,1.92604057776,-0.000366519137977,0.492656378624,-0.309600652475,1.04398446267,-3.1365503402,0.155113855975,2.57161083779,0.0213200395428
3.6,-0.550878267013,1.36839049131,0.0504400172136,-0.307544472554,-0.0595331810186,1.93036901348,-0.000366519137977,0.492272843778,-0.308851695872,1.0435431378,-3.13895278812,0.149945919936,2.57255899183,0.0212601466087
3.62,-0.550878267013,1.36839049131,0.0504400172136,-0.307544472554,-0.0595331810186,1.93036901348,-0.000366519137977,0.492272843778,-0.308851695872,1.0435431378,-3.13895278812,0.149945919936,2.57255899183,0.0212601466087
3.64,-0.550878267013,1.36837304761,0.0504225610249,-0.307317571229,-0.0564264954161,1.93572716044,-0.000349065842597,0.491775972754,-0.307945858998,1.04335421531,3.14150845342,0.144378643009,2.57365852225,0.0212126323625
3.66,-0.550878267013,1.36837304761,0.0504225610249,-0.307317571229,-0.0564264954161,1.93572716044,-0.000349065842597,0.491775972754,-0.307945858998,1.04335421531,3.14150845342,0.144378643009,2.57365852225,0.0212126323625
3.68,-0.550878267013,1.36837304761,0.0504225610249,-0.307317571229,-0.0564264954161,1.93572716044,-0.000349065842597,0.491775972754,-0.307945858998,1.04335421531,3.14150845342,0.144378643009,2.57365852225,0.0212126323625
3.7,-0.550878267013,1.36839049131,0.0504051089973,-0.307003418089,-0.0543146461223,1.93797872998,-0.000366519137977,0.491633139483,-0.307453668605,1.04320018111,3.13967351868,0.14179774196,2.57445786028,0.0211781568142
3.72,-0.550878267013,1.36839049131,0.0504051089973,-0.307003418089,-0.0543146461223,1.93797872998,-0.000366519137977,0.491633139483,-0.307453668605,1.04320018111,3.13967351868,0.14179774196,2.57445786028,0.0211781568142
3.74,-0.550878267013,1.36840793502,0.0504051089973,-0.305729328534,-0.0543670063661,1.937908822,-0.000349065842597,0.49162450323,-0.307437575749,1.04282791772,3.13975143484,0.140578028777,2.57448880952,0.0210941463164
3.76,-0.550878267013,1.36840793502,0.0504051089973,-0.305729328534,-0.0543670063661,1.937908822,-0.000349065842597,0.49162450323,-0.307437575749,1.04282791772,3.13975143484,0.140578028777,2.57448880952,0.0210941463164
3.78,-0.550913187713,1.36842537872,0.0504051089973,-0.302395749929,-0.0543670063661,1.93783904718,-0.000349065842597,0.49158398161,-0.307382371663,1.04186770501,3.13984005654,0.137301995571,2.57463056537,0.0208732540955
3.8,-0.550913187713,1.36842537872,0.0504051089973,-0.302395749929,-0.0543670063661,1.93783904718,-0.000349065842597,0.49158398161,-0.307382371663,1.04186770501,3.13984005654,0.137301995571,2.57463056537,0.0208732540955
3.82,-0.550913187713,1.36842537872,0.0504051089973,-0.302395749929,-0.0543670063661,1.93783904718,-0.000349065842597,0.49158398161,-0.307382371663,1.04186770501,3.13984005654,0.137301995571,2.57463056537,0.0208732540955
3.84,-0.550878267013,1.36839049131,0.0504051089973,-0.297491372334,-0.0543495543386,1.93762958956,-0.000349065842597,0.49156073595,-0.307261959026,1.04049287012,3.13995287266,0.132649614408,2.57493075971,0.0205479887377
3.86,-0.550878267013,1.36839049131,0.0504051089973,-0.297491372334,-0.0543495543386,1.93762958956,-0.000349065842597,0.49156073595,-0.307261959026,1.04049287012,3.13995287266,0.132649614408,2.57493075971,0.0205479887377
3.88,-0.550878267013,1.36840793502,0.0503876569698,-0.290928943934,-0.0543495543386,1.93654754721,-0.000349065842597,0.491619376946,-0.307196477957,1.03863375797,3.14014074351,0.127162220335,2.57527371694,0.0201167825595
3.9,-0.550878267013,1.36840793502,0.0503876569698,-0.290928943934,-0.0543495543386,1.93654754721,-0.000349065842597,0.491619376946,-0.307196477957,1.03863375797,3.14014074351,0.127162220335,2.57527371694,0.0201167825595
3.92,-0.550930631418,1.36837304761,0.0503876569698,-0.283842904774,-0.0543844583936,1.93193987905,-0.000366519137977,0.49214107018,-0.307458305939,1.03672790894,3.14035546337,0.124729634809,2.57559249145,0.0196691631656
3.94,-0.550930631418,1.36837304761,0.0503876569698,-0.283842904774,-0.0543844583936,1.93193987905,-0.000366519137977,0.49214107018,-0.307458305939,1.03672790894,3.14035546337,0.124729634809,2.57559249145,0.0196691631656
3.96,-0.550930631418,1.36837304761,0.0503876569698,-0.283842904774,-0.0543844583936,1.93193987905,-0.000366519137977,0.49214107018,-0.307458305939,1.03672790894,3.14035546337,0.124729634809,2.57559249145,0.0196691631656
3.98,-0.550895710718,1.36842537872,0.0503527487536,-0.278449837119,-0.0544193666098,1.92328300761,-0.000349065842597,0.493286473573,-0.308086750452,1.03533721506,3.14055769139,0.127949830875,2.57586819099,0.0193557188412
4.0,-0.550895710718,1.36842537872,0.0503527487536,-0.278449837119,-0.0544193666098,1.92328300761,-0.000349065842597,0.493286473573,-0.308086750452,1.03533721506,3.14055769139,0.127949830875,2.57586819099,0.0193557188412
4.02,-0.551070247638,1.3683556039,0.0503352967261,-0.276111082339,-0.0544891788811,1.91385821367,-0.000349065842597,0.494521996513,-0.308970131739,1.03491436337,3.14069716295,0.135109407376,2.57578208273,0.0192485403465
4.04,-0.551070247638,1.3683556039,0.0503352967261,-0.276111082339,-0.0544891788811,1.91385821367,-0.000349065842597,0.494521996513,-0.308970131739,1.03491436337,3.14069716295,0.135109407376,2.57578208273,0.0192485403465
4.06,-0.551140055748,1.36842537872,0.0503527487536,-0.276041274229,-0.0544193666098,1.90645808795,-0.000366519137977,0.495559231776,-0.309661447011,1.03502734487,3.14062422517,0.142369870256,2.57575134648,0.0192828142793
4.08,-0.551140055748,1.36842537872,0.0503527487536,-0.276041274229,-0.0544193666098,1.90645808795,-0.000366519137977,0.495559231776,-0.309661447011,1.03502734487,3.14062422517,0.142369870256,2.57575134648,0.0192828142793
4.1,-0.551140055748,1.36842537872,0.0503527487536,-0.276041274229,-0.0544193666098,1.90645808795,-0.000366519137977,0.495559231776,-0.309661447011,1.03502734487,3.14062422517,0.142369870256,2.57575134648,0.0192828142793
4.12,-0.551105168338,1.36847770984,0.0503527487536,-0.276006370174,-0.0544193666098,1.90420651841,-0.000366519137977,0.495890458772,-0.309847226353,1.03504134589,3.14062638757,0.144534262275,2.5757859903,0.0192922719737
4.14,-0.551105168338,1.36847770984,0.0503527487536,-0.276006370174,-0.0544193666098,1.90420651841,-0.000366519137977,0.495890458772,-0.309847226353,1.03504134589,3.14062638757,0.144534262275,2.5757859903,0.0192922719737
4.16,-0.551140055748,1.36853017411,0.0503352967261,-0.275657296334,-0.0544542706649,1.9043287575,-0.000366519137977,0.49585343605,-0.309850687358,1.03490637672,3.14068447777,0.144011251086,2.5757572282,0.0192683137978
4.18,-0.551140055748,1.36853017411,0.0503352967261,-0.275657296334,-0.0544542706649,1.9043287575,-0.000366519137977,0.49585343605,-0.309850687358,1.03490637672,3.14068447777,0.144011251086,2.5757572282,0.0192683137978
4.2,-0.551279705258,1.36853017411,0.0503178405374,-0.275709660739,-0.0544891788811,1.9041890747,-0.000366519137977,0.49582712245,-0.309940025574,1.03492506231,3.14073180418,0.144203447716,2.57560211371,0.0192725669119
4.22,-0.551279705258,1.36853017411,0.0503178405374,-0.275709660739,-0.0544891788811,1.9041890747,-0.000366519137977,0.49582712245,-0.309940025574,1.03492506231,3.14073180418,0.144203447716,2.57560211371,0.0192725669119
4.24,-0.551279705258,1.36853017411,0.0503178405374,-0.275709660739,-0.0544891788811,1.9041890747,-0.000366519137977,0.49582712245,-0.309940025574,1.03492506231,3.14073180418,0.144203447716,2.57560211371,0.0192725669119
4.26,-0.551244784558,1.36847770984,0.0503178405374,-0.275744564794,-0.0545240870973,1.90406696877,-0.000366519137977,0.495851571868,-0.309938609046,1.03496885663,3.14076150587,0.14441284135,2.57562343058,0.0192752759546
4.28,-0.551244784558,1.36847770984,0.0503178405374,-0.275744564794,-0.0545240870973,1.90406696877,-0.000366519137977,0.495851571868,-0.309938609046,1.03496885663,3.14076150587,0.14441284135,2.57562343058,0.0192752759546
4.3,-0.551262228263,1.36846026613,0.0503178405374,-0.275762025144,-0.0548556964261,1.90401463765,-0.000366519137977,0.495824885871,-0.309997147977,1.03498536971,3.14105840724,0.144499859078,2.57549537525,0.0192766238924
4.32,-0.551262228263,1.36846026613,0.0503178405374,-0.275762025144,-0.0548556964261,1.90401463765,-0.000366519137977,0.495824885871,-0.309997147977,1.03498536971,3.14105840724,0.144499859078,2.57549537525,0.0192766238924
4.34,-0.551297148963,1.36840793502,0.0503003885098,-0.275796929199,-0.0559203491673,1.90240888467,-0.000366519137977,0.495948577366,-0.310305247803,1.0350657152,-3.14115521093,0.1461926586,2.57510628051,0.0192868468257
4.36,-0.551297148963,1.36840793502,0.0503003885098,-0.275796929199,-0.0559203491673,1.90240888467,-0.000366519137977,0.495948577366,-0.310305247803,1.0350657152,-3.14115521093,0.1461926586,2.57510628051,0.0192868468257
4.38,-0.551297148963,1.36840793502,0.0503003885098,-0.275796929199,-0.0559203491673,1.90240888467,-0.000366519137977,0.495948577366,-0.310305247803,1.0350657152,-3.14115521093,0.1461926586,2.57510628051,0.0192868468257
4.4,-0.551279705258,1.36840793502,0.0502829364823,-0.275796929199,-0.0559901614386,1.89918006817,-0.000349065842597,0.496405140935,-0.310598902649,1.03514663416,-3.14107646561,0.149421730012,2.57508380074,0.019303113162
4.42,-0.551279705258,1.36840793502,0.0502829364823,-0.275796929199,-0.0559901614386,1.89918006817,-0.000349065842597,0.496405140935,-0.310598902649,1.03514663416,-3.14107646561,0.149421730012,2.57508380074,0.019303113162
4.44,-0.551541493993,1.36828582908,0.0502829364823,-0.275936562064,-0.0566010281748,1.89719028736,-0.000366519137977,0.496552406905,-0.310993383666,1.03530965052,-3.14052972612,0.151672954343,2.5746348723,0.0193218389713
4.46,-0.551541493993,1.36828582908,0.0502829364823,-0.275936562064,-0.0566010281748,1.89719028736,-0.000366519137977,0.496552406905,-0.310993383666,1.03530965052,-3.14052972612,0.151672954343,2.5746348723,0.0193218389713
4.48,-0.551436765183,1.36830327278,0.0502829364823,-0.275919101714,-0.0602836722973,1.89520063971,-0.000366519137977,0.496547739413,-0.311620941015,1.03534732684,-3.13721915299,0.153629637996,2.5735549024,0.0193304998115
4.5,-0.551436765183,1.36830327278,0.0502829364823,-0.275919101714,-0.0602836722973,1.89520063971,-0.000366519137977,0.496547739413,-0.311620941015,1.03534732684,-3.13721915299,0.153629637996,2.5735549024,0.0193304998115
4.52,-0.551436765183,1.36830327278,0.0502829364823,-0.275919101714,-0.0602836722973,1.89520063971,-0.000366519137977,0.496547739413,-0.311620941015,1.03534732684,-3.13721915299,0.153629637996,2.5735549024,0.0193304998115
4.54,-0.551489129588,1.36825080851,0.0503003885098,-0.275884197659,-0.067334803241,1.89411859736,-0.000366519137977,0.496069416273,-0.312698102961,1.03540443986,-3.13089891679,0.154743402779,2.57124258579,0.0193329761452
4.56,-0.551489129588,1.36825080851,0.0503003885098,-0.275884197659,-0.067334803241,1.89411859736,-0.000366519137977,0.496069416273,-0.312698102961,1.03540443986,-3.13089891679,0.154743402779,2.57124258579,0.0193329761452
4.58,-0.551646222803,1.3681984774,0.0503178405374,-0.275866737309,-0.0743684821572,1.89422325959,-0.000366519137977,0.495388977406,-0.313715776678,1.03544260799,-3.12459646651,0.154701798287,2.5688237362,0.0193307700373
4.6,-0.551646222803,1.3681984774,0.0503178405374,-0.275866737309,-0.0743684821572,1.89422325959,-0.000366519137977,0.495388977406,-0.313715776678,1.03544260799,-3.12459646651,0.154701798287,2.5688237362,0.0193307700373
4.62,-0.551681110213,1.36818103369,0.0503527487536,-0.275849293604,-0.0784874602572,1.89448504832,-0.000366519137977,0.494980053378,-0.314262250329,1.03545293323,-3.12093054136,0.154462563497,2.56746125394,0.0193280614
4.64,-0.551681110213,1.36818103369,0.0503527487536,-0.275849293604,-0.0784874602572,1.89448504832,-0.000366519137977,0.494980053378,-0.314262250329,1.03545293323,-3.12093054136,0.154462563497,2.56746125394,0.0193280614
4.66,-0.551681110213,1.36818103369,0.0503527487536,-0.275849293604,-0.0784874602572,1.89448504832,-0.000366519137977,0.494980053378,-0.314262250329,1.03545293323,-3.12093054136,0.154462563497,2.56746125394,0.0193280614
4.68,-0.551541493993,1.36779713902,0.0503527487536,-0.275831833254,-0.0792728514298,1.89535776621,-0.000366519137977,0.494821456082,-0.314212851374,1.03565269771,-3.1202362862,0.153961387171,2.56732883305,0.0193205366316
4.7,-0.551541493993,1.36779713902,0.0503527487536,-0.275831833254,-0.0792728514298,1.89535776621,-0.000366519137977,0.494821456082,-0.314212851374,1.03565269771,-3.1202362862,0.153961387171,2.56732883305,0.0193205366316
4.72,-0.551646222803,1.36582480192,0.0503527487536,-0.275849293604,-0.0793077638072,1.89757431519,-0.000349065842597,0.494420833205,-0.314035168473,1.03675571352,-3.12026178979,0.15373519795,2.56713936227,0.0193003570104
4.74,-0.551646222803,1.36582480192,0.0503527487536,-0.275849293604,-0.0793077638072,1.89757431519,-0.000349065842597,0.494420833205,-0.314035168473,1.03675571352,-3.12026178979,0.15373519795,2.56713936227,0.0193003570104
4.76,-0.552012740348,1.36229930927,0.0503178405374,-0.275814389549,-0.0795870128923,1.90014000458,-0.000349065842597,0.493818947034,-0.31396060326,1.03874357023,-3.12006676624,0.154662442161,2.56661367435,0.0192664526589
4.78,-0.552012740348,1.36229930927,0.0503178405374,-0.275814389549,-0.0795870128923,1.90014000458,-0.000349065842597,0.493818947034,-0.31396060326,1.03874357023,-3.12006676624,0.154662442161,2.56661367435,0.0192664526589
4.8,-0.552012740348,1.36229930927,0.0503178405374,-0.275814389549,-0.0795870128923,1.90014000458,-0.000349065842597,0.493818947034,-0.31396060326,1.03874357023,-3.12006676624,0.154662442161,2.56661367435,0.0192664526589
4.82,-0.553077372283,1.35749962719,0.0503178405374,-0.275692200389,-0.0806167574172,1.90314191976,-0.000366519137977,0.492825800353,-0.314258067267,1.0414392867,-3.11926232252,0.156344275038,2.5651507878,0.0192172082878
4.84,-0.553077372283,1.35749962719,0.0503178405374,-0.275692200389,-0.0806167574172,1.90314191976,-0.000366519137977,0.492825800353,-0.314258067267,1.0414392867,-3.11926232252,0.156344275038,2.5651507878,0.0192172082878
4.86,-0.554630727568,1.35139100144,0.0503178405374,-0.275692200389,-0.0862716221298,1.90799393295,-0.000366519137977,0.490957206722,-0.315212014086,1.04489929471,-3.11438694241,0.157644636739,2.56157166575,0.0191587470368
4.88,-0.554630727568,1.35139100144,0.0503178405374,-0.275692200389,-0.0862716221298,1.90799393295,-0.000366519137977,0.490957206722,-0.315212014086,1.04489929471,-3.11438694241,0.157644636739,2.56157166575,0.0191587470368
4.9,-0.556463315293,1.34612007301,0.0503178405374,-0.275273335084,-0.0956440433422,1.91162422099,-0.000383972433358,0.488845595665,-0.316898835804,1.04779949284,-3.10619005112,0.15896080999,2.55648716557,0.0190820640641
4.92,-0.556463315293,1.34612007301,0.0503178405374,-0.275273335084,-0.0956440433422,1.91162422099,-0.000383972433358,0.488845595665,-0.316898835804,1.04779949284,-3.10619005112,0.15896080999,2.55648716557,0.0190820640641
4.94,-0.556463315293,1.34612007301,0.0503178405374,-0.275273335084,-0.0956440433422,1.91162422099,-0.000383972433358,0.488845595665,-0.316898835804,1.04779949284,-3.10619005112,0.15896080999,2.55648716557,0.0190820640641
4.96,-0.558016670578,1.34355451677,0.0503352967261,-0.274941721594,-0.103742366677,1.91708716334,-0.000383972433358,0.486766442144,-0.3181533118,1.04910059985,-3.09911501263,0.15583826973,2.55196585361,0.0190163291863
4.98,-0.558016670578,1.34355451677,0.0503352967261,-0.274941721594,-0.103742366677,1.91708716334,-0.000383972433358,0.486766442144,-0.3181533118,1.04910059985,-3.09911501263,0.15583826973,2.55196585361,0.0190163291863
5.0,-0.558976606993,1.34327515118,0.0504051089973,-0.274557743699,-0.107634451775,1.91935604343,-0.000366519137977,0.485782692343,-0.318900543807,1.0491190505,-3.09574208026,0.153523381992,2.54957213139,0.018976799076
5.02,-0.558976606993,1.34327515118,0.0504051089973,-0.274557743699,-0.107634451775,1.91935604343,-0.000366519137977,0.485782692343,-0.318900543807,1.0491190505,-3.09574208026,0.153523381992,2.54957213139,0.018976799076
5.04,-0.559622356978,1.34313560154,0.0504051089973,-0.273929420774,-0.107390106745,1.91935604343,-0.000366519137977,0.485585877459,-0.319163653977,1.04901728989,-3.09593534445,0.153032174746,2.54904517164,0.0189340035774
5.06,-0.559622356978,1.34313560154,0.0504051089973,-0.273929420774,-0.107390106745,1.91935604343,-0.000366519137977,0.485585877459,-0.319163653977,1.04901728989,-3.09593534445,0.153032174746,2.54904517164,0.0189340035774
5.08,-0.559622356978,1.34313560154,0.0504051089973,-0.273929420774,-0.107390106745,1.91935604343,-0.000366519137977,0.485585877459,-0.319163653977,1.04901728989,-3.09593534445,0.153032174746,2.54904517164,0.0189340035774
5.1,-0.559517628169,1.34311815783,0.0504051089973,-0.271416145719,-0.107233030175,1.91919891692,-0.000349065842597,0.485623401484,-0.319045633037,1.0483061075,-3.09596461663,0.150697181759,2.54933397792,0.0187665539216
5.12,-0.559517628169,1.34311815783,0.0504051089973,-0.271416145719,-0.107233030175,1.91919891692,-0.000349065842597,0.485623401484,-0.319045633037,1.0483061075,-3.09596461663,0.150697181759,2.54933397792,0.0187665539216
5.14,-0.559378011948,1.34303080615,0.0504225610249,-0.267384436079,-0.107075953605,1.91907681099,-0.000331612547216,0.48564339489,-0.318865812555,1.04719700896,-3.09594693517,0.146881360343,2.54974119646,0.0184965608017
5.16,-0.559378011948,1.34303080615,0.0504225610249,-0.267384436079,-0.107075953605,1.91907681099,-0.000331612547216,0.48564339489,-0.318865812555,1.04719700896,-3.09594693517,0.146881360343,2.54974119646,0.0184965608017
5.18,-0.559447853348,1.34292614392,0.0504051089973,-0.261555042769,-0.107145761715,1.9191116984,-0.000331612547216,0.485521233856,-0.318756615607,1.04557881529,-3.09561412191,0.141135934794,2.54996679292,0.0181044520407
5.2,-0.559447853348,1.34292614392,0.0504051089973,-0.261555042769,-0.107145761715,1.9191116984,-0.000331612547216,0.485521233856,-0.318756615607,1.04557881529,-3.09561412191,0.141135934794,2.54996679292,0.0181044520407
5.22,-0.559447853348,1.34292614392,0.0504051089973,-0.261555042769,-0.107145761715,1.9191116984,-0.000331612547216,0.485521233856,-0.318756615607,1.04557881529,-3.09561412191,0.141135934794,2.54996679292,0.0181044520407
5.24,-0.559482740758,1.3428738128,0.0504225610249,-0.255306767509,-0.107145761715,1.9191116984,-0.000331612547216,0.485409832591,-0.31860685505,1.04381050986,-3.09535957768,0.13495283049,2.55027760134,0.0176837560835
5.26,-0.559482740758,1.3428738128,0.0504225610249,-0.255306767509,-0.107145761715,1.9191116984,-0.000331612547216,0.485409832591,-0.31860685505,1.04381050986,-3.09535957768,0.13495283049,2.55027760134,0.0176837560835
5.28,-0.559482740758,1.34273413,0.0504400172136,-0.250472198024,-0.107145761715,1.9191291421,-0.000331612547216,0.485320380699,-0.318469991978,1.04250016638,-3.09517137152,0.130250227905,2.55054303423,0.0173570045203
5.3,-0.559482740758,1.34273413,0.0504400172136,-0.250472198024,-0.107145761715,1.9191291421,-0.000331612547216,0.485320380699,-0.318469991978,1.04250016638,-3.09517137152,0.130250227905,2.55054303423,0.0173570045203
5.32,-0.559482740758,1.34261202406,0.0507367224873,-0.248657054004,-0.107128309687,1.9191291421,-0.000349065842597,0.485301033888,-0.31839171468,1.04204533584,-3.09540143881,0.128550825771,2.55069516096,0.0172338742876
5.34,-0.559482740758,1.34261202406,0.0507367224873,-0.248657054004,-0.107128309687,1.9191291421,-0.000349065842597,0.485301033888,-0.31839171468,1.04204533584,-3.09540143881,0.128550825771,2.55069516096,0.0172338742876
5.36,-0.559482740758,1.34261202406,0.0507367224873,-0.248657054004,-0.107128309687,1.9191291421,-0.000349065842597,0.485301033888,-0.31839171468,1.04204533584,-3.09540143881,0.128550825771,2.55069516096,0.0172338742876
5.38,-0.559517628169,1.34247234127,0.0508414429748,-0.248587245894,-0.107163213742,1.91928626861,-0.000349065842597,0.485264677903,-0.318385503266,1.04210189715,-3.09547537128,0.128461156135,2.55065475376,0.0172276747853
5.4,-0.559517628169,1.34247234127,0.0508414429748,-0.248587245894,-0.107163213742,1.91928626861,-0.000349065842597,0.485264677903,-0.318385503266,1.04210189715,-3.09547537128,0.128461156135,2.55065475376,0.0172276747853
5.42,-0.559674754673,1.34147751744,0.0509461593011,-0.248534881489,-0.10719812612,1.91940837454,-0.000366519137977,0.485167502617,-0.318425387248,1.04266040236,-3.09557464752,0.129277791062,2.55050690563,0.0172185149917
5.44,-0.559674754673,1.34147751744,0.0509461593011,-0.248534881489,-0.10719812612,1.91940837454,-0.000366519137977,0.485167502617,-0.318425387248,1.04266040236,-3.09557464752,0.129277791062,2.55050690563,0.0172185149917
5.46,-0.559971430818,1.3393656307,0.0509636154898,-0.248011287374,-0.107233030175,1.92073489508,-0.000349065842597,0.484807594179,-0.318390524161,1.04370581481,-3.09561545629,0.129541857512,2.55014113445,0.0171658859488
5.48,-0.559971430818,1.3393656307,0.0509636154898,-0.248011287374,-0.107233030175,1.92073489508,-0.000349065842597,0.484807594179,-0.318390524161,1.04370581481,-3.09561545629,0.129541857512,2.55014113445,0.0171658859488
5.5,-0.559971430818,1.3393656307,0.0509636154898,-0.248011287374,-0.107233030175,1.92073489508,-0.000349065842597,0.484807594179,-0.318390524161,1.04370581481,-3.09561545629,0.129541857512,2.55014113445,0.0171658859488
5.52,-0.560739353319,1.33519432148,0.0510857880048,-0.243979577734,-0.10718066577,1.92691329565,-0.000331612547216,0.483500243639,-0.317966320478,1.04483105973,-3.09577908358,0.123512479086,2.54930679873,0.0168421481168
5.54,-0.560739353319,1.33519432148,0.0510857880048,-0.243979577734,-0.10718066577,1.92691329565,-0.000331612547216,0.483500243639,-0.317966320478,1.04483105973,-3.09577908358,0.123512479086,2.54930679873,0.0168421481168
5.56,-0.562397437413,1.328823907,0.0511032400323,-0.234467531979,-0.107215578147,1.93452287899,-0.000331612547216,0.481516992189,-0.317651009714,1.04564143345,-3.09559407485,0.112786881387,2.54778414579,0.0161320310179
5.58,-0.562397437413,1.328823907,0.0511032400323,-0.234467531979,-0.107215578147,1.93452287899,-0.000331612547216,0.481516992189,-0.317651009714,1.04564143345,-3.09559407485,0.112786881387,2.54778414579,0.0161320310179
5.6,-0.564544211568,1.31978300773,0.0511032400323,-0.218253424959,-0.10719812612,1.93942735646,-0.000331612547216,0.479522106275,-0.317555909306,1.04614717415,-3.09520880012,0.100745052678,2.54626456464,0.014973544904
5.62,-0.564544211568,1.31978300773,0.0511032400323,-0.218253424959,-0.10719812612,1.93942735646,-0.000331612547216,0.479522106275,-0.317555909306,1.04614717415,-3.09520880012,0.100745052678,2.54626456464,0.014973544904
5.64,-0.564544211568,1.31978300773,0.0511032400323,-0.218253424959,-0.10719812612,1.93942735646,-0.000331612547216,0.479522106275,-0.317555909306,1.04614717415,-3.09520880012,0.100745052678,2.54626456464,0.014973544904
5.66,-0.566900376763,1.30712939728,0.0510857880048,-0.196192464279,-0.107163213742,1.9389386664,-0.000331612547216,0.477925178148,-0.317788616296,1.04716308676,-3.0946484296,0.0918675159926,2.54508574204,0.0134327380229
5.68,-0.566900376763,1.30712939728,0.0510857880048,-0.196192464279,-0.107163213742,1.9389386664,-0.000331612547216,0.477925178148,-0.317788616296,1.04716308676,-3.0946484296,0.0918675159926,2.54508574204,0.0134327380229
5.7,-0.568855137004,1.29348096301,0.0510508797886,-0.172508340204,-0.10719812612,1.93698390616,-0.000331612547216,0.476516908914,-0.317863719025,1.04829901489,-3.09395943351,0.0838303815653,2.54442377855,0.0117867946332
5.72,-0.568855137004,1.29348096301,0.0510508797886,-0.172508340204,-0.10719812612,1.93698390616,-0.000331612547216,0.476516908914,-0.317863719025,1.04829901489,-3.09395943351,0.0838303815653,2.54442377855,0.0117867946332
5.74,-0.570338717468,1.28023386712,0.0510334277611,-0.149784152545,-0.107233030175,1.93415642803,-0.000331612547216,0.475354022782,-0.317791875404,1.0494715385,-3.09331117675,0.077220764808,2.54422042126,0.0102134561531
5.76,-0.570338717468,1.28023386712,0.0510334277611,-0.149784152545,-0.107233030175,1.93415642803,-0.000331612547216,0.475354022782,-0.317791875404,1.0494715385,-3.09331117675,0.077220764808,2.54422042126,0.0102134561531
5.78,-0.570338717468,1.28023386712,0.0510334277611,-0.149784152545,-0.107233030175,1.93415642803,-0.000331612547216,0.475354022782,-0.317791875404,1.0494715385,-3.09331117675,0.077220764808,2.54422042126,0.0102134561531
5.8,-0.571874562468,1.26709156661,0.0510159757336,-0.12719959775,-0.107477375205,1.92991521083,-0.000331612547216,0.474298510354,-0.317872901347,1.05062353348,-3.09246822706,0.0720608433277,2.54394644441,0.00865777582066
5.82,-0.571874562468,1.26709156661,0.0510159757336,-0.12719959775,-0.107477375205,1.92991521083,-0.000331612547216,0.474298510354,-0.317872901347,1.05062353348,-3.09246822706,0.0720608433277,2.54394644441,0.00865777582066
5.84,-0.573515202858,1.25396670981,0.0509985195449,-0.103881999542,-0.10759954772,1.9255518877,-0.000331612547216,0.47315282557,-0.317932017447,1.05153548334,-3.09170427212,0.0662712061671,2.5436502107,0.00705649289177
5.86,-0.573515202858,1.25396670981,0.0509985195449,-0.103881999542,-0.10759954772,1.9255518877,-0.000331612547216,0.47315282557,-0.317932017447,1.05153548334,-3.09170427212,0.0662712061671,2.5436502107,0.00705649289177
5.88,-0.574998716743,1.24216824039,0.0510159757336,-0.0817163183747,-0.10777408464,1.92073489508,-0.000314159251835,0.472145276538,-0.31799703818,1.05200217475,-3.09093958703,0.0607586359953,2.54344617291,0.00554141233377
5.9,-0.574998716743,1.24216824039,0.0510159757336,-0.0817163183747,-0.10777408464,1.92073489508,-0.000314159251835,0.472145276538,-0.31799703818,1.05200217475,-3.09093958703,0.0607586359953,2.54344617291,0.00554141233377
5.92,-0.574998716743,1.24216824039,0.0510159757336,-0.0817163183747,-0.10777408464,1.92073489508,-0.000314159251835,0.472145276538,-0.31799703818,1.05200217475,-3.09093958703,0.0607586359953,2.54344617291,0.00554141233377
5.94,-0.577110603488,1.23110293922,0.0510159757336,-0.059637901506,-0.108000977642,1.91307284747,-0.000331612547216,0.47130455405,-0.318622716157,1.05208360662,-3.09008743072,0.0574403138046,2.54276662989,0.00404138857628
5.96,-0.577110603488,1.23110293922,0.0510159757336,-0.059637901506,-0.108000977642,1.91307284747,-0.000331612547216,0.47130455405,-0.318622716157,1.05208360662,-3.09008743072,0.0574403138046,2.54276662989,0.00404138857628
5.98,-0.579815842523,1.22108465983,0.0510334277611,-0.0383972443761,-0.108070785752,1.90319425088,-0.000331612547216,0.470616865985,-0.31973934069,1.05180432282,-3.08940556238,0.0561218534081,2.54160974002,0.00260249865817
6.0,-0.579815842523,1.22108465983,0.0510334277611,-0.0383972443761,-0.108070785752,1.90319425088,-0.000331612547216,0.470616865985,-0.31973934069,1.05180432282,-3.08940556238,0.0561218534081,2.54160974002,0.00260249865817
6.02,-0.582887599103,1.2118344361,0.0510508797886,-0.0197396745724,-0.107983517292,1.89184958411,-0.000331612547216,0.470113829843,-0.321241248679,1.05181950223,-3.08895227034,0.0580743038318,2.54008848376,0.00133884288217
6.04,-0.582887599103,1.2118344361,0.0510508797886,-0.0197396745724,-0.107983517292,1.89184958411,-0.000331612547216,0.470113829843,-0.321241248679,1.05181950223,-3.08895227034,0.0580743038318,2.54008848376,0.00133884288217
6.06,-0.582887599103,1.2118344361,0.0510508797886,-0.0197396745724,-0.107983517292,1.89184958411,-0.000331612547216,0.470113829843,-0.321241248679,1.05181950223,-3.08895227034,0.0580743038318,2.54008848376,0.00133884288217
6.08,-0.586099038483,1.20316012096,0.0510508797886,-0.00062831850367,-0.107983517292,1.88045258622,-0.000331612547216,0.469521728677,-0.322793604574,1.05135852618,-3.08837994704,0.0590510401345,2.53842378694,4.26467665761e-05
6.1,-0.586099038483,1.20316012096,0.0510508797886,-0.00062831850367,-0.107983517292,1.88045258622,-0.000331612547216,0.469521728677,-0.322793604574,1.05135852618,-3.08837994704,0.0590510401345,2.53842378694,4.26467665761e-05
6.12,-0.588961337443,1.19614388991,0.0510683359773,0.016144295789,-0.107913709182,1.87293022141,-0.000331612547216,0.46863383767,-0.323915439696,1.05057237176,-3.08796452395,0.0568332019321,2.53681527824,0.00109569954951
6.14,-0.588961337443,1.19614388991,0.0510683359773,0.016144295789,-0.107913709182,1.87293022141,-0.000331612547216,0.46863383767,-0.323915439696,1.05057237176,-3.08796452395,0.0568332019321,2.53681527824,0.00109569954951
6.16,-0.591335012923,1.18973858801,0.0510508797886,0.0311715806736,-0.107913709182,1.86886370758,-0.000331612547216,0.467483420292,-0.32456102982,1.04989988321,-3.0875194722,0.0522970238491,2.53539076784,0.00211333461441
6.18,-0.591335012923,1.18973858801,0.0510508797886,0.0311715806736,-0.107913709182,1.86886370758,-0.000331612547216,0.467483420292,-0.32456102982,1.04989988321,-3.0875194722,0.0522970238491,2.53539076784,0.00211333461441
6.2,-0.591335012923,1.18973858801,0.0510508797886,0.0311715806736,-0.107913709182,1.86886370758,-0.000331612547216,0.467483420292,-0.32456102982,1.04989988321,-3.0875194722,0.0522970238491,2.53539076784,0.00211333461441
6.22,-0.593132713238,1.18495634964,0.0510508797886,0.0427780195336,-0.107896257155,1.86807820822,-0.000331612547216,0.466268015684,-0.324800120453,1.049261417,-3.08721246164,0.0462759649983,2.53420588163,0.00289566993866
6.24,-0.593132713238,1.18495634964,0.0510508797886,0.0427780195336,-0.107896257155,1.86807820822,-0.000331612547216,0.466268015684,-0.324800120453,1.049261417,-3.08721246164,0.0462759649983,2.53420588163,0.00289566993866
6.26,-0.593935523148,1.18111660398,0.0510508797886,0.0517839190398,-0.107948613237,1.86807820822,-0.000331612547216,0.465410232892,-0.324647183894,1.04883471405,-3.08691670346,0.0411253118722,2.5338239467,0.00350001790051
6.28,-0.593935523148,1.18111660398,0.0510508797886,0.0517839190398,-0.107948613237,1.86807820822,-0.000331612547216,0.465410232892,-0.324647183894,1.04883471405,-3.08691670346,0.0411253118722,2.5338239467,0.00350001790051
6.3,-0.594982744668,1.17752133651,0.0510334277611,0.0605629255435,-0.107966065265,1.8680258771,-0.000331612547216,0.46449282738,-0.324620841996,1.04833536511,-3.08664240665,0.0360085618015,2.53319178212,0.00408754289552
6.32,-0.594982744668,1.17752133651,0.0510334277611,0.0605629255435,-0.107966065265,1.8680258771,-0.000331612547216,0.46449282738,-0.324620841996,1.04833536511,-3.08664240665,0.0360085618015,2.53319178212,0.00408754289552
6.34,-0.595174758583,1.17394337959,0.0510508797886,0.068486720281,-0.108035881697,1.8680084334,-0.000331612547216,0.46449282738,-0.324620841996,1.04833536511,-3.08664240665,0.0360085618015,2.53319178212,0.00408754289552
6.36,-0.595174758583,1.17394337959,0.0510508797886,0.068486720281,-0.108035881697,1.8680084334,-0.000331612547216,0.463883576218,-0.324232885375,1.04807340121,-3.0863793437,0.0316937901033,2.53336681477,0.0046155904557
6.38,-0.595174758583,1.17394337959,0.0510508797886,0.068486720281,-0.108035881697,1.8680084334,-0.000331612547216,0.463883576218,-0.324232885375,1.04807340121,-3.0863793437,0.0316937901033,2.53336681477,0.0046155904557
6.4,-0.595139804593,1.17066209881,0.0510508797886,0.0757821962548,-0.107948613237,1.86795610228,-0.000314159251835,0.463402443122,-0.323759334772,1.04782368294,-3.08626637019,0.0277431210447,2.53376169066,0.00510034586051
6.42,-0.595139804593,1.17066209881,0.0510508797886,0.0757821962548,-0.107948613237,1.86795610228,-0.000314159251835,0.463402443122,-0.323759334772,1.04782368294,-3.08626637019,0.0277431210447,2.53376169066,0.00510034586051
6.44,-0.594930413553,1.1683234439,0.0510683359773,0.0823795370323,-0.107913709182,1.86783386319,-0.000296705988964,0.463049391311,-0.323270937645,1.04724333784,-3.08613096096,0.0236172759556,2.53429173842,0.00553898741893
6.46,-0.594930413553,1.1683234439,0.0510683359773,0.0823795370323,-0.107913709182,1.86783386319,-0.000296705988964,0.463049391311,-0.323270937645,1.04724333784,-3.08613096096,0.0236172759556,2.53429173842,0.00553898741893
6.48,-0.595087473478,1.16701436706,0.0510508797886,0.0872315585447,-0.107966065265,1.8671182718,-0.000314159251835,0.463049391311,-0.323270937645,1.04724333784,-3.08613096096,0.0236172759556,2.53429173842,0.00553898741893
6.5,-0.595087473478,1.16701436706,0.0510508797886,0.0872315585447,-0.107966065265,1.8671182718,-0.000314159251835,0.462776536833,-0.323138798526,1.04658812449,-3.08592323238,0.0207966572035,2.53440098507,0.00586314079635
6.52,-0.595087473478,1.16701436706,0.0510508797886,0.0872315585447,-0.107966065265,1.8671182718,-0.000314159251835,0.462776536833,-0.323138798526,1.04658812449,-3.08592323238,0.0207966572035,2.53440098507,0.00586314079635
6.54,-0.595052586068,1.16601954324,0.0510508797886,0.0912109037797,-0.108035881697,1.86455271557,-0.000296705988964,0.462880964359,-0.323148192626,1.04601294449,-3.08573796368,0.020382140423,2.53473025436,0.00613294470414
6.56,-0.595052586068,1.16601954324,0.0510508797886,0.0912109037797,-0.108035881697,1.86455271557,-0.000296705988964,0.462880964359,-0.323148192626,1.04601294449,-3.08573796368,0.020382140423,2.53473025436,0.00613294470414
6.58,-0.595192202288,1.16539130354,0.0510334277611,0.0936020063197,-0.108454763647,1.86088754012,-0.000296705988964,0.463149237867,-0.323485540096,1.04569533528,-3.08524915351,0.0222893133064,2.53478284414,0.0062993943815
6.6,-0.595192202288,1.16539130354,0.0510334277611,0.0936020063197,-0.108454763647,1.86088754012,-0.000296705988964,0.463149237867,-0.323485540096,1.04569533528,-3.08524915351,0.0222893133064,2.53478284414,0.0062993943815
6.62,-0.595122360888,1.16432657173,0.0510508797886,0.0966039714347,-0.109711392852,1.85861852687,-0.000314159251835,0.463165580487,-0.323654000919,1.04545016529,-3.08398168661,0.0226409993097,2.53479085932,0.00650309557534
6.64,-0.595122360888,1.16432657173,0.0510508797886,0.0966039714347,-0.109711392852,1.85861852687,-0.000314159251835,0.463165580487,-0.323654000919,1.04545016529,-3.08398168661,0.0226409993097,2.53479085932,0.00650309557534
6.66,-0.595122360888,1.16432657173,0.0510508797886,0.0966039714347,-0.109711392852,1.85861852687,-0.000314159251835,0.463165580487,-0.323654000919,1.04545016529,-3.08398168661,0.0226409993097,2.53479085932,0.00650309557534
6.68,-0.595279420813,1.16268593134,0.0510683359773,0.0998328295522,-0.113498757462,1.85849642093,-0.000314159251835,0.462539639209,-0.324031187006,1.04548127939,-3.08030492215,0.021242317705,2.53372748102,0.00671594483704
6.7,-0.595279420813,1.16268593134,0.0510683359773,0.0998328295522,-0.113498757462,1.85849642093,-0.000314159251835,0.462539639209,-0.324031187006,1.04548127939,-3.08030492215,0.021242317705,2.53372748102,0.00671594483704
6.72,-0.595087473478,1.15743257978,0.0510508797886,0.107006137172,-0.11953760007,1.85846153352,-0.000296705988964,0.461446791548,-0.324247407312,1.0464384207,-3.07436178368,0.019478229617,2.53252641746,0.00718241955328
6.74,-0.595087473478,1.15743257978,0.0510508797886,0.107006137172,-0.11953760007,1.85846153352,-0.000296705988964,0.461446791548,-0.324247407312,1.0464384207,-3.07436178368,0.019478229617,2.53252641746,0.00718241955328
6.76,-0.595314374803,1.14800778584,0.0510508797886,0.1193805235,-0.122469757075,1.85840906925,-0.000296705988964,0.460050353877,-0.323855335403,1.04820998503,-3.07126725144,0.0166573385752,2.5320555146,0.00798022892029
6.78,-0.595314374803,1.14800778584,0.0510508797886,0.1193805235,-0.122469757075,1.85840906925,-0.000296705988964,0.460050353877,-0.323855335403,1.04820998503,-3.07126725144,0.0166573385752,2.5320555146,0.00798022892029
6.8,-0.595314374803,1.14800778584,0.0510508797886,0.1193805235,-0.122469757075,1.85840906925,-0.000296705988964,0.460050353877,-0.323855335403,1.04820998503,-3.07126725144,0.0166573385752,2.5320555146,0.00798022892029
6.82,-0.595384149623,1.13627909124,0.0510334277611,0.13486159543,-0.12274900616,1.85842664611,-0.000296705988964,0.458645530919,-0.322791316316,1.05033907146,-3.07060459833,0.0129182489182,2.53262244821,0.00896757757409
6.84,-0.595384149623,1.13627909124,0.0510334277611,0.13486159543,-0.12274900616,1.85842664611,-0.000296705988964,0.458645530919,-0.322791316316,1.05033907146,-3.07060459833,0.0129182489182,2.53262244821,0.00896757757409
6.86,-0.595227089698,1.12194995299,0.0509985195449,0.156713115134,-0.12274900616,1.85833929443,-0.000296705988964,0.456823109796,-0.321155856301,1.05206959234,-3.06999862227,0.00551871149961,2.53378374079,0.0103505496785
6.88,-0.595227089698,1.12194995299,0.0509985195449,0.156713115134,-0.12274900616,1.85833929443,-0.000296705988964,0.456823109796,-0.321155856301,1.05206959234,-3.06999862227,0.00551871149961,2.53378374079,0.0103505496785
6.9,-0.595419103613,1.10783027237,0.0509810675173,0.179681647824,-0.122766458187,1.85792037919,-0.000279252693583,0.454809786555,-0.319617471791,1.05334087936,-3.06934440752,-0.00287380967835,2.53464372067,0.0117863970227
6.92,-0.595419103613,1.10783027237,0.0509810675173,0.179681647824,-0.122766458187,1.85792037919,-0.000279252693583,0.454809786555,-0.319617471791,1.05334087936,-3.06934440752,-0.00287380967835,2.53464372067,0.0117863970227
6.94,-0.595419103613,1.10783027237,0.0509810675173,0.179681647824,-0.122766458187,1.85792037919,-0.000279252693583,0.454809786555,-0.319617471791,1.05334087936,-3.06934440752,-0.00287380967835,2.53464372067,0.0117863970227
6.96,-0.595890283388,1.09369314804,0.0509636154898,0.204081346639,-0.122871178675,1.85209098588,-0.000296705988964,0.45329380804,-0.318618434104,1.05418295023,-3.06855547822,-0.00728301176788,2.53568069839,0.0133151755092
6.98,-0.595890283388,1.09369314804,0.0509636154898,0.204081346639,-0.122871178675,1.85209098588,-0.000296705988964,0.45329380804,-0.318618434104,1.05418295023,-3.06855547822,-0.00728301176788,2.53568069839,0.0133151755092
7.0,-0.596850219803,1.0809871399,0.0509287072736,0.227154608139,-0.12299335119,1.84160159329,-0.000296705988964,0.45235038733,-0.318371115751,1.05457543072,-3.06776853164,-0.00715108708672,2.53647636939,0.0147706771633
7.02,-0.596850219803,1.0809871399,0.0509287072736,0.227154608139,-0.12299335119,1.84160159329,-0.000296705988964,0.45235038733,-0.318371115751,1.05457543072,-3.06776853164,-0.00715108708672,2.53647636939,0.0147706771633
7.04,-0.597757825103,1.06840330427,0.0509461593011,0.251920824499,-0.123377320762,1.82880830005,-0.000296705988964,0.451550515394,-0.318205336415,1.05438055505,-3.06672653049,-0.00653146651866,2.53753161583,0.0163328178831
7.06,-0.597757825103,1.06840330427,0.0509461593011,0.251920824499,-0.123377320762,1.82880830005,-0.000296705988964,0.451550515394,-0.318205336415,1.05438055505,-3.06672653049,-0.00653146651866,2.53753161583,0.0163328178831
7.08,-0.597757825103,1.06840330427,0.0509461593011,0.251920824499,-0.123377320762,1.82880830005,-0.000296705988964,0.451550515394,-0.318205336415,1.05438055505,-3.06672653049,-0.00653146651866,2.53753161583,0.0163328178831
7.1,-0.598927219138,1.05690157758,0.0509636154898,0.274749724324,-0.124215084662,1.81676561876,-0.000296705988964,0.450639999312,-0.3182515554,1.05412275456,-3.06530398254,-0.00580201281202,2.53808376637,0.0177613505254
7.12,-0.598927219138,1.05690157758,0.0509636154898,0.274749724324,-0.124215084662,1.81676561876,-0.000296705988964,0.450639999312,-0.3182515554,1.05412275456,-3.06530398254,-0.00580201281202,2.53808376637,0.0177613505254
7.14,-0.599974374078,1.04641218499,0.0509985195449,0.296985238569,-0.127740643892,1.80648555063,-0.000296705988964,0.449300729118,-0.318459495348,1.05348818035,-3.0612969394,-0.00720365067114,2.53799960632,0.0191372371208
7.16,-0.599974374078,1.04641218499,0.0509985195449,0.296985238569,-0.127740643892,1.80648555063,-0.000296705988964,0.449300729118,-0.318459495348,1.05348818035,-3.0612969394,-0.00720365067114,2.53799960632,0.0191372371208
7.18,-0.601388113143,1.03529441955,0.0509810675173,0.318574952894,-0.133098807492,1.79596127064,-0.000296705988964,0.447669497138,-0.319103132591,1.05339000539,-3.05546874669,-0.00705758486307,2.53717719565,0.0204539101646
7.2,-0.601388113143,1.03529441955,0.0509810675173,0.318574952894,-0.133098807492,1.79596127064,-0.000296705988964,0.447669497138,-0.319103132591,1.05339000539,-3.05546874669,-0.00705758486307,2.53717719565,0.0204539101646
7.22,-0.601388113143,1.03529441955,0.0509810675173,0.318574952894,-0.133098807492,1.79596127064,-0.000296705988964,0.447669497138,-0.319103132591,1.05339000539,-3.05546874669,-0.00705758486307,2.53717719565,0.0204539101646
7.24,-0.602714567103,1.02590451302,0.0509985195449,0.336185305339,-0.135315373112,1.78699027935,-0.000296705988964,0.446491406588,-0.319408680646,1.05343857478,-3.05283818352,-0.00627556123675,2.53692638419,0.0215155203995
7.26,-0.602714567103,1.02590451302,0.0509985195449,0.336185305339,-0.135315373112,1.78699027935,-0.000296705988964,0.446491406588,-0.319408680646,1.05343857478,-3.05283818352,-0.00627556123675,2.53692638419,0.0215155203995
7.28,-0.604285366093,1.01647978566,0.0509985195449,0.353341921714,-0.135716803035,1.77779238673,-0.000296705988964,0.445437039054,-0.319606863194,1.05359485849,-3.05198085882,-0.00481585416727,2.53683402078,0.0225389457269
7.3,-0.604285366093,1.01647978566,0.0509985195449,0.353341921714,-0.135716803035,1.77779238673,-0.000296705988964,0.445437039054,-0.319606863194,1.05359485849,-3.05198085882,-0.00481585416727,2.53683402078,0.0225389457269
7.32,-0.605733992568,1.00859083672,0.0509810675173,0.367321986119,-0.135716803035,1.76988599409,-0.000314159251835,0.444577251707,-0.3198176825,1.05381900251,-3.05159018131,-0.0030159085601,2.53670545598,0.0233648439092
7.34,-0.605733992568,1.00859083672,0.0509810675173,0.367321986119,-0.135716803035,1.76988599409,-0.000314159251835,0.444577251707,-0.3198176825,1.05381900251,-3.05159018131,-0.0030159085601,2.53670545598,0.0233648439092
7.36,-0.605733992568,1.00859083672,0.0509810675173,0.367321986119,-0.135716803035,1.76988599409,-0.000314159251835,0.444577251707,-0.3198176825,1.05381900251,-3.05159018131,-0.0030159085601,2.53670545598,0.0233648439092
7.38,-0.607182619043,1.00204585202,0.0509636154898,0.379347323574,-0.135873879605,1.76419628358,-0.000314159251835,0.443594690504,-0.319996433207,1.05387350708,-3.05110003844,-0.00281183028142,2.53624609794,0.0240644068356
7.4,-0.607182619043,1.00204585202,0.0509636154898,0.379347323574,-0.135873879605,1.76419628358,-0.000314159251835,0.443594690504,-0.319996433207,1.05387350708,-3.05110003844,-0.00281183028142,2.53624609794,0.0240644068356
7.42,-0.608805749148,0.996338631227,0.0509636154898,0.389854193154,-0.137846100195,1.7618226081,-0.000314159251835,0.442074781752,-0.32029627854,1.05393754582,-3.04888268801,-0.00520082159381,2.53491389025,0.0246533821314
7.44,-0.608805749148,0.996338631227,0.0509636154898,0.389854193154,-0.137846100195,1.7618226081,-0.000314159251835,0.442074781752,-0.32029627854,1.05393754582,-3.04888268801,-0.00520082159381,2.53491389025,0.0246533821314
7.46,-0.610516164358,0.990823424347,0.0509810675173,0.398982277659,-0.141720733265,1.7616654816,-0.000314159251835,0.440157376639,-0.320770120257,1.05432954501,-3.04484140012,-0.00857751810445,2.53288379187,0.0251407775446
7.48,-0.610516164358,0.990823424347,0.0509810675173,0.398982277659,-0.141720733265,1.7616654816,-0.000314159251835,0.440157376639,-0.320770120257,1.05432954501,-3.04484140012,-0.00857751810445,2.53288379187,0.0251407775446
7.5,-0.610516164358,0.990823424347,0.0509810675173,0.398982277659,-0.141720733265,1.7616654816,-0.000314159251835,0.440157376639,-0.320770120257,1.05432954501,-3.04484140012,-0.00857751810445,2.53288379187,0.0251407775446
7.52,-0.611894949433,0.986844062467,0.0510159757336,0.405823971788,-0.146572746455,1.76164803789,-0.000314159251835,0.438493172954,-0.321415615294,1.05457149059,-3.03991013236,-0.0113241543643,2.53089958854,0.0255042661644
7.54,-0.611894949433,0.986844062467,0.0510159757336,0.405823971788,-0.146572746455,1.76164803789,-0.000314159251835,0.438493172954,-0.321415615294,1.05457149059,-3.03991013236,-0.0113241543643,2.53089958854,0.0255042661644
7.56,-0.613361086193,0.983964253222,0.0509810675173,0.410501448059,-0.151110606505,1.76163059418,-0.000314159251835,0.437052260225,-0.322255659903,1.05484678834,-3.03528495062,-0.0130105664362,2.52875644678,0.0257492930296
7.58,-0.613361086193,0.983964253222,0.0509810675173,0.410501448059,-0.151110606505,1.76163059418,-0.000314159251835,0.437052260225,-0.322255659903,1.05484678834,-3.03528495062,-0.0130105664362,2.52875644678,0.0257492930296
7.6,-0.614862043783,0.981171729082,0.0510159757336,0.414602949164,-0.15296065458,1.76163059418,-0.000296705988964,0.43591638343,-0.322770002987,1.05519588101,-3.03337707773,-0.0142753645598,2.52708127575,0.0259593370796
7.62,-0.614862043783,0.981171729082,0.0510159757336,0.414602949164,-0.15296065458,1.76163059418,-0.000296705988964,0.43591638343,-0.322770002987,1.05519588101,-3.03337707773,-0.0142753645598,2.52708127575,0.0259593370796
7.64,-0.614862043783,0.981171729082,0.0510159757336,0.414602949164,-0.15296065458,1.76163059418,-0.000296705988964,0.43591638343,-0.322770002987,1.05519588101,-3.03337707773,-0.0142753645598,2.52708127575,0.0259593370796
7.66,-0.615979040123,0.978518821162,0.0510334277611,0.419350266834,-0.153082827095,1.76156081936,-0.000296705988964,0.435021988387,-0.322845479471,1.05524882119,-3.03313737715,-0.016291813933,2.52615774542,0.0262091103939
7.68,-0.615979040123,0.978518821162,0.0510334277611,0.419350266834,-0.153082827095,1.76156081936,-0.000296705988964,0.435021988387,-0.322845479471,1.05524882119,-3.03313737715,-0.016291813933,2.52615774542,0.0262091103939
7.7,-0.617148434158,0.976267384777,0.0509636154898,0.425197103849,-0.153170095554,1.76156081936,-0.000296705988964,0.434005233996,-0.322876140266,1.05476371788,-3.03282910405,-0.0198779870299,2.52517593549,0.0265279228511
7.72,-0.617148434158,0.976267384777,0.0509636154898,0.425197103849,-0.153170095554,1.76156081936,-0.000296705988964,0.434005233996,-0.322876140266,1.05476371788,-3.03282910405,-0.0198779870299,2.52517593549,0.0265279228511
7.74,-0.618597060633,0.974731473197,0.0510508797886,0.430398190879,-0.153170095554,1.76156081936,-0.000296705988964,0.433015309494,-0.323048035284,1.05407768685,-3.0327558053,-0.023536462783,2.52399421464,0.0268164539825
7.76,-0.618597060633,0.974731473197,0.0510508797886,0.430398190879,-0.153170095554,1.76156081936,-0.000296705988964,0.433015309494,-0.323048035284,1.05407768685,-3.0327558053,-0.023536462783,2.52399421464,0.0268164539825
7.78,-0.618597060633,0.974731473197,0.0510508797886,0.430398190879,-0.153170095554,1.76156081936,-0.000296705988964,0.433015309494,-0.323048035284,1.05407768685,-3.0327558053,-0.023536462783,2.52399421464,0.0268164539825
7.8,-0.620866007303,0.973736649372,0.0510334277611,0.434272823949,-0.15320499961,1.76163059418,-0.000314159251835,0.431870663257,-0.323706538888,1.053488559,-3.03259919277,-0.0264819085755,2.52187912485,0.0270321655372
7.82,-0.620866007303,0.973736649372,0.0510334277611,0.434272823949,-0.15320499961,1.76163059418,-0.000314159251835,0.431870663257,-0.323706538888,1.053488559,-3.03259919277,-0.0264819085755,2.52187912485,0.0270321655372
7.84,-0.623815591368,0.972933772882,0.0510508797886,0.437815826884,-0.153170095554,1.76163059418,-0.000314159251835,0.430562178483,-0.324674439124,1.05289119199,-3.03254973122,-0.0292182359709,2.51909305622,0.027230810286
7.86,-0.623815591368,0.972933772882,0.0510508797886,0.437815826884,-0.153170095554,1.76163059418,-0.000314159251835,0.430562178483,-0.324674439124,1.05289119199,-3.03254973122,-0.0292182359709,2.51909305622,0.027230810286
7.88,-0.626695400613,0.972410195412,0.0511206920599,0.441184326189,-0.15311773115,1.7616654816,-0.000314159251835,0.429304677251,-0.325610769398,1.05219414282,-3.03256616469,-0.0320945607512,2.51639970804,0.0274222291096
7.9,-0.626695400613,0.972410195412,0.0511206920599,0.441184326189,-0.15311773115,1.7616654816,-0.000314159251835,0.429304677251,-0.325610769398,1.05219414282,-3.03256616469,-0.0320945607512,2.51639970804,0.0274222291096
7.92,-0.626695400613,0.972410195412,0.0511206920599,0.441184326189,-0.15311773115,1.7616654816,-0.000314159251835,0.429304677251,-0.325610769398,1.05219414282,-3.03256616469,-0.0320945607512,2.51639970804,0.0274222291096
7.94,-0.629383195943,0.971066297747,0.0512777727911,0.445285860583,-0.153100287444,1.76163059418,-0.000314159251835,0.428026939955,-0.326371988546,1.05172651702,-3.0325994031,-0.0348124748749,2.51398145826,0.0276455584146
7.96,-0.629383195943,0.971066297747,0.0512777727911,0.445285860583,-0.153100287444,1.76163059418,-0.000314159251835,0.428026939955,-0.326371988546,1.05172651702,-3.0325994031,-0.0348124748749,2.51398145826,0.0276455584146
7.98,-0.631529903518,0.968011984872,0.0512952248186,0.450556755723,-0.153135191499,1.76163059418,-0.000296705988964,0.426716424017,-0.326789249017,1.05184281896,-3.03242986789,-0.0370197719197,2.51203866889,0.0279125368176
8.0,-0.631529903518,0.968011984872,0.0512952248186,0.450556755723,-0.153135191499,1.76163059418,-0.000296705988964,0.426716424017,-0.326789249017,1.05184281896,-3.03242986789,-0.0370197719197,2.51203866889,0.0279125368176
8.02,-0.633118212793,0.963020288882,0.0513999453061,0.456194168408,-0.153170095554,1.7616654816,-0.000314159251835,0.425486450523,-0.326857355434,1.05289085078,-3.03231865579,-0.0376940947556,2.51075196595,0.0281713976036
8.04,-0.633118212793,0.963020288882,0.0513999453061,0.456194168408,-0.153170095554,1.7616654816,-0.000314159251835,0.425486450523,-0.326857355434,1.05289085078,-3.03231865579,-0.0376940947556,2.51075196595,0.0281713976036
8.06,-0.633118212793,0.963020288882,0.0513999453061,0.456194168408,-0.153170095554,1.7616654816,-0.000314159251835,0.425486450523,-0.326857355434,1.05289085078,-3.03231865579,-0.0376940947556,2.51075196595,0.0281713976036
8.08,-0.634444666752,0.956649874397,0.0514348535223,0.462407522969,-0.15311773115,1.7616654816,-0.000296705988964,0.424230845954,-0.326728208722,1.05450505721,-3.03221468616,-0.0375283607246,2.50969379212,0.0284413555024
8.1,-0.634444666752,0.956649874397,0.0514348535223,0.462407522969,-0.15311773115,1.7616654816,-0.000296705988964,0.424230845954,-0.326728208722,1.05450505721,-3.03221468616,-0.0375283607246,2.50969379212,0.0284413555024
8.12,-0.634846071708,0.949685974462,0.0513650412511,0.473071485764,-0.153170095554,1.76164803789,-0.000296705988964,0.422801266731,-0.325864203044,1.05514477043,-3.03179856919,-0.0411969403476,2.50967631028,0.0289556499152
8.14,-0.634846071708,0.949685974462,0.0513650412511,0.473071485764,-0.153170095554,1.76164803789,-0.000296705988964,0.422801266731,-0.325864203044,1.05514477043,-3.03179856919,-0.0411969403476,2.50967631028,0.0289556499152
8.16,-0.635160191558,0.943350447387,0.0513999453061,0.486981775348,-0.153152635205,1.76159570677,-0.000261799381947,0.421129482492,-0.324681724518,1.05450507234,-3.03144915315,-0.0486990673746,2.50992016547,0.0296576218463
8.18,-0.635160191558,0.943350447387,0.0513999453061,0.486981775348,-0.153152635205,1.76159570677,-0.000261799381947,0.421129482492,-0.324681724518,1.05450507234,-3.03144915315,-0.0486990673746,2.50992016547,0.0296576218463
8.2,-0.635160191558,0.943350447387,0.0513999453061,0.486981775348,-0.153152635205,1.76159570677,-0.000261799381947,0.421129482492,-0.324681724518,1.05450507234,-3.03144915315,-0.0486990673746,2.50992016547,0.0296576218463
8.22,-0.635753610428,0.937171980237,0.0513824932786,0.502026504978,-0.153152635205,1.76147360084,-0.000261799381947,0.419238873519,-0.32353326651,1.05345670629,-3.03101301766,-0.0574258211284,2.50993097882,0.0304162848871
8.24,-0.635753610428,0.937171980237,0.0513824932786,0.502026504978,-0.153152635205,1.76147360084,-0.000261799381947,0.419238873519,-0.32353326651,1.05345670629,-3.03101301766,-0.0574258211284,2.50993097882,0.0304162848871
8.26,-0.636347029298,0.931080798192,0.0513475850624,0.516076410783,-0.153170095554,1.76063577036,-0.000261799381947,0.417519073261,-0.32253034459,1.05264219805,-3.03057836498,-0.0645348961354,2.50996059576,0.0311155273026
8.28,-0.636347029298,0.931080798192,0.0513475850624,0.516076410783,-0.153170095554,1.76063577036,-0.000261799381947,0.417519073261,-0.32253034459,1.05264219805,-3.03057836498,-0.0645348961354,2.50996059576,0.0311155273026
8.3,-0.636800831948,0.925600478722,0.0513475850624,0.528660246408,-0.15327480772,1.75562663067,-0.000261799381947,0.416563625852,-0.32201714347,1.0518768542,-3.03015876382,-0.066643428597,2.51053867145,0.0317715009059
8.32,-0.636800831948,0.925600478722,0.0513475850624,0.528660246408,-0.15327480772,1.75562663067,-0.000261799381947,0.416563625852,-0.32201714347,1.0518768542,-3.03015876382,-0.066643428597,2.51053867145,0.0317715009059
8.34,-0.636800831948,0.925600478722,0.0513475850624,0.528660246408,-0.15327480772,1.75562663067,-0.000261799381947,0.416563625852,-0.32201714347,1.0518768542,-3.03015876382,-0.066643428597,2.51053867145,0.0317715009059
8.36,-0.636870673348,0.921045141677,0.0513475850624,0.539341652908,-0.15336207618,1.74904675856,-0.000261799381947,0.416162746261,-0.321675255272,1.05114471321,-3.02982620079,-0.0662167145537,2.51160538635,0.0323452789159
8.38,-0.636870673348,0.921045141677,0.0513475850624,0.539341652908,-0.15336207618,1.74904675856,-0.000261799381947,0.416162746261,-0.321675255272,1.05114471321,-3.02982620079,-0.0662167145537,2.51160538635,0.0323452789159
8.4,-0.637498979628,0.915721882132,0.0513650412511,0.550878267013,-0.153396980235,1.74297302022,-0.000261799381947,0.415390090493,-0.321398859673,1.05057032833,-3.02953474102,-0.0663808487746,2.51211212435,0.0329427973207
8.42,-0.637498979628,0.915721882132,0.0513650412511,0.550878267013,-0.153396980235,1.74297302022,-0.000261799381947,0.415390090493,-0.321398859673,1.05057032833,-3.02953474102,-0.0663808487746,2.51211212435,0.0329427973207
8.44,-0.638389074643,0.910224118957,0.0513475850624,0.560791751013,-0.153623881559,1.74040746398,-0.000261799381947,0.414180074808,-0.321041262012,1.05058994427,-3.02903834904,-0.0682323930285,2.51184436405,0.0334108574558
8.46,-0.638389074643,0.910224118957,0.0513475850624,0.560791751013,-0.153623881559,1.74040746398,-0.000261799381947,0.414180074808,-0.321041262012,1.05058994427,-3.02903834904,-0.0682323930285,2.51184436405,0.0334108574558
8.48,-0.638999937218,0.904865972002,0.0513475850624,0.568977309519,-0.156398961994,1.74021545007,-0.000261799381947,0.414180074808,-0.321041262012,1.05058994427,-3.02903834904,-0.0682323930285,2.51184436405,0.0334108574558
8.5,-0.638999937218,0.904865972002,0.0513475850624,0.568977309519,-0.156398961994,1.74021545007,-0.000261799381947,0.412670571784,-0.32082001046,1.05110207491,-3.02603705709,-0.0708077949095,2.51110379841,0.0337611219999
8.52,-0.638999937218,0.904865972002,0.0513475850624,0.568977309519,-0.156398961994,1.74021545007,-0.000261799381947,0.412670571784,-0.32082001046,1.05110207491,-3.02603705709,-0.0708077949095,2.51110379841,0.0337611219999
8.54,-0.639732972308,0.899054022397,0.0513475850624,0.577215265718,-0.16266468096,1.74009321098,-0.000261799381947,0.410743860042,-0.321090069991,1.05190373982,-3.01954334556,-0.0729800590632,2.50964799323,0.034101094357
8.56,-0.639732972308,0.899054022397,0.0513475850624,0.577215265718,-0.16266468096,1.74009321098,-0.000261799381947,0.410743860042,-0.321090069991,1.05190373982,-3.01954334556,-0.0729800590632,2.50964799323,0.034101094357
8.58,-0.640256549778,0.892997727762,0.0513999453061,0.584929644448,-0.16924456971,1.74004087986,-0.000261799381947,0.408893350813,-0.321329684198,1.05299027778,-3.01278182585,-0.0744405438004,2.50835569451,0.0344032852445
8.6,-0.640256549778,0.892997727762,0.0513999453061,0.584929644448,-0.16924456971,1.74004087986,-0.000261799381947,0.408893350813,-0.321329684198,1.05299027778,-3.01278182585,-0.0744405438004,2.50835569451,0.0344032852445
8.62,-0.640902366343,0.886679644392,0.0513824932786,0.591910988088,-0.175929187269,1.73998854874,-0.000261799381947,0.408893350813,-0.321329684198,1.05299027778,-3.01278182585,-0.0744405438004,2.50835569451,0.0344032852445
8.64,-0.640902366343,0.886679644392,0.0513824932786,0.591910988088,-0.175929187269,1.73998854874,-0.000261799381947,0.407042306925,-0.321699139739,1.05442581639,-3.00587402334,-0.0748975203991,2.50684758809,0.0346573827207
8.66,-0.640902366343,0.886679644392,0.0513824932786,0.591910988088,-0.175929187269,1.73998854874,-0.000261799381947,0.407042306925,-0.321699139739,1.05442581639,-3.00587402334,-0.0748975203991,2.50684758809,0.0346573827207
8.68,-0.641460831223,0.881007311007,0.0513824932786,0.597722937693,-0.181200082409,1.73990133022,-0.000279252693583,0.405509181435,-0.321958010393,1.0558270646,-3.0004255392,-0.0748255354181,2.50565369196,0.0348583201329
8.7,-0.641460831223,0.881007311007,0.0513824932786,0.597722937693,-0.181200082409,1.73990133022,-0.000279252693583,0.405509181435,-0.321958010393,1.0558270646,-3.0004255392,-0.0748255354181,2.50565369196,0.0348583201329
8.72,-0.642228820303,0.874724115047,0.0513475850624,0.605803767388,-0.184254411929,1.73953474609,-0.000261799381947,0.403879873426,-0.321812963961,1.05683864445,-2.99709576966,-0.0761764450373,2.50468643783,0.0351650347353
8.74,-0.642228820303,0.874724115047,0.0513475850624,0.605803767388,-0.184254411929,1.73953474609,-0.000261799381947,0.403879873426,-0.321812963961,1.05683864445,-2.99709576966,-0.0761764450373,2.50468643783,0.0351650347353
8.76,-0.642979299098,0.869156510472,0.0513650412511,0.614181339808,-0.185214348344,1.73672484483,-0.000261799381947,0.403879873426,-0.321812963961,1.05683864445,-2.99709576966,-0.0761764450373,2.50468643783,0.0351650347353
8.78,-0.642979299098,0.869156510472,0.0513650412511,0.614181339808,-0.185214348344,1.73672484483,-0.000261799381947,0.402792377493,-0.321602706381,1.05730789551,-2.99591910688,-0.0761735513703,2.50450626014,0.0355192189891
8.8,-0.642979299098,0.869156510472,0.0513650412511,0.614181339808,-0.185214348344,1.73672484483,-0.000261799381947,0.402792377493,-0.321602706381,1.05730789551,-2.99591910688,-0.0761735513703,2.50450626014,0.0355192189891
8.82,-0.643956679218,0.864095039662,0.0513650412511,0.623693418853,-0.185196887994,1.73192516275,-0.000279252693583,0.401884763547,-0.3214640616,1.05713788128,-2.9957011984,-0.0758677291558,2.5045985779,0.0359558274219
8.84,-0.643956679218,0.864095039662,0.0513650412511,0.623693418853,-0.185196887994,1.73192516275,-0.000279252693583,0.401884763547,-0.3214640616,1.05713788128,-2.9957011984,-0.0758677291558,2.5045985779,0.0359558274219
8.86,-0.644340640468,0.858789290402,0.0513475850624,0.634549328983,-0.185231792049,1.72405365752,-0.000296705988964,0.401410290364,-0.321269507441,1.05666646298,-2.99541679949,-0.0736203556585,2.50576165658,0.0364796888234
8.88,-0.644340640468,0.858789290402,0.0513475850624,0.634549328983,-0.185231792049,1.72405365752,-0.000296705988964,0.401410290364,-0.321269507441,1.05666646298,-2.99541679949,-0.0736203556585,2.50576165658,0.0364796888234
8.9,-0.644707158013,0.854617914607,0.0513824932786,0.644113739143,-0.185179427644,1.71597282782,-0.000279252693583,0.401167927544,-0.321208736167,1.05597165357,-2.99530494323,-0.0710072768226,2.50694228751,0.0364796888234
8.92,-0.644707158013,0.854617914607,0.0513824932786,0.644113739143,-0.185179427644,1.71597282782,-0.000279252693583,0.401167927544,-0.321208736167,1.05597165357,-2.99530494323,-0.0710072768226,2.50694228751,0.0369560611022
8.94,-0.644707158013,0.854617914607,0.0513824932786,0.644113739143,-0.185179427644,1.71597282782,-0.000279252693583,0.401167927544,-0.321208736167,1.05597165357,-2.99530494323,-0.0710072768226,2.50694228751,0.0369560611022
8.96,-0.644986457032,0.851790503057,0.0513999453061,0.652072462903,-0.185127079884,1.71049244178,-0.000279252693583,0.400822085151,-0.32103718622,1.05507538199,-2.9952106425,-0.0707097639862,2.50777667968,0.0373498219398
8.98,-0.644986457032,0.851790503057,0.0513999453061,0.652072462903,-0.185127079884,1.71049244178,-0.000279252693583,0.400822085151,-0.32103718622,1.05507538199,-2.9952106425,-0.0707097639862,2.50777667968,0.0373498219398
9.0,-0.645457636808,0.848177658722,0.0515395740098,0.661200514118,-0.185074715479,1.70831078021,-0.000279252693583,0.399814545161,-0.320443093391,1.0542834384,-2.99514365878,-0.0740576067989,2.50806650489,0.0377517558192
