GitHatake/ROS1EARs/catkin_ws/src/torobo_robot/torobo_EARs2021/scripts/arm/2021_kaiya_csv/test_manipulability_joint_5.csv
time,joint_1,joint_2,joint_3,joint_4,joint_5,joint_6,joint_7,x,y,z,roll,pitch,yaw,manipulability
0.0,0.465618929059,0.854041939443,0.059515728991,0.744400396312,-0.0964468948647,1.3385977082,-0.656278726108,0.49890090424,0.256240215127,1.02785626694,-2.97427794498,0.130318866576,-1.96173170493,0.0430475842113
0.02,0.465618929059,0.854041939443,0.059515728991,0.744417840017,-0.0964294428372,1.3385977082,-0.656278726108,0.498896724833,0.256241499289,1.02785028757,-2.9743026777,0.130316150156,-1.96173460345,0.0430484277663
0.04,0.465618929059,0.854041939443,0.059515728991,0.744417840017,-0.0964294428372,1.3385977082,-0.656278726108,0.498896724833,0.256241499289,1.02785028757,-2.9743026777,0.130316150156,-1.96173460345,0.0430484277663
0.06,0.465584041648,0.854041939443,0.0594982728023,0.744417840017,-0.0964468948647,1.3385977082,-0.656278726108,0.498909868139,0.256216121048,1.02785037099,-2.97427889991,0.130296642174,-1.96177740197,0.0430484329261
0.08,0.465584041648,0.854041939443,0.0594982728023,0.744417840017,-0.0964468948647,1.3385977082,-0.656278726108,0.498909868139,0.256216121048,1.02785037099,-2.97427889991,0.130296642174,-1.96177740197,0.0430484329261
0.1,0.465584041648,0.854024495737,0.0594982728023,0.744417840017,-0.0964468948647,1.3385977082,-0.656261282402,0.498909511894,0.256215942063,1.02786015398,-2.97426963008,0.13031272773,-1.96179325177,0.0430480317327
0.12,0.465584041648,0.854024495737,0.0594982728023,0.744417840017,-0.0964468948647,1.3385977082,-0.656261282402,0.498909511894,0.256215942063,1.02786015398,-2.97426963008,0.13031272773,-1.96179325177,0.0430480317327
0.14,0.465584041648,0.854024495737,0.0594982728023,0.744417840017,-0.0964468948647,1.3385977082,-0.656261282402,0.498909511894,0.256215942063,1.02786015398,-2.97426963008,0.13031272773,-1.96179325177,0.0430480317327
0.16,0.465601485353,0.854059383148,0.059515728991,0.744435283723,-0.0964468948647,1.3385977082,-0.656261282402,0.498900172736,0.256229219214,1.02783482282,-2.97431369118,0.130281383761,-1.96176928303,0.0430496678592
0.18,0.465601485353,0.854059383148,0.059515728991,0.744435283723,-0.0964468948647,1.3385977082,-0.656261282402,0.498900172736,0.256229219214,1.02783482282,-2.97431369118,0.130281383761,-1.96176928303,0.0430496678592
0.2,0.465636406053,0.854041939443,0.0595331810186,0.744435283723,-0.0964468948647,1.3385977082,-0.656278726108,0.49888806581,0.256251913279,1.02784467117,-2.97430994039,0.130300278674,-1.96170535575,0.0430492591988
0.22,0.465636406053,0.854041939443,0.0595331810186,0.744435283723,-0.0964468948647,1.3385977082,-0.656278726108,0.49888806581,0.256251913279,1.02784467117,-2.97430994039,0.130300278674,-1.96170535575,0.0430492591988
0.24,0.465584041648,0.854059383148,0.0594982728023,0.744435283723,-0.0964468948647,1.3385977082,-0.656278726108,0.498907445492,0.256215063866,1.02783475748,-2.97430140808,0.130269858299,-1.96177954408,0.0430496753339
0.26,0.465584041648,0.854059383148,0.0594982728023,0.744435283723,-0.0964468948647,1.3385977082,-0.656278726108,0.498907445492,0.256215063866,1.02783475748,-2.97430140808,0.130269858299,-1.96177954408,0.0430496753339
0.28,0.465584041648,0.854059383148,0.0594982728023,0.744435283723,-0.0964468948647,1.3385977082,-0.656278726108,0.498907445492,0.256215063866,1.02783475748,-2.97430140808,0.130269858299,-1.96177954408,0.0430496753339
0.3,0.465618929059,0.854059383148,0.0594982728023,0.744435283723,-0.0964468948647,1.3385977082,-0.656261282402,0.498898506508,0.256232469299,1.02783475748,-2.97430366153,0.130272762866,-1.96176200384,0.0430496753339
0.32,0.465618929059,0.854059383148,0.0594982728023,0.744435283723,-0.0964468948647,1.3385977082,-0.656261282402,0.498898506508,0.256232469299,1.02783475748,-2.97430366153,0.130272762866,-1.96176200384,0.0430496753339
0.34,0.465653849758,0.854041939443,0.0595331810186,0.744435283723,-0.0964294428372,1.3385977082,-0.656278726108,0.49888219476,0.256263135848,1.02784452246,-2.97432368885,0.130311165653,-1.96169016571,0.0430492615136
0.36,0.465653849758,0.854041939443,0.0595331810186,0.744435283723,-0.0964294428372,1.3385977082,-0.656278726108,0.49888219476,0.256263135848,1.02784452246,-2.97432368885,0.130311165653,-1.96169016571,0.0430492615136
0.38,0.465601485353,0.854041939443,0.059515728991,0.744417840017,-0.0964468948647,1.3385977082,-0.656261282402,0.498902595384,0.256230276401,1.02785043633,-2.97429118333,0.130308167913,-1.96176714093,0.0430484254515
0.4,0.465601485353,0.854041939443,0.059515728991,0.744417840017,-0.0964468948647,1.3385977082,-0.656261282402,0.498902595384,0.256230276401,1.02785043633,-2.97429118333,0.130308167913,-1.96176714093,0.0430484254515
0.42,0.465601485353,0.854041939443,0.059515728991,0.744417840017,-0.0964468948647,1.3385977082,-0.656261282402,0.498902595384,0.256230276401,1.02785043633,-2.97429118333,0.130308167913,-1.96176714093,0.0430484254515
0.44,0.465653849758,0.854041939443,0.0595331810186,0.744417840017,-0.0964294428372,1.3385977082,-0.656261282402,0.498884973366,0.256264372016,1.02785035301,-2.97431495904,0.13032767351,-1.96170686814,0.0430484202912
0.46,0.465653849758,0.854041939443,0.0595331810186,0.744417840017,-0.0964294428372,1.3385977082,-0.656261282402,0.498884973366,0.256264372016,1.02785035301,-2.97431495904,0.13032767351,-1.96170686814,0.0430484202912
0.48,0.465688737169,0.854076893432,0.0595506330461,0.744435283723,-0.0964294428372,1.3385977082,-0.656261282402,0.498871163969,0.256286349774,1.02782498475,-2.97435906217,0.130296277809,-1.9616654643,0.0430500579275
0.5,0.465688737169,0.854076893432,0.0595506330461,0.744435283723,-0.0964294428372,1.3385977082,-0.656261282402,0.498871163969,0.256286349774,1.02782498475,-2.97435906217,0.130296277809,-1.9616654643,0.0430500579275
0.52,0.465618929059,0.854024495737,0.059515728991,0.744400396312,-0.0964468948647,1.3385977082,-0.656261282402,0.49890054791,0.256240036082,1.02786604998,-2.97426867536,0.130334952026,-1.9617475545,0.0430471830201
0.54,0.465618929059,0.854024495737,0.059515728991,0.744400396312,-0.0964468948647,1.3385977082,-0.656261282402,0.49890054791,0.256240036082,1.02786604998,-2.97426867536,0.130334952026,-1.9617475545,0.0430471830201
0.56,0.465618929059,0.854024495737,0.059515728991,0.744400396312,-0.0964468948647,1.3385977082,-0.656261282402,0.49890054791,0.256240036082,1.02786604998,-2.97426867536,0.130334952026,-1.9617475545,0.0430471830201
0.58,0.465653849758,0.854059383148,0.059515728991,0.744400396312,-0.0964468948647,1.3386151519,-0.656261282402,0.498889789767,0.256256378147,1.02784587988,-2.97430266817,0.13029496372,-1.96171794991,0.0430480561534
0.6,0.465653849758,0.854059383148,0.059515728991,0.744400396312,-0.0964468948647,1.3386151519,-0.656261282402,0.498889789767,0.256256378147,1.02784587988,-2.97430266817,0.13029496372,-1.96171794991,0.0430480561534
0.62,0.465706214163,0.854076893432,0.0595506330461,0.744417840017,-0.0964294428372,1.3385977082,-0.656278726108,0.498869463522,0.256296304873,1.0278308152,-2.97434582413,0.130306977699,-1.96162999547,0.0430492167005
0.64,0.465706214163,0.854076893432,0.0595506330461,0.744417840017,-0.0964294428372,1.3385977082,-0.656278726108,0.498869463522,0.256296304873,1.0278308152,-2.97434582413,0.130306977699,-1.96162999547,0.0430492167005
0.66,0.465671293464,0.854059383148,0.059515728991,0.744417840017,-0.0964294428372,1.3386151519,-0.656261282402,0.498881140049,0.256266364494,1.02783990062,-2.97432740076,0.130292246784,-1.96170340441,0.0430488997104
0.68,0.465671293464,0.854059383148,0.059515728991,0.744417840017,-0.0964294428372,1.3386151519,-0.656261282402,0.498881140049,0.256266364494,1.02783990062,-2.97432740076,0.130292246784,-1.96170340441,0.0430488997104
0.7,0.465671293464,0.854059383148,0.059515728991,0.744417840017,-0.0964294428372,1.3386151519,-0.656261282402,0.498881140049,0.256266364494,1.02783990062,-2.97432740076,0.130292246784,-1.96170340441,0.0430488997104
0.72,0.465618929059,0.854076893432,0.059515728991,0.744435283723,-0.0964468948647,1.3385977082,-0.656261282402,0.498896060275,0.256238101324,1.02782500253,-2.97432525894,0.130268152926,-1.96175334205,0.0430500705645
0.74,0.465618929059,0.854076893432,0.059515728991,0.744435283723,-0.0964468948647,1.3385977082,-0.656261282402,0.498896060275,0.256238101324,1.02782500253,-2.97432525894,0.130268152926,-1.96175334205,0.0430500705645
0.76,0.465828386678,0.854059383148,0.0595506330461,0.744435283723,-0.0964294428372,1.3385977082,-0.656261282402,0.498835011678,0.256355834832,1.02783480504,-2.97434749412,0.130309508436,-1.96152431171,0.0430496552217
0.78,0.465828386678,0.854059383148,0.0595506330461,0.744435283723,-0.0964294428372,1.3385977082,-0.656261282402,0.498835011678,0.256355834832,1.02783480504,-2.97434749412,0.130309508436,-1.96152431171,0.0430496552217
0.8,0.465706214163,0.854094337137,0.059515728991,0.744435283723,-0.0964468948647,1.3385977082,-0.656278726108,0.49887404828,0.256281825296,1.02781521957,-2.97433452953,0.130252068384,-1.96165020658,0.0430504717276
0.82,0.465706214163,0.854094337137,0.059515728991,0.744435283723,-0.0964468948647,1.3385977082,-0.656278726108,0.49887404828,0.256281825296,1.02781521957,-2.97433452953,0.130252068384,-1.96165020658,0.0430504717276
0.84,0.465706214163,0.854094337137,0.059515728991,0.744435283723,-0.0964468948647,1.3385977082,-0.656278726108,0.49887404828,0.256281825296,1.02781521957,-2.97433452953,0.130252068384,-1.96165020658,0.0430504717276
0.86,0.465741101574,0.854076893432,0.0594982728023,0.744417840017,-0.0964468948647,1.3385977082,-0.656278726108,0.498870334035,0.25629483517,1.02783076764,-2.97430199172,0.130270231008,-1.96162334202,0.0430492368112
0.88,0.465741101574,0.854076893432,0.0594982728023,0.744417840017,-0.0964468948647,1.3385977082,-0.656278726108,0.498870334035,0.25629483517,1.02783076764,-2.97430199172,0.130270231008,-1.96162334202,0.0430492368112
0.9,0.465723657868,0.854111780842,0.0595331810186,0.744435283723,-0.0964468948647,1.3385977082,-0.656278726108,0.498867129822,0.256296157071,1.02780550201,-2.97435608093,0.130247507482,-1.96162409786,0.0430508654053
0.92,0.465723657868,0.854111780842,0.0595331810186,0.744435283723,-0.0964468948647,1.3385977082,-0.656278726108,0.498867129822,0.256296157071,1.02780550201,-2.97435608093,0.130247507482,-1.96162409786,0.0430508654053
0.94,0.465758578568,0.854111780842,0.0595331810186,0.744452727428,-0.0964468948647,1.3385977082,-0.656261282402,0.498855400552,0.256312341013,1.02779967172,-2.97436931788,0.130236807424,-1.96160716844,0.0430517066197
0.96,0.465758578568,0.854111780842,0.0595331810186,0.744452727428,-0.0964468948647,1.3385977082,-0.656261282402,0.498855400552,0.256312341013,1.02779967172,-2.97436931788,0.130236807424,-1.96160716844,0.0430517066197
0.98,0.465758578568,0.854111780842,0.0595331810186,0.744452727428,-0.0964468948647,1.3385977082,-0.656261282402,0.498855400552,0.256312341013,1.02779967172,-2.97436931788,0.130236807424,-1.96160716844,0.0430517066197
1.0,0.465706214163,0.854164111958,0.059515728991,0.744435283723,-0.0964468948647,1.3385977082,-0.656278726108,0.498875469455,0.256282539545,1.02777608765,-2.97438062502,0.130199346828,-1.96165619244,0.0430520762702
1.02,0.465706214163,0.854164111958,0.059515728991,0.744435283723,-0.0964468948647,1.3385977082,-0.656278726108,0.498875469455,0.256282539545,1.02777608765,-2.97438062502,0.130199346828,-1.96165619244,0.0430520762702
1.04,0.465758578568,0.854129224547,0.0595331810186,0.744435283723,-0.0964468948647,1.3385977082,-0.656278726108,0.498858534839,0.256313756324,1.02779571903,-2.97436760497,0.130234327218,-1.96159067382,0.0430512665466
1.06,0.465758578568,0.854129224547,0.0595331810186,0.744435283723,-0.0964468948647,1.3385977082,-0.656278726108,0.498858534839,0.256313756324,1.02779571903,-2.97436760497,0.130234327218,-1.96159067382,0.0430512665466
1.08,0.465671293464,0.854146668252,0.0594982728023,0.744435283723,-0.0964468948647,1.3386151519,-0.656278726108,0.498884345057,0.256258049642,1.02778520164,-2.97437001586,0.130190278291,-1.96170210087,0.0430517533831
1.1,0.465671293464,0.854146668252,0.0594982728023,0.744435283723,-0.0964468948647,1.3386151519,-0.656278726108,0.498884345057,0.256258049642,1.02778520164,-2.97437001586,0.130190278291,-1.96170210087,0.0430517533831
1.12,0.465671293464,0.854146668252,0.0594982728023,0.744435283723,-0.0964468948647,1.3386151519,-0.656278726108,0.498884345057,0.256258049642,1.02778520164,-2.97437001586,0.130190278291,-1.96170210087,0.0430517533831
1.14,0.465671293464,0.854129224547,0.059515728991,0.744400396312,-0.0964468948647,1.3385977082,-0.656278726108,0.498889266364,0.25626723427,1.02780731426,-2.97433560911,0.130252914613,-1.96168683211,0.0430495915337
1.16,0.465671293464,0.854129224547,0.059515728991,0.744400396312,-0.0964468948647,1.3385977082,-0.656278726108,0.498889266364,0.25626723427,1.02780731426,-2.97433560911,0.130252914613,-1.96168683211,0.0430495915337
1.18,0.465688737169,0.854146668252,0.059515728991,0.744435283723,-0.0964468948647,1.3385977082,-0.656261282402,0.498879593359,0.256273642221,1.02778587064,-2.97437135368,0.130215430646,-1.96168952044,0.043051675151
1.2,0.465688737169,0.854146668252,0.059515728991,0.744435283723,-0.0964468948647,1.3385977082,-0.656261282402,0.498879593359,0.256273642221,1.02778587064,-2.97437135368,0.130215430646,-1.96168952044,0.043051675151
1.22,0.465636406053,0.854111780842,0.0594982728023,0.744382952607,-0.0964468948647,1.3385977082,-0.656261282402,0.498903433255,0.256245434342,1.02782286246,-2.97430532447,0.13027398155,-1.96174708906,0.0430483566031
1.24,0.465636406053,0.854111780842,0.0594982728023,0.744382952607,-0.0964468948647,1.3385977082,-0.656261282402,0.498903433255,0.256245434342,1.02782286246,-2.97430532447,0.13027398155,-1.96174708906,0.0430483566031
1.26,0.465636406053,0.854111780842,0.0594982728023,0.744382952607,-0.0964468948647,1.3385977082,-0.656261282402,0.498903433255,0.256245434342,1.02782286246,-2.97430532447,0.13027398155,-1.96174708906,0.0430483566031
1.28,0.465653849758,0.854129224547,0.0594982728023,0.744435283723,-0.0964643468922,1.3385977082,-0.656278726108,0.498892383118,0.256248086324,1.02779573711,-2.974333799,0.130206199183,-1.96171347442,0.0430512791792
1.3,0.465653849758,0.854129224547,0.0594982728023,0.744435283723,-0.0964643468922,1.3385977082,-0.656278726108,0.498892383118,0.256248086324,1.02779573711,-2.974333799,0.130206199183,-1.96171347442,0.0430512791792
1.32,0.465671293464,0.854129224547,0.0594982728023,0.744400396312,-0.0964643468922,1.3385977082,-0.656278726108,0.49889347102,0.256259261794,1.02780739775,-2.9743118307,0.130233406094,-1.96169474227,0.0430495966916
1.34,0.465671293464,0.854129224547,0.0594982728023,0.744400396312,-0.0964643468922,1.3385977082,-0.656278726108,0.49889347102,0.256259261794,1.02780739775,-2.9743118307,0.130233406094,-1.96169474227,0.0430495966916
1.36,0.465618929059,0.854111780842,0.0594633687473,0.744382952607,-0.0964992509472,1.3385977082,-0.656278726108,0.498917719142,0.25621825184,1.02782317893,-2.97424177094,0.130221177255,-1.96176078271,0.0430483645924
1.38,0.465618929059,0.854111780842,0.0594633687473,0.744382952607,-0.0964992509472,1.3385977082,-0.656278726108,0.498917719142,0.25621825184,1.02782317893,-2.97424177094,0.130221177255,-1.96176078271,0.0430483645924
1.4,0.465653849758,0.854111780842,0.0594633687473,0.744382952607,-0.0965167112971,1.3385977082,-0.656261282402,0.498917719142,0.25621825184,1.02782317893,-2.97424177094,0.130221177255,-1.96176078271,0.0430483645924
1.42,0.465653849758,0.854111780842,0.0594633687473,0.744382952607,-0.0965167112971,1.3385977082,-0.656261282402,0.498910173054,0.256233152839,1.02782332806,-2.97423026863,0.130213190731,-1.96174095501,0.0430483622748
1.44,0.465653849758,0.854111780842,0.0594633687473,0.744382952607,-0.0965167112971,1.3385977082,-0.656261282402,0.498910173054,0.256233152839,1.02782332806,-2.97423026863,0.130213190731,-1.96174095501,0.0430483622748
1.46,0.465671293464,0.854111780842,0.0594808207748,0.744382952607,-0.0967086919222,1.3386151519,-0.656278726108,0.498915789426,0.256218146047,1.0278244318,-2.97409775549,0.13008551174,-1.96167355389,0.0430484000614
1.48,0.465671293464,0.854111780842,0.0594808207748,0.744382952607,-0.0967086919222,1.3386151519,-0.656278726108,0.498915789426,0.256218146047,1.0278244318,-2.97409775549,0.13008551174,-1.96167355389,0.0430484000614
1.5,0.465653849758,0.854111780842,0.0594633687473,0.744365442323,-0.0973195628196,1.3385977082,-0.656278726108,0.498977406632,0.256118459396,1.02783609243,-2.97358457715,0.129723060089,-1.9616194994,0.0430474107661
1.52,0.465653849758,0.854111780842,0.0594633687473,0.744365442323,-0.0973195628196,1.3385977082,-0.656278726108,0.498977406632,0.256118459396,1.02783609243,-2.97358457715,0.129723060089,-1.9616194994,0.0430474107661
1.54,0.465653849758,0.854094337137,0.0594633687473,0.744347998618,-0.100583324992,1.3386151519,-0.656278726108,0.499239284058,0.255646842801,1.02788029591,-2.97100307394,0.127699364186,-1.96120254321,0.0430457950498
1.56,0.465653849758,0.854094337137,0.0594633687473,0.744347998618,-0.100583324992,1.3386151519,-0.656278726108,0.499239284058,0.255646842801,1.02788029591,-2.97100307394,0.127699364186,-1.96120254321,0.0430457950498
1.58,0.465706214163,0.854094337137,0.0594633687473,0.744365442323,-0.108297678755,1.3385977082,-0.656278726108,0.499844886635,0.254559837947,1.02795106331,-2.96493473461,0.1228808272,-1.96018369135,0.0430454578811
1.6,0.465706214163,0.854094337137,0.0594633687473,0.744365442323,-0.108297678755,1.3385977082,-0.656278726108,0.499844886635,0.254559837947,1.02795106331,-2.96493473461,0.1228808272,-1.96018369135,0.0430454578811
1.62,0.465671293464,0.854094337137,0.0594633687473,0.744347998618,-0.12341223314,1.3386151519,-0.656261282402,0.501066987908,0.252362769419,1.02813365439,-2.95307055589,0.113426798614,-1.95843479773,0.0430422818679
1.64,0.465671293464,0.854094337137,0.0594633687473,0.744347998618,-0.12341223314,1.3386151519,-0.656261282402,0.501066987908,0.252362769419,1.02813365439,-2.95307055589,0.113426798614,-1.95843479773,0.0430422818679
1.66,0.465688737169,0.854076893432,0.0594633687473,0.744347998618,-0.14463542992,1.3385977082,-0.656261282402,0.502766956091,0.249317916566,1.02845665341,-2.93643516263,0.100139851323,-1.95607537514,0.043037905885
1.68,0.465688737169,0.854076893432,0.0594633687473,0.744347998618,-0.14463542992,1.3385977082,-0.656261282402,0.502766956091,0.249317916566,1.02845665341,-2.93643516263,0.100139851323,-1.95607537514,0.043037905885
1.7,0.465671293464,0.854076893432,0.0594808207748,0.744243269808,-0.172892318099,1.33858026449,-0.656278726108,0.505050917217,0.245267942094,1.02902338204,-2.91432752269,0.0824568374114,-1.95329769643,0.0430266312776
1.72,0.465671293464,0.854076893432,0.0594808207748,0.744243269808,-0.172892318099,1.33858026449,-0.656278726108,0.505050917217,0.245267942094,1.02902338204,-2.91432752269,0.0824568374114,-1.95329769643,0.0430266312776
1.74,0.465618929059,0.854076893432,0.0594633687473,0.744330554913,-0.206071027579,1.33863259561,-0.656261282402,0.507695744791,0.240484549828,1.02978337666,-2.88862790921,0.0613933433355,-1.95065034143,0.0430224713118
1.76,0.465618929059,0.854076893432,0.0594633687473,0.744330554913,-0.206071027579,1.33863259561,-0.656261282402,0.507695744791,0.240484549828,1.02978337666,-2.88862790921,0.0613933433355,-1.95065034143,0.0430224713118
1.78,0.465636406053,0.854076893432,0.0594808207748,0.744313111208,-0.241134689189,1.3386151519,-0.656261282402,0.510484541759,0.235521957903,1.03082061676,-2.86146416611,0.0392193314175,-1.94831683097,0.0430108708682
1.8,0.465636406053,0.854076893432,0.0594808207748,0.744313111208,-0.241134689189,1.3386151519,-0.656261282402,0.510484541759,0.235521957903,1.03082061676,-2.86146416611,0.0392193314175,-1.94831683097,0.0430108708682
1.82,0.465653849758,0.854076893432,0.0594633687473,0.744313111208,-0.282970220174,1.3386151519,-0.656261282402,0.510484541759,0.235521957903,1.03082061676,-2.86146416611,0.0392193314175,-1.94831683097,0.0430108708682
1.84,0.465653849758,0.854076893432,0.0594633687473,0.744313111208,-0.282970220174,1.3386151519,-0.656261282402,0.513792960217,0.229633188024,1.03231181529,-2.82914574218,0.0126421218394,-1.94635612519,0.0429960090255
1.86,0.465618929059,0.854076893432,0.0594633687473,0.744313111208,-0.324229809284,1.3386151519,-0.656278726108,0.517039231974,0.223866149139,1.03405771351,-2.79733270812,-0.0136147858984,-1.94528873767,0.0429791106032
1.88,0.465618929059,0.854076893432,0.0594633687473,0.744313111208,-0.324229809284,1.3386151519,-0.656278726108,0.517039231974,0.223866149139,1.03405771351,-2.79733270812,-0.0136147858984,-1.94528873767,0.0429791106032
1.9,0.465618929059,0.854076893432,0.0594808207748,0.744330554913,-0.365122880849,1.3385977082,-0.656278726108,0.520215330156,0.218244617264,1.03604932403,-2.76581918452,-0.039645956995,-1.94501877119,0.0429609652516
1.92,0.465618929059,0.854076893432,0.0594808207748,0.744330554913,-0.365122880849,1.3385977082,-0.656278726108,0.520215330156,0.218244617264,1.03604932403,-2.76581918452,-0.039645956995,-1.94501877119,0.0429609652516
1.94,0.465653849758,0.854094337137,0.0594982728023,0.744347998618,-0.412595824519,1.3385977082,-0.656278726108,0.523848225516,0.211835082319,1.03868066824,-2.72920669737,-0.0698850224867,-1.94570737149,0.0429376238619
1.96,0.465653849758,0.854094337137,0.0594982728023,0.744347998618,-0.412595824519,1.3385977082,-0.656278726108,0.523848225516,0.211835082319,1.03868066824,-2.72920669737,-0.0698850224867,-1.94570737149,0.0429376238619
1.98,0.465618929059,0.854076893432,0.0594982728023,0.744330554913,-0.457084263424,1.3385977082,-0.656261282402,0.527221790072,0.205899698762,1.04149314741,-2.69473635669,-0.0981303161762,-1.94746284224,0.0429108618788
2.0,0.465618929059,0.854076893432,0.0594982728023,0.744330554913,-0.457084263424,1.3385977082,-0.656261282402,0.527221790072,0.205899698762,1.04149314741,-2.69473635669,-0.0981303161762,-1.94746284224,0.0429108618788
2.02,0.465636406053,0.854111780842,0.0594982728023,0.744347998618,-0.506477079924,1.3385977082,-0.656261282402,0.530885510067,0.199477638484,1.04492377141,-2.65633922531,-0.129476245831,-1.95048540819,0.0428814044124
2.04,0.465636406053,0.854111780842,0.0594982728023,0.744347998618,-0.506477079924,1.3385977082,-0.656261282402,0.530885510067,0.199477638484,1.04492377141,-2.65633922531,-0.129476245831,-1.95048540819,0.0428814044124
2.06,0.465636406053,0.854094337137,0.0594982728023,0.744347998618,-0.555747723908,1.3385977082,-0.656278726108,0.534466118066,0.19322373832,1.0487410216,-2.61772240361,-0.160561563403,-1.95473408377,0.0428472094969
2.08,0.465636406053,0.854094337137,0.0594982728023,0.744347998618,-0.555747723908,1.3385977082,-0.656278726108,0.534466118066,0.19322373832,1.0487410216,-2.61772240361,-0.160561563403,-1.95473408377,0.0428472094969
2.1,0.465618929059,0.854094337137,0.0594982728023,0.744347998618,-0.605960893893,1.3385977082,-0.656261282402,0.538029601232,0.187022578372,1.0529814539,-2.57801523744,-0.192044614693,-1.96038938713,0.0428100181959
2.12,0.465618929059,0.854094337137,0.0594982728023,0.744347998618,-0.605960893893,1.3385977082,-0.656261282402,0.538029601232,0.187022578372,1.0529814539,-2.57801523744,-0.192044614693,-1.96038938713,0.0428100181959
2.14,0.465618929059,0.854111780842,0.0594982728023,0.744347998618,-0.663574189598,1.3385977082,-0.656278726108,0.541992362597,0.180164351699,1.05827110001,-2.53192175471,-0.227894418183,-1.96844418504,0.0427644843279
2.16,0.465618929059,0.854111780842,0.0594982728023,0.744347998618,-0.663574189598,1.3385977082,-0.656278726108,0.541992362597,0.180164351699,1.05827110001,-2.53192175471,-0.227894418183,-1.96844418504,0.0427644843279
2.18,0.465618929059,0.854111780842,0.0594982728023,0.744347998618,-0.721065312788,1.33858026449,-0.656261282402,0.545804932077,0.173605465185,1.06400546383,-2.48519029544,-0.263220240735,-1.9782726484,0.0427152760684
2.2,0.465618929059,0.854111780842,0.0594982728023,0.744347998618,-0.721065312788,1.33858026449,-0.656261282402,0.545804932077,0.173605465185,1.06400546383,-2.48519029544,-0.263220240735,-1.9782726484,0.0427152760684
2.22,0.465618929059,0.854111780842,0.0594982728023,0.744313111208,-0.785153818367,1.33858026449,-0.656278726108,0.549872286674,0.166653827482,1.07091052938,-2.43210075134,-0.30202787209,-1.99135841163,0.042655270012
2.24,0.465618929059,0.854111780842,0.0594982728023,0.744313111208,-0.785153818367,1.33858026449,-0.656278726108,0.549872286674,0.166653827482,1.07091052938,-2.43210075134,-0.30202787209,-1.99135841163,0.042655270012
2.26,0.465653849758,0.854111780842,0.059515728991,0.744330554913,-0.847392225938,1.33858026449,-0.656261282402,0.553607935381,0.160314731988,1.07807774305,-2.37941538031,-0.339027651312,-2.0062651232,0.0425960786365
2.28,0.465636406053,0.854111780842,0.0594982728023,0.744330554913,-0.912999199392,1.33856282079,-0.656278726108,0.553607935381,0.160314731988,1.07807774305,-2.37941538031,-0.339027651312,-2.0062651232,0.0425960786365
2.3,0.465636406053,0.854111780842,0.0594982728023,0.744330554913,-0.912999199392,1.33856282079,-0.656278726108,0.55733120017,0.154037018837,1.08612347643,-2.32242224867,-0.377168985445,-2.02449886473,0.0425294720815
2.32,0.465618929059,0.854111780842,0.0594982728023,0.744313111208,-0.976075370862,1.33856282079,-0.656278726108,0.55733120017,0.154037018837,1.08612347643,-2.32242224867,-0.377168985445,-2.02449886473,0.0425294720815
2.34,0.465618929059,0.854111780842,0.0594982728023,0.744313111208,-0.976075370862,1.33856282079,-0.656278726108,0.56067097147,0.1484584264,1.09429702095,-2.26607566624,-0.412827074579,-2.04452140488,0.042461903553
2.36,0.465618929059,0.854129224547,0.0594459125586,0.744347998618,-1.03854074634,1.33856282079,-0.656261282402,0.563732517207,0.143386579406,1.10275591251,-2.20860725102,-0.4471097217,-2.06685689354,0.0423954725113
2.38,0.465618929059,0.854129224547,0.0594459125586,0.744347998618,-1.03854074634,1.33856282079,-0.656261282402,0.563732517207,0.143386579406,1.10275591251,-2.20860725102,-0.4471097217,-2.06685689354,0.0423954725113
2.4,0.465618929059,0.854129224547,0.0594808207748,0.744347998618,-1.10322260421,1.33856282079,-0.656278726108,0.566631538784,0.138666113472,1.11189951994,-2.14721832047,-0.481245494829,-2.09258659817,0.0423223948891
2.42,0.465618929059,0.854129224547,0.0594808207748,0.744347998618,-1.10322260421,1.33856282079,-0.656278726108,0.566631538784,0.138666113472,1.11189951994,-2.14721832047,-0.481245494829,-2.09258659817,0.0423223948891
2.44,0.465601485353,0.854111780842,0.0594633687473,0.744330554913,-1.16479781809,1.33856282079,-0.656278726108,0.569132046026,0.134640567433,1.12094033504,-2.08675657514,-0.512323980102,-2.11979462839,0.0422499551566
2.46,0.465601485353,0.854111780842,0.0594633687473,0.744330554913,-1.16479781809,1.33856282079,-0.656278726108,0.569132046026,0.134640567433,1.12094033504,-2.08675657514,-0.512323980102,-2.11979462839,0.0422499551566
2.48,0.465618929059,0.854111780842,0.0594982728023,0.744347998618,-1.2274027432,1.33854537708,-0.656278726108,0.571394601918,0.13109507391,1.13038497975,-2.02325957512,-0.542376673445,-2.15002865027,0.042176816804
2.5,0.465618929059,0.854111780842,0.0594982728023,0.744347998618,-1.2274027432,1.33854537708,-0.656278726108,0.571394601918,0.13109507391,1.13038497975,-2.02325957512,-0.542376673445,-2.15002865027,0.042176816804
2.52,0.465618929059,0.854094337137,0.0594982728023,0.744347998618,-1.28234575386,1.33854537708,-0.656278726108,0.573146339004,0.128397902492,1.13889514385,-1.96567354155,-0.567301904665,-2.17890382545,0.042110802008
2.54,0.465618929059,0.854094337137,0.0594982728023,0.744347998618,-1.28234575386,1.33854537708,-0.656278726108,0.573146339004,0.128397902492,1.13889514385,-1.96567354155,-0.567301904665,-2.17890382545,0.042110802008
2.56,0.465601485353,0.854094337137,0.059515728991,0.744330554913,-1.3395227572,1.33852793338,-0.656278726108,0.5747371972,0.126029668418,1.14791809566,-1.90389089555,-0.591660854784,-2.21120681586,0.0420409332314
2.58,0.465601485353,0.854094337137,0.059515728991,0.744330554913,-1.3395227572,1.33852793338,-0.656278726108,0.5747371972,0.126029668418,1.14791809566,-1.90389089555,-0.591660854784,-2.21120681586,0.0420409332314
2.6,0.465618929059,0.854094337137,0.0595331810186,0.744347998618,-1.39165573344,1.33852793338,-0.656278726108,0.575963357252,0.124285769719,1.15626264679,-1.84588976323,-0.612390481876,-2.24263816866,0.0419785822292
2.62,0.465618929059,0.854094337137,0.0595331810186,0.744347998618,-1.39165573344,1.33852793338,-0.656278726108,0.575963357252,0.124285769719,1.15626264679,-1.84588976323,-0.612390481876,-2.24263816866,0.0419785822292
2.64,0.465601485353,0.854094337137,0.059515728991,0.744347998618,-1.43809899916,1.33852793338,-0.656278726108,0.576884712873,0.123028097212,1.16379018495,-1.79282401325,-0.629542703995,-2.27230578932,0.0419222303277
2.66,0.465601485353,0.854094337137,0.059515728991,0.744347998618,-1.43809899916,1.33852793338,-0.656278726108,0.576884712873,0.123028097212,1.16379018495,-1.79282401325,-0.629542703995,-2.27230578932,0.0419222303277
2.68,0.465584041648,0.854076893432,0.0594982728023,0.744330554913,-1.48216845625,1.33852793338,-0.656278726108,0.577600902406,0.122117484467,1.17100747941,-1.74128502347,-0.644567917791,-2.30181995144,0.0418676175665
2.7,0.465584041648,0.854076893432,0.0594982728023,0.744330554913,-1.48216845625,1.33852793338,-0.656278726108,0.577600902406,0.122117484467,1.17100747941,-1.74128502347,-0.644567917791,-2.30181995144,0.0418676175665
2.72,0.465601485353,0.854111780842,0.0594982728023,0.744347998618,-1.52149082869,1.33852793338,-0.656278726108,0.578112773184,0.121567678073,1.17744212257,-1.69441096491,-0.656992463451,-2.32915099468,0.0418216082274
2.74,0.465601485353,0.854111780842,0.0594982728023,0.744347998618,-1.55777613223,1.33851048967,-0.656278726108,0.578112773184,0.121567678073,1.17744212257,-1.69441096491,-0.656992463451,-2.32915099468,0.0418216082274
2.76,0.465601485353,0.854111780842,0.0594982728023,0.744347998618,-1.55777613223,1.33851048967,-0.656278726108,0.578475990013,0.121248466344,1.18342513013,-1.65038174811,-0.667486297749,-2.35523861944,0.041777717919
2.78,0.465584041648,0.854111780842,0.0594982728023,0.744365442323,-1.59334597753,1.33849304597,-0.656278726108,0.578475990013,0.121248466344,1.18342513013,-1.65038174811,-0.667486297749,-2.35523861944,0.041777717919
2.8,0.465584041648,0.854111780842,0.0594982728023,0.744365442323,-1.59334597753,1.33849304597,-0.656278726108,0.578732007032,0.121110440098,1.18929648431,-1.60655759567,-0.676895046755,-2.3815780827,0.0417356999611
2.82,0.465584041648,0.854111780842,0.0594982728023,0.744365442323,-1.62415102818,1.33851048967,-0.656278726108,0.578732007032,0.121110440098,1.18929648431,-1.60655759567,-0.676895046755,-2.3815780827,0.0417356999611
2.84,0.465584041648,0.854111780842,0.0594982728023,0.744365442323,-1.62415102818,1.33851048967,-0.656278726108,0.578866231309,0.121143742158,1.19439060722,-1.56809303035,-0.684288527144,-2.40497661317,0.0416991604691
2.86,0.465601485353,0.854111780842,0.0594982728023,0.744347998618,-1.65326310732,1.33851048967,-0.656278726108,0.578923156075,0.121313110775,1.1992094819,-1.53133623735,-0.690607500117,-2.42750704881,0.0416638864212
2.88,0.465601485353,0.854111780842,0.0594982728023,0.744347998618,-1.65326310732,1.33851048967,-0.656278726108,0.578923156075,0.121313110775,1.1992094819,-1.53133623735,-0.690607500117,-2.42750704881,0.0416638864212
2.9,0.465549120949,0.854111780842,0.0594982728023,0.744347998618,-1.67839589116,1.33849304597,-0.656278726108,0.578927860816,0.121521008033,1.20336035853,-1.49931764839,-0.695557958855,-2.44732765549,0.0416341334966
2.92,0.465549120949,0.854111780842,0.0594982728023,0.744347998618,-1.67839589116,1.33849304597,-0.656278726108,0.578927860816,0.121521008033,1.20336035853,-1.49931764839,-0.695557958855,-2.44732765549,0.0416341334966
2.94,0.465496756544,0.854111780842,0.0594808207748,0.744347998618,-1.70162624587,1.33849304597,-0.656278726108,0.578885815382,0.121785831233,1.20719335126,-1.46948389584,-0.69969880593,-2.46593603502,0.0416069820023
2.96,0.465496756544,0.854111780842,0.0594808207748,0.744347998618,-1.70162624587,1.33849304597,-0.656278726108,0.578885815382,0.121785831233,1.20719335126,-1.46948389584,-0.69969880593,-2.46593603502,0.0416069820023
2.98,0.465392061023,0.854111780842,0.0594982728023,0.744347998618,-1.72124375625,1.33849304597,-0.656278726108,0.578823640543,0.122042850879,1.21042067803,-1.44416881054,-0.702858534545,-2.48183805748,0.0415841809758
3.0,0.465392061023,0.854111780842,0.0594982728023,0.744347998618,-1.72124375625,1.33849304597,-0.656278726108,0.578823640543,0.122042850879,1.21042067803,-1.44416881054,-0.702858534545,-2.48183805748,0.0415841809758
3.02,0.465409504728,0.854111780842,0.0594982728023,0.744347998618,-1.73672484483,1.33849304597,-0.656278726108,0.578740777753,0.12233928451,1.21296440643,-1.42408772669,-0.705136972603,-2.49440454211,0.0415662913606
3.04,0.465409504728,0.854111780842,0.0594982728023,0.744347998618,-1.73672484483,1.33849304597,-0.656278726108,0.578740777753,0.12233928451,1.21296440643,-1.42408772669,-0.705136972603,-2.49440454211,0.0415662913606
3.06,0.465426948434,0.854111780842,0.0594982728023,0.744347998618,-1.75054784931,1.33849304597,-0.656278726108,0.578650343807,0.122634094092,1.21523166519,-1.40609509257,-0.707007968539,-2.50569195668,0.0415503941582
3.08,0.465426948434,0.854111780842,0.0594982728023,0.744347998618,-1.75054784931,1.33849304597,-0.656278726108,0.578650343807,0.122634094092,1.21523166519,-1.40609509257,-0.707007968539,-2.50569195668,0.0415503941582
3.1,0.465444392139,0.854111780842,0.059515728991,0.744347998618,-1.76025187569,1.33849304597,-0.656278726108,0.57857692883,0.122864545748,1.21681884061,-1.39344827919,-0.708226594461,-2.51362421472,0.0415392708901
3.12,0.465444392139,0.854111780842,0.059515728991,0.744347998618,-1.76025187569,1.33849304597,-0.656278726108,0.57857692883,0.122864545748,1.21681884061,-1.39344827919,-0.708226594461,-2.51362421472,0.0415392708901
3.14,0.465444392139,0.854111780842,0.0594982728023,0.744347998618,-1.76728555044,1.33849304597,-0.656278726108,0.578520836765,0.12302553255,1.21797126607,-1.38423623441,-0.709065505923,-2.51944277196,0.0415312455251
3.16,0.465444392139,0.854111780842,0.0594982728023,0.744347998618,-1.77177097951,1.33849304597,-0.656278726108,0.578520836765,0.12302553255,1.21797126607,-1.38423623441,-0.709065505923,-2.51944277196,0.0415312455251
3.18,0.465444392139,0.854111780842,0.0594982728023,0.744347998618,-1.77177097951,1.33849304597,-0.656278726108,0.578482903879,0.123134525175,1.21870427701,-1.37836588413,-0.709577974007,-2.52314623811,0.0415261333206
3.2,0.465426948434,0.854111780842,0.0594982728023,0.744347998618,-1.77487769008,1.33849304597,-0.656278726108,0.578457839023,0.123201607729,1.21921167477,-1.37429700167,-0.709923243669,-2.52573202603,0.0415225973768
3.22,0.465426948434,0.854111780842,0.0594982728023,0.744347998618,-1.77487769008,1.33849304597,-0.656278726108,0.578457839023,0.123201607729,1.21921167477,-1.37429700167,-0.709923243669,-2.52573202603,0.0415225973768
3.24,0.465444392139,0.854129224547,0.0594982728023,0.744365442323,-1.77674523179,1.33849304597,-0.656278726108,0.578442553079,0.123260872107,1.21950066077,-1.37185586418,-0.710161551573,-2.52725509451,0.0415216341964
3.26,0.465444392139,0.854129224547,0.0594982728023,0.744365442323,-1.77674523179,1.33849304597,-0.656278726108,0.578442553079,0.123260872107,1.21950066077,-1.37185586418,-0.710161551573,-2.52725509451,0.0415216341964
3.28,0.465461869133,0.854111780842,0.0595331810186,0.744347998618,-1.77749571059,1.33849304597,-0.656278726108,0.578429712817,0.123296124777,1.21963512843,-1.37090066551,-0.710204155063,-2.52781813997,0.0415196052789
3.3,0.465461869133,0.854111780842,0.0595331810186,0.744347998618,-1.77749571059,1.33849304597,-0.656278726108,0.578429712817,0.123296124777,1.21963512843,-1.37090066551,-0.710204155063,-2.52781813997,0.0415196052789
3.32,0.465461869133,0.854129224547,0.0595506330461,0.744382952607,-1.77723392185,1.33847560226,-0.656278726108,0.57843798464,0.123298131599,1.21956839459,-1.37127038856,-0.710228677859,-2.52755384996,0.0415216603629
3.34,0.465461869133,0.854129224547,0.0595506330461,0.744382952607,-1.77723392185,1.33847560226,-0.656278726108,0.57843798464,0.123298131599,1.21956839459,-1.37127038856,-0.710228677859,-2.52755384996,0.0415216603629
3.36,0.465496756544,0.854111780842,0.0595855412623,0.744365442323,-1.77719890129,1.33849304597,-0.656278726108,0.57842791742,0.123321529836,1.21957486035,-1.37134368939,-0.710183620809,-2.52746717524,0.0415207111225
3.38,0.465496756544,0.854111780842,0.0595855412623,0.744365442323,-1.77719890129,1.33849304597,-0.656278726108,0.57842791742,0.123321529836,1.21957486035,-1.37134368939,-0.710183620809,-2.52746717524,0.0415207111225
3.4,0.465496756544,0.854111780842,0.0595855412623,0.744382952607,-1.77711168276,1.33849304597,-0.656278726108,0.578428958379,0.123319760231,1.21955467802,-1.37146052329,-0.710191585209,-2.5273925518,0.0415216050457
3.42,0.465496756544,0.854111780842,0.0595855412623,0.744382952607,-1.77711168276,1.33849304597,-0.656278726108,0.578428958379,0.123319760231,1.21955467802,-1.37146052329,-0.710191585209,-2.5273925518,0.0415216050457
3.44,0.465514233538,0.854129224547,0.0596204453173,0.744382952607,-1.77639609137,1.33849304597,-0.656278726108,0.578436310693,0.123321647996,1.21942395337,-1.3724360922,-0.710127367325,-2.52673529551,0.0415227716715
3.46,0.465514233538,0.854129224547,0.0596204453173,0.744382952607,-1.77639609137,1.33849304597,-0.656278726108,0.578436310693,0.123321647996,1.21942395337,-1.3724360922,-0.710127367325,-2.52673529551,0.0415227716715
3.48,0.465549120949,0.854111780842,0.0596204453173,0.744382952607,-1.77618663375,1.33849304597,-0.656278726108,0.578430548495,0.123334859847,1.21939974188,-1.3727071516,-0.710087333584,-2.52652931297,0.041522641165
3.5,0.465549120949,0.854111780842,0.0596204453173,0.744382952607,-1.77618663375,1.33849304597,-0.656278726108,0.578430548495,0.123334859847,1.21939974188,-1.3727071516,-0.710087333584,-2.52652931297,0.041522641165
3.52,0.465549120949,0.854111780842,0.059637901506,0.744365442323,-1.77400497219,1.33847560226,-0.656278726108,0.578451754371,0.123285803928,1.21904731517,-1.37558104013,-0.709831188486,-2.52468662786,0.0415241305106
3.54,0.465549120949,0.854111780842,0.059637901506,0.744365442323,-1.77400497219,1.33847560226,-0.656278726108,0.578451754371,0.123285803928,1.21904731517,-1.37558104013,-0.709831188486,-2.52468662786,0.0415241305106
3.56,0.465566564654,0.854111780842,0.0596553535336,0.744365442323,-1.76906574047,1.33849304597,-0.656278726108,0.578489794517,0.123176676666,1.21823859936,-1.38206386138,-0.709269854635,-2.52058364447,0.0415299378676
3.58,0.465566564654,0.854111780842,0.0596553535336,0.744365442323,-1.76906574047,1.33849304597,-0.656278726108,0.578489794517,0.123176676666,1.21823859936,-1.38206386138,-0.709269854635,-2.52058364447,0.0415299378676
3.6,0.465584041648,0.854111780842,0.0596553535336,0.744347998618,-1.76074056575,1.33849304597,-0.656278726108,0.578554719265,0.122989716866,1.21688303533,-1.39294664604,-0.708269043408,-2.51370608771,0.0415386500945
3.62,0.465584041648,0.854111780842,0.0596553535336,0.744347998618,-1.76074056575,1.33849304597,-0.656278726108,0.578554719265,0.122989716866,1.21688303533,-1.39294664604,-0.708269043408,-2.51370608771,0.0415386500945
3.64,0.465549120949,0.854094337137,0.059637901506,0.744347998618,-1.74567825926,1.33849304597,-0.656278726108,0.578663606243,0.122633104141,1.21442758116,-1.41257229273,-0.706331053401,-2.50140261756,0.0415555546417
3.66,0.465549120949,0.854094337137,0.059637901506,0.744347998618,-1.74567825926,1.33849304597,-0.656278726108,0.578663606243,0.122633104141,1.21442758116,-1.41257229273,-0.706331053401,-2.50140261756,0.0415555546417
3.68,0.465549120949,0.854111780842,0.059637901506,0.744347998618,-1.72258758734,1.33849304597,-0.656278726108,0.578796727219,0.122190992658,1.21062579884,-1.44256417152,-0.703043708781,-2.4825906787,0.041582562651
3.7,0.465549120949,0.854111780842,0.059637901506,0.744347998618,-1.72258758734,1.33849304597,-0.656278726108,0.578796727219,0.122190992658,1.21062579884,-1.44256417152,-0.703043708781,-2.4825906787,0.041582562651
3.72,0.465584041648,0.854111780842,0.0596553535336,0.744347998618,-1.6919571069,1.33849304597,-0.656278726108,0.578898590103,0.121745056438,1.20557970352,-1.48208697612,-0.697999521042,-2.45788469631,0.0416181876449
3.74,0.465584041648,0.854111780842,0.0596553535336,0.744347998618,-1.6919571069,1.33849304597,-0.656278726108,0.578898590103,0.121745056438,1.20557970352,-1.48208697612,-0.697999521042,-2.45788469631,0.0416181876449
3.76,0.465584041648,0.854111780842,0.059637901506,0.744347998618,-1.65095933982,1.33849304597,-0.656278726108,0.578923315133,0.121322785501,1.19881269722,-1.53439112393,-0.690103936727,-2.42553159308,0.0416663651705
3.78,0.465584041648,0.854111780842,0.059637901506,0.744347998618,-1.65095933982,1.33849304597,-0.656278726108,0.578923315133,0.121322785501,1.19881269722,-1.53439112393,-0.690103936727,-2.42553159308,0.0416663651705
3.8,0.465566564654,0.854111780842,0.059637901506,0.744365442323,-1.60586003834,1.33849304597,-0.656278726108,0.578796410618,0.121133656705,1.19134974608,-1.59111687364,-0.67995316024,-2.3908590306,0.0417206962249
3.82,0.465566564654,0.854111780842,0.059637901506,0.744365442323,-1.60586003834,1.33849304597,-0.656278726108,0.578796410618,0.121133656705,1.19134974608,-1.59111687364,-0.67995316024,-2.3908590306,0.0417206962249
3.84,0.465584041648,0.854111780842,0.059637901506,0.744347998618,-1.55690354749,1.33851048967,-0.656278726108,0.578467958319,0.121280154335,1.18326513831,-1.65157595131,-0.667211338994,-2.35444858842,0.0417787052942
3.86,0.465584041648,0.854111780842,0.059637901506,0.744347998618,-1.55690354749,1.33851048967,-0.656278726108,0.578467958319,0.121280154335,1.18326513831,-1.65157595131,-0.667211338994,-2.35444858842,0.0417787052942
3.88,0.465618929059,0.854129224547,0.0596553535336,0.744382952607,-1.50306015605,1.33849304597,-0.656278726108,0.577889770062,0.121860821396,1.17437082899,-1.71666050807,-0.65132283741,-2.31594863934,0.041845462383
3.9,0.465653849758,0.854094337137,0.0596728055611,0.744382952607,-1.45132851819,1.33852793338,-0.656278726108,0.577889770062,0.121860821396,1.17437082899,-1.71666050807,-0.65132283741,-2.31594863934,0.041845462383
3.92,0.465653849758,0.854094337137,0.0596728055611,0.744382952607,-1.45132851819,1.33852793338,-0.656278726108,0.577103923262,0.122803058502,1.16591660171,-1.77763056023,-0.63417642755,-2.28076882885,0.0419077193336
3.94,0.465653849758,0.854111780842,0.0596553535336,0.744382952607,-1.39758978898,1.33852793338,-0.656261282402,0.577103923262,0.122803058502,1.16591660171,-1.77763056023,-0.63417642755,-2.28076882885,0.0419077193336
3.96,0.465653849758,0.854111780842,0.0596553535336,0.744382952607,-1.39758978898,1.33852793338,-0.656261282402,0.576083043165,0.124164738884,1.15718474148,-1.83930705439,-0.61464500085,-2.24615643396,0.0419733224184
3.98,0.465653849758,0.854111780842,0.0596553535336,0.744365442323,-1.3460677419,1.33852793338,-0.656278726108,0.574892244536,0.125858023986,1.14892336246,-1.89683549262,-0.594344446262,-2.21482907403,0.0420349515951
4.0,0.465653849758,0.854111780842,0.0596553535336,0.744365442323,-1.3460677419,1.33852793338,-0.656278726108,0.574892244536,0.125858023986,1.14892336246,-1.89683549262,-0.594344446262,-2.21482907403,0.0420349515951
4.02,0.465653849758,0.854111780842,0.0596553535336,0.744365442323,-1.29260824512,1.33852793338,-0.656278726108,0.573442027363,0.128007707467,1.14046909363,-1.95486606174,-0.571770562591,-2.18430176502,0.0420994480614
4.04,0.465653849758,0.854111780842,0.0596553535336,0.744365442323,-1.29260824512,1.33852793338,-0.656278726108,0.573442027363,0.128007707467,1.14046909363,-1.95486606174,-0.571770562591,-2.18430176502,0.0420994480614
4.06,0.465653849758,0.854094337137,0.059637901506,0.744347998618,-1.24176690202,1.33852793338,-0.656278726108,0.571864289658,0.130411970688,1.13258538675,-2.0084683849,-0.548959301522,-2.15717825452,0.0421591396958
4.08,0.465653849758,0.854094337137,0.059637901506,0.744347998618,-1.24176690202,1.33852793338,-0.656278726108,0.571864289658,0.130411970688,1.13258538675,-2.0084683849,-0.548959301522,-2.15717825452,0.0421591396958
4.1,0.465671293464,0.854111780842,0.0596553535336,0.744365442323,-1.19158868602,1.33854537708,-0.656278726108,0.571864289658,0.130411970688,1.13258538675,-2.0084683849,-0.548959301522,-2.15717825452,0.0421591396958
4.12,0.465671293464,0.854111780842,0.0596553535336,0.744365442323,-1.19158868602,1.33854537708,-0.656278726108,0.570117315061,0.13314764467,1.1249222257,-2.05999384474,-0.525338491781,-2.13213612965,0.0422199298258
4.14,0.465653849758,0.854076893432,0.0596553535336,0.744347998618,-1.14038062563,1.33854537708,-0.656278726108,0.570117315061,0.13314764467,1.1249222257,-2.05999384474,-0.525338491781,-2.13213612965,0.0422199298258
4.16,0.465653849758,0.854076893432,0.0596553535336,0.744347998618,-1.14038062563,1.33854537708,-0.656278726108,0.568153581444,0.136258660581,1.11732249925,-2.11108000514,-0.500065247366,-2.10845847634,0.0422782124071
4.18,0.465653849758,0.854076893432,0.0596553535336,0.744347998618,-1.09128458515,1.33856282079,-0.656278726108,0.568153581444,0.136258660581,1.11732249925,-2.11108000514,-0.500065247366,-2.10845847634,0.0422782124071
4.2,0.465653849758,0.854076893432,0.0596553535336,0.744347998618,-1.09128458515,1.33856282079,-0.656278726108,0.566097561152,0.139569674408,1.11019735436,-2.15879869063,-0.474936350586,-2.0874282883,0.0423347932408
4.22,0.465688737169,0.854076893432,0.059760074021,0.744347998618,-1.04124598537,1.33856282079,-0.656278726108,0.563825674108,0.143310953024,1.10313125618,-2.20626626285,-0.448400967209,-2.06751253268,0.0423911594039
4.24,0.465688737169,0.854076893432,0.059760074021,0.744347998618,-1.04124598537,1.33856282079,-0.656278726108,0.563825674108,0.143310953024,1.10313125618,-2.20626626285,-0.448400967209,-2.06751253268,0.0423911594039
4.26,0.465671293464,0.854076893432,0.0598996985636,0.744330554913,-0.989427128987,1.33856282079,-0.656278726108,0.561307058726,0.147489390701,1.09605492735,-2.2541955731,-0.420048986376,-2.04865361814,0.0424473235354
4.28,0.465671293464,0.854076893432,0.0598996985636,0.744330554913,-0.989427128987,1.33856282079,-0.656278726108,0.561307058726,0.147489390701,1.09605492735,-2.2541955731,-0.420048986376,-2.04865361814,0.0424473235354
4.3,0.465688737169,0.854059383148,0.0598647945085,0.744260780092,-0.936299328927,1.33856282079,-0.656278726108,0.55856022944,0.152070342398,1.08911417047,-2.30196067508,-0.390201449562,-2.03124739531,0.0425004962402
4.32,0.465688737169,0.854059383148,0.0598647945085,0.744260780092,-0.936299328927,1.33856282079,-0.656278726108,0.55856022944,0.152070342398,1.08911417047,-2.30196067508,-0.390201449562,-2.03124739531,0.0425004962402
4.34,0.465688737169,0.854076893432,0.0598822465361,0.744330554913,-0.876801047802,1.33856282079,-0.656278726108,0.555270328896,0.15758363745,1.08161449817,-2.35427287136,-0.356044879159,-2.01374312357,0.0425656085758
4.36,0.465688737169,0.854076893432,0.0598822465361,0.744330554913,-0.876801047802,1.33856282079,-0.656278726108,0.555270328896,0.15758363745,1.08161449817,-2.35427287136,-0.356044879159,-2.01374312357,0.0425656085758
4.38,0.465688737169,0.854076893432,0.0599520588073,0.744260780092,-0.814143724993,1.33856282079,-0.656278726108,0.551598587463,0.163825562154,1.07419818088,-2.40792244943,-0.319063584316,-1.99759664499,0.0426241423432
4.4,0.465688737169,0.854076893432,0.0599520588073,0.744260780092,-0.814143724993,1.33856282079,-0.656278726108,0.551598587463,0.163825562154,1.07419818088,-2.40792244943,-0.319063584316,-1.99759664499,0.0426241423432
4.42,0.465688737169,0.854094337137,0.0599520588073,0.744313111208,-0.742340907262,1.33856282079,-0.656278726108,0.54712811582,0.171439363242,1.06622683541,-2.46793133116,-0.275922198932,-1.98191004055,0.0426939638256
4.44,0.465688737169,0.854094337137,0.0599520588073,0.744313111208,-0.742340907262,1.33856282079,-0.656278726108,0.54712811582,0.171439363242,1.06622683541,-2.46793133116,-0.275922198932,-1.98191004055,0.0426939638256
4.46,0.465723657868,0.854076893432,0.0601964038373,0.744295667502,-0.672911698433,1.33856282079,-0.656278726108,0.5425428462,0.179364603326,1.05916684812,-2.52472288913,-0.233233252789,-1.96925867473,0.0427529489241
4.48,0.465723657868,0.854076893432,0.0601964038373,0.744295667502,-0.672911698433,1.33856282079,-0.656278726108,0.5425428462,0.179364603326,1.05916684812,-2.52472288913,-0.233233252789,-1.96925867473,0.0427529489241
4.5,0.465723657868,0.854076893432,0.0604407530285,0.744208382398,-0.595750667168,1.33858026449,-0.656278726108,0.537212551156,0.188634370423,1.0520956177,-2.5865597135,-0.185067967914,-1.95831858033,0.0428102330719
4.52,0.465723657868,0.854076893432,0.0604407530285,0.744208382398,-0.595750667168,1.33858026449,-0.656278726108,0.537212551156,0.188634370423,1.0520956177,-2.5865597135,-0.185067967914,-1.95831858033,0.0428102330719
4.54,0.465706214163,0.854094337137,0.0605280173273,0.744347998618,-0.522551587368,1.33856282079,-0.656278726108,0.531933929895,0.197790490983,1.04608938329,-2.64433509559,-0.139093160847,-1.95088561521,0.0428696637613
4.56,0.465706214163,0.854094337137,0.0605280173273,0.744347998618,-0.522551587368,1.33856282079,-0.656278726108,0.531933929895,0.197790490983,1.04608938329,-2.64433509559,-0.139093160847,-1.95088561521,0.0428696637613
4.58,0.465741101574,0.854094337137,0.0604407530285,0.744382952607,-0.446559950138,1.3386151519,-0.656278726108,0.526278953521,0.20765218132,1.04074009599,-2.70348603869,-0.0910459318951,-1.94616524612,0.0429197009678
4.6,0.465810909684,0.854111780842,0.0606327378148,0.744382952607,-0.366658759139,1.3385977082,-0.656278726108,0.526278953521,0.20765218132,1.04074009599,-2.70348603869,-0.0910459318951,-1.94616524612,0.0429197009678
4.62,0.465810909684,0.854111780842,0.0606327378148,0.744382952607,-0.366658759139,1.3385977082,-0.656278726108,0.520132198902,0.218501188888,1.0360587909,-2.76533843881,-0.0401102426672,-1.94404583491,0.0429630326046
4.64,0.465950559193,0.854076893432,0.0604232968398,0.744347998618,-0.292534630334,1.3385977082,-0.656278726108,0.520132198902,0.218501188888,1.0360587909,-2.76533843881,-0.0401102426672,-1.94404583491,0.0429630326046
4.66,0.465950559193,0.854076893432,0.0604232968398,0.744347998618,-0.292534630334,1.3385977082,-0.656278726108,0.514340345378,0.228752999687,1.03266174096,-2.82231888382,0.0070236985605,-1.94508407642,0.0429934774753
4.68,0.465950559193,0.854094337137,0.0606152857873,0.744365442323,-0.218986460049,1.3385977082,-0.656261282402,0.514340345378,0.228752999687,1.03266174096,-2.82231888382,0.0070236985605,-1.94508407642,0.0429934774753
4.7,0.465950559193,0.854094337137,0.0606152857873,0.744365442323,-0.218986460049,1.3385977082,-0.656261282402,0.508474671629,0.239181166141,1.03010660994,-2.87927932234,0.0537836838057,-1.94867152398,0.0430201657617
4.72,0.465968002898,0.854076893432,0.0603883927848,0.744347998618,-0.152646501439,1.3385977082,-0.656278726108,0.508474671629,0.239181166141,1.03010660994,-2.87927932234,0.0537836838057,-1.94867152398,0.0430201657617
4.74,0.465968002898,0.854076893432,0.0603883927848,0.744347998618,-0.152646501439,1.3385977082,-0.656278726108,0.503196138073,0.248598359087,1.028591038,-2.93070283741,0.0955613355104,-1.95439748028,0.0430358742432
4.76,0.465915638494,0.854111780842,0.0603011243248,0.744382952607,-0.0869872135147,1.3385977082,-0.656278726108,0.497942332757,0.258001317957,1.02775362799,-2.98222390757,0.136563746588,-1.96223010113,0.0430492041596
4.78,0.465915638494,0.854111780842,0.0603011243248,0.744382952607,-0.0869872135147,1.3385977082,-0.656278726108,0.497942332757,0.258001317957,1.02775362799,-2.98222390757,0.136563746588,-1.96223010113,0.0430492041596
4.8,0.465898194788,0.854111780842,0.0603709407573,0.744382952607,-0.0267209911643,1.3385977082,-0.656261282402,0.493094517159,0.266728102112,1.02764107557,-3.03013325614,0.173927433101,-1.97124285132,0.0430538919711
4.82,0.465898194788,0.854111780842,0.0603709407573,0.744382952607,-0.0267209911643,1.3385977082,-0.656261282402,0.493094517159,0.266728102112,1.02764107557,-3.03013325614,0.173927433101,-1.97124285132,0.0430538919711
4.84,0.465898194788,0.854129224547,0.0604058448123,0.744400396312,0.0304909016662,1.3385977082,-0.656261282402,0.488508180154,0.275008365383,1.02807449759,-3.07625255165,0.208915901275,-1.98152900535,0.0430549709181
4.86,0.465898194788,0.854129224547,0.0604058448123,0.744400396312,0.0304909016662,1.3385977082,-0.656261282402,0.488508180154,0.275008365383,1.02807449759,-3.07625255165,0.208915901275,-1.98152900535,0.0430549709181
4.88,0.465880751083,0.854111780842,0.0603883927848,0.744382952607,0.0810181873397,1.3385977082,-0.656261282402,0.484502089085,0.282276730874,1.02893461421,-3.11752341752,0.239425183286,-1.99208888353,0.0430498562596
4.9,0.465880751083,0.854111780842,0.0603883927848,0.744382952607,0.0810181873397,1.3385977082,-0.656261282402,0.484502089085,0.282276730874,1.02893461421,-3.11752341752,0.239425183286,-1.99208888353,0.0430498562596
4.92,0.465898194788,0.854129224547,0.0603883927848,0.744417840017,0.12662363923,1.3385977082,-0.656278726108,0.480897138152,0.288819935046,1.03003539145,3.12779182325,0.26651601665,-2.00275502748,0.0430454303386
4.94,0.465898194788,0.854129224547,0.0603883927848,0.744417840017,0.12662363923,1.3385977082,-0.656278726108,0.480897138152,0.288819935046,1.03003539145,3.12779182325,0.26651601665,-2.00275502748,0.0430454303386
4.96,0.465898194788,0.854129224547,0.0603883927848,0.744400396312,0.169157317894,1.3385977082,-0.656278726108,0.477579984562,0.294875702839,1.03139325021,3.09197491919,0.2914626498,-2.01376135528,0.0430359629667
4.98,0.465898194788,0.854129224547,0.0603883927848,0.744400396312,0.169157317894,1.3385977082,-0.656278726108,0.477579984562,0.294875702839,1.03139325021,3.09197491919,0.2914626498,-2.01376135528,0.0430359629667
5.0,0.465845830383,0.854129224547,0.0603534845686,0.744382952607,0.205721953739,1.3385977082,-0.656261282402,0.474780956992,0.300005574791,1.0327936621,3.06075205597,0.312576259115,-2.02412216414,0.0430257670529
5.02,0.465845830383,0.854129224547,0.0603534845686,0.744382952607,0.205721953739,1.3385977082,-0.656261282402,0.474780956992,0.300005574791,1.0327936621,3.06075205597,0.312576259115,-2.02412216414,0.0430257670529
5.04,0.465845830383,0.854111780842,0.060336032541,0.744400396312,0.237504401149,1.3385977082,-0.656278726108,0.472352346981,0.304451131092,1.03418413141,3.03324414327,0.330666222688,-2.03366388157,0.0430166151969
5.06,0.465845830383,0.854111780842,0.060336032541,0.744400396312,0.237504401149,1.3385977082,-0.656278726108,0.472352346981,0.304451131092,1.03418413141,3.03324414327,0.330666222688,-2.03366388157,0.0430166151969
5.08,0.465845830383,0.854129224547,0.060336032541,0.744382952607,0.267820778379,1.3385977082,-0.656261282402,0.47006341365,0.308663287331,1.03565298733,3.00664857973,0.347686248304,-2.04334242634,0.0430057714257
5.1,0.465845830383,0.854129224547,0.060336032541,0.744382952607,0.267820778379,1.3385977082,-0.656261282402,0.47006341365,0.308663287331,1.03565298733,3.00664857973,0.347686248304,-2.04334242634,0.0430057714257
5.12,0.465810909684,0.854129224547,0.060336032541,0.744417840017,0.290475141284,1.3385977082,-0.656261282402,0.46837306078,0.311765783112,1.03683634081,2.98653641129,0.360214543052,-2.0509542692,0.0429988882899
5.14,0.465810909684,0.854129224547,0.060336032541,0.744417840017,0.290475141284,1.3385977082,-0.656261282402,0.46837306078,0.311765783112,1.03683634081,2.98653641129,0.360214543052,-2.0509542692,0.0429988882899
5.16,0.465776022273,0.854146668252,0.0603011243248,0.744417840017,0.311314376814,1.3385977082,-0.656261282402,0.466845146537,0.314590381615,1.03799476031,2.96789226104,0.371607449321,-2.05824231334,0.0429908375629
5.18,0.465776022273,0.854146668252,0.0603011243248,0.744417840017,0.311314376814,1.3385977082,-0.656261282402,0.466845146537,0.314590381615,1.03799476031,2.96789226104,0.371607449321,-2.05824231334,0.0429908375629
5.2,0.465828386678,0.854129224547,0.060336032541,0.744382952607,0.326917637904,1.3385977082,-0.656278726108,0.465677852349,0.316747425905,1.03893819414,2.95382560181,0.380137983583,-2.06373473764,0.0429820393499
5.22,0.465828386678,0.854129224547,0.060336032541,0.744382952607,0.326917637904,1.3385977082,-0.656278726108,0.465677852349,0.316747425905,1.03893819414,2.95382560181,0.380137983583,-2.06373473764,0.0429820393499
5.24,0.465845830383,0.854111780842,0.060336032541,0.744365442323,0.339955242889,1.33858026449,-0.656261282402,0.464723269244,0.318520070489,1.03975195936,2.94200706936,0.387196592699,-2.06851340226,0.0429748797662
5.26,0.465845830383,0.854111780842,0.060336032541,0.744365442323,0.339955242889,1.33858026449,-0.656261282402,0.464723269244,0.318520070489,1.03975195936,2.94200706936,0.387196592699,-2.06851340226,0.0429748797662
5.28,0.465758578568,0.854094337137,0.0603011243248,0.744347998618,0.349589461159,1.3385977082,-0.656278726108,0.464056332338,0.319766123142,1.04037108811,2.9332528396,0.392353703485,-2.07218594213,0.0429692784897
5.3,0.465776022273,0.854111780842,0.060336032541,0.744365442323,0.357129269679,1.3385977082,-0.656278726108,0.464056332338,0.319766123142,1.04037108811,2.9332528396,0.392353703485,-2.07218594213,0.0429692784897
5.32,0.465776022273,0.854111780842,0.060336032541,0.744365442323,0.357129269679,1.3385977082,-0.656278726108,0.463495302991,0.320794486805,1.04084180974,2.92629771576,0.396351783031,-2.07501856912,0.0429669330266
5.34,0.465810909684,0.854111780842,0.0603534845686,0.744382952607,0.364512018274,1.33858026449,-0.656278726108,0.463495302991,0.320794486805,1.04084180974,2.92629771576,0.396351783031,-2.07501856912,0.0429669330266
5.36,0.465810909684,0.854111780842,0.0603534845686,0.744382952607,0.364512018274,1.33858026449,-0.656278726108,0.462947497996,0.321802793857,1.04132010138,2.91949496177,0.400268699646,-2.0778143888,0.0429641257298
5.38,0.465793465979,0.854076893432,0.0603534845686,0.744382952607,0.372767418179,1.3385977082,-0.656278726108,0.462947497996,0.321802793857,1.04132010138,2.91949496177,0.400268699646,-2.0778143888,0.0429641257298
5.4,0.465793465979,0.854076893432,0.0603534845686,0.744382952607,0.372767418179,1.3385977082,-0.656278726108,0.462355412548,0.322893307822,1.04188842158,2.91188640321,0.404636045994,-2.08102573541,0.0429593389111
5.42,0.465793465979,0.854076893432,0.0603534845686,0.744382952607,0.372767418179,1.3385977082,-0.656278726108,0.462355412548,0.322893307822,1.04188842158,2.91188640321,0.404636045994,-2.08102573541,0.0429593389111
5.44,0.465741101574,0.854094337137,0.0603185805135,0.744365442323,0.386101732599,1.3385977082,-0.656278726108,0.461428556951,0.324629963348,1.04279149813,2.89953852142,0.411603292947,-2.08635902242,0.0429521651875
5.46,0.465793465979,0.854076893432,0.0603534845686,0.744347998618,0.408389594604,1.3385977082,-0.656278726108,0.461428556951,0.324629963348,1.04279149813,2.89953852142,0.411603292947,-2.08635902242,0.0429521651875
5.48,0.465793465979,0.854076893432,0.0603534845686,0.744347998618,0.408389594604,1.3385977082,-0.656278726108,0.459826668848,0.327598170789,1.04438838206,2.87868222122,0.42318086708,-2.09533500116,0.0429391447667
5.5,0.465810909684,0.854111780842,0.060336032541,0.744382952607,0.441638128838,1.33858026449,-0.656278726108,0.459826668848,0.327598170789,1.04438838206,2.87868222122,0.42318086708,-2.09533500116,0.0429391447667
5.52,0.465810909684,0.854111780842,0.060336032541,0.744382952607,0.441638128838,1.33858026449,-0.656278726108,0.457502394663,0.331919896089,1.04684923755,2.84713794614,0.440003830475,-2.10942105615,0.0429228619428
5.54,0.465810909684,0.854094337137,0.060336032541,0.744382952607,0.484957173709,1.3385977082,-0.656278726108,0.457502394663,0.331919896089,1.04684923755,2.84713794614,0.440003830475,-2.10942105615,0.0429228619428
5.56,0.465810909684,0.854094337137,0.060336032541,0.744382952607,0.484957173709,1.3385977082,-0.656278726108,0.454543602271,0.337435761345,1.05034794705,2.80529131339,0.461367171988,-2.12880267557,0.0428962150722
5.58,0.465810909684,0.854111780842,0.0603185805135,0.744382952607,0.540406284843,1.33858026449,-0.656261282402,0.450888812096,0.344298242691,1.05519357,2.75039571556,0.487582811714,-2.15540928339,0.0428596532151
5.6,0.465810909684,0.854111780842,0.0603185805135,0.744382952607,0.540406284843,1.33858026449,-0.656261282402,0.450888812096,0.344298242691,1.05519357,2.75039571556,0.487582811714,-2.15540928339,0.0428596532151
5.62,0.465845830383,0.854111780842,0.0603534845686,0.744382952607,0.597146962528,1.33858026449,-0.656278726108,0.447273673937,0.351099449605,1.06060411661,2.69259479178,0.513039383049,-2.18459175266,0.0428183477082
5.64,0.465845830383,0.854111780842,0.0603534845686,0.744382952607,0.597146962528,1.33858026449,-0.656278726108,0.447273673937,0.351099449605,1.06060411661,2.69259479178,0.513039383049,-2.18459175266,0.0428183477082
5.66,0.465845830383,0.854129224547,0.0603709407573,0.744382952607,0.659088693953,1.33858026449,-0.656278726108,0.447273673937,0.351099449605,1.06060411661,2.69259479178,0.513039383049,-2.18459175266,0.0428183477082
5.68,0.465845830383,0.854129224547,0.0603709407573,0.744382952607,0.659088693953,1.33858026449,-0.656278726108,0.443534087276,0.358188758533,1.0669852999,2.62758265847,0.53902733705,-2.21889359522,0.0427697704205
5.7,0.465845830383,0.854111780842,0.0604931132723,0.744382952607,0.723910234622,1.33858026449,-0.656261282402,0.443534087276,0.358188758533,1.0669852999,2.62758265847,0.53902733705,-2.21889359522,0.0427697704205
5.72,0.465845830383,0.854111780842,0.0604931132723,0.744382952607,0.723910234622,1.33858026449,-0.656261282402,0.43982203358,0.365253068311,1.0742104101,2.55730808997,0.564118623782,-2.25740168038,0.042713994618
5.74,0.465828386678,0.854129224547,0.0602313120536,0.744382952607,0.786637332253,1.33856282079,-0.656278726108,0.436558172167,0.371596492502,1.08162105472,2.48753099818,0.586002285435,-2.29723551372,0.0426571633371
5.76,0.465828386678,0.854129224547,0.0602313120536,0.744382952607,0.786637332253,1.33856282079,-0.656278726108,0.436558172167,0.371596492502,1.08162105472,2.48753099818,0.586002285435,-2.29723551372,0.0426571633371
5.78,0.465845830383,0.854111780842,0.0602662202698,0.744365442323,0.851493760333,1.33856282079,-0.656278726108,0.433357130624,0.377806178642,1.08979871398,2.41304323454,0.606199183802,-2.34076691467,0.0425932321872
5.8,0.465845830383,0.854111780842,0.0602662202698,0.744365442323,0.851493760333,1.33856282079,-0.656278726108,0.433357130624,0.377806178642,1.08979871398,2.41304323454,0.606199183802,-2.34076691467,0.0425932321872
5.82,0.465845830383,0.854111780842,0.0601964038373,0.744382952607,0.913173703022,1.33856282079,-0.656278726108,0.430592969099,0.383245042015,1.09794700891,2.34041442819,0.62276207818,-2.38434976636,0.042531461411
5.84,0.465845830383,0.854111780842,0.0601964038373,0.744382952607,0.913173703022,1.33856282079,-0.656278726108,0.430592969099,0.383245042015,1.09794700891,2.34041442819,0.62276207818,-2.38434976636,0.042531461411
5.86,0.465863274089,0.854111780842,0.0601789518098,0.744382952607,0.975708853317,1.33856282079,-0.656278726108,0.428037748571,0.388325023961,1.10658869559,2.26506482473,0.636870384608,-2.43041384534,0.042465291286
5.88,0.465863274089,0.854111780842,0.0601789518098,0.744382952607,0.975708853317,1.33856282079,-0.656278726108,0.428037748571,0.388325023961,1.10658869559,2.26506482473,0.636870384608,-2.43041384534,0.042465291286
5.9,0.465845830383,0.854111780842,0.0601440477548,0.744382952607,1.03417742321,1.33854537708,-0.656278726108,0.425917753126,0.392625653763,1.11497252164,2.19331627149,0.647472125165,-2.47502023026,0.0424011528422
5.92,0.465845830383,0.854111780842,0.0601440477548,0.744382952607,1.03417742321,1.33854537708,-0.656278726108,0.425917753126,0.392625653763,1.11497252164,2.19331627149,0.647472125165,-2.47502023026,0.0424011528422
5.94,0.465845830383,0.854129224547,0.0601440477548,0.744382952607,1.09163365899,1.33854537708,-0.656278726108,0.424061006079,0.396445299429,1.12346510407,2.12176396293,0.655332030505,-2.51995367603,0.0423368489744
5.96,0.465845830383,0.854129224547,0.0601440477548,0.744382952607,1.09163365899,1.33854537708,-0.656278726108,0.424061006079,0.396445299429,1.12346510407,2.12176396293,0.655332030505,-2.51995367603,0.0423368489744
5.98,0.465898194788,0.854129224547,0.0601440477548,0.744382952607,1.14596567391,1.33854537708,-0.656278726108,0.422508650771,0.399682997395,1.13171660108,2.05342114298,0.660400687873,-2.56315431381,0.0422743024896
6.0,0.465898194788,0.854129224547,0.0601440477548,0.744382952607,1.14596567391,1.33854537708,-0.656278726108,0.422508650771,0.399682997395,1.13171660108,2.05342114298,0.660400687873,-2.56315431381,0.0422743024896
6.02,0.465863274089,0.854111780842,0.0601440477548,0.744365442323,1.19396222834,1.33852793338,-0.656278726108,0.421358107111,0.402181337729,1.13917288809,1.9926922366,0.662959223063,-2.60181318077,0.042216780974
6.04,0.465863274089,0.854111780842,0.0601440477548,0.744365442323,1.19396222834,1.33852793338,-0.656278726108,0.421358107111,0.402181337729,1.13917288809,1.9926922366,0.662959223063,-2.60181318077,0.042216780974
6.06,0.465828386678,0.854129224547,0.0601091395386,0.744382952607,1.23991680401,1.33851048967,-0.656278726108,0.42043323558,0.404274268223,1.14639318106,1.93442901649,0.663599236135,-2.63899653088,0.0421633861292
6.08,0.465828386678,0.854129224547,0.0601091395386,0.744382952607,1.23991680401,1.33851048967,-0.656278726108,0.42043323558,0.404274268223,1.14639318106,1.93442901649,0.663599236135,-2.63899653088,0.0421633861292
6.1,0.465863274089,0.854129224547,0.0601440477548,0.744382952607,1.28051309956,1.33852793338,-0.656278726108,0.419706335051,0.405917901285,1.15287603579,1.88290638305,0.662768947141,-2.67173276811,0.0421149579053
6.12,0.465863274089,0.854129224547,0.0601440477548,0.744382952607,1.28051309956,1.33852793338,-0.656278726108,0.419706335051,0.405917901285,1.15287603579,1.88290638305,0.662768947141,-2.67173276811,0.0421149579053
6.14,0.465863274089,0.854111780842,0.0601440477548,0.744382952607,1.31419795945,1.33852793338,-0.656278726108,0.419219715116,0.407088992687,1.15831187885,1.84027072763,0.661092773106,-2.69884303567,0.0420740459171
6.16,0.465863274089,0.854111780842,0.0601440477548,0.744382952607,1.31419795945,1.33852793338,-0.656278726108,0.419219715116,0.407088992687,1.15831187885,1.84027072763,0.661092773106,-2.69884303567,0.0420740459171
6.18,0.465863274089,0.854111780842,0.0601265915661,0.744382952607,1.34500314325,1.33851048967,-0.656278726108,0.418862147428,0.408018898264,1.16330644663,1.80142184067,0.658752262093,-2.72351478925,0.042036690564
6.2,0.465863274089,0.854111780842,0.0601265915661,0.744382952607,1.34500314325,1.33851048967,-0.656278726108,0.418862147428,0.408018898264,1.16330644663,1.80142184067,0.658752262093,-2.72351478925,0.042036690564
6.22,0.465828386678,0.854111780842,0.0601091395386,0.744382952607,1.37015323764,1.33851048967,-0.656278726108,0.418638840985,0.408662568476,1.16740473193,1.76982863361,0.656280015486,-2.74354379055,0.042006241102
6.24,0.465828386678,0.854111780842,0.0601091395386,0.744382952607,1.37015323764,1.33851048967,-0.656278726108,0.418638840985,0.408662568476,1.16740473193,1.76982863361,0.656280015486,-2.74354379055,0.042006241102
6.26,0.465828386678,0.854129224547,0.0601091395386,0.744400396312,1.39179541623,1.33851048967,-0.656278726108,0.418473528817,0.409160594956,1.17093081689,1.7427391394,0.653718663763,-2.76062526043,0.0419811802145
6.28,0.465828386678,0.854129224547,0.0601091395386,0.744400396312,1.39179541623,1.33851048967,-0.656278726108,0.418473528817,0.409160594956,1.17093081689,1.7427391394,0.653718663763,-2.76062526043,0.0419811802145
6.3,0.465845830383,0.854129224547,0.0601265915661,0.744382952607,1.40984206105,1.33851048967,-0.656278726108,0.418352715191,0.409533866212,1.17390031832,1.72021418782,0.651348257515,-2.77475832769,0.0419584658674
6.32,0.465845830383,0.854129224547,0.0601265915661,0.744382952607,1.40984206105,1.33851048967,-0.656278726108,0.418352715191,0.409533866212,1.17390031832,1.72021418782,0.651348257515,-2.77475832769,0.0419584658674
6.34,0.465810909684,0.854129224547,0.060091687511,0.744400396312,1.42335094567,1.33849304597,-0.656278726108,0.418310845339,0.40975563391,1.17611051333,1.70346066191,0.649384261506,-2.78533878815,0.0419427289911
6.36,0.465810909684,0.854129224547,0.060091687511,0.744400396312,1.42335094567,1.33849304597,-0.656278726108,0.418310845339,0.40975563391,1.17611051333,1.70346066191,0.649384261506,-2.78533878815,0.0419427289911
6.38,0.465810909684,0.854111780842,0.0601091395386,0.744382952607,1.43553330977,1.33849304597,-0.656278726108,0.41825834665,0.409952150637,1.17813383999,1.68834203285,0.647537213438,-2.79478564969,0.0419267503495
6.4,0.465810909684,0.854111780842,0.0601091395386,0.744382952607,1.43553330977,1.33849304597,-0.656278726108,0.41825834665,0.409952150637,1.17813383999,1.68834203285,0.647537213438,-2.79478564969,0.0419267503495
6.42,0.465828386678,0.854111780842,0.0601091395386,0.744382952607,1.44305567458,1.33849304597,-0.656278726108,0.418228240945,0.410069222806,1.17937322646,1.67904251106,0.646319636553,-2.80057476944,0.041917619766
6.44,0.465810909684,0.854111780842,0.0601091395386,0.744382952607,1.44775056127,1.33851048967,-0.656278726108,0.418228240945,0.410069222806,1.17937322646,1.67904251106,0.646319636553,-2.80057476944,0.041917619766
6.46,0.465810909684,0.854111780842,0.0601091395386,0.744382952607,1.44775056127,1.33851048967,-0.656278726108,0.418220540002,0.410125484621,1.18014717618,1.67324709699,0.645536502145,-2.80418905474,0.0419120831357
6.48,0.465810909684,0.854146668252,0.0601091395386,0.744417840017,1.45104928575,1.33849304597,-0.656278726108,0.418220540002,0.410125484621,1.18014717618,1.67324709699,0.645536502145,-2.80418905474,0.0419120831357
6.5,0.465810909684,0.854146668252,0.0601091395386,0.744417840017,1.45104928575,1.33849304597,-0.656278726108,0.418220347856,0.410172356084,1.18065983823,1.66919290024,0.644909734548,-2.80673139273,0.0419102798842
6.52,0.465810909684,0.854146668252,0.060091687511,0.744417840017,1.45319605991,1.33849304597,-0.656278726108,0.418220347856,0.410172356084,1.18065983823,1.66919290024,0.644909734548,-2.80673139273,0.0419102798842
6.54,0.465810909684,0.854146668252,0.060091687511,0.744417840017,1.45319605991,1.33849304597,-0.656278726108,0.418219696986,0.410197001063,1.18101155332,1.6665640975,0.644543119396,-2.80838033851,0.0419076824347
6.56,0.465810909684,0.854146668252,0.060091687511,0.744417840017,1.45413855261,1.33849304597,-0.656278726108,0.418217919661,0.410208809219,1.18116701533,1.66540328623,0.644380311263,-2.80910301593,0.041906538737
6.58,0.465810909684,0.854146668252,0.060091687511,0.744417840017,1.45413855261,1.33849304597,-0.656278726108,0.418217919661,0.410208809219,1.18116701533,1.66540328623,0.644380311263,-2.80910301593,0.041906538737
6.6,0.465915638494,0.854181622242,0.0601091395386,0.744435283723,1.4540862215,1.33849304597,-0.656278726108,0.418176330148,0.410257437271,1.18113533462,1.66546097504,0.644335809644,-2.80894997488,0.041908153058
6.62,0.465915638494,0.854181622242,0.0601091395386,0.744435283723,1.4540862215,1.33849304597,-0.656278726108,0.418176330148,0.410257437271,1.18113533462,1.66546097504,0.644335809644,-2.80894997488,0.041908153058
6.64,0.465950559193,0.854199065947,0.0601091395386,0.744435283723,1.45405120093,1.33849304597,-0.656278726108,0.418164812839,0.410272983519,1.1811198259,1.66550699994,0.644324580843,-2.80888646657,0.0419085723826
6.66,0.465950559193,0.854199065947,0.0601091395386,0.744435283723,1.45405120093,1.33849304597,-0.656278726108,0.418164812839,0.410272983519,1.1811198259,1.66550699994,0.644324580843,-2.80888646657,0.0419085723826
6.68,0.465880751083,0.854181622242,0.0600742313223,0.744417840017,1.45405120093,1.33849304597,-0.656278726108,0.418198593924,0.410236970168,1.18113075373,1.66553298647,0.644362533391,-2.80896438391,0.0419074076032
6.7,0.465880751083,0.854181622242,0.0600742313223,0.744417840017,1.45405120093,1.33849304597,-0.656278726108,0.418198593924,0.410236970168,1.18113075373,1.66553298647,0.644362533391,-2.80896438391,0.0419074076032
6.72,0.465880751083,0.854199065947,0.0600742313223,0.744400396312,1.45384187647,1.33849304597,-0.656278726108,0.418202290835,0.410235741098,1.181092392,1.66578992611,0.644398611348,-2.80880520289,0.0419072349686
6.74,0.465880751083,0.854199065947,0.0600742313223,0.744400396312,1.45384187647,1.33849304597,-0.656278726108,0.418202290835,0.410235741098,1.181092392,1.66578992611,0.644398611348,-2.80880520289,0.0419072349686
6.76,0.465968002898,0.854199065947,0.0601091395386,0.744435283723,1.45310884138,1.33849304597,-0.656278726108,0.418159431212,0.410268456615,1.18096438695,1.66666760947,0.644487306122,-2.80814645673,0.0419097160317
6.78,0.465968002898,0.854199065947,0.0601091395386,0.744435283723,1.45310884138,1.33849304597,-0.656278726108,0.418159431212,0.410268456615,1.18096438695,1.66666760947,0.644487306122,-2.80814645673,0.0419097160317
6.8,0.465933082199,0.854233953357,0.0600742313223,0.744435283723,1.45199177846,1.33849304597,-0.656278726108,0.418188759774,0.410236975684,1.18075597888,1.66808213454,0.644648200574,-2.80732430163,0.0419118409717
6.82,0.465933082199,0.854233953357,0.0600742313223,0.744435283723,1.45199177846,1.33849304597,-0.656278726108,0.418188759774,0.410236975684,1.18075597888,1.66808213454,0.644648200574,-2.80732430163,0.0419118409717
6.84,0.465898194788,0.854216509652,0.0600742313223,0.744435283723,1.45028136325,1.33849304597,-0.656278726108,0.418203887091,0.410198941338,1.18048363503,1.67018715455,0.644957650413,-2.80604790876,0.041913540081
6.86,0.465898194788,0.854216509652,0.0600742313223,0.744435283723,1.45028136325,1.33849304597,-0.656278726108,0.418203887091,0.410198941338,1.18048363503,1.67018715455,0.644957650413,-2.80604790876,0.041913540081
6.88,0.465950559193,0.854233953357,0.0600742313223,0.744417840017,1.44930398313,1.33849304597,-0.656278726108,0.418187851168,0.410209427351,1.1803186314,1.67139123421,0.645123483748,-2.8052460831,0.0419142996795
6.9,0.465950559193,0.854233953357,0.0600742313223,0.744417840017,1.44930398313,1.33849304597,-0.656278726108,0.418187851168,0.410209427351,1.1803186314,1.67139123421,0.645123483748,-2.8052460831,0.0419142996795
6.92,0.465933082199,0.854233953357,0.0600742313223,0.744417840017,1.44768078645,1.33849304597,-0.656278726108,0.418198739134,0.410180558509,1.18005099294,1.67339300909,0.64539749613,-2.8040159662,0.0419162699174
6.94,0.465933082199,0.854233953357,0.0600742313223,0.744417840017,1.44768078645,1.33849304597,-0.656278726108,0.418198739134,0.410180558509,1.18005099294,1.67339300909,0.64539749613,-2.8040159662,0.0419162699174
6.96,0.465898194788,0.854216509652,0.0600742313223,0.744400396312,1.44378870967,1.33849304597,-0.656278726108,0.418220696618,0.410111379039,1.179425022,1.67818992603,0.646080879802,-2.80106016117,0.0419198135235
6.98,0.465898194788,0.854216509652,0.0600742313223,0.744400396312,1.44378870967,1.33849304597,-0.656278726108,0.418220696618,0.410111379039,1.179425022,1.67818992603,0.646080879802,-2.80106016117,0.0419198135235
7.0,0.465915638494,0.854233953357,0.0600742313223,0.744417840017,1.43541107067,1.33849304597,-0.656278726108,0.418240847677,0.409998017359,1.17802906394,1.68855112421,0.647404040273,-2.79457287015,0.0419311652659
7.02,0.465915638494,0.854233953357,0.0600742313223,0.744417840017,1.43541107067,1.33849304597,-0.656278726108,0.418240847677,0.409998017359,1.17802906394,1.68855112421,0.647404040273,-2.79457287015,0.0419311652659
7.04,0.465933082199,0.854233953357,0.0600742313223,0.744400396312,1.42101215761,1.33849304597,-0.656278726108,0.418290780824,0.409772087703,1.17566503883,1.70639437662,0.649629461609,-2.78339096793,0.0419478436512
7.06,0.465933082199,0.854233953357,0.0600742313223,0.744400396312,1.42101215761,1.33849304597,-0.656278726108,0.418290780824,0.409772087703,1.17566503883,1.70639437662,0.649629461609,-2.78339096793,0.0419478436512
7.08,0.465898194788,0.854233953357,0.0600567792948,0.744382952607,1.40312250614,1.33849304597,-0.656278726108,0.418402796657,0.409423459796,1.17272916539,1.72866274812,0.652169273105,-2.7694639674,0.0419687656454
7.1,0.465898194788,0.854233953357,0.0600567792948,0.744382952607,1.40312250614,1.33849304597,-0.656278726108,0.418402796657,0.409423459796,1.17272916539,1.72866274812,0.652169273105,-2.7694639674,0.0419687656454
7.12,0.465898194788,0.854268840767,0.0600742313223,0.744417840017,1.37797241175,1.33851048967,-0.656278726108,0.418574472105,0.408884576684,1.16857899814,1.76008017611,0.655220203737,-2.74964961404,0.0420018008308
7.14,0.465898194788,0.854268840767,0.0600742313223,0.744417840017,1.37797241175,1.33851048967,-0.656278726108,0.418574472105,0.408884576684,1.16857899814,1.76008017611,0.655220203737,-2.74964961404,0.0420018008308
7.16,0.465933082199,0.854268840767,0.060091687511,0.744435283723,1.35083253656,1.33851048967,-0.656278726108,0.418800590186,0.408214319589,1.16414544219,1.79413413922,0.658016074951,-2.72808112953,0.0420354908356
7.18,0.465933082199,0.854268840767,0.060091687511,0.744435283723,1.35083253656,1.33851048967,-0.656278726108,0.418800590186,0.408214319589,1.16414544219,1.79413413922,0.658016074951,-2.72808112953,0.0420354908356
7.2,0.465915638494,0.854268840767,0.0600567792948,0.744435283723,1.3204637117,1.33851048967,-0.656278726108,0.419158810548,0.407307561443,1.15920901069,1.83244781649,0.660473592586,-2.7038323014,0.0420722259332
7.22,0.465915638494,0.854268840767,0.0600567792948,0.744435283723,1.3204637117,1.33851048967,-0.656278726108,0.419158810548,0.407307561443,1.15920901069,1.83244781649,0.660473592586,-2.7038323014,0.0420722259332
7.24,0.465898194788,0.854268840767,0.0600567792948,0.744417840017,1.2877912525,1.33851048967,-0.656278726108,0.419618296279,0.406193736595,1.15394381235,1.87377114141,0.662310082821,-2.67758544012,0.0421107791849
7.26,0.465898194788,0.854268840767,0.0600567792948,0.744417840017,1.2877912525,1.33851048967,-0.656278726108,0.419618296279,0.406193736595,1.15394381235,1.87377114141,0.662310082821,-2.67758544012,0.0421107791849
7.28,0.465933082199,0.854268840767,0.060091687511,0.744400396312,1.25065054162,1.33852793338,-0.656278726108,0.420210324794,0.40477455197,1.14801297487,1.9208209905,0.663348117917,-2.64755483459,0.042154603014
7.3,0.465933082199,0.854268840767,0.060091687511,0.744400396312,1.25065054162,1.33852793338,-0.656278726108,0.420210324794,0.40477455197,1.14801297487,1.9208209905,0.663348117917,-2.64755483459,0.042154603014
7.32,0.465898194788,0.854303794757,0.0600742313223,0.744417840017,1.21232312616,1.33852793338,-0.656278726108,0.420979866406,0.40307266737,1.14191929512,1.9694593313,0.663184771071,-2.61661644095,0.0422017791836
7.34,0.465898194788,0.854303794757,0.0600742313223,0.744417840017,1.21232312616,1.33852793338,-0.656278726108,0.420979866406,0.40307266737,1.14191929512,1.9694593313,0.663184771071,-2.61661644095,0.0422017791836
7.36,0.465898194788,0.854286284473,0.0600742313223,0.744417840017,1.16905647899,1.33852793338,-0.656278726108,0.421959318339,0.400926740156,1.13517165397,2.02428006039,0.661652932537,-2.58172700823,0.0422523542855
7.38,0.465898194788,0.854286284473,0.0600742313223,0.744417840017,1.16905647899,1.33852793338,-0.656278726108,0.421959318339,0.400926740156,1.13517165397,2.02428006039,0.661652932537,-2.58172700823,0.0422523542855
7.4,0.465933082199,0.854303794757,0.0600742313223,0.744435283723,1.12859973308,1.33852793338,-0.656278726108,0.422993571264,0.398708115564,1.12893494785,2.07535672051,0.658810010209,-2.54926927145,0.0423006260005
7.42,0.465933082199,0.854303794757,0.0600742313223,0.744435283723,1.12859973308,1.33852793338,-0.656278726108,0.422993571264,0.398708115564,1.12893494785,2.07535672051,0.658810010209,-2.54926927145,0.0423006260005
7.44,0.465915638494,0.854321238462,0.060091687511,0.744435283723,1.08901563848,1.33854537708,-0.656278726108,0.424140188926,0.396308448614,1.12294147413,2.12504556509,0.6547811842,-2.5178462658,0.0423465561223
7.46,0.465915638494,0.854321238462,0.060091687511,0.744435283723,1.08901563848,1.33854537708,-0.656278726108,0.424140188926,0.396308448614,1.12294147413,2.12504556509,0.6547811842,-2.5178462658,0.0423465561223
7.48,0.465933082199,0.854303794757,0.060091687511,0.744417840017,1.04602815716,1.33854537708,-0.656278726108,0.425507885635,0.393482882515,1.11658100851,2.17862866923,0.649075053439,-2.48415304546,0.042393866924
7.5,0.465933082199,0.854303794757,0.060091687511,0.744417840017,1.04602815716,1.33854537708,-0.656278726108,0.425507885635,0.393482882515,1.11658100851,2.17862866923,0.649075053439,-2.48415304546,0.042393866924
7.52,0.465933082199,0.854338682167,0.060091687511,0.744435283723,1.00056233814,1.33854537708,-0.656278726108,0.427110573667,0.390232187992,1.10996568059,2.23470090094,0.64140976408,-2.44919601691,0.0424457410826
7.54,0.465933082199,0.854338682167,0.060091687511,0.744435283723,1.00056233814,1.33854537708,-0.656278726108,0.427110573667,0.390232187992,1.10996568059,2.23470090094,0.64140976408,-2.44919601691,0.0424457410826
7.56,0.465915638494,0.854373569577,0.060091687511,0.744435283723,0.956091342937,1.33854537708,-0.656278726108,0.428828962194,0.386797348801,1.10366602774,2.28885994091,0.632434568301,-2.41579438232,0.0424945518425
7.58,0.465915638494,0.854373569577,0.060091687511,0.744435283723,0.956091342937,1.33854537708,-0.656278726108,0.428828962194,0.386797348801,1.10366602774,2.28885994091,0.632434568301,-2.41579438232,0.0424945518425
7.6,0.465898194788,0.854425967272,0.0600742313223,0.744435283723,0.906820732242,1.33854537708,-0.656278726108,0.430897304058,0.382710717224,1.0968832337,2.34796285915,0.620804767417,-2.37982139649,0.042547480993
7.62,0.465898194788,0.854425967272,0.0600742313223,0.744435283723,0.906820732242,1.33854537708,-0.656278726108,0.430897304058,0.382710717224,1.0968832337,2.34796285915,0.620804767417,-2.37982139649,0.042547480993
7.64,0.465898194788,0.854460854682,0.060091687511,0.744435283723,0.860220406593,1.33856282079,-0.656278726108,0.432986423036,0.378597817734,1.09069359688,2.40285629628,0.608263393444,-2.34687395847,0.0425957538206
7.66,0.465898194788,0.854460854682,0.060091687511,0.744435283723,0.860220406593,1.33856282079,-0.656278726108,0.432986423036,0.378597817734,1.09069359688,2.40285629628,0.608263393444,-2.34687395847,0.0425957538206
7.68,0.465915638494,0.854460854682,0.060091687511,0.744435283723,0.814056439888,1.33856282079,-0.656278726108,0.435193609915,0.374285893105,1.08479803459,2.45625937299,0.594453047523,-2.31538275995,0.0426410735615
7.7,0.465915638494,0.854460854682,0.060091687511,0.744435283723,0.814056439888,1.33856282079,-0.656278726108,0.435193609915,0.374285893105,1.08479803459,2.45625937299,0.594453047523,-2.31538275995,0.0426410735615
7.72,0.465915638494,0.854495742092,0.0601091395386,0.744435283723,0.766531131813,1.33856282079,-0.656278726108,0.43761219758,0.369603723075,1.07895140882,2.51010206697,0.578796234298,-2.28426810224,0.0426866893653
7.74,0.465915638494,0.854495742092,0.0601091395386,0.744435283723,0.766531131813,1.33856282079,-0.656278726108,0.43761219758,0.369603723075,1.07895140882,2.51010206697,0.578796234298,-2.28426810224,0.0426866893653
7.76,0.465915638494,0.854513185797,0.0601091395386,0.744435283723,0.721257326702,1.33856282079,-0.656278726108,0.440046650359,0.364921414164,1.07362764549,2.56033490686,0.562627466012,-2.25589340908,0.0427279638998
7.78,0.465915638494,0.854513185797,0.0601091395386,0.744435283723,0.721257326702,1.33856282079,-0.656278726108,0.440046650359,0.364921414164,1.07362764549,2.56033490686,0.562627466012,-2.25589340908,0.0427279638998
7.8,0.465933082199,0.854548139787,0.0601265915661,0.744435283723,0.672859300738,1.33856282079,-0.656278726108,0.442772324082,0.359704819467,1.06819925455,2.61282402904,0.544046012888,-2.22695542961,0.0427703458324
7.82,0.465933082199,0.854548139787,0.0601265915661,0.744435283723,0.672859300738,1.33856282079,-0.656278726108,0.442772324082,0.359704819467,1.06819925455,2.61282402904,0.544046012888,-2.22695542961,0.0427703458324
7.84,0.465933082199,0.854565583492,0.0601265915661,0.744435283723,0.625613291683,1.33856282079,-0.656278726108,0.445567929568,0.354388774411,1.06318891541,2.6628948573,0.524709291024,-2.20016037037,0.0428091351035
7.86,0.465933082199,0.854600470902,0.0601265915661,0.744435283723,0.575016160448,1.33858026449,-0.656278726108,0.445567929568,0.354388774411,1.06318891541,2.6628948573,0.524709291024,-2.20016037037,0.0428091351035
7.88,0.465933082199,0.854600470902,0.0601265915661,0.744435283723,0.575016160448,1.33858026449,-0.656278726108,0.448690708711,0.34847689565,1.05813451325,2.71520481374,0.502737634376,-2.17305620752,0.0428485771664
7.9,0.465933082199,0.854652802018,0.0601440477548,0.744452727428,0.525850245273,1.3385977082,-0.656278726108,0.448690708711,0.34847689565,1.05813451325,2.71520481374,0.502737634376,-2.17305620752,0.0428485771664
7.92,0.465933082199,0.854652802018,0.0601440477548,0.744452727428,0.525850245273,1.3385977082,-0.656278726108,0.451841912122,0.342534017514,1.05353808386,2.76473985923,0.480221840276,-2.14830705234,0.0428854959572
7.94,0.465915638494,0.854635358312,0.0601440477548,0.744435283723,0.474397939724,1.3385977082,-0.656278726108,0.455274783268,0.336106346504,1.04913931174,2.81536756127,0.455645643238,-2.12407615741,0.0429177715432
7.96,0.465915638494,0.854635358312,0.0601440477548,0.744435283723,0.474397939724,1.3385977082,-0.656278726108,0.455274783268,0.336106346504,1.04913931174,2.81536756127,0.455645643238,-2.12407615741,0.0429177715432
7.98,0.465898194788,0.854687756007,0.0601440477548,0.744435283723,0.422631481034,1.3385977082,-0.656261282402,0.458844176364,0.32945284066,1.04505219855,2.86496463594,0.429780668323,-2.10143900435,0.042949544547
8.0,0.465898194788,0.854687756007,0.0601440477548,0.744435283723,0.422631481034,1.3385977082,-0.656261282402,0.458844176364,0.32945284066,1.04505219855,2.86496463594,0.429780668323,-2.10143900435,0.042949544547
8.02,0.465915638494,0.854687756007,0.0601440477548,0.744435283723,0.370254159769,1.3385977082,-0.656278726108,0.458844176364,0.32945284066,1.04505219855,2.86496463594,0.429780668323,-2.10143900435,0.042949544547
8.04,0.465915638494,0.854687756007,0.0601440477548,0.744435283723,0.370254159769,1.3385977082,-0.656278726108,0.462550395863,0.322563364126,1.04134891756,2.91394906419,0.402674831009,-2.08016052272,0.0429771696035
8.06,0.465898194788,0.854740087122,0.0601440477548,0.744452727428,0.312780446994,1.3385977082,-0.656278726108,0.46674125155,0.314808937847,1.03772809123,2.96629479442,0.37182753453,-2.05882572705,0.0430055639447
8.08,0.465898194788,0.854740087122,0.0601440477548,0.744452727428,0.312780446994,1.3385977082,-0.656278726108,0.46674125155,0.314808937847,1.03772809123,2.96629479442,0.37182753453,-2.05882572705,0.0430055639447
8.1,0.465915638494,0.854774974533,0.0601789518098,0.744435283723,0.256842645799,1.3385977082,-0.656278726108,0.470908294055,0.307135370476,1.03471718324,3.01598481191,0.340919510983,-2.03990782812,0.0430270789552
8.12,0.465915638494,0.854774974533,0.0601789518098,0.744435283723,0.256842645799,1.3385977082,-0.656278726108,0.470908294055,0.307135370476,1.03471718324,3.01598481191,0.340919510983,-2.03990782812,0.0430270789552
8.14,0.465863274089,0.854809928522,0.0601964038373,0.744452727428,0.195895754844,1.3385977082,-0.656278726108,0.47556651885,0.298587568425,1.03198728154,3.06882012612,0.306263948877,-2.02146444739,0.0430475212382
8.16,0.465863274089,0.854809928522,0.0601964038373,0.744452727428,0.195895754844,1.3385977082,-0.656278726108,0.47556651885,0.298587568425,1.03198728154,3.06882012612,0.306263948877,-2.02146444739,0.0430475212382
8.18,0.465845830383,0.854809928522,0.0601964038373,0.744452727428,0.13517574857,1.3386151519,-0.656278726108,0.480284096715,0.289962410532,1.02988435987,3.1202779068,0.270894049228,-2.00515605789,0.0430613702833
8.2,0.465845830383,0.854809928522,0.0601964038373,0.744452727428,0.13517574857,1.3386151519,-0.656278726108,0.480284096715,0.289962410532,1.02988435987,3.1202779068,0.270894049228,-2.00515605789,0.0430613702833
8.22,0.465845830383,0.854844815932,0.060213860026,0.744452727428,0.0773704472722,1.3385977082,-0.656278726108,0.484836034843,0.281685355901,1.02842150649,-3.11493119629,0.236531079393,-1.99150810045,0.0430705449196
8.24,0.465845830383,0.854844815932,0.060213860026,0.744452727428,0.0773704472722,1.3385977082,-0.656278726108,0.484836034843,0.281685355901,1.02842150649,-3.11493119629,0.236531079393,-1.99150810045,0.0430705449196
8.26,0.465828386678,0.854827372227,0.0601964038373,0.744435283723,0.0186924759393,1.3385977082,-0.656278726108,0.489513740039,0.273210631947,1.02753125,-3.06704541501,0.201071358098,-1.97952293666,0.043073195865
8.28,0.465828386678,0.854827372227,0.0601964038373,0.744435283723,0.0186924759393,1.3385977082,-0.656278726108,0.489513740039,0.273210631947,1.02753125,-3.06704541501,0.201071358098,-1.97952293666,0.043073195865
8.3,0.465810909684,0.854809928522,0.0601964038373,0.744400396312,-0.0316428187062,1.3385977082,-0.656278726108,0.493552947627,0.26592491227,1.02722860423,-3.02656547899,0.17026284815,-1.97068239932,0.0430706623937
8.32,0.465810909684,0.854809928522,0.0601964038373,0.744400396312,-0.0316428187062,1.3385977082,-0.656278726108,0.493552947627,0.26592491227,1.02722860423,-3.02656547899,0.17026284815,-1.97068239932,0.0430706623937
8.34,0.465776022273,0.854809928522,0.060213860026,0.744382952607,-0.0768468448348,1.3385977082,-0.656261282402,0.497191662714,0.25937677371,1.02730050606,-2.99064834781,0.142304697875,-1.96388992117,0.0430664334081
8.36,0.465776022273,0.854809928522,0.060213860026,0.744382952607,-0.0768468448348,1.3385977082,-0.656261282402,0.497191662714,0.25937677371,1.02730050606,-2.99064834781,0.142304697875,-1.96388992117,0.0430664334081
8.38,0.465845830383,0.854809928522,0.0602313120536,0.744400396312,-0.11360347795,1.3385977082,-0.656278726108,0.500122189209,0.254109598575,1.02759723287,-2.96170109002,0.119376955959,-1.95900361624,0.0430624491668
8.4,0.465845830383,0.854809928522,0.0602313120536,0.744400396312,-0.11360347795,1.3385977082,-0.656278726108,0.500122189209,0.254109598575,1.02759723287,-2.96170109002,0.119376955959,-1.95900361624,0.0430624491668
8.42,0.465793465979,0.854809928522,0.0602313120536,0.744382952607,-0.146171324855,1.3385977082,-0.656278726108,0.502754043172,0.24939648342,1.02805729204,-2.93617874083,0.0989751842573,-1.95538071538,0.0430557953885
8.44,0.465776022273,0.854774974533,0.0602313120536,0.744382952607,-0.170134698014,1.3385977082,-0.656278726108,0.502754043172,0.24939648342,1.02805729204,-2.93617874083,0.0989751842573,-1.95538071538,0.0430557953885
8.46,0.465776022273,0.854774974533,0.0602313120536,0.744382952607,-0.170134698014,1.3385977082,-0.656278726108,0.504679645098,0.245948827649,1.02852260856,-2.91746331427,0.0839239091166,-1.95303114121,0.0430497949876
8.48,0.465810909684,0.854809928522,0.0602487640811,0.744382952607,-0.189804556154,1.3385977082,-0.656278726108,0.506244334124,0.243158508585,1.02893911819,-2.90219651375,0.0714992408408,-1.95125962176,0.0430457427165
8.5,0.465810909684,0.854809928522,0.0602487640811,0.744382952607,-0.189804556154,1.3385977082,-0.656278726108,0.506244334124,0.243158508585,1.02893911819,-2.90219651375,0.0714992408408,-1.95125962176,0.0430457427165
8.52,0.465810909684,0.854792484817,0.0602487640811,0.744382952607,-0.203505388119,1.3385977082,-0.656278726108,0.507339449875,0.241203586455,1.02929018349,-2.89154824489,0.0628553359635,-1.95016864041,0.0430416585054
8.54,0.465810909684,0.854792484817,0.0602487640811,0.744382952607,-0.203505388119,1.3385977082,-0.656278726108,0.507339449875,0.241203586455,1.02929018349,-2.89154824489,0.0628553359635,-1.95016864041,0.0430416585054
8.56,0.465776022273,0.854792484817,0.0602313120536,0.744400396312,-0.212947625764,1.3385977082,-0.656278726108,0.508101723395,0.239834670576,1.02953757872,-2.88422768735,0.0568604675833,-1.949516999,0.0430398212096
8.58,0.465776022273,0.854792484817,0.0602313120536,0.744400396312,-0.212947625764,1.3385977082,-0.656278726108,0.508101723395,0.239834670576,1.02953757872,-2.88422768735,0.0568604675833,-1.949516999,0.0430398212096
8.6,0.465828386678,0.854809928522,0.0602487640811,0.744400396312,-0.217607658329,1.3385977082,-0.656278726108,0.50845879529,0.239204340406,1.02965784022,-2.88063808094,0.0539066544918,-1.94912644437,0.0430388445188
8.62,0.465828386678,0.854809928522,0.0602487640811,0.744400396312,-0.217607658329,1.3385977082,-0.656278726108,0.50845879529,0.239204340406,1.02965784022,-2.88063808094,0.0539066544918,-1.94912644437,0.0430388445188
8.64,0.465810909684,0.854844815932,0.0602487640811,0.744435283723,-0.218619942504,1.3385977082,-0.656278726108,0.50845879529,0.239204340406,1.02965784022,-2.88063808094,0.0539066544918,-1.94912644437,0.0430388445188
8.66,0.465810909684,0.854844815932,0.0602487640811,0.744435283723,-0.218619942504,1.3385977082,-0.656278726108,0.508539020525,0.239049547913,1.02965534372,-2.87989921489,0.0532127693188,-1.94907492638,0.0430410243642
8.68,0.465793465979,0.854809928522,0.0602487640811,0.744417840017,-0.218602482154,1.3385977082,-0.656261282402,0.508543763854,0.239043982198,1.02968027307,-2.87987935742,0.0532678819796,-1.9491094123,0.0430393888647
8.7,0.465793465979,0.854809928522,0.0602487640811,0.744417840017,-0.218602482154,1.3385977082,-0.656261282402,0.508543763854,0.239043982198,1.02968027307,-2.87987935742,0.0532678819796,-1.9491094123,0.0430393888647
8.72,0.465828386678,0.854827372227,0.0602662202698,0.744435283723,-0.218602482154,1.3385977082,-0.656278726108,0.508530472393,0.2390662599,1.02966444961,-2.87991099126,0.0532456109114,-1.94904709962,0.0430406218649
8.74,0.465828386678,0.854827372227,0.0602662202698,0.744435283723,-0.218602482154,1.3385977082,-0.656278726108,0.508530472393,0.2390662599,1.02966444961,-2.87991099126,0.0532456109114,-1.94904709962,0.0430406218649
8.76,0.465810909684,0.854827372227,0.0602662202698,0.744435283723,-0.218602482154,1.3385977082,-0.656278726108,0.508534650475,0.239057372279,1.02966444961,-2.87991099126,0.0532456109114,-1.94906457662,0.0430406218649
8.78,0.465810909684,0.854827372227,0.0602662202698,0.744435283723,-0.218602482154,1.3385977082,-0.656278726108,0.508534650475,0.239057372279,1.02966444961,-2.87991099126,0.0532456109114,-1.94906457662,0.0430406218649
8.8,0.465810909684,0.854809928522,0.0602662202698,0.744400396312,-0.218602482154,1.3385977082,-0.656278726108,0.508539735819,0.239059599477,1.02968590757,-2.87987724639,0.0532855900842,-1.94906436533,0.0430385408745
8.82,0.465810909684,0.854809928522,0.0602662202698,0.744400396312,-0.218602482154,1.3385977082,-0.656278726108,0.508539735819,0.239059599477,1.02968590757,-2.87987724639,0.0532855900842,-1.94906436533,0.0430385408745
8.84,0.465810909684,0.854809928522,0.0602487640811,0.744400396312,-0.218602482154,1.3385977082,-0.656278726108,0.50854232881,0.2390540633,1.02968610279,-2.87986738982,0.0532768398906,-1.94907529798,0.043038548438
8.86,0.465810909684,0.854809928522,0.0602487640811,0.744400396312,-0.218602482154,1.3385977082,-0.656278726108,0.50854232881,0.2390540633,1.02968610279,-2.87986738982,0.0532768398906,-1.94907529798,0.043038548438
8.88,0.465793465979,0.854809928522,0.0602487640811,0.744400396312,-0.218602482154,1.3385977082,-0.656278726108,0.508546498721,0.239045192401,1.02968610279,-2.87986738982,0.0532768398906,-1.94909274169,0.043038548438
8.9,0.465793465979,0.854809928522,0.0602487640811,0.744400396312,-0.218602482154,1.3385977082,-0.656278726108,0.508546498721,0.239045192401,1.02968610279,-2.87986738982,0.0532768398906,-1.94909274169,0.043038548438
8.92,0.465810909684,0.854809928522,0.0602487640811,0.744417840017,-0.218585038449,1.3385977082,-0.656278726108,0.508538202626,0.239055332025,1.02967977611,-2.87989197211,0.0532744125637,-1.94907629414,0.0430393940678
8.94,0.465810909684,0.854809928522,0.0602487640811,0.744417840017,-0.218585038449,1.3385977082,-0.656278726108,0.508538202626,0.239055332025,1.02967977611,-2.87989197211,0.0532744125637,-1.94907629414,0.0430393940678
8.96,0.465793465979,0.854809928522,0.0602487640811,0.744417840017,-0.218585038449,1.3385977082,-0.656278726108,0.508542372559,0.239046461198,1.02967977611,-2.87989197211,0.0532744125637,-1.94909373784,0.0430393940678
8.98,0.465793465979,0.854809928522,0.0602487640811,0.744417840017,-0.218585038449,1.3385977082,-0.656278726108,0.508542372559,0.239046461198,1.02967977611,-2.87989197211,0.0532744125637,-1.94909373784,0.0430393940678
9.0,0.465776022273,0.854809928522,0.0602487640811,0.744400396312,-0.218585038449,1.3385977082,-0.656261282402,0.508549277235,0.239038800458,1.02968560583,-2.87988180165,0.0532923970869,-1.94912825814,0.043038553641
9.02,0.465776022273,0.854809928522,0.0602487640811,0.744400396312,-0.218585038449,1.3385977082,-0.656261282402,0.508549277235,0.239038800458,1.02968560583,-2.87988180165,0.0532923970869,-1.94912825814,0.043038553641
9.04,0.465776022273,0.854827372227,0.0602662202698,0.744417840017,-0.218585038449,1.3385977082,-0.656261282402,0.508544334055,0.239043319901,1.02966978231,-2.87991433358,0.0532746387451,-1.94911774073,0.0430397866571
9.06,0.465776022273,0.854809928522,0.0602487640811,0.744400396312,-0.218585038449,1.3385977082,-0.656278726108,0.508544334055,0.239043319901,1.02966978231,-2.87991433358,0.0532746387451,-1.94911774073,0.0430397866571
9.08,0.465776022273,0.854809928522,0.0602487640811,0.744400396312,-0.218585038449,1.3385977082,-0.656278726108,0.508549277235,0.239038800458,1.02968560583,-2.87988090288,0.053287883808,-1.94911138446,0.043038553641
9.1,0.465758578568,0.854809928522,0.0602487640811,0.744417840017,-0.218585038449,1.3385977082,-0.656278726108,0.508549277235,0.239038800458,1.02968560583,-2.87988090288,0.053287883808,-1.94911138446,0.043038553641
9.12,0.465758578568,0.854809928522,0.0602487640811,0.744417840017,-0.218585038449,1.3385977082,-0.656278726108,0.508550711962,0.239028719326,1.02967977611,-2.87989197211,0.0532744125637,-1.94912862525,0.0430393940678
9.14,0.465776022273,0.854809928522,0.0602662202698,0.744400396312,-0.218567578099,1.3385977082,-0.656278726108,0.508550711962,0.239028719326,1.02967977611,-2.87989197211,0.0532744125637,-1.94912862525,0.0430393940678
9.16,0.465776022273,0.854809928522,0.0602662202698,0.744400396312,-0.218567578099,1.3385977082,-0.656278726108,0.508545291803,0.239046818109,1.02968491331,-2.87990428546,0.0533076884174,-1.94910165239,0.043038551285
9.18,0.465776022273,0.854809928522,0.0602662202698,0.744417840017,-0.218585038449,1.3385977082,-0.656278726108,0.508543949488,0.239043126593,1.02967958094,-2.8799018287,0.0532831627476,-1.94910024887,0.043039386504
9.2,0.465776022273,0.854809928522,0.0602662202698,0.744417840017,-0.218585038449,1.3385977082,-0.656278726108,0.508543949488,0.239043126593,1.02967958094,-2.8799018287,0.0532831627476,-1.94910024887,0.043039386504
9.22,0.465776022273,0.854809928522,0.0602487640811,0.744417840017,-0.218585038449,1.3385977082,-0.656261282402,0.508546542338,0.239037590298,1.02967977611,-2.87989287066,0.0532789256561,-1.94912805526,0.0430393940678
9.24,0.465776022273,0.854809928522,0.0602487640811,0.744417840017,-0.218585038449,1.3385977082,-0.656261282402,0.508546542338,0.239037590298,1.02967977611,-2.87989287066,0.0532789256561,-1.94912805526,0.0430393940678
9.26,0.465793465979,0.854809928522,0.0602487640811,0.744417840017,-0.218585038449,1.3385977082,-0.656278726108,0.508542372559,0.239046461198,1.02967977611,-2.87989197211,0.0532744125637,-1.94909373784,0.0430393940678
