GitHatake/ROS1EARs/catkin_ws/src/torobo_robot/torobo_EARs2021/scripts/arm/2021_kaiya_csv/test_manipulability_joint_6.csv
time,joint_1,joint_2,joint_3,joint_4,joint_5,joint_6,joint_7,x,y,z,roll,pitch,yaw,manipulability
0.0,0.465706214163,0.853919766928,0.059515728991,0.744557456238,-0.0962898182946,1.3385977082,-0.656278726108,0.498838413066,0.256294056645,1.02787094911,-2.97441987623,0.130386682933,-1.9616600283,0.0430523685168
0.02,0.465706214163,0.853919766928,0.059515728991,0.744557456238,-0.0963072703222,1.3385977082,-0.656261282402,0.498838413066,0.256294056645,1.02787094911,-2.97441987623,0.130386682933,-1.9616600283,0.0430523685168
0.04,0.465706214163,0.853919766928,0.059515728991,0.744557456238,-0.0963072703222,1.3385977082,-0.656261282402,0.498839814174,0.256291536538,1.02787109747,-2.97440838282,0.130378698935,-1.96167512128,0.0430523662051
0.06,0.465706214163,0.853919766928,0.059515728991,0.744557456238,-0.0963072703222,1.3385977082,-0.656261282402,0.498839814174,0.256291536538,1.02787109747,-2.97440838282,0.130378698935,-1.96167512128,0.0430523662051
0.08,0.465706214163,0.853919766928,0.059515728991,0.744557456238,-0.0962898182946,1.3386151519,-0.656278726108,0.498835890839,0.256292618809,1.02787034514,-2.97443082143,0.130373055489,-1.96166234751,0.0430524392798
0.1,0.465706214163,0.853919766928,0.059515728991,0.744557456238,-0.0962898182946,1.3386151519,-0.656278726108,0.498835890839,0.256292618809,1.02787034514,-2.97443082143,0.130373055489,-1.96166234751,0.0430524392798
0.12,0.465706214163,0.853919766928,0.059515728991,0.744557456238,-0.0963072703222,1.3385977082,-0.656261282402,0.498839814174,0.256291536538,1.02787109747,-2.97440838282,0.130378698935,-1.96167512128,0.0430523662051
0.14,0.465706214163,0.853919766928,0.059515728991,0.744557456238,-0.0963072703222,1.3385977082,-0.656261282402,0.498839814174,0.256291536538,1.02787109747,-2.97440838282,0.130378698935,-1.96167512128,0.0430523662051
0.16,0.465706214163,0.853919766928,0.059515728991,0.744557456238,-0.0962898182946,1.3385977082,-0.656278726108,0.498839814174,0.256291536538,1.02787109747,-2.97440838282,0.130378698935,-1.96167512128,0.0430523662051
0.18,0.465706214163,0.853919766928,0.059515728991,0.744557456238,-0.0962898182946,1.3385977082,-0.656278726108,0.498838413066,0.256294056645,1.02787094911,-2.97441987623,0.130386682933,-1.9616600283,0.0430523685168
0.2,0.465706214163,0.853919766928,0.059515728991,0.744557456238,-0.0962898182946,1.3385977082,-0.656278726108,0.498838413066,0.256294056645,1.02787094911,-2.97441987623,0.130386682933,-1.9616600283,0.0430523685168
0.22,0.465706214163,0.853919766928,0.059515728991,0.744540012532,-0.0962898182946,1.3386151519,-0.656261282402,0.498838669383,0.256293855225,1.02787617565,-2.9744220929,0.130389561716,-1.96167904943,0.043051598197
0.24,0.465706214163,0.853919766928,0.059515728991,0.744540012532,-0.0962898182946,1.3386151519,-0.656261282402,0.498838669383,0.256293855225,1.02787617565,-2.9744220929,0.130389561716,-1.96167904943,0.043051598197
0.26,0.465706214163,0.853919766928,0.059515728991,0.744540012532,-0.0962898182946,1.3386151519,-0.656278726108,0.498838669383,0.256293855225,1.02787617565,-2.97441983736,0.130386659186,-1.96166170164,0.043051598197
0.28,0.465706214163,0.853919766928,0.059515728991,0.744540012532,-0.0962898182946,1.3386151519,-0.656278726108,0.498838669383,0.256293855225,1.02787617565,-2.97441983736,0.130386659186,-1.96166170164,0.043051598197
0.3,0.465706214163,0.853919766928,0.059515728991,0.744557456238,-0.0962898182946,1.3385977082,-0.656261282402,0.498838669383,0.256293855225,1.02787617565,-2.97441983736,0.130386659186,-1.96166170164,0.043051598197
0.32,0.465706214163,0.853919766928,0.059515728991,0.744557456238,-0.0962898182946,1.3385977082,-0.656261282402,0.498838413066,0.256294056645,1.02787094911,-2.97442213178,0.130389585463,-1.96167737609,0.0430523685168
0.34,0.465706214163,0.853919766928,0.059515728991,0.744557456238,-0.0962898182946,1.3385977082,-0.656261282402,0.498838413066,0.256294056645,1.02787094911,-2.97442213178,0.130389585463,-1.96167737609,0.0430523685168
0.36,0.465706214163,0.853919766928,0.059515728991,0.744540012532,-0.0963072703222,1.3385977082,-0.656261282402,0.498842592705,0.256292772945,1.02787692803,-2.97439739891,0.130392302771,-1.96167447537,0.0430515251222
0.38,0.465706214163,0.853919766928,0.059515728991,0.744540012532,-0.0963072703222,1.3385977082,-0.656261282402,0.498842592705,0.256292772945,1.02787692803,-2.97439739891,0.130392302771,-1.96167447537,0.0430515251222
0.4,0.465706214163,0.853919766928,0.059515728991,0.744557456238,-0.0962898182946,1.3385977082,-0.656278726108,0.498838413066,0.256294056645,1.02787094911,-2.97441987623,0.130386682933,-1.9616600283,0.0430523685168
0.42,0.465706214163,0.853919766928,0.059515728991,0.744557456238,-0.0962898182946,1.3385977082,-0.656278726108,0.498838413066,0.256294056645,1.02787094911,-2.97441987623,0.130386682933,-1.9616600283,0.0430523685168
0.44,0.465706214163,0.853919766928,0.059515728991,0.744557456238,-0.0962898182946,1.3385977082,-0.656261282402,0.498838413066,0.256294056645,1.02787094911,-2.97442213178,0.130389585463,-1.96167737609,0.0430523685168
0.46,0.465706214163,0.853919766928,0.059515728991,0.744557456238,-0.0962898182946,1.3385977082,-0.656261282402,0.498838413066,0.256294056645,1.02787094911,-2.97442213178,0.130389585463,-1.96167737609,0.0430523685168
0.48,0.465706214163,0.853919766928,0.059515728991,0.744557456238,-0.0962898182946,1.3385977082,-0.656261282402,0.498838413066,0.256294056645,1.02787094911,-2.97442213178,0.130389585463,-1.96167737609,0.0430523685168
0.5,0.465706214163,0.853919766928,0.059515728991,0.744540012532,-0.0962898182946,1.3385977082,-0.656278726108,0.498841191601,0.256295293055,1.02787677967,-2.97440889211,0.130400286604,-1.96165938228,0.0430515274338
0.52,0.465706214163,0.853919766928,0.059515728991,0.744540012532,-0.0962898182946,1.3385977082,-0.656278726108,0.498841191601,0.256295293055,1.02787677967,-2.97440889211,0.130400286604,-1.96165938228,0.0430515274338
0.54,0.465706214163,0.853919766928,0.059515728991,0.744557456238,-0.0962898182946,1.3385977082,-0.656278726108,0.498838413066,0.256294056645,1.02787094911,-2.97441987623,0.130386682933,-1.9616600283,0.0430523685168
0.56,0.465706214163,0.853919766928,0.059515728991,0.744557456238,-0.0962898182946,1.3385977082,-0.656278726108,0.498838413066,0.256294056645,1.02787094911,-2.97441987623,0.130386682933,-1.9616600283,0.0430523685168
0.58,0.465706214163,0.853919766928,0.059515728991,0.744557456238,-0.0962898182946,1.3385977082,-0.656261282402,0.498838413066,0.256294056645,1.02787094911,-2.97442213178,0.130389585463,-1.96167737609,0.0430523685168
0.6,0.465706214163,0.853919766928,0.059515728991,0.744557456238,-0.0962898182946,1.3385977082,-0.656261282402,0.498838413066,0.256294056645,1.02787094911,-2.97442213178,0.130389585463,-1.96167737609,0.0430523685168
0.62,0.465706214163,0.853919766928,0.059515728991,0.744557456238,-0.0962898182946,1.3385977082,-0.656261282402,0.498838413066,0.256294056645,1.02787094911,-2.97442213178,0.130389585463,-1.96167737609,0.0430523685168
0.64,0.465706214163,0.853919766928,0.059515728991,0.744540012532,-0.0962898182946,1.3385977082,-0.656278726108,0.498841191601,0.256295293055,1.02787677967,-2.97440889211,0.130400286604,-1.96165938228,0.0430515274338
0.66,0.465706214163,0.853919766928,0.059515728991,0.744540012532,-0.0962898182946,1.3385977082,-0.656278726108,0.498841191601,0.256295293055,1.02787677967,-2.97440889211,0.130400286604,-1.96165938228,0.0430515274338
0.68,0.465706214163,0.853919766928,0.059515728991,0.744540012532,-0.0962898182946,1.3385977082,-0.656261282402,0.498841191601,0.256295293055,1.02787677967,-2.97441114789,0.130403189323,-1.96167673006,0.0430515274338
0.7,0.465706214163,0.853919766928,0.059515728991,0.744540012532,-0.0962898182946,1.3385977082,-0.656261282402,0.498841191601,0.256295293055,1.02787677967,-2.97441114789,0.130403189323,-1.96167673006,0.0430515274338
0.72,0.465706214163,0.853919766928,0.0594982728023,0.744557456238,-0.0962898182946,1.3385977082,-0.656278726108,0.498841217395,0.256288604223,1.02787088342,-2.97440984771,0.130378063042,-1.96167019376,0.0430523759954
0.74,0.465706214163,0.853919766928,0.0594982728023,0.744557456238,-0.0962898182946,1.3385977082,-0.656278726108,0.498841217395,0.256288604223,1.02787088342,-2.97440984771,0.130378063042,-1.96167019376,0.0430523759954
0.76,0.465706214163,0.853919766928,0.0594982728023,0.744557456238,-0.0962898182946,1.3385977082,-0.656278726108,0.498841217395,0.256288604223,1.02787088342,-2.97440984771,0.130378063042,-1.96167019376,0.0430523759954
0.78,0.465706214163,0.853919766928,0.059515728991,0.744557456238,-0.0962898182946,1.3385977082,-0.656278726108,0.498838413066,0.256294056645,1.02787094911,-2.97441987623,0.130386682933,-1.9616600283,0.0430523685168
0.8,0.465706214163,0.853919766928,0.059515728991,0.744557456238,-0.0962898182946,1.3385977082,-0.656278726108,0.498838413066,0.256294056645,1.02787094911,-2.97441987623,0.130386682933,-1.9616600283,0.0430523685168
0.82,0.465706214163,0.853919766928,0.059515728991,0.744540012532,-0.0963072703222,1.3385977082,-0.656278726108,0.498842592705,0.256292772945,1.02787692803,-2.97439514333,0.130389399816,-1.96165712765,0.0430515251222
0.84,0.465706214163,0.853919766928,0.059515728991,0.744540012532,-0.0963072703222,1.3385977082,-0.656278726108,0.498842592705,0.256292772945,1.02787692803,-2.97439514333,0.130389399816,-1.96165712765,0.0430515251222
0.86,0.465706214163,0.853919766928,0.059515728991,0.744540012532,-0.0962898182946,1.3385977082,-0.656278726108,0.498841191601,0.256295293055,1.02787677967,-2.97440889211,0.130400286604,-1.96165938228,0.0430515274338
0.88,0.465706214163,0.853919766928,0.059515728991,0.744540012532,-0.0962898182946,1.3385977082,-0.656278726108,0.498841191601,0.256295293055,1.02787677967,-2.97440889211,0.130400286604,-1.96165938228,0.0430515274338
0.9,0.465706214163,0.853919766928,0.059515728991,0.744540012532,-0.0962898182946,1.3385977082,-0.656278726108,0.498841191601,0.256295293055,1.02787677967,-2.97440889211,0.130400286604,-1.96165938228,0.0430515274338
0.92,0.465706214163,0.853919766928,0.0595331810186,0.744557456238,-0.0962898182946,1.3385977082,-0.656278726108,0.498835609343,0.256299507735,1.02787101486,-2.97442990229,0.13039530087,-1.96164986535,0.0430523610379
0.94,0.465706214163,0.853919766928,0.0595331810186,0.744557456238,-0.0962898182946,1.3385977082,-0.656278726108,0.498835609343,0.256299507735,1.02787101486,-2.97442990229,0.13039530087,-1.96164986535,0.0430523610379
0.96,0.465706214163,0.853919766928,0.059515728991,0.744557456238,-0.0963072703222,1.3385977082,-0.656278726108,0.498839814174,0.256291536538,1.02787109747,-2.97440612747,0.130375796169,-1.96165777356,0.0430523662051
0.98,0.465706214163,0.853919766928,0.059515728991,0.744557456238,-0.0963072703222,1.3385977082,-0.656278726108,0.498839814174,0.256291536538,1.02787109747,-2.97440612747,0.130375796169,-1.96165777356,0.0430523662051
1.0,0.465706214163,0.853919766928,0.059515728991,0.744557456238,-0.0962898182946,1.3385977082,-0.656261282402,0.498838413066,0.256294056645,1.02787094911,-2.97442213178,0.130389585463,-1.96167737609,0.0430523685168
1.02,0.465706214163,0.853919766928,0.059515728991,0.744557456238,-0.0962898182946,1.3385977082,-0.656261282402,0.498838413066,0.256294056645,1.02787094911,-2.97442213178,0.130389585463,-1.96167737609,0.0430523685168
1.04,0.465706214163,0.853919766928,0.059515728991,0.744557456238,-0.0962898182946,1.3385977082,-0.656261282402,0.498838413066,0.256294056645,1.02787094911,-2.97442213178,0.130389585463,-1.96167737609,0.0430523685168
1.06,0.465706214163,0.853919766928,0.059515728991,0.744557456238,-0.0962898182946,1.3385977082,-0.656261282402,0.498838413066,0.256294056645,1.02787094911,-2.97442213178,0.130389585463,-1.96167737609,0.0430523685168
1.08,0.465706214163,0.853919766928,0.059515728991,0.744557456238,-0.0962898182946,1.3385977082,-0.656261282402,0.498838413066,0.256294056645,1.02787094911,-2.97442213178,0.130389585463,-1.96167737609,0.0430523685168
1.1,0.465706214163,0.853919766928,0.059515728991,0.744540012532,-0.0962898182946,1.3385977082,-0.656261282402,0.498841191601,0.256295293055,1.02787677967,-2.97441114789,0.130403189323,-1.96167673006,0.0430515274338
1.12,0.465706214163,0.853919766928,0.059515728991,0.744540012532,-0.0962898182946,1.3385977082,-0.656261282402,0.498841191601,0.256295293055,1.02787677967,-2.97441114789,0.130403189323,-1.96167673006,0.0430515274338
1.14,0.465706214163,0.853919766928,0.059515728991,0.744557456238,-0.0963072703222,1.3385977082,-0.656278726108,0.498839814174,0.256291536538,1.02787109747,-2.97440612747,0.130375796169,-1.96165777356,0.0430523662051
1.16,0.465706214163,0.853919766928,0.059515728991,0.744557456238,-0.0963072703222,1.3385977082,-0.656278726108,0.498839814174,0.256291536538,1.02787109747,-2.97440612747,0.130375796169,-1.96165777356,0.0430523662051
1.18,0.465706214163,0.853919766928,0.059515728991,0.744557456238,-0.0963072703222,1.3385977082,-0.656278726108,0.498839814174,0.256291536538,1.02787109747,-2.97440612747,0.130375796169,-1.96165777356,0.0430523662051
1.2,0.465688737169,0.853919766928,0.0594982728023,0.744557456238,-0.0962898182946,1.3385977082,-0.656261282402,0.498845696473,0.256279885938,1.02787088342,-2.9744121031,0.130380965745,-1.96170501849,0.0430523759954
1.22,0.465688737169,0.853919766928,0.0594982728023,0.744557456238,-0.0962898182946,1.3385977082,-0.656261282402,0.498845696473,0.256279885938,1.02787088342,-2.9744121031,0.130380965745,-1.96170501849,0.0430523759954
1.24,0.465706214163,0.853919766928,0.0594982728023,0.744540012532,-0.0962898182946,1.3385977082,-0.656278726108,0.49884399591,0.256289840669,1.02787671398,-2.97439886358,0.130391666707,-1.9616695476,0.0430515349121
1.26,0.465706214163,0.853919766928,0.0594982728023,0.744540012532,-0.0962898182946,1.3385977082,-0.656278726108,0.49884399591,0.256289840669,1.02787671398,-2.97439886358,0.130391666707,-1.9616695476,0.0430515349121
1.28,0.465688737169,0.853919766928,0.0594982728023,0.744557456238,-0.0962898182946,1.3385977082,-0.656261282402,0.498845696473,0.256279885938,1.02787088342,-2.9744121031,0.130380965745,-1.96170501849,0.0430523759954
1.3,0.465688737169,0.853919766928,0.0594982728023,0.744557456238,-0.0962898182946,1.3385977082,-0.656261282402,0.498845696473,0.256279885938,1.02787088342,-2.9744121031,0.130380965745,-1.96170501849,0.0430523759954
1.32,0.465688737169,0.853919766928,0.0594982728023,0.744557456238,-0.0962898182946,1.3385977082,-0.656261282402,0.498845696473,0.256279885938,1.02787088342,-2.9744121031,0.130380965745,-1.96170501849,0.0430523759954
1.34,0.465706214163,0.853919766928,0.0594982728023,0.744557456238,-0.0962898182946,1.3385977082,-0.656278726108,0.498841217395,0.256288604223,1.02787088342,-2.97440984771,0.130378063042,-1.96167019376,0.0430523759954
1.36,0.465706214163,0.853919766928,0.0594982728023,0.744557456238,-0.0962898182946,1.3385977082,-0.656278726108,0.498841217395,0.256288604223,1.02787088342,-2.97440984771,0.130378063042,-1.96167019376,0.0430523759954
1.38,0.465706214163,0.853919766928,0.059515728991,0.744557456238,-0.0963072703222,1.3385977082,-0.656278726108,0.498839814174,0.256291536538,1.02787109747,-2.97440612747,0.130375796169,-1.96165777356,0.0430523662051
1.4,0.465706214163,0.853919766928,0.059515728991,0.744557456238,-0.0963072703222,1.3385977082,-0.656278726108,0.498839814174,0.256291536538,1.02787109747,-2.97440612747,0.130375796169,-1.96165777356,0.0430523662051
1.42,0.465671293464,0.853919766928,0.0594982728023,0.744540012532,-0.0963247223497,1.3385977082,-0.656261282402,0.498855747399,0.256267380188,1.02787701083,-2.97437362136,0.130372796419,-1.96171730702,0.0430515302884
1.44,0.465671293464,0.853919766928,0.0594982728023,0.744540012532,-0.0963247223497,1.3385977082,-0.656261282402,0.498855747399,0.256267380188,1.02787701083,-2.97437362136,0.130372796419,-1.96171730702,0.0430515302884
1.46,0.465671293464,0.853919766928,0.0594982728023,0.744540012532,-0.0963247223497,1.3385977082,-0.656261282402,0.498855747399,0.256267380188,1.02787701083,-2.97437362136,0.130372796419,-1.96171730702,0.0430515302884
1.48,0.465636406053,0.853884879517,0.0594633687473,0.744505125122,-0.0963247223497,1.33858026449,-0.656261282402,0.498877659143,0.256242624914,1.02790871077,-2.97429760839,0.130422758047,-1.96176591028,0.0430489896611
1.5,0.465636406053,0.853884879517,0.0594633687473,0.744505125122,-0.0963247223497,1.33858026449,-0.656261282402,0.498877659143,0.256242624914,1.02790871077,-2.97429760839,0.130422758047,-1.96176591028,0.0430489896611
1.52,0.465706214163,0.853902323222,0.0594982728023,0.744505125122,-0.0963072703222,1.33854537708,-0.656261282402,0.498858163462,0.25629392733,1.02790011912,-2.97432104277,0.130464953661,-1.96167488816,0.0430492367326
1.54,0.465706214163,0.853902323222,0.0594982728023,0.744505125122,-0.0963072703222,1.33854537708,-0.656261282402,0.498858163462,0.25629392733,1.02790011912,-2.97432104277,0.130464953661,-1.96167488816,0.0430492367326
1.56,0.465741101574,0.853937210633,0.059515728991,0.744540012532,-0.0963072703222,1.33847560226,-0.656261282402,0.4988516624,0.256320420736,1.02787137463,-2.97433230656,0.130474514637,-1.96162484621,0.043051430722
1.58,0.465741101574,0.853937210633,0.059515728991,0.744540012532,-0.0963072703222,1.33847560226,-0.656261282402,0.4988516624,0.256320420736,1.02787137463,-2.97433230656,0.130474514637,-1.96162484621,0.043051430722
1.6,0.465741101574,0.853937210633,0.059515728991,0.744540012532,-0.0963072703222,1.33847560226,-0.656261282402,0.4988516624,0.256320420736,1.02787137463,-2.97433230656,0.130474514637,-1.96162484621,0.043051430722
1.62,0.465653849758,0.853902323222,0.0594808207748,0.744505125122,-0.0963247223497,1.33837080687,-0.656261282402,0.498901028792,0.256274220401,1.02790625259,-2.9741877281,0.130581825393,-1.96171192488,0.0430485326798
1.64,0.465653849758,0.853902323222,0.0594808207748,0.744505125122,-0.0963247223497,1.33837080687,-0.656261282402,0.498901028792,0.256274220401,1.02790625259,-2.9741877281,0.130581825393,-1.96171192488,0.0430485326798
1.66,0.465636406053,0.853919766928,0.0594633687473,0.744505125122,-0.0963247223497,1.33737598305,-0.656278726108,0.499052483896,0.256342225391,1.02793097763,-2.97356262529,0.131334228634,-1.96159097579,0.0430448767951
1.68,0.465636406053,0.853919766928,0.0594633687473,0.744505125122,-0.0963247223497,1.33737598305,-0.656278726108,0.499052483896,0.256342225391,1.02793097763,-2.97356262529,0.131334228634,-1.96159097579,0.0430448767951
1.7,0.465706214163,0.853919766928,0.0594982728023,0.744505125122,-0.0963247223497,1.33388537781,-0.656261282402,0.499533329027,0.25667558568,1.02805372172,-2.97139298713,0.134080469444,-1.96104864293,0.0430302894636
1.72,0.465706214163,0.853919766928,0.0594982728023,0.744505125122,-0.0963247223497,1.33388537781,-0.656261282402,0.499533329027,0.25667558568,1.02805372172,-2.97139298713,0.134080469444,-1.96104864293,0.0430302894636
1.74,0.465706214163,0.853919766928,0.0594982728023,0.744505125122,-0.0963247223497,1.33388537781,-0.656261282402,0.499533329027,0.25667558568,1.02805372172,-2.97139298713,0.134080469444,-1.96104864293,0.0430302894636
1.76,0.465688737169,0.853902323222,0.0594982728023,0.744470171133,-0.0963247223497,1.32501904875,-0.656261282402,0.500822153556,0.257399137838,1.02839584198,-2.96578207587,0.14104060281,-1.95984230941,0.0429890157732
1.78,0.465688737169,0.853902323222,0.0594982728023,0.744470171133,-0.0963247223497,1.32501904875,-0.656261282402,0.500822153556,0.257399137838,1.02839584198,-2.96578207587,0.14104060281,-1.95984230941,0.0429890157732
1.8,0.465653849758,0.853884879517,0.0594808207748,0.744382952607,-0.0963247223497,1.30753086882,-0.656261282402,0.503361953085,0.258819392275,1.02910579822,-2.95466211084,0.154741141599,-1.95735446444,0.0428979998539
1.82,0.465653849758,0.853884879517,0.0594808207748,0.744382952607,-0.0963247223497,1.30753086882,-0.656261282402,0.503361953085,0.258819392275,1.02910579822,-2.95466211084,0.154741141599,-1.95735446444,0.0428979998539
1.84,0.465671293464,0.853919766928,0.0594808207748,0.744470171133,-0.0963247223497,1.28067022606,-0.656261282402,0.50718309916,0.261022804609,1.03018451195,-2.93766251637,0.175523079878,-1.95315667425,0.04274677364
1.86,0.465671293464,0.853919766928,0.0594808207748,0.744470171133,-0.0963247223497,1.28067022606,-0.656261282402,0.50718309916,0.261022804609,1.03018451195,-2.93766251637,0.175523079878,-1.95315667425,0.04274677364
1.88,0.465671293464,0.853919766928,0.0594808207748,0.744470171133,-0.0963247223497,1.28067022606,-0.656261282402,0.50718309916,0.261022804609,1.03018451195,-2.93766251637,0.175523079878,-1.95315667425,0.04274677364
1.9,0.465688737169,0.853902323222,0.0594982728023,0.744435283723,-0.0963247223497,1.2423253669,-0.656261282402,0.512606434906,0.264162559459,1.0320219175,-2.9129835484,0.205243359962,-1.94648603444,0.0424725606728
1.92,0.465688737169,0.853902323222,0.0594982728023,0.744435283723,-0.0963247223497,1.2423253669,-0.656261282402,0.512606434906,0.264162559459,1.0320219175,-2.9129835484,0.205243359962,-1.94648603444,0.0424725606728
1.94,0.465671293464,0.853902323222,0.0594982728023,0.744435283723,-0.0963247223497,1.19989641704,-0.656261282402,0.518531669935,0.267579570952,1.03430827929,-2.88527455008,0.237874929437,-1.93823092067,0.0421047283272
1.96,0.465671293464,0.853902323222,0.0594982728023,0.744435283723,-0.0963247223497,1.19989641704,-0.656261282402,0.518531669935,0.267579570952,1.03430827929,-2.88527455008,0.237874929437,-1.93823092067,0.0421047283272
1.98,0.465653849758,0.853919766928,0.0594808207748,0.744435283723,-0.0963247223497,1.14638458915,-0.656261282402,0.52586673501,0.27183201446,1.03759106623,-2.8495885791,0.278664772893,-1.9263896308,0.0415425328693
2.0,0.465653849758,0.853919766928,0.0594808207748,0.744435283723,-0.0963247223497,1.14638458915,-0.656261282402,0.52586673501,0.27183201446,1.03759106623,-2.8495885791,0.278664772893,-1.9263896308,0.0415425328693
2.02,0.465653849758,0.853919766928,0.0594808207748,0.744435283723,-0.0963247223497,1.14638458915,-0.656261282402,0.52586673501,0.27183201446,1.03759106623,-2.8495885791,0.278664772893,-1.9263896308,0.0415425328693
2.04,0.465671293464,0.853937210633,0.0594982728023,0.744382952607,-0.0963247223497,1.09561295429,-0.656261282402,0.532656799815,0.275833105562,1.04113908386,-2.81483227165,0.317015008882,-1.91354896052,0.040906609259
2.06,0.465671293464,0.853937210633,0.0594982728023,0.744382952607,-0.0963247223497,1.09561295429,-0.656261282402,0.532656799815,0.275833105562,1.04113908386,-2.81483227165,0.317015008882,-1.91354896052,0.040906609259
2.08,0.465706214163,0.853937210633,0.0594982728023,0.744470171133,-0.0963247223497,1.04342764694,-0.656261282402,0.539429195135,0.279862350693,1.0451543073,-2.77815592867,0.355856910408,-1.89871462355,0.0401599413938
2.1,0.465706214163,0.853937210633,0.0594982728023,0.744470171133,-0.0963247223497,1.04342764694,-0.656261282402,0.539429195135,0.279862350693,1.0451543073,-2.77815592867,0.355856910408,-1.89871462355,0.0401599413938
2.12,0.465706214163,0.853937210633,0.0594982728023,0.744330554913,-0.0963247223497,0.988746491592,-0.656261282402,0.546349373233,0.283982261435,1.04988488067,-2.7382865982,0.396136382852,-1.88126353761,0.0392616709907
2.14,0.465706214163,0.853937210633,0.0594982728023,0.744330554913,-0.0963247223497,0.988746491592,-0.656261282402,0.546349373233,0.283982261435,1.04988488067,-2.7382865982,0.396136382852,-1.88126353761,0.0392616709907
2.16,0.465706214163,0.853937210633,0.0594982728023,0.744330554913,-0.0963247223497,0.988746491592,-0.656261282402,0.546349373233,0.283982261435,1.04988488067,-2.7382865982,0.396136382852,-1.88126353761,0.0392616709907
2.18,0.465706214163,0.853919766928,0.0594982728023,0.744260780092,-0.0963247223497,0.936299328927,-0.656261282402,0.552746241021,0.287825256961,1.05481502683,-2.69869437039,0.434086998595,-1.86259705477,0.0383049774692
2.2,0.465706214163,0.853919766928,0.0594982728023,0.744260780092,-0.0963247223497,0.936299328927,-0.656261282402,0.552746241021,0.287825256961,1.05481502683,-2.69869437039,0.434086998595,-1.86259705477,0.0383049774692
2.22,0.465688737169,0.853884879517,0.0594982728023,0.744313111208,-0.0963247223497,0.882141751052,-0.656261282402,0.559083501508,0.291658182764,1.0602696955,-2.65630104412,0.472442976315,-1.84125651972,0.0372257176249
2.24,0.465688737169,0.853884879517,0.0594982728023,0.744313111208,-0.0963247223497,0.882141751052,-0.656261282402,0.559083501508,0.291658182764,1.0602696955,-2.65630104412,0.472442976315,-1.84125651972,0.0372257176249
2.26,0.465706214163,0.853954720917,0.0594982728023,0.744417840017,-0.0963247223497,0.833045643987,-0.656261282402,0.564577561415,0.295038426724,1.06546598016,-2.61645737697,0.506362703882,-1.81997394516,0.0361707461105
2.28,0.465706214163,0.853954720917,0.0594982728023,0.744417840017,-0.0963247223497,0.833045643987,-0.656261282402,0.564577561415,0.295038426724,1.06546598016,-2.61645737697,0.506362703882,-1.81997394516,0.0361707461105
2.3,0.465706214163,0.853954720917,0.0594982728023,0.744417840017,-0.0963247223497,0.833045643987,-0.656261282402,0.564577561415,0.295038426724,1.06546598016,-2.61645737697,0.506362703882,-1.81997394516,0.0361707461105
2.32,0.465706214163,0.853919766928,0.0594982728023,0.744278223797,-0.0963247223497,0.779289537647,-0.656261282402,0.570347810102,0.298605104337,1.07168581944,-2.57066063019,0.542832659388,-1.79427031423,0.0349179757978
2.34,0.465706214163,0.853919766928,0.0594982728023,0.744278223797,-0.0963247223497,0.779289537647,-0.656261282402,0.570347810102,0.298605104337,1.07168581944,-2.57066063019,0.542832659388,-1.79427031423,0.0349179757978
2.36,0.465653849758,0.853919766928,0.0594808207748,0.744208382398,-0.0963247223497,0.726947103792,-0.656261282402,0.575683762098,0.3018958662,1.07803419595,-2.52408819759,0.577230440077,-1.76689779333,0.0336225086231
2.38,0.465653849758,0.853919766928,0.0594808207748,0.744208382398,-0.0963247223497,0.726947103792,-0.656261282402,0.575683762098,0.3018958662,1.07803419595,-2.52408819759,0.577230440077,-1.76689779333,0.0336225086231
2.4,0.465688737169,0.853919766928,0.0594982728023,0.744138607577,-0.0963072703222,0.676891060313,-0.656243772118,0.580468885362,0.304963397875,1.08440538226,-2.47752470446,0.609101722191,-1.73825701473,0.0323155548228
2.42,0.465688737169,0.853919766928,0.0594982728023,0.744138607577,-0.0963072703222,0.676891060313,-0.656243772118,0.580468885362,0.304963397875,1.08440538226,-2.47752470446,0.609101722191,-1.73825701473,0.0323155548228
2.44,0.465688737169,0.853919766928,0.0594982728023,0.744138607577,-0.0963072703222,0.676891060313,-0.656243772118,0.580468885362,0.304963397875,1.08440538226,-2.47752470446,0.609101722191,-1.73825701473,0.0323155548228
2.46,0.465688737169,0.853937210633,0.0594982728023,0.744156051282,-0.0963247223497,0.626171756563,-0.656261282402,0.585027515371,0.307890753411,1.09109245165,-2.42817304638,0.640081753816,-1.70676989316,0.0309331272218
2.48,0.465688737169,0.853937210633,0.0594982728023,0.744156051282,-0.0963247223497,0.626171756563,-0.656261282402,0.585027515371,0.307890753411,1.09109245165,-2.42817304638,0.640081753816,-1.70676989316,0.0309331272218
2.5,0.465688737169,0.853919766928,0.0594982728023,0.744121097293,-0.0963072703222,0.579955458743,-0.656243772118,0.588912674165,0.310425224467,1.09746120024,-2.38108824385,0.667254402005,-1.67576711145,0.029621695328
2.52,0.465688737169,0.853919766928,0.0594982728023,0.744121097293,-0.0963072703222,0.579955458743,-0.656243772118,0.588912674165,0.310425224467,1.09746120024,-2.38108824385,0.667254402005,-1.67576711145,0.029621695328
2.54,0.465653849758,0.853937210633,0.0594808207748,0.744121097293,-0.0963247223497,0.535414655433,-0.656243772118,0.592420150647,0.312710620301,1.10375728429,-2.33376209878,0.692205305944,-1.64376807846,0.0283207919302
2.56,0.465653849758,0.853937210633,0.0594808207748,0.744121097293,-0.0963247223497,0.535414655433,-0.656243772118,0.592420150647,0.312710620301,1.10375728429,-2.33376209878,0.692205305944,-1.64376807846,0.0283207919302
2.58,0.465653849758,0.853937210633,0.0594808207748,0.744121097293,-0.0963247223497,0.535414655433,-0.656243772118,0.592420150647,0.312710620301,1.10375728429,-2.33376209878,0.692205305944,-1.64376807846,0.0283207919302
2.6,0.465653849758,0.853954720917,0.0594808207748,0.744208382398,-0.0963247223497,0.492008325458,-0.656243772118,0.595572160546,0.314836929185,1.11002628852,-2.28581564963,0.715315496566,-1.61049990607,0.0270247983647
2.62,0.465653849758,0.853954720917,0.0594808207748,0.744208382398,-0.0963247223497,0.492008325458,-0.656243772118,0.595572160546,0.314836929185,1.11002628852,-2.28581564963,0.715315496566,-1.61049990607,0.0270247983647
2.64,0.465653849758,0.853972164622,0.0594808207748,0.744382952607,-0.0963247223497,0.450050588669,-0.656243772118,0.598377687535,0.316769168052,1.11619514852,-2.23769744489,0.736406260991,-1.57638846871,0.0257511523069
2.66,0.465653849758,0.853972164622,0.0594808207748,0.744382952607,-0.0963247223497,0.450050588669,-0.656243772118,0.598377687535,0.316769168052,1.11619514852,-2.23769744489,0.736406260991,-1.57638846871,0.0257511523069
2.68,0.465671293464,0.853989608327,0.0594808207748,0.744243269808,-0.0963247223497,0.406103204229,-0.656243772118,0.601085395457,0.318679401513,1.12294896589,-2.18488764388,0.757274604195,-1.53823502861,0.0243866344751
2.7,0.465671293464,0.853989608327,0.0594808207748,0.744243269808,-0.0963247223497,0.406103204229,-0.656243772118,0.601085395457,0.318679401513,1.12294896589,-2.18488764388,0.757274604195,-1.53823502861,0.0243866344751
2.72,0.465671293464,0.853989608327,0.0594808207748,0.744243269808,-0.0963247223497,0.406103204229,-0.656243772118,0.601085395457,0.318679401513,1.12294896589,-2.18488764388,0.757274604195,-1.53823502861,0.0243866344751
2.74,0.465653849758,0.854007052032,0.0594633687473,0.744487614838,-0.0963247223497,0.363203008019,-0.656261282402,0.603458771872,0.320377002703,1.12950093718,-2.13177025321,0.775977110685,-1.4991846612,0.023057148863
2.76,0.465653849758,0.854007052032,0.0594633687473,0.744487614838,-0.0963247223497,0.363203008019,-0.656261282402,0.603458771872,0.320377002703,1.12950093718,-2.13177025321,0.775977110685,-1.4991846612,0.023057148863
2.78,0.465688737169,0.853954720917,0.0594982728023,0.744382952607,-0.0963072703222,0.319534889309,-0.656243772118,0.605604319541,0.32201758315,1.13650157167,-2.07517846369,0.793666488933,-1.45689191082,0.021688558205
2.8,0.465688737169,0.853954720917,0.0594982728023,0.744382952607,-0.0963072703222,0.319534889309,-0.656243772118,0.605604319541,0.32201758315,1.13650157167,-2.07517846369,0.793666488933,-1.45689191082,0.021688558205
2.82,0.465653849758,0.854007052032,0.0594808207748,0.744278223797,-0.0963247223497,0.273126577574,-0.656243772118,0.607633451453,0.323547423838,1.14398461428,-2.0129352889,0.810420703488,-1.40980808784,0.0202464744559
2.84,0.465653849758,0.854007052032,0.0594808207748,0.744278223797,-0.0963247223497,0.273126577574,-0.656243772118,0.607633451453,0.323547423838,1.14398461428,-2.0129352889,0.810420703488,-1.40980808784,0.0202464744559
2.86,0.465653849758,0.854007052032,0.0594808207748,0.744278223797,-0.0963247223497,0.273126577574,-0.656243772118,0.607633451453,0.323547423838,1.14398461428,-2.0129352889,0.810420703488,-1.40980808784,0.0202464744559
2.88,0.465653849758,0.853989608327,0.0594633687473,0.744452727428,-0.0963072703222,0.222005885514,-0.656243772118,0.609471802437,0.32505972715,1.15226930629,-1.94221590224,0.82640434541,-1.35554108148,0.0186976301251
2.9,0.465653849758,0.853989608327,0.0594633687473,0.744452727428,-0.0963072703222,0.222005885514,-0.656243772118,0.609471802437,0.32505972715,1.15226930629,-1.94221590224,0.82640434541,-1.35554108148,0.0186976301251
2.92,0.465653849758,0.853954720917,0.0594808207748,0.744382952607,-0.0963247223497,0.171478595679,-0.656243772118,0.61092235387,0.326363577158,1.16069021933,-1.86963544707,0.839596213752,-1.29921491819,0.0172169386736
2.94,0.465653849758,0.853954720917,0.0594808207748,0.744382952607,-0.0963247223497,0.171478595679,-0.656243772118,0.61092235387,0.326363577158,1.16069021933,-1.86963544707,0.839596213752,-1.29921491819,0.0172169386736
2.96,0.465636406053,0.853972164622,0.0594633687473,0.744243269808,-0.0963247223497,0.123674030197,-0.656243772118,0.611970250479,0.327393036503,1.16873554172,-1.7991049679,0.849479389577,-1.24404695775,0.0158981050677
2.98,0.465636406053,0.853972164622,0.0594633687473,0.744243269808,-0.0963247223497,0.123674030197,-0.656243772118,0.611970250479,0.327393036503,1.16873554172,-1.7991049679,0.849479389577,-1.24404695775,0.0158981050677
3.0,0.465636406053,0.853972164622,0.0594633687473,0.744243269808,-0.0963247223497,0.123674030197,-0.656243772118,0.611970250479,0.327393036503,1.16873554172,-1.7991049679,0.849479389577,-1.24404695775,0.0158981050677
3.02,0.465618929059,0.853954720917,0.0594633687473,0.744278223797,-0.0963247223497,0.0726580586247,-0.656243772118,0.612699995694,0.328292201573,1.17732430758,-1.72250731262,0.857112763298,-1.18371224526,0.0146261007703
3.04,0.465618929059,0.853954720917,0.0594633687473,0.744278223797,-0.0963247223497,0.0726580586247,-0.656243772118,0.612699995694,0.328292201573,1.17732430758,-1.72250731262,0.857112763298,-1.18371224526,0.0146261007703
3.06,0.465653849758,0.853972164622,0.0594633687473,0.744365442323,-0.0963072703222,0.0249931156043,-0.656261282402,0.61302061773,0.328975800371,1.18533980512,-1.65006359527,0.861457179672,-1.12634264917,0.0136067625678
3.08,0.465653849758,0.853972164622,0.0594633687473,0.744365442323,-0.0963072703222,0.0249931156043,-0.656261282402,0.61302061773,0.328975800371,1.18533980512,-1.65006359527,0.861457179672,-1.12634264917,0.0136067625678
3.1,0.465688737169,0.853937210633,0.0594982728023,0.744278223797,-0.0962898182946,-0.0243298907049,-0.656243772118,0.612987917771,0.329489278021,1.19377548282,-1.57420734217,0.863136322185,-1.06614105175,0.0127698345177
3.12,0.465688737169,0.853937210633,0.0594982728023,0.744278223797,-0.0962898182946,-0.0243298907049,-0.656243772118,0.612987917771,0.329489278021,1.19377548282,-1.57420734217,0.863136322185,-1.06614105175,0.0127698345177
3.14,0.465688737169,0.853937210633,0.0594982728023,0.744278223797,-0.0962898182946,-0.0243298907049,-0.656243772118,0.612987917771,0.329489278021,1.19377548282,-1.57420734217,0.863136322185,-1.06614105175,0.0127698345177
3.16,0.465636406053,0.853954720917,0.0594633687473,0.744278223797,-0.0962898182946,-0.0693593840748,-0.656243772118,0.612686639177,0.329717596945,1.20140546938,-1.50511749259,0.862000328649,-1.01141758969,0.0122536889061
3.18,0.465636406053,0.853954720917,0.0594633687473,0.744278223797,-0.0962898182946,-0.0693593840748,-0.656243772118,0.612686639177,0.329717596945,1.20140546938,-1.50511749259,0.862000328649,-1.01141758969,0.0122536889061
3.2,0.465636406053,0.853919766928,0.0594633687473,0.744225826103,-0.0962898182946,-0.112364300772,-0.656243772118,0.612087760734,0.329812950431,1.20873984614,-1.43932698668,0.858637834432,-0.959328153302,0.0120105549256
3.22,0.465636406053,0.853919766928,0.0594633687473,0.744225826103,-0.0962898182946,-0.112364300772,-0.656243772118,0.612087760734,0.329812950431,1.20873984614,-1.43932698668,0.858637834432,-0.959328153302,0.0120105549256
3.24,0.465636406053,0.853937210633,0.0594633687473,0.744225826103,-0.0962898182946,-0.157795224064,-0.656243772118,0.611167683517,0.329753012494,1.21639468144,-1.37074770479,0.852700044452,-0.90520483764,0.0120415573991
3.26,0.465636406053,0.853937210633,0.0594633687473,0.744225826103,-0.0962898182946,-0.157795224064,-0.656243772118,0.611167683517,0.329753012494,1.21639468144,-1.37074770479,0.852700044452,-0.90520483764,0.0120415573991
3.28,0.465636406053,0.853937210633,0.0594633687473,0.744225826103,-0.0962898182946,-0.157795224064,-0.656243772118,0.611167683517,0.329753012494,1.21639468144,-1.37074770479,0.852700044452,-0.90520483764,0.0120415573991
3.3,0.465636406053,0.853919766928,0.0594808207748,0.744173494987,-0.0962898182946,-0.199124621284,-0.656243772118,0.610058319752,0.329549688217,1.22336682547,-1.30920681915,0.845206503808,-0.856872021643,0.0123213124
3.32,0.465636406053,0.853919766928,0.0594808207748,0.744173494987,-0.0962898182946,-0.199124621284,-0.656243772118,0.610058319752,0.329549688217,1.22336682547,-1.30920681915,0.845206503808,-0.856872021643,0.0123213124
3.34,0.465618929059,0.853937210633,0.0594808207748,0.744156051282,-0.0962723579447,-0.240977612619,-0.656243772118,0.608696788442,0.329188290705,1.23033523166,-1.24819923773,0.835673534374,-0.809285787063,0.0128333899299
3.36,0.465618929059,0.853937210633,0.0594808207748,0.744156051282,-0.0962723579447,-0.240977612619,-0.656243772118,0.608696788442,0.329188290705,1.23033523166,-1.24819923773,0.835673534374,-0.809285787063,0.0128333899299
3.38,0.465653849758,0.853954720917,0.0594808207748,0.744173494987,-0.0962723579447,-0.280264981139,-0.656243772118,0.607172499251,0.328750833605,1.23680258667,-1.19228592481,0.824992363381,-0.765952765871,0.0134972800029
3.4,0.465653849758,0.853954720917,0.0594808207748,0.744173494987,-0.0962723579447,-0.280264981139,-0.656243772118,0.607172499251,0.328750833605,1.23680258667,-1.19228592481,0.824992363381,-0.765952765871,0.0134972800029
3.42,0.465653849758,0.853954720917,0.0594808207748,0.744173494987,-0.0962723579447,-0.280264981139,-0.656243772118,0.607172499251,0.328750833605,1.23680258667,-1.19228592481,0.824992363381,-0.765952765871,0.0134972800029
3.44,0.465653849758,0.853954720917,0.0594808207748,0.744173494987,-0.0962723579447,-0.327196870344,-0.656243772118,0.605072251043,0.328034556037,1.24446544679,-1.12728902745,0.810132831175,-0.716117582632,0.0144809949839
3.46,0.465653849758,0.853954720917,0.0594808207748,0.744173494987,-0.0962723579447,-0.327196870344,-0.656243772118,0.605072251043,0.328034556037,1.24446544679,-1.12728902745,0.810132831175,-0.716117582632,0.0144809949839
3.48,0.465636406053,0.853937210633,0.0594982728023,0.744173494987,-0.0962549059172,-0.372941955099,-0.656243772118,0.602727029753,0.327155011123,1.25184042378,-1.06600587169,0.793602886479,-0.669723956721,0.0155973481248
3.5,0.465636406053,0.853937210633,0.0594982728023,0.744173494987,-0.0962549059172,-0.372941955099,-0.656243772118,0.602727029753,0.327155011123,1.25184042378,-1.06600587169,0.793602886479,-0.669723956721,0.0155973481248
3.52,0.465653849758,0.853954720917,0.0594982728023,0.744156051282,-0.0962549059172,-0.420345090659,-0.656261282402,0.599989051136,0.326087573728,1.25933843122,-1.00487113736,0.774425461256,-0.624101107988,0.0168760203661
3.54,0.465653849758,0.853954720917,0.0594982728023,0.744156051282,-0.0962549059172,-0.420345090659,-0.656261282402,0.599989051136,0.326087573728,1.25933843122,-1.00487113736,0.774425461256,-0.624101107988,0.0168760203661
3.56,0.465653849758,0.853954720917,0.0594982728023,0.744156051282,-0.0962549059172,-0.420345090659,-0.656261282402,0.599989051136,0.326087573728,1.25933843122,-1.00487113736,0.774425461256,-0.624101107988,0.0168760203661
3.58,0.465653849758,0.853937210633,0.0594982728023,0.744086209883,-0.0962549059172,-0.470977109303,-0.656261282402,0.596723521494,0.324732967027,1.26723285066,-0.94213796436,0.751820976151,-0.578133205105,0.0183369086303
3.6,0.465653849758,0.853937210633,0.0594982728023,0.744086209883,-0.0962549059172,-0.470977109303,-0.656261282402,0.596723521494,0.324732967027,1.26723285066,-0.94213796436,0.751820976151,-0.578133205105,0.0183369086303
3.62,0.465653849758,0.853937210633,0.0594808207748,0.744278223797,-0.0962549059172,-0.519444876799,-0.656261282402,0.593298601142,0.323260713732,1.27448625744,-0.885027958078,0.72844090306,-0.53712370912,0.0198035528856
3.64,0.465653849758,0.853937210633,0.0594808207748,0.744278223797,-0.0962549059172,-0.519444876799,-0.656261282402,0.593298601142,0.323260713732,1.27448625744,-0.885027958078,0.72844090306,-0.53712370912,0.0198035528856
3.66,0.465653849758,0.853919766928,0.0594808207748,0.744103653588,-0.0962549059172,-0.571246256188,-0.656261282402,0.589276884251,0.321470976818,1.28221214983,-0.826296236739,0.701425162997,-0.495957530087,0.0213995738809
3.68,0.465653849758,0.853919766928,0.0594808207748,0.744103653588,-0.0962549059172,-0.571246256188,-0.656261282402,0.589276884251,0.321470976818,1.28221214983,-0.826296236739,0.701425162997,-0.495957530087,0.0213995738809
3.7,0.465653849758,0.853919766928,0.0594808207748,0.744103653588,-0.0962549059172,-0.571246256188,-0.656261282402,0.589276884251,0.321470976818,1.28221214983,-0.826296236739,0.701425162997,-0.495957530087,0.0213995738809
3.72,0.465653849758,0.853902323222,0.0594982728023,0.744051322472,-0.0962723579447,-0.618021085468,-0.656261282402,0.585358774874,0.319692593152,1.28893953794,-0.775782131392,0.675588467306,-0.461441920405,0.0228580036184
3.74,0.465653849758,0.853902323222,0.0594982728023,0.744051322472,-0.0962723579447,-0.618021085468,-0.656261282402,0.585358774874,0.319692593152,1.28893953794,-0.775782131392,0.675588467306,-0.461441920405,0.0228580036184
3.76,0.465653849758,0.853902323222,0.0594808207748,0.744051322472,-0.0962374538897,-0.663155274358,-0.656261282402,0.581340795959,0.317819317407,1.29520065889,-0.729155797011,0.649500720586,-0.430448926164,0.024266312703
3.78,0.465653849758,0.853902323222,0.0594808207748,0.744051322472,-0.0962374538897,-0.663155274358,-0.656261282402,0.581340795959,0.317819317407,1.29520065889,-0.729155797011,0.649500720586,-0.430448926164,0.024266312703
3.8,0.465618929059,0.853884879517,0.0594808207748,0.744016435062,-0.0962025498347,-0.708272086122,-0.656261282402,0.577088261729,0.315780641966,1.30128069619,-0.684409995736,0.622312427499,-0.401589619316,0.0256618136475
3.82,0.465618929059,0.853884879517,0.0594808207748,0.744016435062,-0.0962025498347,-0.708272086122,-0.656261282402,0.577088261729,0.315780641966,1.30128069619,-0.684409995736,0.622312427499,-0.401589619316,0.0256618136475
3.84,0.465618929059,0.853884879517,0.0594808207748,0.744016435062,-0.0962025498347,-0.708272086122,-0.656261282402,0.577088261729,0.315780641966,1.30128069619,-0.684409995736,0.622312427499,-0.401589619316,0.0256618136475
3.86,0.465653849758,0.853867435812,0.0594982728023,0.743981481073,-0.0961676457796,-0.750282120738,-0.656261282402,0.572898370805,0.313796951308,1.30674819764,-0.644368239496,0.596111347701,-0.376473682263,0.0269433810619
3.88,0.465653849758,0.853867435812,0.0594982728023,0.743981481073,-0.0961676457796,-0.750282120738,-0.656261282402,0.572898370805,0.313796951308,1.30674819764,-0.644368239496,0.596111347701,-0.376473682263,0.0269433810619
3.9,0.465636406053,0.853902323222,0.0594808207748,0.743981481073,-0.0962200018622,-0.794491327202,-0.656278726108,0.568315516533,0.311563379997,1.31223572825,-0.604013847377,0.567653023958,-0.352061551527,0.0282685469134
3.92,0.465636406053,0.853902323222,0.0594808207748,0.743981481073,-0.0962200018622,-0.794491327202,-0.656278726108,0.568315516533,0.311563379997,1.31223572825,-0.604013847377,0.567653023958,-0.352061551527,0.0282685469134
3.94,0.465653849758,0.853849992107,0.0594982728023,0.743929149957,-0.0961850978071,-0.835803280717,-0.656278726108,0.563812097325,0.30936233225,1.31723329595,-0.567481764711,0.54034336653,-0.330693179203,0.0294752509621
3.96,0.465653849758,0.853849992107,0.0594982728023,0.743929149957,-0.0961850978071,-0.835803280717,-0.656278726108,0.563812097325,0.30936233225,1.31723329595,-0.567481764711,0.54034336653,-0.330693179203,0.0294752509621
3.98,0.465653849758,0.853849992107,0.0594982728023,0.743929149957,-0.0961850978071,-0.835803280717,-0.656278726108,0.563812097325,0.30936233225,1.31723329595,-0.567481764711,0.54034336653,-0.330693179203,0.0294752509621
4.0,0.465636406053,0.853919766928,0.0594982728023,0.743964037368,-0.0961501854297,-0.878703476927,-0.656261282402,0.559011748036,0.306964454737,1.32208361909,-0.531053775738,0.511461582188,-0.310207161462,0.030698579125
4.02,0.465636406053,0.853919766928,0.0594982728023,0.743964037368,-0.0961501854297,-0.878703476927,-0.656261282402,0.559011748036,0.306964454737,1.32208361909,-0.531053775738,0.511461582188,-0.310207161462,0.030698579125
4.04,0.465618929059,0.853849992107,0.0594808207748,0.743859308558,-0.0962374538897,-0.919753641707,-0.656278726108,0.554197111876,0.304547753618,1.32664697618,-0.497270254042,0.482940116375,-0.292029067816,0.0318256902314
4.06,0.465618929059,0.853849992107,0.0594808207748,0.743859308558,-0.0962374538897,-0.919753641707,-0.656278726108,0.554197111876,0.304547753618,1.32664697618,-0.497270254042,0.482940116375,-0.292029067816,0.0318256902314
4.08,0.465601485353,0.853884879517,0.0594633687473,0.743859308558,-0.0960803773197,-0.960315049847,-0.656278726108,0.549346738911,0.302058220757,1.33083038327,-0.464901161724,0.454580279761,-0.275355436272,0.0329054688241
4.1,0.465601485353,0.853884879517,0.0594633687473,0.743859308558,-0.0960803773197,-0.960315049847,-0.656278726108,0.549346738911,0.302058220757,1.33083038327,-0.464901161724,0.454580279761,-0.275355436272,0.0329054688241
4.12,0.465601485353,0.853884879517,0.0594633687473,0.743859308558,-0.0960803773197,-0.960315049847,-0.656278726108,0.549346738911,0.302058220757,1.33083038327,-0.464901161724,0.454580279761,-0.275355436272,0.0329054688241
4.14,0.465584041648,0.853849992107,0.0594633687473,0.743824421148,-0.0960454649422,-1.00140010204,-0.656278726108,0.544257392191,0.299448270735,1.33489604256,-0.433099236074,0.42522984136,-0.259726376447,0.0339542773868
4.16,0.465584041648,0.853849992107,0.0594633687473,0.743824421148,-0.0960454649422,-1.00140010204,-0.656278726108,0.544257392191,0.299448270735,1.33489604256,-0.433099236074,0.42522984136,-0.259726376447,0.0339542773868
4.18,0.465461869133,0.853884879517,0.0594633687473,0.743859308558,-0.0960280129147,-1.03770298244,-0.656278726108,0.53970520354,0.297027080586,1.33822444277,-0.405862815163,0.39902556389,-0.247078367567,0.0348464986482
4.2,0.465461869133,0.853884879517,0.0594633687473,0.743859308558,-0.0960280129147,-1.03770298244,-0.656278726108,0.53970520354,0.297027080586,1.33822444277,-0.405862815163,0.39902556389,-0.247078367567,0.0348464986482
4.22,0.465584041648,0.853884879517,0.0594982728023,0.744086209883,-0.0960280129147,-1.07231282475,-0.656278726108,0.535210317896,0.294803414266,1.34116807877,-0.380612387911,0.373881929284,-0.235634564445,0.0356691479555
4.24,0.465584041648,0.853884879517,0.0594982728023,0.744086209883,-0.0960280129147,-1.07231282475,-0.656278726108,0.535210317896,0.294803414266,1.34116807877,-0.380612387911,0.373881929284,-0.235634564445,0.0356691479555
4.26,0.465584041648,0.853884879517,0.0594982728023,0.744086209883,-0.0960280129147,-1.07231282475,-0.656278726108,0.535210317896,0.294803414266,1.34116807877,-0.380612387911,0.373881929284,-0.235634564445,0.0356691479555
4.28,0.465514233538,0.853884879517,0.0594808207748,0.743911706252,-0.0960454649422,-1.10060465028,-0.656278726108,0.531484748034,0.292818873947,1.34358151925,-0.360162922783,0.352837958178,-0.227007346047,0.0363013863934
4.3,0.465514233538,0.853884879517,0.0594808207748,0.743911706252,-0.0960454649422,-1.10060465028,-0.656278726108,0.531484748034,0.292818873947,1.34358151925,-0.360162922783,0.352837958178,-0.227007346047,0.0363013863934
4.32,0.465514233538,0.853919766928,0.0594808207748,0.744156051282,-0.0960978293472,-1.12521379007,-0.656278726108,0.528234785973,0.291140377468,1.34541219558,-0.342980497981,0.334707848013,-0.219943712434,0.0368475701676
4.34,0.465514233538,0.853919766928,0.0594808207748,0.744156051282,-0.0960978293472,-1.12521379007,-0.656278726108,0.528234785973,0.291140377468,1.34541219558,-0.342980497981,0.334707848013,-0.219943712434,0.0368475701676
4.36,0.465514233538,0.853884879517,0.0594808207748,0.744278223797,-0.0961327334022,-1.14626248322,-0.656278726108,0.525395674109,0.289665254575,1.34697834887,-0.328364078531,0.319003882028,-0.214165860314,0.0372952047117
4.38,0.465514233538,0.853884879517,0.0594808207748,0.744278223797,-0.0961327334022,-1.14626248322,-0.656278726108,0.525395674109,0.289665254575,1.34697834887,-0.328364078531,0.319003882028,-0.214165860314,0.0372952047117
4.4,0.465514233538,0.853884879517,0.0594808207748,0.744278223797,-0.0961327334022,-1.14626248322,-0.656278726108,0.525395674109,0.289665254575,1.34697834887,-0.328364078531,0.319003882028,-0.214165860314,0.0372952047117
4.42,0.465514233538,0.853902323222,0.0594808207748,0.744278223797,-0.0961327334022,-1.1614816499,-0.656278726108,0.523330549494,0.288582567556,1.34807648271,-0.31784884518,0.30758377257,-0.210145073219,0.0376072563348
4.44,0.465514233538,0.853902323222,0.0594808207748,0.744278223797,-0.0961327334022,-1.1614816499,-0.656278726108,0.523330549494,0.288582567556,1.34807648271,-0.31784884518,0.30758377257,-0.210145073219,0.0376072563348
4.46,0.465514233538,0.853884879517,0.0594808207748,0.744260780092,-0.0961501854297,-1.17364670344,-0.656278726108,0.521656967987,0.287706249191,1.3489536719,-0.309486828574,0.298377816302,-0.207026850196,0.0378499935844
4.48,0.465514233538,0.853884879517,0.0594808207748,0.744260780092,-0.0961501854297,-1.17364670344,-0.656278726108,0.521656967987,0.287706249191,1.3489536719,-0.309486828574,0.298377816302,-0.207026850196,0.0378499935844
4.5,0.465514233538,0.853884879517,0.0594633687473,0.744260780092,-0.0961501854297,-1.18261769473,-0.656278726108,0.520425071885,0.28705553794,1.34957322394,-0.303372257586,0.29159329277,-0.20480066339,0.0380266418758
4.52,0.465514233538,0.853884879517,0.0594633687473,0.744260780092,-0.0961501854297,-1.18261769473,-0.656278726108,0.520425071885,0.28705553794,1.34957322394,-0.303372257586,0.29159329277,-0.20480066339,0.0380266418758
4.54,0.465514233538,0.853884879517,0.0594633687473,0.744260780092,-0.0961501854297,-1.18261769473,-0.656278726108,0.520425071885,0.28705553794,1.34957322394,-0.303372257586,0.29159329277,-0.20480066339,0.0380266418758
4.56,0.465514233538,0.853884879517,0.0594633687473,0.744260780092,-0.0961501854297,-1.18729513771,-0.656278726108,0.519780310971,0.286715982295,1.34989145662,-0.300189732783,0.288054973251,-0.203651289429,0.0381176851414
4.58,0.465514233538,0.853884879517,0.0594633687473,0.744260780092,-0.0961501854297,-1.18729513771,-0.656278726108,0.519780310971,0.286715982295,1.34989145662,-0.300189732783,0.288054973251,-0.203651289429,0.0381176851414
4.6,0.465514233538,0.853919766928,0.0594633687473,0.744295667502,-0.0961501854297,-1.18769660925,-0.656278726108,0.519739885308,0.286695184935,1.349885109,-0.299963134606,0.287804949177,-0.203564792821,0.0381275417316
4.62,0.465514233538,0.853919766928,0.0594633687473,0.744295667502,-0.0961501854297,-1.18769660925,-0.656278726108,0.519739885308,0.286695184935,1.349885109,-0.299963134606,0.287804949177,-0.203564792821,0.0381275417316
4.64,0.465531677243,0.853902323222,0.0594633687473,0.744278223797,-0.0961676457796,-1.18760925756,-0.656278726108,0.519738117006,0.286708811142,1.34989581275,-0.300013195185,0.287832776879,-0.203566358274,0.0381248135724
4.66,0.465531677243,0.853902323222,0.0594633687473,0.744278223797,-0.0961676457796,-1.18760925756,-0.656278726108,0.519738117006,0.286708811142,1.34989581275,-0.300013195185,0.287832776879,-0.203566358274,0.0381248135724
4.68,0.465531677243,0.853902323222,0.0594633687473,0.744278223797,-0.0961676457796,-1.18760925756,-0.656278726108,0.519738117006,0.286708811142,1.34989581275,-0.300013195185,0.287832776879,-0.203566358274,0.0381248135724
4.7,0.465514233538,0.853919766928,0.0594633687473,0.744295667502,-0.0961501854297,-1.18752203904,-0.656278726108,0.519763973865,0.286707875913,1.34987330218,-0.30008175561,0.287937077457,-0.20360742232,0.0381241590253
4.72,0.465514233538,0.853919766928,0.0594633687473,0.744295667502,-0.0961501854297,-1.18752203904,-0.656278726108,0.519763973865,0.286707875913,1.34987330218,-0.30008175561,0.287937077457,-0.20360742232,0.0381241590253
4.74,0.465496756544,0.853884879517,0.0594633687473,0.744278223797,-0.0961501854297,-1.18600363774,-0.656278726108,0.519965579575,0.286802230614,1.34979751878,-0.301079539282,0.289045528578,-0.203987418416,0.0380933368711
4.76,0.465496756544,0.853884879517,0.0594633687473,0.744278223797,-0.0961501854297,-1.18600363774,-0.656278726108,0.519965579575,0.286802230614,1.34979751878,-0.301079539282,0.289045528578,-0.203987418416,0.0380933368711
4.78,0.465461869133,0.853919766928,0.0594459125586,0.744295667502,-0.0961501854297,-1.18359507485,-0.656278726108,0.520321683389,0.286963876856,1.34960615258,-0.302763695249,0.29089984984,-0.204638062629,0.0380478048685
4.8,0.465461869133,0.853919766928,0.0594459125586,0.744295667502,-0.0961501854297,-1.18359507485,-0.656278726108,0.520321683389,0.286963876856,1.34960615258,-0.302763695249,0.29089984984,-0.204638062629,0.0380478048685
4.82,0.465461869133,0.853919766928,0.0594459125586,0.744295667502,-0.0961501854297,-1.18359507485,-0.656278726108,0.520321683389,0.286963876856,1.34960615258,-0.302763695249,0.29089984984,-0.204638062629,0.0380478048685
4.84,0.465496756544,0.853884879517,0.0594633687473,0.744278223797,-0.0961501854297,-1.18020913184,-0.656261282402,0.520763724163,0.287222431516,1.34940160372,-0.305020856732,0.293432365842,-0.205400322391,0.0379801930069
4.86,0.465496756544,0.853884879517,0.0594633687473,0.744278223797,-0.0961501854297,-1.18020913184,-0.656261282402,0.520763724163,0.287222431516,1.34940160372,-0.305020856732,0.293432365842,-0.205400322391,0.0379801930069
4.88,0.465461869133,0.853902323222,0.0594459125586,0.744260780092,-0.0961327334022,-1.17280887296,-0.656261282402,0.521796195549,0.287735775903,1.34888429543,-0.310074337556,0.299023987364,-0.207302582608,0.0378336908171
4.9,0.465461869133,0.853902323222,0.0594459125586,0.744260780092,-0.0961327334022,-1.17280887296,-0.656261282402,0.521796195549,0.287735775903,1.34888429543,-0.310074337556,0.299023987364,-0.207302582608,0.0378336908171
4.92,0.465461869133,0.853902323222,0.0594459125586,0.744278223797,-0.0961327334022,-1.16130721285,-0.656278726108,0.523372036544,0.288563720668,1.34806337368,-0.317990552732,0.307698589128,-0.210272226505,0.0376037409781
4.94,0.465461869133,0.853902323222,0.0594459125586,0.744278223797,-0.0961327334022,-1.16130721285,-0.656278726108,0.523372036544,0.288563720668,1.34806337368,-0.317990552732,0.307698589128,-0.210272226505,0.0376037409781
4.96,0.465426948434,0.853919766928,0.0594459125586,0.744278223797,-0.0961327334022,-1.14554689183,-0.656261282402,0.523372036544,0.288563720668,1.34806337368,-0.317990552732,0.307698589128,-0.210272226505,0.0376037409781
4.98,0.465426948434,0.853919766928,0.0594459125586,0.744278223797,-0.0961327334022,-1.14554689183,-0.656261282402,0.525531233352,0.289671517303,1.3469038278,-0.328900395288,0.319556705475,-0.214465429092,0.0372809999168
5.0,0.465426948434,0.853919766928,0.0594459125586,0.744278223797,-0.0961327334022,-1.14554689183,-0.656261282402,0.525531233352,0.289671517303,1.3469038278,-0.328900395288,0.319556705475,-0.214465429092,0.0372809999168
5.02,0.465461869133,0.853937210633,0.0594633687473,0.744278223797,-0.0961327334022,-1.12681940989,-0.656261282402,0.528052663552,0.291015685856,1.34547884827,-0.341982502058,0.333588928036,-0.219576050161,0.0368870685145
5.04,0.465461869133,0.853937210633,0.0594633687473,0.744278223797,-0.0961327334022,-1.12681940989,-0.656261282402,0.528052663552,0.291015685856,1.34547884827,-0.341982502058,0.333588928036,-0.219576050161,0.0368870685145
5.06,0.465461869133,0.853919766928,0.0594633687473,0.744278223797,-0.0961327334022,-1.10725436378,-0.656261282402,0.530664102461,0.292376680233,1.34395463407,-0.355788427277,0.348142512293,-0.225194545013,0.0364630927431
5.08,0.465461869133,0.853919766928,0.0594633687473,0.744278223797,-0.0961327334022,-1.10725436378,-0.656261282402,0.530664102461,0.292376680233,1.34395463407,-0.355788427277,0.348142512293,-0.225194545013,0.0364630927431
5.1,0.465479312838,0.853919766928,0.0594633687473,0.744295667502,-0.0961327334022,-1.0850537203,-0.656261282402,0.530664102461,0.292376680233,1.34395463407,-0.355788427277,0.348142512293,-0.225194545013,0.0364630927431
5.12,0.465479312838,0.853919766928,0.0594633687473,0.744295667502,-0.0961327334022,-1.0850537203,-0.656261282402,0.533599457656,0.293913625392,1.34213707957,-0.371676648048,0.364593744723,-0.231857646516,0.0359687094059
5.14,0.465479312838,0.853919766928,0.0594633687473,0.744295667502,-0.0961327334022,-1.0850537203,-0.656261282402,0.533599457656,0.293913625392,1.34213707957,-0.371676648048,0.364593744723,-0.231857646516,0.0359687094059
5.16,0.465479312838,0.853937210633,0.0594633687473,0.744313111208,-0.0961327334022,-1.05972898913,-0.656261282402,0.536916874481,0.295630289253,1.33996488651,-0.390080678533,0.383246271196,-0.23987793689,0.0353867851707
5.18,0.465479312838,0.853937210633,0.0594633687473,0.744313111208,-0.0961327334022,-1.05972898913,-0.656261282402,0.536916874481,0.295630289253,1.33996488651,-0.390080678533,0.383246271196,-0.23987793689,0.0353867851707
5.2,0.465479312838,0.853954720917,0.0594633687473,0.744330554913,-0.0961327334022,-1.03114055404,-0.656243772118,0.540604806144,0.297529918936,1.33740236902,-0.41121272968,0.40413552212,-0.249434738593,0.034707144799
5.22,0.465479312838,0.853954720917,0.0594633687473,0.744330554913,-0.0961327334022,-1.03114055404,-0.656243772118,0.540604806144,0.297529918936,1.33740236902,-0.41121272968,0.40413552212,-0.249434738593,0.034707144799
5.24,0.465479312838,0.853954720917,0.0594633687473,0.744330554913,-0.0961501854297,-1.0003703908,-0.656261282402,0.544495604207,0.299525971219,1.33453219161,-0.434419387461,0.426348079975,-0.260389287467,0.0339488165237
5.26,0.465479312838,0.853954720917,0.0594633687473,0.744330554913,-0.0961501854297,-1.0003703908,-0.656261282402,0.544495604207,0.299525971219,1.33453219161,-0.434419387461,0.426348079975,-0.260389287467,0.0339488165237
5.28,0.465479312838,0.853954720917,0.0594633687473,0.744330554913,-0.0961501854297,-1.0003703908,-0.656261282402,0.544495604207,0.299525971219,1.33453219161,-0.434419387461,0.426348079975,-0.260389287467,0.0339488165237
5.3,0.465479312838,0.853937210633,0.0594633687473,0.744313111208,-0.0961501854297,-0.966755305732,-0.656261282402,0.548653822647,0.301643110908,1.33126288746,-0.460305535675,0.450334144693,-0.273102268123,0.0330902256155
5.32,0.465479312838,0.853937210633,0.0594633687473,0.744313111208,-0.0961501854297,-0.966755305732,-0.656261282402,0.548653822647,0.301643110908,1.33126288746,-0.460305535675,0.450334144693,-0.273102268123,0.0330902256155
5.34,0.465461869133,0.853972164622,0.0594633687473,0.744347998618,-0.0961501854297,-0.927729742592,-0.656261282402,0.553388689959,0.304025806009,1.32721648679,-0.491262836061,0.477869492049,-0.288978800199,0.0320599892138
5.36,0.465461869133,0.853972164622,0.0594633687473,0.744347998618,-0.0961501854297,-0.927729742592,-0.656261282402,0.553388689959,0.304025806009,1.32721648679,-0.491262836061,0.477869492049,-0.288978800199,0.0320599892138
5.38,0.465461869133,0.853937210633,0.0594633687473,0.744313111208,-0.0961327334022,-0.887465010597,-0.656243772118,0.558100019274,0.306384983806,1.32290284873,-0.524062981033,0.505719013049,-0.306522979376,0.0309554145417
5.4,0.465461869133,0.853937210633,0.0594633687473,0.744313111208,-0.0961327334022,-0.887465010597,-0.656243772118,0.558100019274,0.306384983806,1.32290284873,-0.524062981033,0.505719013049,-0.306522979376,0.0309554145417
5.42,0.465461869133,0.853937210633,0.0594633687473,0.744313111208,-0.0961327334022,-0.887465010597,-0.656243772118,0.558100019274,0.306384983806,1.32290284873,-0.524062981033,0.505719013049,-0.306522979376,0.0309554145417
5.44,0.465461869133,0.853954720917,0.0594633687473,0.744347998618,-0.0961501854297,-0.841143983967,-0.656261282402,0.563353055129,0.308997455161,1.31761502259,-0.563301677747,0.537141393021,-0.328459081945,0.0296444369974
5.46,0.465461869133,0.853954720917,0.0594633687473,0.744347998618,-0.0961501854297,-0.841143983967,-0.656261282402,0.563353055129,0.308997455161,1.31761502259,-0.563301677747,0.537141393021,-0.328459081945,0.0296444369974
5.48,0.465479312838,0.853972164622,0.0594633687473,0.744365442323,-0.0961501854297,-0.794456439792,-0.656261282402,0.56842652614,0.311501940415,1.31202442897,-0.604396857029,0.568027805384,-0.352410425141,0.0282805424357
5.5,0.465479312838,0.853972164622,0.0594633687473,0.744365442323,-0.0961501854297,-0.794456439792,-0.656261282402,0.56842652614,0.311501940415,1.31202442897,-0.604396857029,0.568027805384,-0.352410425141,0.0282805424357
5.52,0.465496756544,0.853972164622,0.0594633687473,0.744382952607,-0.0961501854297,-0.745971195302,-0.656243772118,0.573450182335,0.31395067544,1.30595841554,-0.648866884279,0.599166085232,-0.379377021358,0.026826192728
5.54,0.465496756544,0.853972164622,0.0594633687473,0.744382952607,-0.0961501854297,-0.745971195302,-0.656243772118,0.573450182335,0.31395067544,1.30595841554,-0.648866884279,0.599166085232,-0.379377021358,0.026826192728
5.56,0.465496756544,0.853972164622,0.0594633687473,0.744382952607,-0.0961501854297,-0.745971195302,-0.656243772118,0.573450182335,0.31395067544,1.30595841554,-0.648866884279,0.599166085232,-0.379377021358,0.026826192728
5.58,0.465461869133,0.854007052032,0.0594633687473,0.744400396312,-0.0961501854297,-0.694571254157,-0.656243772118,0.578521506171,0.316347930163,1.29921826964,-0.698231104341,0.631031495903,-0.410539803642,0.0252519669604
5.6,0.465461869133,0.854007052032,0.0594633687473,0.744400396312,-0.0961501854297,-0.694571254157,-0.656243772118,0.578521506171,0.316347930163,1.29921826964,-0.698231104341,0.631031495903,-0.410539803642,0.0252519669604
5.62,0.465496756544,0.853989608327,0.0594633687473,0.744382952607,-0.0961676457796,-0.644131182848,-0.656243772118,0.583166307681,0.318554332406,1.2923827185,-0.748938695033,0.66094804586,-0.443625513928,0.0236837029499
5.64,0.465496756544,0.853989608327,0.0594633687473,0.744382952607,-0.0961676457796,-0.644131182848,-0.656243772118,0.583166307681,0.318554332406,1.2923827185,-0.748938695033,0.66094804586,-0.443625513928,0.0236837029499
5.66,0.465496756544,0.854024495737,0.0594633687473,0.744435283723,-0.0961676457796,-0.593865748328,-0.656243772118,0.587524466361,0.320560609015,1.28525670217,-0.802029931545,0.689439393265,-0.479394627296,0.0221148564989
5.68,0.465496756544,0.854024495737,0.0594633687473,0.744435283723,-0.0961676457796,-0.593865748328,-0.656243772118,0.587524466361,0.320560609015,1.28525670217,-0.802029931545,0.689439393265,-0.479394627296,0.0221148564989
5.7,0.465496756544,0.854024495737,0.0594633687473,0.744435283723,-0.0961676457796,-0.593865748328,-0.656243772118,0.587524466361,0.320560609015,1.28525670217,-0.802029931545,0.689439393265,-0.479394627296,0.0221148564989
5.72,0.465514233538,0.853989608327,0.0594633687473,0.744417840017,-0.0961676457796,-0.545607371873,-0.656243772118,0.591389012036,0.322309314328,1.27827376954,-0.855272665045,0.715254343033,-0.516256644328,0.0206127659616
5.74,0.465514233538,0.853989608327,0.0594633687473,0.744417840017,-0.0961676457796,-0.545607371873,-0.656243772118,0.591389012036,0.322309314328,1.27827376954,-0.855272665045,0.715254343033,-0.516256644328,0.0206127659616
5.76,0.465479312838,0.854041939443,0.0594633687473,0.744435283723,-0.0961676457796,-0.498326408828,-0.656243772118,0.594928449556,0.323833762854,1.27116831836,-0.909952999755,0.739086511522,-0.555073184572,0.0191658517069
5.78,0.465479312838,0.854041939443,0.0594633687473,0.744435283723,-0.0961676457796,-0.498326408828,-0.656243772118,0.594928449556,0.323833762854,1.27116831836,-0.909952999755,0.739086511522,-0.555073184572,0.0191658517069
5.8,0.465496756544,0.854007052032,0.0594633687473,0.744435283723,-0.0961676457796,-0.448409981569,-0.656243772118,0.598308447523,0.325276734483,1.26354925522,-0.970174362959,0.762395643294,-0.59870781237,0.0176841919934
5.82,0.465496756544,0.854007052032,0.0594633687473,0.744435283723,-0.0961676457796,-0.448409981569,-0.656243772118,0.598308447523,0.325276734483,1.26354925522,-0.970174362959,0.762395643294,-0.59870781237,0.0176841919934
5.84,0.465496756544,0.854007052032,0.0594633687473,0.744435283723,-0.0961676457796,-0.448409981569,-0.656243772118,0.598308447523,0.325276734483,1.26354925522,-0.970174362959,0.762395643294,-0.59870781237,0.0176841919934
5.86,0.465496756544,0.854059383148,0.0594633687473,0.744452727428,-0.0961676457796,-0.399697835754,-0.656243772118,0.601311471153,0.326497087138,1.25588016527,-1.03167841749,0.783253591405,-0.644154955666,0.0163142199735
5.88,0.465496756544,0.854059383148,0.0594633687473,0.744452727428,-0.0961676457796,-0.399697835754,-0.656243772118,0.601311471153,0.326497087138,1.25588016527,-1.03167841749,0.783253591405,-0.644154955666,0.0163142199735
5.9,0.465514233538,0.854041939443,0.0594808207748,0.744435283723,-0.0961676457796,-0.348699332854,-0.656243772118,0.604081655026,0.32757695007,1.24776010808,-1.09864510666,0.802826766293,-0.694466872302,0.0149960757671
5.92,0.465514233538,0.854041939443,0.0594808207748,0.744435283723,-0.0961676457796,-0.348699332854,-0.656243772118,0.604081655026,0.32757695007,1.24776010808,-1.09864510666,0.802826766293,-0.694466872302,0.0149960757671
5.94,0.465514233538,0.854094337137,0.0594633687473,0.744470171133,-0.0961850978071,-0.298154599314,-0.656243772118,0.606495108512,0.328431777,1.23950180743,-1.16783263261,0.819802554733,-0.747254962142,0.013858446215
5.96,0.465514233538,0.854094337137,0.0594633687473,0.744470171133,-0.0961850978071,-0.298154599314,-0.656243772118,0.606495108512,0.328431777,1.23950180743,-1.16783263261,0.819802554733,-0.747254962142,0.013858446215
5.98,0.465514233538,0.854094337137,0.0594633687473,0.744470171133,-0.0961850978071,-0.298154599314,-0.656243772118,0.606495108512,0.328431777,1.23950180743,-1.16783263261,0.819802554733,-0.747254962142,0.013858446215
6.0,0.465549120949,0.854111780842,0.0594808207748,0.744487614838,-0.0961850978071,-0.243019641319,-0.656243772118,0.608688175236,0.329150117916,1.23039900783,-1.24595079573,0.835378731162,-0.807570668067,0.012873568825
6.02,0.465549120949,0.854111780842,0.0594808207748,0.744487614838,-0.0961850978071,-0.243019641319,-0.656243772118,0.608688175236,0.329150117916,1.23039900783,-1.24595079573,0.835378731162,-0.807570668067,0.012873568825
6.04,0.465549120949,0.854146668252,0.0594808207748,0.744487614838,-0.0961850978071,-0.18784977927,-0.656243772118,0.610460415756,0.329594124089,1.22117536545,-1.32662578617,0.847661420662,-0.87057256437,0.0122316486561
6.06,0.465549120949,0.854146668252,0.0594808207748,0.744487614838,-0.0961850978071,-0.18784977927,-0.656243772118,0.610460415756,0.329594124089,1.22117536545,-1.32662578617,0.847661420662,-0.87057256437,0.0122316486561
6.08,0.465549120949,0.854164111958,0.0594808207748,0.744487614838,-0.0961850978071,-0.126501466715,-0.656243772118,0.611904656574,0.329789882083,1.21083754361,-1.41862012664,0.857239094017,-0.943004136197,0.0119978433785
6.1,0.465549120949,0.854164111958,0.0594808207748,0.744487614838,-0.0961850978071,-0.126501466715,-0.656243772118,0.611904656574,0.329789882083,1.21083754361,-1.41862012664,0.857239094017,-0.943004136197,0.0119978433785
6.12,0.465549120949,0.854164111958,0.0594808207748,0.744487614838,-0.0961850978071,-0.126501466715,-0.656243772118,0.611904656574,0.329789882083,1.21083754361,-1.41862012664,0.857239094017,-0.943004136197,0.0119978433785
6.14,0.465549120949,0.854164111958,0.0594982728023,0.744505125122,-0.0961850978071,-0.0679980260598,-0.656243772118,0.61275920843,0.329689332754,1.20092300888,-1.5078597021,0.862231903608,-1.01362642221,0.0122740874881
6.16,0.465549120949,0.854164111958,0.0594982728023,0.744505125122,-0.0961850978071,-0.0679980260598,-0.656243772118,0.61275920843,0.329689332754,1.20092300888,-1.5078597021,0.862231903608,-1.01362642221,0.0122740874881
6.18,0.465549120949,0.854199065947,0.0594982728023,0.744505125122,-0.0961850978071,-0.0046076692003,-0.656243772118,0.613120934191,0.329258018779,1.19013877474,-1.60525399232,0.862949303196,-1.09087652494,0.0130820630919
6.2,0.465549120949,0.854199065947,0.0594982728023,0.744505125122,-0.0961850978071,-0.0046076692003,-0.656243772118,0.613120934191,0.329258018779,1.19013877474,-1.60525399232,0.862949303196,-1.09087652494,0.0130820630919
6.22,0.465584041648,0.854233953357,0.0594982728023,0.744505125122,-0.0961676457796,0.0560599737098,-0.656243772118,0.612895948351,0.328556592825,1.17983049332,-1.69811075991,0.859080250027,-1.16440704204,0.0142595803481
6.24,0.465584041648,0.854233953357,0.0594982728023,0.744505125122,-0.0961676457796,0.0560599737098,-0.656243772118,0.612895948351,0.328556592825,1.17983049332,-1.69811075991,0.859080250027,-1.16440704204,0.0142595803481
6.26,0.465584041648,0.854233953357,0.0594982728023,0.744505125122,-0.0961676457796,0.0560599737098,-0.656243772118,0.612895948351,0.328556592825,1.17983049332,-1.69811075991,0.859080250027,-1.16440704204,0.0142595803481
6.28,0.465566564654,0.854251397062,0.0594982728023,0.744505125122,-0.0961850978071,0.11665780747,-0.656243772118,0.612140198618,0.32752201036,1.16959799519,-1.78950388596,0.850792103252,-1.23651151955,0.0157257429101
6.3,0.465566564654,0.854251397062,0.0594982728023,0.744505125122,-0.0961850978071,0.11665780747,-0.656243772118,0.612140198618,0.32752201036,1.16959799519,-1.78950388596,0.850792103252,-1.23651151955,0.0157257429101
6.32,0.465584041648,0.854268840767,0.0594982728023,0.744505125122,-0.0961850978071,0.180379778859,-0.656243772118,0.610748557741,0.326136709142,1.15893562356,-1.88323945331,0.83753156451,-1.30984580919,0.0174800733508
6.34,0.465584041648,0.854268840767,0.0594982728023,0.744505125122,-0.0961850978071,0.180379778859,-0.656243772118,0.610748557741,0.326136709142,1.15893562356,-1.88323945331,0.83753156451,-1.30984580919,0.0174800733508
6.36,0.465584041648,0.854303794757,0.059515728991,0.744505125122,-0.0961676457796,0.241274322054,-0.656243772118,0.60886804447,0.324508911903,1.14886606208,-1.9698401785,0.820742349867,-1.37683236045,0.019284600347
6.38,0.465584041648,0.854303794757,0.059515728991,0.744505125122,-0.0961676457796,0.241274322054,-0.656243772118,0.60886804447,0.324508911903,1.14886606208,-1.9698401785,0.820742349867,-1.37683236045,0.019284600347
6.4,0.465584041648,0.854303794757,0.059515728991,0.744505125122,-0.0961676457796,0.241274322054,-0.656243772118,0.60886804447,0.324508911903,1.14886606208,-1.9698401785,0.820742349867,-1.37683236045,0.019284600347
6.42,0.465549120949,0.854338682167,0.0594982728023,0.744505125122,-0.0961850978071,0.302151404899,-0.656243772118,0.606470097736,0.322560695495,1.13896608719,-2.05290307567,0.800126286129,-1.4402053354,0.0211575676489
6.44,0.465549120949,0.854338682167,0.0594982728023,0.744505125122,-0.0961850978071,0.302151404899,-0.656243772118,0.606470097736,0.322560695495,1.13896608719,-2.05290307567,0.800126286129,-1.4402053354,0.0211575676489
6.46,0.465549120949,0.854391013282,0.0594982728023,0.744505125122,-0.0961676457796,0.367950325689,-0.656243772118,0.603271768962,0.320170660947,1.12848598263,-2.13841375585,0.773991218072,-1.50416888033,0.0232126246471
6.48,0.465549120949,0.854391013282,0.0594982728023,0.744505125122,-0.0961676457796,0.367950325689,-0.656243772118,0.603271768962,0.320170660947,1.12848598263,-2.13841375585,0.773991218072,-1.50416888033,0.0232126246471
6.5,0.465584041648,0.854391013282,0.0594982728023,0.744505125122,-0.0961676457796,0.426069788448,-0.656243772118,0.599930423455,0.317812877858,1.11949464779,-2.20999161677,0.747855545928,-1.55648804641,0.0250227674657
6.52,0.465584041648,0.854391013282,0.0594982728023,0.744505125122,-0.0961676457796,0.426069788448,-0.656243772118,0.599930423455,0.317812877858,1.11949464779,-2.20999161677,0.747855545928,-1.55648804641,0.0250227674657
6.54,0.465584041648,0.854391013282,0.0594982728023,0.744505125122,-0.0961676457796,0.426069788448,-0.656243772118,0.599930423455,0.317812877858,1.11949464779,-2.20999161677,0.747855545928,-1.55648804641,0.0250227674657
6.56,0.465618929059,0.854460854682,0.059515728991,0.744505125122,-0.0961676457796,0.489756855783,-0.656243772118,0.595749089389,0.314961153598,1.10988450757,-2.28431786404,0.716243135736,-1.60940437617,0.0269769721151
6.58,0.465618929059,0.854460854682,0.059515728991,0.744505125122,-0.0961676457796,0.489756855783,-0.656243772118,0.595749089389,0.314961153598,1.10988450757,-2.28431786404,0.716243135736,-1.60940437617,0.0269769721151
6.6,0.465618929059,0.854425967272,0.0595331810186,0.744505125122,-0.0961501854297,0.549953251298,-0.656243772118,0.591307157753,0.311989013329,1.10118132419,-2.35052889398,0.683890290554,-1.65514988407,0.0287735213446
6.62,0.465618929059,0.854425967272,0.0595331810186,0.744505125122,-0.0961501854297,0.549953251298,-0.656243772118,0.591307157753,0.311989013329,1.10118132419,-2.35052889398,0.683890290554,-1.65514988407,0.0287735213446
6.64,0.465618929059,0.854478298387,0.0595331810186,0.744522568827,-0.0961501854297,0.610777953093,-0.656243772118,0.586361579391,0.308742710455,1.09266215291,-2.41381877889,0.648898112936,-1.6974015212,0.0305270627863
6.66,0.465618929059,0.854478298387,0.0595331810186,0.744522568827,-0.0961501854297,0.610777953093,-0.656243772118,0.586361579391,0.308742710455,1.09266215291,-2.41381877889,0.648898112936,-1.6974015212,0.0305270627863
6.68,0.465618929059,0.854478298387,0.0595331810186,0.744522568827,-0.0961501854297,0.610777953093,-0.656243772118,0.586361579391,0.308742710455,1.09266215291,-2.41381877889,0.648898112936,-1.6974015212,0.0305270627863
6.7,0.465636406053,0.854460854682,0.0595331810186,0.744766913857,-0.0961327334022,0.667256808753,-0.656243772118,0.581328085708,0.305523285817,1.08503183938,-2.46961536425,0.614543318358,-1.73322588649,0.0320941318448
6.72,0.465636406053,0.854460854682,0.0595331810186,0.744766913857,-0.0961327334022,0.667256808753,-0.656243772118,0.581328085708,0.305523285817,1.08503183938,-2.46961536425,0.614543318358,-1.73322588649,0.0320941318448
6.74,0.465618929059,0.854513185797,0.0595331810186,0.744766913857,-0.0961501854297,0.721327101523,-0.656261282402,0.57620136825,0.302253654145,1.07810846345,-2.52020302128,0.580296904663,-1.76446441736,0.0335151235948
6.76,0.465618929059,0.854513185797,0.0595331810186,0.744766913857,-0.0961501854297,0.721327101523,-0.656261282402,0.57620136825,0.302253654145,1.07810846345,-2.52020302128,0.580296904663,-1.76446441736,0.0335151235948
6.78,0.465618929059,0.854513185797,0.059515728991,0.744766913857,-0.0961327334022,0.775222890663,-0.656243772118,0.570758346635,0.298839560692,1.07157755663,-2.56825402841,0.545002615059,-1.79288794434,0.0348539459225
6.8,0.465618929059,0.854513185797,0.059515728991,0.744766913857,-0.0961327334022,0.775222890663,-0.656243772118,0.570758346635,0.298839560692,1.07157755663,-2.56825402841,0.545002615059,-1.79288794434,0.0348539459225
6.82,0.465618929059,0.854513185797,0.059515728991,0.744766913857,-0.0961327334022,0.775222890663,-0.656243772118,0.570758346635,0.298839560692,1.07157755663,-2.56825402841,0.545002615059,-1.79288794434,0.0348539459225
6.84,0.465584041648,0.854565583492,0.059515728991,0.744766913857,-0.0961327334022,0.825331265258,-0.656261282402,0.565431883709,0.295515397687,1.06579017091,-2.61101403967,0.511154574195,-1.81702696682,0.0360257697267
6.86,0.465584041648,0.854565583492,0.059515728991,0.744766913857,-0.0961327334022,0.825331265258,-0.656261282402,0.565431883709,0.295515397687,1.06579017091,-2.61101403967,0.511154574195,-1.81702696682,0.0360257697267
6.88,0.465584041648,0.854600470902,0.059515728991,0.744766913857,-0.0961327334022,0.873432548497,-0.656243772118,0.560069019812,0.292227999631,1.06054679272,-2.65045272933,0.477895671633,-1.83822592551,0.0370789990646
6.9,0.465584041648,0.854600470902,0.059515728991,0.744766913857,-0.0961327334022,0.873432548497,-0.656243772118,0.560069019812,0.292227999631,1.06054679272,-2.65045272933,0.477895671633,-1.83822592551,0.0370789990646
6.92,0.465601485353,0.854617914607,0.059515728991,0.745150875108,-0.0961327334022,0.917571980142,-0.656261282402,0.554894849366,0.289107168593,1.05586223341,-2.68564390875,0.446483166951,-1.85613250616,0.0379979916564
6.94,0.465601485353,0.854617914607,0.059515728991,0.745150875108,-0.0961327334022,0.917571980142,-0.656261282402,0.554894849366,0.289107168593,1.05586223341,-2.68564390875,0.446483166951,-1.85613250616,0.0379979916564
6.96,0.465601485353,0.854617914607,0.059515728991,0.745150875108,-0.0961327334022,0.917571980142,-0.656261282402,0.554894849366,0.289107168593,1.05586223341,-2.68564390875,0.446483166951,-1.85613250616,0.0379979916564
6.98,0.465618929059,0.854652802018,0.0595331810186,0.745430107548,-0.0961327334022,0.959180609802,-0.656261282402,0.549862323265,0.286099431372,1.05171736254,-2.71774993607,0.41644199088,-1.87165021436,0.0388024201761
7.0,0.465618929059,0.854652802018,0.0595331810186,0.745430107548,-0.0961327334022,0.959180609802,-0.656261282402,0.549862323265,0.286099431372,1.05171736254,-2.71774993607,0.41644199088,-1.87165021436,0.0388024201761
7.02,0.465618929059,0.854687756007,0.0595331810186,0.745657008873,-0.0961327334022,1.00108598219,-0.656261282402,0.544658348157,0.282988090263,1.04781566277,-2.74910697403,0.38577987582,-1.88603017095,0.0395506187996
7.04,0.465618929059,0.854687756007,0.0595331810186,0.745657008873,-0.0961327334022,1.00108598219,-0.656261282402,0.544658348157,0.282988090263,1.04781566277,-2.74910697403,0.38577987582,-1.88603017095,0.0395506187996
7.06,0.465601485353,0.854705199712,0.0594982728023,0.745761737683,-0.0961327334022,1.04182196054,-0.656261282402,0.539490199732,0.279887814878,1.04432475942,-2.77866058591,0.355673006634,-1.89886014519,0.0402132251791
7.08,0.465601485353,0.854705199712,0.0594982728023,0.745761737683,-0.0961327334022,1.04182196054,-0.656261282402,0.539490199732,0.279887814878,1.04432475942,-2.77866058591,0.355673006634,-1.89886014519,0.0402132251791
7.1,0.465601485353,0.854705199712,0.0594982728023,0.745761737683,-0.0961327334022,1.04182196054,-0.656261282402,0.539490199732,0.279887814878,1.04432475942,-2.77866058591,0.355673006634,-1.89886014519,0.0402132251791
7.12,0.465618929059,0.854722643417,0.0595331810186,0.745953751597,-0.0961327334022,1.08309896006,-0.656261282402,0.534091311234,0.276726746458,1.0410095285,-2.8079685358,0.324797134283,-1.91070630354,0.0408277626519
7.14,0.465618929059,0.854722643417,0.0595331810186,0.745953751597,-0.0961327334022,1.08309896006,-0.656261282402,0.534091311234,0.276726746458,1.0410095285,-2.8079685358,0.324797134283,-1.91070630354,0.0408277626519
7.16,0.465618929059,0.854757530827,0.059515728991,0.746093367817,-0.0961501854297,1.12336369206,-0.656261282402,0.528732025536,0.273568602399,1.03803474681,-2.8358435973,0.294362358511,-1.92126605663,0.041365092587
7.18,0.465618929059,0.854757530827,0.059515728991,0.746093367817,-0.0961501854297,1.12336369206,-0.656261282402,0.528732025536,0.273568602399,1.03803474681,-2.8358435973,0.294362358511,-1.92126605663,0.041365092587
7.2,0.465601485353,0.854740087122,0.059515728991,0.746180586343,-0.0961327334022,1.16493750089,-0.656261282402,0.523094830997,0.270266558601,1.03528139547,-2.86398218485,0.26277420529,-1.93114755698,0.0418522218199
7.22,0.465601485353,0.854740087122,0.059515728991,0.746180586343,-0.0961327334022,1.16493750089,-0.656261282402,0.523094830997,0.270266558601,1.03528139547,-2.86398218485,0.26277420529,-1.93114755698,0.0418522218199
7.24,0.465601485353,0.854740087122,0.059515728991,0.746180586343,-0.0961327334022,1.16493750089,-0.656261282402,0.523094830997,0.270266558601,1.03528139547,-2.86398218485,0.26277420529,-1.93114755698,0.0418522218199
7.26,0.465584041648,0.854757530827,0.0594982728023,0.746407487668,-0.0961327334022,1.20612728189,-0.656261282402,0.517392721024,0.266938186797,1.03275333326,-2.89141550675,0.231075820501,-1.93998158482,0.0422774428636
7.28,0.465584041648,0.854757530827,0.0594982728023,0.746407487668,-0.0961327334022,1.20612728189,-0.656261282402,0.517392721024,0.266938186797,1.03275333326,-2.89141550675,0.231075820501,-1.93998158482,0.0422774428636
7.3,0.465584041648,0.854757530827,0.059515728991,0.746826402907,-0.0961501854297,1.24859111915,-0.656278726108,0.511380616645,0.26347608111,1.03038140926,-2.91931005211,0.19803953652,-1.94804887905,0.0426556810078
7.32,0.465584041648,0.854757530827,0.059515728991,0.746826402907,-0.0961501854297,1.24859111915,-0.656278726108,0.511380616645,0.26347608111,1.03038140926,-2.91931005211,0.19803953652,-1.94804887905,0.0426556810078
7.34,0.465618929059,0.854757530827,0.0595331810186,0.747978286658,-0.0961327334022,1.28937942862,-0.656278726108,0.505393727358,0.260091324357,1.02812808966,-2.94619629033,0.165555980094,-1.95490113127,0.0429886754898
7.36,0.465618929059,0.854757530827,0.0595331810186,0.747978286658,-0.0961327334022,1.28937942862,-0.656278726108,0.505393727358,0.260091324357,1.02812808966,-2.94619629033,0.165555980094,-1.95490113127,0.0429886754898
7.38,0.465618929059,0.854757530827,0.0595331810186,0.747978286658,-0.0961327334022,1.28937942862,-0.656278726108,0.505393727358,0.260091324357,1.02812808966,-2.94619629033,0.165555980094,-1.95490113127,0.0429886754898
7.4,0.465601485353,0.854827372227,0.059515728991,0.749775986973,-0.0961327334022,1.33135457582,-0.656261282402,0.499082019628,0.256498504619,1.02586731134,-2.97388801462,0.131391697145,-1.96111161158,0.0432937298873
7.42,0.465601485353,0.854827372227,0.059515728991,0.749775986973,-0.0961327334022,1.33135457582,-0.656261282402,0.499082019628,0.256498504619,1.02586731134,-2.97388801462,0.131391697145,-1.96111161158,0.0432937298873
7.44,0.465584041648,0.854844815932,0.0594982728023,0.750631194578,-0.0961327334022,1.37165419523,-0.656261282402,0.493100355139,0.25309201142,1.02430986459,-2.99958733131,0.0991562293326,-1.96612111898,0.0434775509015
7.46,0.465584041648,0.854844815932,0.0594982728023,0.750631194578,-0.0961327334022,1.37165419523,-0.656261282402,0.493100355139,0.25309201142,1.02430986459,-2.99958733131,0.0991562293326,-1.96612111898,0.0434775509015
7.48,0.465566564654,0.854844815932,0.0594982728023,0.750631194578,-0.0961501854297,1.41087177228,-0.656278726108,0.487366978512,0.249829722255,1.02334326289,-3.02384109421,0.0683345082419,-1.97015752304,0.0435537251418
7.5,0.465566564654,0.854844815932,0.0594982728023,0.750631194578,-0.0961501854297,1.41087177228,-0.656278726108,0.487366978512,0.249829722255,1.02334326289,-3.02384109421,0.0683345082419,-1.97015752304,0.0435537251418
7.52,0.465566564654,0.854844815932,0.0594982728023,0.750631194578,-0.0961501854297,1.41087177228,-0.656278726108,0.487366978512,0.249829722255,1.02334326289,-3.02384109421,0.0683345082419,-1.97015752304,0.0435537251418
7.54,0.465566564654,0.854862259637,0.0594982728023,0.750631194578,-0.0961327334022,1.45094462352,-0.656278726108,0.48146516525,0.246505897747,1.02261340007,-3.04849531155,0.0367605312217,-1.973504691,0.0435681800665
7.56,0.465566564654,0.854862259637,0.0594982728023,0.750631194578,-0.0961327334022,1.45094462352,-0.656278726108,0.48146516525,0.246505897747,1.02261340007,-3.04849531155,0.0367605312217,-1.973504691,0.0435681800665
7.58,0.465601485353,0.854862259637,0.059515728991,0.750613750873,-0.0961327334022,1.48836443368,-0.656261282402,0.47592200921,0.243423353338,1.0221915356,-3.07138221259,0.00723686956021,-1.97589499494,0.0435222386618
7.6,0.465601485353,0.854862259637,0.059515728991,0.750613750873,-0.0961327334022,1.48836443368,-0.656261282402,0.47592200921,0.243423353338,1.0221915356,-3.07138221259,0.00723686956021,-1.97589499494,0.0435222386618
7.62,0.465618929059,0.854844815932,0.059515728991,0.750596307167,-0.0961327334022,1.52129881477,-0.656278726108,0.471035637735,0.240703082568,1.022026293,-3.0914479128,-0.0187824437882,-1.97743027478,0.0434348592672
7.64,0.465618929059,0.854844815932,0.059515728991,0.750596307167,-0.0961327334022,1.52129881477,-0.656278726108,0.471035637735,0.240703082568,1.022026293,-3.0914479128,-0.0187824437882,-1.97743027478,0.0434348592672
7.66,0.465618929059,0.854844815932,0.059515728991,0.750596307167,-0.0961327334022,1.52129881477,-0.656278726108,0.471035637735,0.240703082568,1.022026293,-3.0914479128,-0.0187824437882,-1.97743027478,0.0434348592672
7.68,0.465584041648,0.854844815932,0.059515728991,0.750578863462,-0.0961327334022,1.55452987201,-0.656278726108,0.466110877793,0.237940736136,1.02203651807,-3.11168144468,-0.0450750428806,-1.97852034628,0.0433031290159
7.7,0.465584041648,0.854844815932,0.059515728991,0.750578863462,-0.0961327334022,1.55452987201,-0.656278726108,0.466110877793,0.237940736136,1.02203651807,-3.11168144468,-0.0450750428806,-1.97852034628,0.0433031290159
7.72,0.465584041648,0.854827372227,0.0594982728023,0.750561419757,-0.0961501854297,1.5798196492,-0.656278726108,0.46235955687,0.235850048466,1.02218016059,-3.12704269314,-0.0650981295964,-1.97898056861,0.0431728240049
7.74,0.465584041648,0.854827372227,0.0594982728023,0.750561419757,-0.0961501854297,1.5798196492,-0.656278726108,0.46235955687,0.235850048466,1.02218016059,-3.12704269314,-0.0650981295964,-1.97898056861,0.0431728240049
7.76,0.465584041648,0.854827372227,0.0594982728023,0.750561419757,-0.0961327334022,1.60364348936,-0.656278726108,0.458819175245,0.233895797594,1.02240098262,-3.14158338214,-0.0839616934803,-1.9791179044,0.0430279823937
7.78,0.465584041648,0.854827372227,0.0594982728023,0.750561419757,-0.0961327334022,1.60364348936,-0.656278726108,0.458819175245,0.233895797594,1.02240098262,-3.14158338214,-0.0839616934803,-1.9791179044,0.0430279823937
7.8,0.465584041648,0.854827372227,0.0594982728023,0.750561419757,-0.0961327334022,1.60364348936,-0.656278726108,0.458819175245,0.233895797594,1.02240098262,-3.14158338214,-0.0839616934803,-1.9791179044,0.0430279823937
7.82,0.465584041648,0.854809928522,0.0594982728023,0.750543909473,-0.0961327334022,1.62266751429,-0.656278726108,0.455998010797,0.232339662548,1.02266040227,3.13000774356,-0.0990062708036,-1.97903309903,0.0428950313207
7.84,0.465584041648,0.854809928522,0.0594982728023,0.750543909473,-0.0961327334022,1.62266751429,-0.656278726108,0.455998010797,0.232339662548,1.02266040227,3.13000774356,-0.0990062708036,-1.97903309903,0.0428950313207
7.86,0.465566564654,0.854809928522,0.0594982728023,0.750543909473,-0.0961501854297,1.63828815251,-0.656278726108,0.45368715604,0.231054374037,1.02290781719,3.12046885647,-0.111390951591,-1.97884793665,0.0427761988197
7.88,0.465566564654,0.854809928522,0.0594982728023,0.750543909473,-0.0961501854297,1.63828815251,-0.656278726108,0.45368715604,0.231054374037,1.02290781719,3.12046885647,-0.111390951591,-1.97884793665,0.0427761988197
7.9,0.465549120949,0.854809928522,0.0594982728023,0.750543909473,-0.0961501854297,1.65064508681,-0.656278726108,0.451860620703,0.230040831374,1.02313261845,3.11290044898,-0.12117789944,-1.97861989976,0.0426754186604
7.92,0.465549120949,0.854809928522,0.0594982728023,0.750543909473,-0.0961501854297,1.65064508681,-0.656278726108,0.451860620703,0.230040831374,1.02313261845,3.11290044898,-0.12117789944,-1.97861989976,0.0426754186604
7.94,0.465549120949,0.854809928522,0.0594982728023,0.750543909473,-0.0961501854297,1.65064508681,-0.656278726108,0.451860620703,0.230040831374,1.02313261845,3.11290044898,-0.12117789944,-1.97861989976,0.0426754186604
7.96,0.465566564654,0.854809928522,0.0594982728023,0.750526465768,-0.0961676457796,1.65968598608,-0.656278726108,0.450522760316,0.22931328477,1.02331842623,3.10738033949,-0.128334040014,-1.9783787083,0.0425971062353
7.98,0.465566564654,0.854809928522,0.0594982728023,0.750526465768,-0.0961676457796,1.65968598608,-0.656278726108,0.450522760316,0.22931328477,1.02331842623,3.10738033949,-0.128334040014,-1.9783787083,0.0425971062353
8.0,0.465566564654,0.854809928522,0.0594982728023,0.750509022063,-0.0961501854297,1.66591671777,-0.656278726108,0.449602615368,0.228812049078,1.02345571671,3.10355187792,-0.133242786822,-1.97819983107,0.0425410345203
8.02,0.465566564654,0.854809928522,0.0594982728023,0.750509022063,-0.0961501854297,1.66591671777,-0.656278726108,0.449602615368,0.228812049078,1.02345571671,3.10355187792,-0.133242786822,-1.97819983107,0.0425410345203
8.04,0.465566564654,0.854792484817,0.0594982728023,0.750509022063,-0.0961676457796,1.66872675219,-0.656278726108,0.449188340604,0.228581745955,1.02352659101,3.10185082159,-0.135464700422,-1.9781152778,0.0425152417489
8.06,0.465566564654,0.854792484817,0.0594982728023,0.750509022063,-0.0961676457796,1.66872675219,-0.656278726108,0.449188340604,0.228581745955,1.02352659101,3.10185082159,-0.135464700422,-1.9781152778,0.0425152417489
8.08,0.465531677243,0.854809928522,0.0594808207748,0.750509022063,-0.0961850978071,1.66883141442,-0.656278726108,0.449188340604,0.228581745955,1.02352659101,3.10185082159,-0.135464700422,-1.9781152778,0.0425152417489
8.1,0.465531677243,0.854809928522,0.0594808207748,0.750509022063,-0.0961850978071,1.66883141442,-0.656278726108,0.449185075476,0.228550242754,1.0235202489,3.10179931363,-0.135580038787,-1.97815943652,0.0425146695108
8.12,0.465531677243,0.854809928522,0.0594808207748,0.750509022063,-0.0961850978071,1.66883141442,-0.656278726108,0.449185075476,0.228550242754,1.0235202489,3.10179931363,-0.135580038787,-1.97815943652,0.0425146695108
8.14,0.465549120949,0.854774974533,0.0594982728023,0.750474134652,-0.0961676457796,1.66883141442,-0.656278726108,0.449182207812,0.228567910581,1.02354742096,3.10181940036,-0.135506581284,-1.97813540277,0.0425123229652
8.16,0.465549120949,0.854774974533,0.0594982728023,0.750474134652,-0.0961676457796,1.66883141442,-0.656278726108,0.449182207812,0.228567910581,1.02354742096,3.10181940036,-0.135506581284,-1.97813540277,0.0425123229652
8.18,0.465549120949,0.854774974533,0.0594808207748,0.750474134652,-0.0961676457796,1.66881397072,-0.656278726108,0.449187294936,0.228564395441,1.02354699813,3.10184030012,-0.13550123287,-1.97814878791,0.0425124898518
8.2,0.465549120949,0.854774974533,0.0594808207748,0.750474134652,-0.0961676457796,1.66881397072,-0.656278726108,0.449187294936,0.228564395441,1.02354699813,3.10184030012,-0.13550123287,-1.97814878791,0.0425124898518
8.22,0.465549120949,0.854774974533,0.0594808207748,0.750474134652,-0.0961850978071,1.66881397072,-0.656278726108,0.449187294936,0.228564395441,1.02354699813,3.10184030012,-0.13550123287,-1.97814878791,0.0425124898518
8.24,0.465549120949,0.854774974533,0.0594808207748,0.750474134652,-0.0961850978071,1.66881397072,-0.656278726108,0.44918872889,0.228561818862,1.02354714942,3.1018542357,-0.135511890003,-1.97815008523,0.0425124906592
8.26,0.465549120949,0.854774974533,0.0594808207748,0.750474134652,-0.0961850978071,1.66881397072,-0.656278726108,0.44918872889,0.228561818862,1.02354714942,3.1018542357,-0.135511890003,-1.97815008523,0.0425124906592
8.28,0.465549120949,0.854792484817,0.0594808207748,0.750474134652,-0.0961676457796,1.6687790833,-0.656278726108,0.449192741991,0.228567365575,1.0235373959,3.1018503809,-0.135487030831,-1.9781483624,0.0425131805392
8.3,0.465549120949,0.854792484817,0.0594808207748,0.750474134652,-0.0961676457796,1.6687790833,-0.656278726108,0.449192741991,0.228567365575,1.0235373959,3.1018503809,-0.135487030831,-1.9781483624,0.0425131805392
8.32,0.465549120949,0.854757530827,0.0594982728023,0.750456690947,-0.0961676457796,1.66874419589,-0.656278726108,0.449197631057,0.228576135978,1.02355910677,3.10189507276,-0.135410391085,-1.97814193746,0.0425119487279
8.34,0.465549120949,0.854757530827,0.0594982728023,0.750456690947,-0.0961676457796,1.66874419589,-0.656278726108,0.449197631057,0.228576135978,1.02355910677,3.10189507276,-0.135410391085,-1.97814193746,0.0425119487279
8.36,0.465549120949,0.854809928522,0.0594808207748,0.750456690947,-0.0961850978071,1.66846496345,-0.656278726108,0.449197631057,0.228576135978,1.02355910677,3.10189507276,-0.135410391085,-1.97814193746,0.0425119487279
8.38,0.465549120949,0.854809928522,0.0594808207748,0.750456690947,-0.0961850978071,1.66846496345,-0.656278726108,0.44924371805,0.228591674843,1.02352660329,3.10205678059,-0.135248602442,-1.97816031939,0.0425156139647
8.4,0.465549120949,0.854809928522,0.0594808207748,0.750456690947,-0.0961850978071,1.66846496345,-0.656278726108,0.44924371805,0.228591674843,1.02352660329,3.10205678059,-0.135248602442,-1.97816031939,0.0425156139647
8.42,0.465549120949,0.854774974533,0.0594808207748,0.750456690947,-0.0961850978071,1.66829039324,-0.656278726108,0.449268944686,0.228605518013,1.02354034598,3.10218670879,-0.135083621729,-1.97816888191,0.0425164554278
8.44,0.465549120949,0.854774974533,0.0594808207748,0.750456690947,-0.0961850978071,1.66829039324,-0.656278726108,0.449268944686,0.228605518013,1.02354034598,3.10218670879,-0.135083621729,-1.97816888191,0.0425164554278
8.46,0.465549120949,0.854792484817,0.0594982728023,0.750456690947,-0.0961676457796,1.66762713298,-0.656278726108,0.44936334009,0.228666875862,1.02351672114,3.10255873686,-0.134552845013,-1.97817403699,0.0425228360132
8.48,0.465549120949,0.854792484817,0.0594982728023,0.750456690947,-0.0961676457796,1.66762713298,-0.656278726108,0.44936334009,0.228666875862,1.02351672114,3.10255873686,-0.134552845013,-1.97817403699,0.0425228360132
8.5,0.465566564654,0.854792484817,0.0594982728023,0.750439247242,-0.0961676457796,1.66705122439,-0.656278726108,0.449447312243,0.228722665943,1.02350887539,3.10292329994,-0.134083135656,-1.97817670095,0.0425272491984
8.52,0.465566564654,0.854792484817,0.0594982728023,0.750439247242,-0.0961676457796,1.66705122439,-0.656278726108,0.449447312243,0.228722665943,1.02350887539,3.10292329994,-0.134083135656,-1.97817670095,0.0425272491984
8.54,0.465566564654,0.854792484817,0.0594982728023,0.750439247242,-0.0961676457796,1.66705122439,-0.656278726108,0.449447312243,0.228722665943,1.02350887539,3.10292329994,-0.134083135656,-1.97817670095,0.0425272491984
8.56,0.465549120949,0.854792484817,0.0594982728023,0.750439247242,-0.0961676457796,1.66663230915,-0.656278726108,0.44951323669,0.228748755856,1.02349968276,3.10318063351,-0.133751488843,-1.97820704842,0.0425310308115
8.58,0.465549120949,0.854792484817,0.0594982728023,0.750439247242,-0.0961676457796,1.66663230915,-0.656278726108,0.44951323669,0.228748755856,1.02349968276,3.10318063351,-0.133751488843,-1.97820704842,0.0425310308115
8.6,0.465549120949,0.854792484817,0.0594982728023,0.750456690947,-0.0961676457796,1.66656253433,-0.656278726108,0.449520731761,0.228753097871,1.02349331122,3.10321273045,-0.133710028993,-1.97820697193,0.0425324570159
8.62,0.465549120949,0.854792484817,0.0594982728023,0.750456690947,-0.0961676457796,1.66656253433,-0.656278726108,0.449520731761,0.228753097871,1.02349331122,3.10321273045,-0.133710028993,-1.97820697193,0.0425324570159
8.64,0.465584041648,0.854809928522,0.0594982728023,0.750474134652,-0.0961676457796,1.66657997803,-0.656278726108,0.449507631298,0.228766217205,1.02348005209,3.10317994247,-0.133750984599,-1.97816779035,0.0425334686831
8.66,0.465584041648,0.854809928522,0.0594982728023,0.750474134652,-0.0961676457796,1.66657997803,-0.656278726108,0.449507631298,0.228766217205,1.02348005209,3.10317994247,-0.133750984599,-1.97816779035,0.0425334686831
8.68,0.465584041648,0.854809928522,0.0594982728023,0.750474134652,-0.0961676457796,1.66657997803,-0.656278726108,0.449507631298,0.228766217205,1.02348005209,3.10317994247,-0.133750984599,-1.97816779035,0.0425334686831
8.7,0.465566564654,0.854792484817,0.0594982728023,0.750456690947,-0.0961676457796,1.66656253433,-0.656278726108,0.449516741391,0.228760939143,1.02349331122,3.10321273045,-0.133710028993,-1.97818952822,0.0425324570159
8.72,0.465566564654,0.854792484817,0.0594982728023,0.750456690947,-0.0961676457796,1.66656253433,-0.656278726108,0.449516741391,0.228760939143,1.02349331122,3.10321273045,-0.133710028993,-1.97818952822,0.0425324570159
8.74,0.465584041648,0.854792484817,0.059515728991,0.750439247242,-0.0961501854297,1.66651020321,-0.656278726108,0.449519354293,0.228781855397,1.02349689202,3.10323151724,-0.133635695871,-1.97816178594,0.042532122932
8.76,0.465584041648,0.854792484817,0.059515728991,0.750439247242,-0.0961501854297,1.66651020321,-0.656278726108,0.449519354293,0.228781855397,1.02349689202,3.10323151724,-0.133635695871,-1.97816178594,0.042532122932
8.78,0.465584041648,0.854774974533,0.059515728991,0.750439247242,-0.0961501854297,1.66644042839,-0.656278726108,0.449529380834,0.228787362348,1.02350419729,3.10328572941,-0.13356703922,-1.97816543582,0.0425323783808
8.8,0.465584041648,0.854774974533,0.059515728991,0.750439247242,-0.0961501854297,1.66644042839,-0.656278726108,0.449529380834,0.228787362348,1.02350419729,3.10328572941,-0.13356703922,-1.97816543582,0.0425323783808
8.82,0.465584041648,0.854774974533,0.059515728991,0.750439247242,-0.0961501854297,1.66644042839,-0.656278726108,0.449529380834,0.228787362348,1.02350419729,3.10328572941,-0.13356703922,-1.97816543582,0.0425323783808
8.84,0.465566564654,0.854774974533,0.0594982728023,0.750456690947,-0.0961676457796,1.66506157674,-0.656278726108,0.449738382677,0.228882395686,1.02346946627,3.10414596113,-0.132508305185,-1.97823651127,0.0425455729932
8.86,0.465566564654,0.854774974533,0.0594982728023,0.750456690947,-0.0961676457796,1.66506157674,-0.656278726108,0.449738382677,0.228882395686,1.02346946627,3.10414596113,-0.132508305185,-1.97823651127,0.0425455729932
8.88,0.465584041648,0.854774974533,0.0594982728023,0.750439247242,-0.0961501854297,1.65827224701,-0.656278726108,0.450740034559,0.229444714802,1.02333111539,3.10831028467,-0.127108260704,-1.9784117889,0.0426046951387
8.9,0.465584041648,0.854774974533,0.0594982728023,0.750439247242,-0.0961501854297,1.65827224701,-0.656278726108,0.450740034559,0.229444714802,1.02333111539,3.10831028467,-0.127108260704,-1.9784117889,0.0426046951387
8.92,0.465584041648,0.854757530827,0.059515728991,0.750421736958,-0.0961501854297,1.64661346039,-0.656278726108,0.452466056838,0.23039818305,1.02311741307,3.1154698779,-0.117839802089,-1.97867895809,0.0427022110549
8.94,0.465584041648,0.854757530827,0.059515728991,0.750421736958,-0.0961501854297,1.64661346039,-0.656278726108,0.452466056838,0.23039818305,1.02311741307,3.1154698779,-0.117839802089,-1.97867895809,0.0427022110549
8.96,0.465584041648,0.854757530827,0.059515728991,0.750421736958,-0.0961501854297,1.64661346039,-0.656278726108,0.452466056838,0.23039818305,1.02311741307,3.1154698779,-0.117839802089,-1.97867895809,0.0427022110549
8.98,0.465566564654,0.854774974533,0.0594982728023,0.750421736958,-0.0961501854297,1.62945684402,-0.656278726108,0.455015740957,0.231783507812,1.02281549069,3.12596906707,-0.104272009937,-1.97899322632,0.0428381687405
9.0,0.465566564654,0.854774974533,0.0594982728023,0.750421736958,-0.0961501854297,1.62945684402,-0.656278726108,0.455015740957,0.231783507812,1.02281549069,3.12596906707,-0.104272009937,-1.97899322632,0.0428381687405
9.02,0.465584041648,0.854792484817,0.0594982728023,0.750456690947,-0.0961501854297,1.60226463771,-0.656278726108,0.459041888394,0.234013875157,1.02243391224,-3.14064156352,-0.0827703706843,-1.97912986048,0.0430313559167
9.04,0.465584041648,0.854792484817,0.0594982728023,0.750456690947,-0.0961501854297,1.60226463771,-0.656278726108,0.459041888394,0.234013875157,1.02243391224,-3.14064156352,-0.0827703706843,-1.97912986048,0.0430313559167
9.06,0.465584041648,0.854792484817,0.0594982728023,0.750456690947,-0.0961676457796,1.56629332087,-0.656278726108,0.464387514738,0.236968959527,1.02214673287,-3.11870081923,-0.0542846827741,-1.97878970186,0.0432393757731
9.08,0.465584041648,0.854792484817,0.0594982728023,0.750456690947,-0.0961676457796,1.56629332087,-0.656278726108,0.464387514738,0.236968959527,1.02214673287,-3.11870081923,-0.0542846827741,-1.97878970186,0.0432393757731
9.1,0.465584041648,0.854792484817,0.0594982728023,0.750456690947,-0.0961676457796,1.56629332087,-0.656278726108,0.464387514738,0.236968959527,1.02214673287,-3.11870081923,-0.0542846827741,-1.97878970186,0.0432393757731
9.12,0.465566564654,0.854809928522,0.0594982728023,0.750474134652,-0.0961676457796,1.51805242141,-0.656278726108,0.471555135024,0.240945706015,1.02209157365,-3.08933441342,-0.0161204395023,-1.97736910478,0.0434387492004
