GitHatake/ROS1EARs/catkin_ws/src/torobo_robot/torobo_EARs2021/scripts/arm/2021_kaiya_csv/test_manipulability_20220119_3_pvt_1.csv
time,joint_1,joint_2,joint_3,joint_4,joint_5,joint_6,joint_7,x,y,z,roll,pitch,yaw,manipulability
0.0,0.705514449393,0.458253657458,0.0797615498122,1.21576140029,0.000174532921298,1.30662326352,-0.657046648608,0.328466079778,0.31957857262,1.07586994985,-3.0701950328,0.149996052939,-1.70500054574,0.0464869692438
0.02,0.705514449393,0.458253657458,0.0797615498122,1.21576140029,0.000174532921298,1.30662326352,-0.657046648608,0.328466079778,0.31957857262,1.07586994985,-3.0701950328,0.149996052939,-1.70500054574,0.0464869692438
0.04,0.705514449393,0.458253657458,0.0797615498122,1.21577884399,0.000174532921298,1.30662326352,-0.657046648608,0.328466079778,0.31957857262,1.07586994985,-3.0701950328,0.149996052939,-1.70500054574,0.0464869692438
0.06,0.705514449393,0.458253657458,0.0797615498122,1.21577884399,0.000174532921298,1.30662326352,-0.657046648608,0.328463472997,0.319576289916,1.07586426855,-3.07020583579,0.14998227593,-1.70500154515,0.046487265201
0.08,0.705514449393,0.458253657458,0.0797615498122,1.21577884399,0.000174532921298,1.30662326352,-0.657064092313,0.328463472997,0.319576289916,1.07586426855,-3.07020583579,0.14998227593,-1.70500154515,0.046487265201
0.1,0.705514449393,0.458253657458,0.0797615498122,1.21577884399,0.000174532921298,1.30662326352,-0.657064092313,0.328463472997,0.319576289916,1.07586426855,-3.07020320648,0.149981031714,-1.70498394833,0.046487265201
0.12,0.705514449393,0.458253657458,0.0797615498122,1.21577884399,0.000174532921298,1.30664070722,-0.657046648608,0.328463472997,0.319576289916,1.07586426855,-3.07020320648,0.149981031714,-1.70498394833,0.046487265201
0.14,0.705514449393,0.458253657458,0.0797615498122,1.21577884399,0.000174532921298,1.30664070722,-0.657046648608,0.328461374562,0.319574249983,1.07586378999,-3.07021663893,0.149968499186,-1.70500254141,0.0464874026861
0.16,0.705514449393,0.458253657458,0.0797615498122,1.21577884399,0.000174532921298,1.30662326352,-0.657064092313,0.328463472997,0.319576289916,1.07586426855,-3.07020320648,0.149981031714,-1.70498394833,0.046487265201
0.18,0.705514449393,0.458253657458,0.0797615498122,1.21577884399,0.000174532921298,1.30662326352,-0.657064092313,0.328463472997,0.319576289916,1.07586426855,-3.07020320648,0.149981031714,-1.70498394833,0.046487265201
0.2,0.705514449393,0.458253657458,0.0797615498122,1.21577884399,0.000174532921298,1.30664070722,-0.657046648608,0.328461374562,0.319574249983,1.07586378999,-3.07021663893,0.149968499186,-1.70500254141,0.0464874026861
0.22,0.705514449393,0.458253657458,0.0797615498122,1.21577884399,0.000174532921298,1.30664070722,-0.657046648608,0.328461374562,0.319574249983,1.07586378999,-3.07021663893,0.149968499186,-1.70500254141,0.0464874026861
0.24,0.705514449393,0.458253657458,0.0797615498122,1.21577884399,0.000157079625918,1.30664070722,-0.657046648608,0.328463381599,0.319572209191,1.07586368856,-3.07020272288,0.149957910002,-1.70499868673,0.0464874026895
0.26,0.705514449393,0.458253657458,0.0797615498122,1.21577884399,0.000157079625918,1.30664070722,-0.657046648608,0.328463381599,0.319572209191,1.07586368856,-3.07020272288,0.149957910002,-1.70499868673,0.0464874026895
0.28,0.705514449393,0.458236180464,0.0797615498122,1.21577884399,0.000174532921298,1.30664070722,-0.657064092313,0.328463381599,0.319572209191,1.07586368856,-3.07020272288,0.149957910002,-1.70499868673,0.0464874026895
0.3,0.705514449393,0.458236180464,0.0797615498122,1.21577884399,0.000174532921298,1.30664070722,-0.657064092313,0.328460431677,0.319573446871,1.07587178169,-3.07020220827,0.149980265807,-1.70498318131,0.0464868336876
0.32,0.705514449393,0.458253657458,0.0797615498122,1.21576140029,0.000174532921298,1.30664070722,-0.657064092313,0.328463981348,0.319576532693,1.07586947125,-3.07020320666,0.149981031989,-1.70498394533,0.046487106728
0.34,0.705514449393,0.458253657458,0.0797615498122,1.21576140029,0.000174532921298,1.30664070722,-0.657064092313,0.328463981348,0.319576532693,1.07586947125,-3.07020320666,0.149981031989,-1.70498394533,0.046487106728
0.36,0.705514449393,0.458253657458,0.0797615498122,1.21577884399,0.000174532921298,1.30662326352,-0.657064092313,0.328463981348,0.319576532693,1.07586947125,-3.07020320666,0.149981031989,-1.70498394533,0.046487106728
0.38,0.705514449393,0.458253657458,0.0797615498122,1.21577884399,0.000174532921298,1.30662326352,-0.657064092313,0.328463472997,0.319576289916,1.07586426855,-3.07020320648,0.149981031714,-1.70498394833,0.046487265201
0.4,0.705514449393,0.458253657458,0.0797615498122,1.21577884399,0.000174532921298,1.30664070722,-0.657046648608,0.328463472997,0.319576289916,1.07586426855,-3.07020320648,0.149981031714,-1.70498394833,0.046487265201
0.42,0.705514449393,0.458253657458,0.0797615498122,1.21577884399,0.000174532921298,1.30664070722,-0.657046648608,0.328461374562,0.319574249983,1.07586378999,-3.07021663893,0.149968499186,-1.70500254141,0.0464874026861
0.44,0.705514449393,0.458253657458,0.0797615498122,1.21577884399,0.000174532921298,1.30664070722,-0.657046648608,0.328461374562,0.319574249983,1.07586378999,-3.07021663893,0.149968499186,-1.70500254141,0.0464874026861
0.46,0.705514449393,0.458253657458,0.0797615498122,1.21577884399,0.000174532921298,1.30664070722,-0.657046648608,0.328461374562,0.319574249983,1.07586378999,-3.07021663893,0.149968499186,-1.70500254141,0.0464874026861
0.48,0.705514449393,0.458253657458,0.0797615498122,1.21577884399,0.000174532921298,1.30664070722,-0.657064092313,0.328461374562,0.319574249983,1.07586378999,-3.07021400986,0.149967255158,-1.70498494462,0.0464874026861
0.5,0.705514449393,0.458253657458,0.0797615498122,1.21577884399,0.000174532921298,1.30664070722,-0.657064092313,0.328461374562,0.319574249983,1.07586378999,-3.07021400986,0.149967255158,-1.70498494462,0.0464874026861
0.52,0.705514449393,0.458253657458,0.0797615498122,1.21577884399,0.000174532921298,1.30664070722,-0.657046648608,0.328461374562,0.319574249983,1.07586378999,-3.07021663893,0.149968499186,-1.70500254141,0.0464874026861
0.54,0.705514449393,0.458253657458,0.0797615498122,1.21577884399,0.000174532921298,1.30664070722,-0.657046648608,0.328461374562,0.319574249983,1.07586378999,-3.07021663893,0.149968499186,-1.70500254141,0.0464874026861
0.56,0.705514449393,0.458253657458,0.0797615498122,1.21576140029,0.000174532921298,1.30664070722,-0.657046648608,0.328463981348,0.319576532693,1.07586947125,-3.07020583597,0.149982276205,-1.70500154215,0.046487106728
0.58,0.705514449393,0.458253657458,0.0797615498122,1.21576140029,0.000174532921298,1.30664070722,-0.657046648608,0.328463981348,0.319576532693,1.07586947125,-3.07020583597,0.149982276205,-1.70500154215,0.046487106728
0.6,0.705531893098,0.458253657458,0.0797615498122,1.21577884399,0.000174532921298,1.30664070722,-0.657046648608,0.328455799954,0.319579979517,1.07586378999,-3.07021663893,0.149968499186,-1.70498509771,0.0464874026861
0.62,0.705531893098,0.458253657458,0.0797615498122,1.21577884399,0.000174532921298,1.30664070722,-0.657046648608,0.328455799954,0.319579979517,1.07586378999,-3.07021663893,0.149968499186,-1.70498509771,0.0464874026861
0.64,0.705514449393,0.458253657458,0.0797615498122,1.21576140029,0.000174532921298,1.30664070722,-0.657046648608,0.328463981348,0.319576532693,1.07586947125,-3.07020583597,0.149982276205,-1.70500154215,0.046487106728
0.66,0.705514449393,0.458253657458,0.0797615498122,1.21576140029,0.000174532921298,1.30664070722,-0.657046648608,0.328463981348,0.319576532693,1.07586947125,-3.07020583597,0.149982276205,-1.70500154215,0.046487106728
0.68,0.705514449393,0.458253657458,0.0797615498122,1.21577884399,0.000157079625918,1.30664070722,-0.657046648608,0.328463381599,0.319572209191,1.07586368856,-3.07020272288,0.149957910002,-1.70499868673,0.0464874026895
0.7,0.705514449393,0.458253657458,0.0797615498122,1.21577884399,0.000157079625918,1.30664070722,-0.657046648608,0.328463381599,0.319572209191,1.07586368856,-3.07020272288,0.149957910002,-1.70499868673,0.0464874026895
0.72,0.705531893098,0.458253657458,0.0797615498122,1.21577884399,0.000174532921298,1.30664070722,-0.657046648608,0.328455799954,0.319579979517,1.07586378999,-3.07021663893,0.149968499186,-1.70498509771,0.0464874026861
0.74,0.705531893098,0.458253657458,0.0797615498122,1.21577884399,0.000174532921298,1.30664070722,-0.657046648608,0.328455799954,0.319579979517,1.07586378999,-3.07021663893,0.149968499186,-1.70498509771,0.0464874026861
0.76,0.705514449393,0.458253657458,0.0797615498122,1.21577884399,0.000174532921298,1.30662326352,-0.657064092313,0.328463472997,0.319576289916,1.07586426855,-3.07020320648,0.149981031714,-1.70498394833,0.046487265201
0.78,0.705514449393,0.458253657458,0.0797615498122,1.21577884399,0.000174532921298,1.30662326352,-0.657064092313,0.328463472997,0.319576289916,1.07586426855,-3.07020320648,0.149981031714,-1.70498394833,0.046487265201
0.8,0.705514449393,0.458253657458,0.0797615498122,1.21576140029,0.000174532921298,1.30662326352,-0.657046648608,0.328466079778,0.31957857262,1.07586994985,-3.0701950328,0.149996052939,-1.70500054574,0.0464869692438
0.82,0.705514449393,0.458253657458,0.0797615498122,1.21576140029,0.000174532921298,1.30662326352,-0.657046648608,0.328466079778,0.31957857262,1.07586994985,-3.0701950328,0.149996052939,-1.70500054574,0.0464869692438
0.84,0.705514449393,0.458253657458,0.0797615498122,1.21577884399,0.000157079625918,1.30664070722,-0.657046648608,0.328463381599,0.319572209191,1.07586368856,-3.07020272288,0.149957910002,-1.70499868673,0.0464874026895
0.86,0.705514449393,0.458253657458,0.0797615498122,1.21577884399,0.000157079625918,1.30664070722,-0.657046648608,0.328463381599,0.319572209191,1.07586368856,-3.07020272288,0.149957910002,-1.70499868673,0.0464874026895
0.88,0.705514449393,0.458253657458,0.0797615498122,1.21576140029,0.000174532921298,1.30664070722,-0.657046648608,0.328463981348,0.319576532693,1.07586947125,-3.07020583597,0.149982276205,-1.70500154215,0.046487106728
0.9,0.705514449393,0.458253657458,0.0797615498122,1.21576140029,0.000174532921298,1.30664070722,-0.657046648608,0.328463981348,0.319576532693,1.07586947125,-3.07020583597,0.149982276205,-1.70500154215,0.046487106728
0.92,0.705531893098,0.458253657458,0.0797615498122,1.21577884399,0.000174532921298,1.30662326352,-0.657064092313,0.328457898353,0.319582019488,1.07586426855,-3.07020320648,0.149981031714,-1.70496650463,0.046487265201
0.94,0.705531893098,0.458253657458,0.0797615498122,1.21577884399,0.000174532921298,1.30662326352,-0.657064092313,0.328457898353,0.319582019488,1.07586426855,-3.07020320648,0.149981031714,-1.70496650463,0.046487265201
0.96,0.705514449393,0.458253657458,0.0797615498122,1.21576140029,0.000174532921298,1.30664070722,-0.657046648608,0.328463981348,0.319576532693,1.07586947125,-3.07020583597,0.149982276205,-1.70500154215,0.046487106728
0.98,0.705514449393,0.458253657458,0.0797615498122,1.21576140029,0.000174532921298,1.30664070722,-0.657046648608,0.328463981348,0.319576532693,1.07586947125,-3.07020583597,0.149982276205,-1.70500154215,0.046487106728
1.0,0.705514449393,0.458253657458,0.0797615498122,1.21577884399,0.000174532921298,1.30664070722,-0.657046648608,0.328461374562,0.319574249983,1.07586378999,-3.07021663893,0.149968499186,-1.70500254141,0.0464874026861
1.02,0.705514449393,0.458253657458,0.0797615498122,1.21577884399,0.000174532921298,1.30664070722,-0.657046648608,0.328461374562,0.319574249983,1.07586378999,-3.07021663893,0.149968499186,-1.70500254141,0.0464874026861
1.04,0.705514449393,0.458253657458,0.0797615498122,1.21577884399,0.000174532921298,1.30664070722,-0.657046648608,0.328461374562,0.319574249983,1.07586378999,-3.07021663893,0.149968499186,-1.70500254141,0.0464874026861
1.06,0.705514449393,0.458253657458,0.0797615498122,1.21577884399,0.000174532921298,1.30664070722,-0.657046648608,0.328461374562,0.319574249983,1.07586378999,-3.07021663893,0.149968499186,-1.70500254141,0.0464874026861
1.08,0.705514449393,0.458253657458,0.0797615498122,1.21577884399,0.000174532921298,1.30664070722,-0.657046648608,0.328461374562,0.319574249983,1.07586378999,-3.07021663893,0.149968499186,-1.70500254141,0.0464874026861
1.1,0.705514449393,0.458253657458,0.0797615498122,1.21577884399,0.000174532921298,1.30664070722,-0.657046648608,0.328461374562,0.319574249983,1.07586378999,-3.07021663893,0.149968499186,-1.70500254141,0.0464874026861
1.12,0.705531893098,0.458253657458,0.0797615498122,1.21576140029,0.000174532921298,1.30662326352,-0.657046648608,0.328460505094,0.319584302237,1.07586994985,-3.0701950328,0.149996052939,-1.70498310203,0.0464869692438
1.14,0.705531893098,0.458253657458,0.0797615498122,1.21576140029,0.000174532921298,1.30662326352,-0.657046648608,0.328460505094,0.319584302237,1.07586994985,-3.0701950328,0.149996052939,-1.70498310203,0.0464869692438
1.16,0.705514449393,0.458253657458,0.0797615498122,1.21577884399,0.000174532921298,1.30664070722,-0.657046648608,0.328461374562,0.319574249983,1.07586378999,-3.07021663893,0.149968499186,-1.70500254141,0.0464874026861
1.18,0.705514449393,0.458253657458,0.0797615498122,1.21577884399,0.000174532921298,1.30664070722,-0.657046648608,0.328461374562,0.319574249983,1.07586378999,-3.07021663893,0.149968499186,-1.70500254141,0.0464874026861
1.2,0.705514449393,0.458253657458,0.0797615498122,1.21577884399,0.000174532921298,1.30664070722,-0.657046648608,0.328461374562,0.319574249983,1.07586378999,-3.07021663893,0.149968499186,-1.70500254141,0.0464874026861
1.22,0.705514449393,0.458253657458,0.0797615498122,1.21577884399,0.000174532921298,1.30664070722,-0.657046648608,0.328461374562,0.319574249983,1.07586378999,-3.07021663893,0.149968499186,-1.70500254141,0.0464874026861
1.24,0.705514449393,0.458253657458,0.0797615498122,1.21577884399,0.000174532921298,1.30664070722,-0.657046648608,0.328461374562,0.319574249983,1.07586378999,-3.07021663893,0.149968499186,-1.70500254141,0.0464874026861
1.26,0.705514449393,0.458253657458,0.0797615498122,1.21577884399,0.000174532921298,1.30664070722,-0.657046648608,0.328461374562,0.319574249983,1.07586378999,-3.07021663893,0.149968499186,-1.70500254141,0.0464874026861
1.28,0.705531893098,0.458253657458,0.0797615498122,1.21576140029,0.000174532921298,1.30662326352,-0.657046648608,0.328461374562,0.319574249983,1.07586378999,-3.07021663893,0.149968499186,-1.70500254141,0.0464874026861
1.3,0.705531893098,0.458253657458,0.0797615498122,1.21576140029,0.000174532921298,1.30662326352,-0.657046648608,0.328460505094,0.319584302237,1.07586994985,-3.0701950328,0.149996052939,-1.70498310203,0.0464869692438
1.32,0.705514449393,0.458253657458,0.0797615498122,1.21577884399,0.000157079625918,1.30662326352,-0.657046648608,0.328460505094,0.319584302237,1.07586994985,-3.0701950328,0.149996052939,-1.70498310203,0.0464869692438
1.34,0.705514449393,0.458253657458,0.0797615498122,1.21577884399,0.000157079625918,1.30662326352,-0.657046648608,0.328465480025,0.319574249135,1.07586416712,-3.07019191972,0.149971686733,-1.70499769028,0.0464872652044
1.36,0.705514449393,0.458253657458,0.0797615498122,1.21576140029,0.000174532921298,1.30664070722,-0.657046648608,0.328465480025,0.319574249135,1.07586416712,-3.07019191972,0.149971686733,-1.70499769028,0.0464872652044
1.38,0.705514449393,0.458253657458,0.0797615498122,1.21576140029,0.000174532921298,1.30664070722,-0.657046648608,0.328463981348,0.319576532693,1.07586947125,-3.07020583597,0.149982276205,-1.70500154215,0.046487106728
1.4,0.705514449393,0.458253657458,0.0797615498122,1.21577884399,0.000174532921298,1.30664070722,-0.657046648608,0.328463981348,0.319576532693,1.07586947125,-3.07020583597,0.149982276205,-1.70500154215,0.046487106728
1.42,0.705514449393,0.458253657458,0.0797615498122,1.21577884399,0.000174532921298,1.30664070722,-0.657046648608,0.328461374562,0.319574249983,1.07586378999,-3.07021663893,0.149968499186,-1.70500254141,0.0464874026861
1.44,0.705514449393,0.458253657458,0.0797615498122,1.21576140029,0.000174532921298,1.30664070722,-0.657064092313,0.328463981348,0.319576532693,1.07586947125,-3.07020320666,0.149981031989,-1.70498394533,0.046487106728
1.46,0.705514449393,0.458253657458,0.0797615498122,1.21576140029,0.000174532921298,1.30664070722,-0.657064092313,0.328463981348,0.319576532693,1.07586947125,-3.07020320666,0.149981031989,-1.70498394533,0.046487106728
1.48,0.705514449393,0.458253657458,0.0797615498122,1.21577884399,0.000174532921298,1.30664070722,-0.657046648608,0.328461374562,0.319574249983,1.07586378999,-3.07021663893,0.149968499186,-1.70500254141,0.0464874026861
1.5,0.705514449393,0.458253657458,0.0797615498122,1.21577884399,0.000174532921298,1.30664070722,-0.657046648608,0.328461374562,0.319574249983,1.07586378999,-3.07021663893,0.149968499186,-1.70500254141,0.0464874026861
1.52,0.705514449393,0.458253657458,0.0797615498122,1.21577884399,0.000174532921298,1.30664070722,-0.657046648608,0.328461374562,0.319574249983,1.07586378999,-3.07021663893,0.149968499186,-1.70500254141,0.0464874026861
1.54,0.705514449393,0.458253657458,0.0797615498122,1.21577884399,0.000174532921298,1.30664070722,-0.657046648608,0.328461374562,0.319574249983,1.07586378999,-3.07021663893,0.149968499186,-1.70500254141,0.0464874026861
1.56,0.705514449393,0.458253657458,0.0797615498122,1.21577884399,0.000174532921298,1.30664070722,-0.657064092313,0.328461374562,0.319574249983,1.07586378999,-3.07021400986,0.149967255158,-1.70498494462,0.0464874026861
1.58,0.705514449393,0.458253657458,0.0797615498122,1.21577884399,0.000174532921298,1.30664070722,-0.657064092313,0.328461374562,0.319574249983,1.07586378999,-3.07021400986,0.149967255158,-1.70498494462,0.0464874026861
1.6,0.705514449393,0.458253657458,0.0797615498122,1.21577884399,0.000174532921298,1.30662326352,-0.657046648608,0.328461374562,0.319574249983,1.07586378999,-3.07021400986,0.149967255158,-1.70498494462,0.0464874026861
1.62,0.705514449393,0.458253657458,0.0797615498122,1.21577884399,0.000174532921298,1.30662326352,-0.657046648608,0.328463472997,0.319576289916,1.07586426855,-3.07020583579,0.14998227593,-1.70500154515,0.046487265201
1.64,0.705514449393,0.458253657458,0.0797615498122,1.21577884399,0.000174532921298,1.30664070722,-0.657046648608,0.328463472997,0.319576289916,1.07586426855,-3.07020583579,0.14998227593,-1.70500154515,0.046487265201
1.66,0.705514449393,0.458253657458,0.0797615498122,1.21577884399,0.000174532921298,1.30664070722,-0.657046648608,0.328461374562,0.319574249983,1.07586378999,-3.07021663893,0.149968499186,-1.70500254141,0.0464874026861
1.68,0.705514449393,0.458253657458,0.0797615498122,1.21577884399,0.000174532921298,1.30664070722,-0.657046648608,0.328461374562,0.319574249983,1.07586378999,-3.07021663893,0.149968499186,-1.70500254141,0.0464874026861
1.7,0.705514449393,0.458253657458,0.0797615498122,1.21577884399,0.000174532921298,1.30664070722,-0.657046648608,0.328461374562,0.319574249983,1.07586378999,-3.07021663893,0.149968499186,-1.70500254141,0.0464874026861
1.72,0.705514449393,0.458253657458,0.0797615498122,1.21576140029,0.000174532921298,1.30664070722,-0.657046648608,0.328463981348,0.319576532693,1.07586947125,-3.07020583597,0.149982276205,-1.70500154215,0.046487106728
1.74,0.705514449393,0.458253657458,0.0797615498122,1.21576140029,0.000174532921298,1.30664070722,-0.657046648608,0.328463981348,0.319576532693,1.07586947125,-3.07020583597,0.149982276205,-1.70500154215,0.046487106728
1.76,0.705514449393,0.458253657458,0.0797615498122,1.21577884399,0.000174532921298,1.30662326352,-0.657046648608,0.328463472997,0.319576289916,1.07586426855,-3.07020583579,0.14998227593,-1.70500154515,0.046487265201
1.78,0.705514449393,0.458253657458,0.0797615498122,1.21577884399,0.000174532921298,1.30662326352,-0.657046648608,0.328463472997,0.319576289916,1.07586426855,-3.07020583579,0.14998227593,-1.70500154515,0.046487265201
1.8,0.705514449393,0.458253657458,0.0797615498122,1.21576140029,0.000174532921298,1.30664070722,-0.657046648608,0.328463472997,0.319576289916,1.07586426855,-3.07020583579,0.14998227593,-1.70500154515,0.046487265201
1.82,0.705514449393,0.458253657458,0.0797615498122,1.21576140029,0.000174532921298,1.30664070722,-0.657046648608,0.328463981348,0.319576532693,1.07586947125,-3.07020583597,0.149982276205,-1.70500154215,0.046487106728
1.84,0.705514449393,0.458253657458,0.0797615498122,1.21576140029,0.000174532921298,1.30662326352,-0.657046648608,0.328463981348,0.319576532693,1.07586947125,-3.07020583597,0.149982276205,-1.70500154215,0.046487106728
1.86,0.705514449393,0.458253657458,0.0797615498122,1.21576140029,0.000174532921298,1.30662326352,-0.657046648608,0.328466079778,0.31957857262,1.07586994985,-3.0701950328,0.149996052939,-1.70500054574,0.0464869692438
1.88,0.705514449393,0.458253657458,0.0797615498122,1.21576140029,0.000174532921298,1.30664070722,-0.657046648608,0.328466079778,0.31957857262,1.07586994985,-3.0701950328,0.149996052939,-1.70500054574,0.0464869692438
1.9,0.705514449393,0.458253657458,0.0797615498122,1.21576140029,0.000174532921298,1.30664070722,-0.657046648608,0.328463981348,0.319576532693,1.07586947125,-3.07020583597,0.149982276205,-1.70500154215,0.046487106728
1.92,0.705514449393,0.458253657458,0.0797615498122,1.21576140029,0.000174532921298,1.30662326352,-0.657046648608,0.328463981348,0.319576532693,1.07586947125,-3.07020583597,0.149982276205,-1.70500154215,0.046487106728
1.94,0.705514449393,0.458253657458,0.0797615498122,1.21576140029,0.000174532921298,1.30662326352,-0.657046648608,0.328466079778,0.31957857262,1.07586994985,-3.0701950328,0.149996052939,-1.70500054574,0.0464869692438
1.96,0.705514449393,0.458253657458,0.0797615498122,1.21577884399,0.000174532921298,1.30664070722,-0.657046648608,0.328466079778,0.31957857262,1.07586994985,-3.0701950328,0.149996052939,-1.70500054574,0.0464869692438
1.98,0.705514449393,0.458253657458,0.0797615498122,1.21577884399,0.000174532921298,1.30664070722,-0.657046648608,0.328461374562,0.319574249983,1.07586378999,-3.07021663893,0.149968499186,-1.70500254141,0.0464874026861
2.0,0.705514449393,0.458253657458,0.0797615498122,1.21577884399,0.000174532921298,1.30662326352,-0.657046648608,0.328461374562,0.319574249983,1.07586378999,-3.07021663893,0.149968499186,-1.70500254141,0.0464874026861
2.02,0.705514449393,0.458253657458,0.0797615498122,1.21577884399,0.000174532921298,1.30662326352,-0.657046648608,0.328463472997,0.319576289916,1.07586426855,-3.07020583579,0.14998227593,-1.70500154515,0.046487265201
2.04,0.705531893098,0.458253657458,0.0797615498122,1.21576140029,0.000174532921298,1.30662326352,-0.657046648608,0.328463472997,0.319576289916,1.07586426855,-3.07020583579,0.14998227593,-1.70500154515,0.046487265201
2.06,0.705531893098,0.458253657458,0.0797615498122,1.21576140029,0.000174532921298,1.30662326352,-0.657046648608,0.328460505094,0.319584302237,1.07586994985,-3.0701950328,0.149996052939,-1.70498310203,0.0464869692438
2.08,0.705514449393,0.458253657458,0.0797615498122,1.21576140029,0.000174532921298,1.30662326352,-0.657046648608,0.328460505094,0.319584302237,1.07586994985,-3.0701950328,0.149996052939,-1.70498310203,0.0464869692438
2.1,0.705514449393,0.458253657458,0.0797615498122,1.21576140029,0.000174532921298,1.30662326352,-0.657046648608,0.328466079778,0.31957857262,1.07586994985,-3.0701950328,0.149996052939,-1.70500054574,0.0464869692438
2.12,0.705514449393,0.458253657458,0.0797615498122,1.21577884399,0.000174532921298,1.30664070722,-0.657046648608,0.328461374562,0.319574249983,1.07586378999,-3.07021663893,0.149968499186,-1.70500254141,0.0464874026861
2.14,0.705514449393,0.458253657458,0.0797615498122,1.21577884399,0.000174532921298,1.30664070722,-0.657046648608,0.328461374562,0.319574249983,1.07586378999,-3.07021663893,0.149968499186,-1.70500254141,0.0464874026861
2.16,0.705497005687,0.458253657458,0.0797615498122,1.21576140029,0.000174532921298,1.30662326352,-0.657064092313,0.328471654362,0.319572842906,1.07586994985,-3.07019240324,0.149994808535,-1.7050003926,0.0464869692438
2.18,0.705497005687,0.458253657458,0.0797615498122,1.21576140029,0.000174532921298,1.30662326352,-0.657064092313,0.328471654362,0.319572842906,1.07586994985,-3.07019240324,0.149994808535,-1.7050003926,0.0464869692438
2.2,0.705497005687,0.458253657458,0.0797615498122,1.21577884399,0.000174532921298,1.30664070722,-0.657064092313,0.328466949072,0.319568520351,1.07586378999,-3.07021400986,0.149967255158,-1.70500238832,0.0464874026861
2.22,0.705497005687,0.458253657458,0.0797615498122,1.21577884399,0.000174532921298,1.30664070722,-0.657064092313,0.328466949072,0.319568520351,1.07586378999,-3.07021400986,0.149967255158,-1.70500238832,0.0464874026861
2.24,0.705497005687,0.458253657458,0.0797615498122,1.21577884399,0.000174532921298,1.30662326352,-0.657046648608,0.328469047542,0.319570560248,1.07586426855,-3.07020583579,0.14998227593,-1.70501898886,0.046487265201
2.26,0.705497005687,0.458253657458,0.0797615498122,1.21577884399,0.000174532921298,1.30662326352,-0.657046648608,0.328469047542,0.319570560248,1.07586426855,-3.07020583579,0.14998227593,-1.70501898886,0.046487265201
2.28,0.705497005687,0.458253657458,0.0797615498122,1.21576140029,0.000174532921298,1.30662326352,-0.657046648608,0.328471654362,0.319572842906,1.07586994985,-3.0701950328,0.149996052939,-1.70501798944,0.0464869692438
2.3,0.705497005687,0.458253657458,0.0797615498122,1.21576140029,0.000174532921298,1.30662326352,-0.657046648608,0.328471654362,0.319572842906,1.07586994985,-3.0701950328,0.149996052939,-1.70501798944,0.0464869692438
2.32,0.705497005687,0.458253657458,0.0797615498122,1.21576140029,0.00010471975603,1.30665815093,-0.657046648608,0.328475485497,0.319560599791,1.07586858728,-3.07016097522,0.149926142308,-1.70500456554,0.0464872442109
2.34,0.705497005687,0.458253657458,0.0797615498122,1.21576140029,0.00010471975603,1.30665815093,-0.657046648608,0.328475485497,0.319560599791,1.07586858728,-3.07016097522,0.149926142308,-1.70500456554,0.0464872442109
2.36,0.705479561982,0.458253657458,0.0797615498122,1.21576140029,-0.000157079625918,1.30672805891,-0.657046648608,0.328502755822,0.31951608142,1.07586515667,-3.06999554071,0.149712084217,-1.70496822493,0.04648779501
2.38,0.705479561982,0.458253657458,0.0797615498122,1.21576140029,-0.000157079625918,1.30672805891,-0.657046648608,0.328502755822,0.31951608142,1.07586515667,-3.06999554071,0.149712084217,-1.70496822493,0.04648779501
2.4,0.705444607993,0.458253657458,0.0797615498122,1.21576140029,-0.000698131685193,1.30678039002,-0.657064092313,0.328569849885,0.319435209901,1.07586062994,-3.06959400541,0.149341181412,-1.70486930116,0.0464882069212
2.42,0.705444607993,0.458253657458,0.0797615498122,1.21576140029,-0.000698131685193,1.30678039002,-0.657064092313,0.328569849885,0.319435209901,1.07586062994,-3.06959400541,0.149341181412,-1.70486930116,0.0464882069212
2.44,0.705392276878,0.458253657458,0.0797615498122,1.21572651288,-0.00125663700734,1.30683272114,-0.657046648608,0.32864971577,0.319351147442,1.07586741551,-3.06916224774,0.148989694034,-1.70481730887,0.0464880263396
2.46,0.705392276878,0.458253657458,0.0797615498122,1.21572651288,-0.00125663700734,1.30683272114,-0.657046648608,0.32864971577,0.319351147442,1.07586741551,-3.06916224774,0.148989694034,-1.70481730887,0.0464880263396
2.48,0.705339879183,0.458253657458,0.0797440894623,1.21570906917,-0.00214675503925,1.30690249596,-0.657064092313,0.328767681466,0.319219222811,1.07586605097,-3.06847688006,0.148401595865,-1.70467439591,0.0464883119025
2.5,0.705339879183,0.458253657458,0.0797440894623,1.21570906917,-0.00214675503925,1.30690249596,-0.657064092313,0.328767681466,0.319219222811,1.07586605097,-3.06847688006,0.148401595865,-1.70467439591,0.0464883119025
2.52,0.705270104363,0.458253657458,0.0797615498122,1.21563929435,-0.00277507341288,1.30697240394,-0.657046648608,0.328859599783,0.319128482537,1.07588370679,-3.06798473301,0.148026412598,-1.70460935168,0.0464876415879
2.54,0.705270104363,0.458253657458,0.0797615498122,1.21563929435,-0.00277507341288,1.30697240394,-0.657046648608,0.328859599783,0.319128482537,1.07588370679,-3.06798473301,0.148026412598,-1.70460935168,0.0464876415879
2.56,0.705182819258,0.458253657458,0.0797615498122,1.21546472414,-0.00357792493538,1.30709450987,-0.657064092313,0.328991204526,0.319014421038,1.07593298361,-3.06731002758,0.147578919088,-1.70450080836,0.0464856338583
2.58,0.705182819258,0.458253657458,0.0797615498122,1.21546472414,-0.00357792493538,1.30709450987,-0.657064092313,0.328991204526,0.319014421038,1.07593298361,-3.06731002758,0.147578919088,-1.70450080836,0.0464856338583
2.6,0.705095534153,0.458271101164,0.0797615498122,1.2151854917,-0.00452040282092,1.30721674897,-0.657046648608,0.329155425262,0.318898466045,1.07600776739,-3.06647640081,0.147118561947,-1.70439347089,0.0464824103736
2.62,0.705095534153,0.458271101164,0.0797615498122,1.2151854917,-0.00452040282092,1.30721674897,-0.657046648608,0.329155425262,0.318898466045,1.07600776739,-3.06647640081,0.147118561947,-1.70439347089,0.0464824103736
2.64,0.704955917933,0.458253657458,0.0797615498122,1.21464447053,-0.00546288044639,1.3073214112,-0.657046648608,0.329375623029,0.318799864626,1.07618442489,-3.06544354137,0.146903083004,-1.70430261149,0.0464734427303
2.66,0.704955917933,0.458253657458,0.0797615498122,1.21464447053,-0.00546288044639,1.3073214112,-0.657046648608,0.329375623029,0.318799864626,1.07618442489,-3.06544354137,0.146903083004,-1.70430261149,0.0464734427303
2.68,0.704851189123,0.458288544869,0.0797440894623,1.21415578047,-0.00607374562217,1.3074785377,-0.657046648608,0.329539848553,0.31873614309,1.07632018215,-3.06476928366,0.146762158947,-1.70427561947,0.0464674979073
2.7,0.704851189123,0.458288544869,0.0797440894623,1.21415578047,-0.00607374562217,1.3074785377,-0.657046648608,0.329539848553,0.31873614309,1.07632018215,-3.06476928366,0.146762158947,-1.70427561947,0.0464674979073
2.72,0.704729016608,0.458288544869,0.0797615498122,1.21389399173,-0.00694641045623,1.30758319993,-0.657046648608,0.329701011297,0.31862040108,1.07639871146,-3.06398286767,0.146360592207,-1.70418621463,0.0464638001009
2.74,0.704729016608,0.458288544869,0.0797615498122,1.21389399173,-0.00694641045623,1.30758319993,-0.657046648608,0.329701011297,0.31862040108,1.07639871146,-3.06398286767,0.146360592207,-1.70418621463,0.0464638001009
2.76,0.704502181862,0.458306021863,0.0797440894623,1.21309104866,-0.00797615446107,1.30789731978,-0.657064092313,0.329979262113,0.318488956602,1.07663882314,-3.0628633127,0.14610004839,-1.70416546941,0.046453087513
2.78,0.704502181862,0.458306021863,0.0797440894623,1.21309104866,-0.00797615446107,1.30789731978,-0.657064092313,0.329979262113,0.318488956602,1.07663882314,-3.0628633127,0.14610004839,-1.70416546941,0.046453087513
2.8,0.704275280537,0.458410717384,0.0797615498122,1.21206133743,-0.00912807202122,1.3082464602,-0.657064092313,0.330296512519,0.318381841176,1.07691213167,-3.06160072476,0.14586281951,-1.70410637202,0.0464414555206
2.82,0.704275280537,0.458410717384,0.0797615498122,1.21206133743,-0.00912807202122,1.3082464602,-0.657064092313,0.330296512519,0.318381841176,1.07691213167,-3.06160072476,0.14586281951,-1.70410637202,0.0464414555206
2.84,0.704065822918,0.458515446194,0.0797266374348,1.21085705598,-0.0102799890612,1.30850824894,-0.657046648608,0.330658341884,0.318298758844,1.07724444463,-3.06016077707,0.145817555014,-1.70407835373,0.0464261323076
2.86,0.704065822918,0.458515446194,0.0797266374348,1.21085705598,-0.0102799890612,1.30850824894,-0.657046648608,0.330658341884,0.318298758844,1.07724444463,-3.06016077707,0.145817555014,-1.70407835373,0.0464261323076
2.88,0.703995981518,0.458585254304,0.0797266374348,1.21019379571,-0.0116413460359,1.30871770656,-0.657046648608,0.330914394991,0.318180924461,1.07741761368,-3.05884311266,0.145293907137,-1.70384357324,0.0464185006621
2.9,0.703995981518,0.458585254304,0.0797266374348,1.21019379571,-0.0116413460359,1.30871770656,-0.657046648608,0.330914394991,0.318180924461,1.07741761368,-3.05884311266,0.145293907137,-1.70384357324,0.0464185006621
2.92,0.703908762992,0.458620175003,0.0797266374348,1.20958299972,-0.0126187303171,1.30892716418,-0.657046648608,0.331122030369,0.318093753393,1.07759139752,-3.05783997093,0.144988394306,-1.70370833551,0.046410613898
2.94,0.703908762992,0.458620175003,0.0797266374348,1.20958299972,-0.0126187303171,1.30892716418,-0.657046648608,0.331122030369,0.318093753393,1.07759139752,-3.05783997093,0.144988394306,-1.70370833551,0.046410613898
2.96,0.703856365298,0.458672539408,0.0796917333797,1.20872772553,-0.0135786615306,1.30911917809,-0.657046648608,0.331365043824,0.318044970752,1.07783732805,-3.05668826209,0.144876310566,-1.70355986772,0.0463989194833
2.98,0.703856365298,0.458672539408,0.0796917333797,1.20872772553,-0.0135786615306,1.30911917809,-0.657046648608,0.331365043824,0.318044970752,1.07783732805,-3.05668826209,0.144876310566,-1.70355986772,0.0463989194833
3.0,0.703821477888,0.458759791224,0.0796917333797,1.20792491562,-0.0149574715731,1.30931105885,-0.657064092313,0.331635535165,0.317957175632,1.07804937275,-3.05526875747,0.144450069063,-1.70326649313,0.0463891520395
3.02,0.703821477888,0.458759791224,0.0796917333797,1.20792491562,-0.0149574715731,1.30931105885,-0.657064092313,0.331635535165,0.317957175632,1.07804937275,-3.05526875747,0.144450069063,-1.70326649313,0.0463891520395
3.04,0.703734192783,0.458847076328,0.0796219169473,1.20654606397,-0.0163013754799,1.30950307276,-0.657046648608,0.332022145943,0.317910999772,1.0784493038,-3.0535009306,0.144480349048,-1.7030978409,0.0463693019424
3.06,0.703734192783,0.458847076328,0.0796219169473,1.20654606397,-0.0163013754799,1.30950307276,-0.657046648608,0.332022145943,0.317910999772,1.0784493038,-3.0535009306,0.144480349048,-1.7030978409,0.0463693019424
3.08,0.703664417962,0.458934328143,0.0794648403772,1.2054116905,-0.0177325457662,1.30962531185,-0.657046648608,0.33240819417,0.317812908172,1.07877052055,-3.05174085732,0.144291718889,-1.70296032442,0.0463532757725
3.1,0.703664417962,0.458934328143,0.0794648403772,1.2054116905,-0.0177325457662,1.30962531185,-0.657046648608,0.33240819417,0.317812908172,1.07877052055,-3.05174085732,0.144291718889,-1.70296032442,0.0463532757725
3.12,0.703612020268,0.458969248843,0.0792030433197,1.20483564876,-0.0189542750774,1.31014888933,-0.657046648608,0.332658610729,0.317595098675,1.07892142799,-3.05067371905,0.143482142162,-1.70299360502,0.0463486892274
3.14,0.703612020268,0.458969248843,0.0792030433197,1.20483564876,-0.0189542750774,1.31014888933,-0.657046648608,0.332658610729,0.317595098675,1.07892142799,-3.05067371905,0.143482142162,-1.70299360502,0.0463486892274
3.16,0.703542245447,0.459056500658,0.0787667093422,1.20354414879,-0.0205599781224,1.31072479791,-0.657046648608,0.333106569796,0.317366552034,1.07927822669,-3.04886656459,0.142868474069,-1.70308694009,0.0463337077664
3.18,0.703542245447,0.459056500658,0.0787667093422,1.20354414879,-0.0205599781224,1.31072479791,-0.657046648608,0.333106569796,0.317366552034,1.07927822669,-3.04886656459,0.142868474069,-1.70308694009,0.0463337077664
3.2,0.703472404048,0.459178673174,0.0781558467672,1.20247955014,-0.021956242273,1.31112626945,-0.657064092313,0.333565413134,0.317107308935,1.0795487913,-3.04722191571,0.142261681326,-1.70335947757,0.0463228039852
3.22,0.703472404048,0.459178673174,0.0781558467672,1.20247955014,-0.021956242273,1.31112626945,-0.657064092313,0.333565413134,0.317107308935,1.0795487913,-3.04722191571,0.142261681326,-1.70335947757,0.0463228039852
3.24,0.703420072932,0.459300845689,0.0776671483848,1.20131015611,-0.0232477859362,1.31140550189,-0.657046648608,0.334004159306,0.316926813925,1.0798593548,-3.04556475413,0.141936675692,-1.70355447108,0.0463087404212
3.26,0.703420072932,0.459300845689,0.0776671483848,1.20131015611,-0.0232477859362,1.31140550189,-0.657046648608,0.334004159306,0.316926813925,1.0798593548,-3.04556475413,0.141936675692,-1.70355447108,0.0463087404212
3.28,0.703280390133,0.459457938903,0.0773529952447,1.20001852298,-0.024591689843,1.31166729062,-0.657064092313,0.334452387192,0.316777624435,1.08019681566,-3.04385568631,0.141711412837,-1.7036404559,0.0462930237303
3.3,0.703158217618,0.459545190719,0.0772133623798,1.19900625545,-0.0257785130187,1.31210364957,-0.657046648608,0.334452387192,0.316777624435,1.08019681566,-3.04385568631,0.141711412837,-1.7036404559,0.0462930237303
3.32,0.703158217618,0.459545190719,0.0772133623798,1.19900625545,-0.0257785130187,1.31210364957,-0.657046648608,0.334765047537,0.316640844486,1.08047241357,-3.04256959492,0.141331672421,-1.70365112688,0.0462809928114
3.34,0.703158217618,0.459545190719,0.0772133623798,1.19900625545,-0.0257785130187,1.31210364957,-0.657046648608,0.334765047537,0.316640844486,1.08047241357,-3.04256959492,0.141331672421,-1.70365112688,0.0462809928114
3.36,0.702931382872,0.459702283933,0.0770562858098,1.1977845303,-0.0272620435487,1.31238288201,-0.657064092313,0.335202761199,0.316477342568,1.08078892128,-3.04085644429,0.140997494349,-1.70367270193,0.0462661550756
3.38,0.702931382872,0.459702283933,0.0770562858098,1.1977845303,-0.0272620435487,1.31238288201,-0.657064092313,0.335202761199,0.316477342568,1.08078892128,-3.04085644429,0.140997494349,-1.70367270193,0.0462661550756
3.4,0.702721925253,0.459894264558,0.0769864693773,1.19698172039,-0.0286757597268,1.31276690983,-0.657064092313,0.335532119658,0.316287868784,1.08095038433,-3.03958035267,0.140295551057,-1.70367059684,0.0462606932611
3.42,0.702495023928,0.460121165883,0.0768642968623,1.19537596741,-0.0301592902568,1.3131333608,-0.657046648608,0.335532119658,0.316287868784,1.08095038433,-3.03958035267,0.140295551057,-1.70367059684,0.0462606932611
3.44,0.702495023928,0.460121165883,0.0768642968623,1.19537596741,-0.0301592902568,1.3131333608,-0.657046648608,0.336009799711,0.316174759228,1.08135949587,-3.03774590103,0.140155190078,-1.70369606642,0.0462414348328
3.46,0.702215791487,0.460208417698,0.0768468448348,1.19403213632,-0.031712633058,1.31339514954,-0.657046648608,0.336009799711,0.316174759228,1.08135949587,-3.03774590103,0.140155190078,-1.70369606642,0.0462414348328
3.48,0.702215791487,0.460208417698,0.0768468448348,1.19403213632,-0.031712633058,1.31339514954,-0.657046648608,0.336450490951,0.31603634139,1.08175173747,-3.03589212769,0.139980817514,-1.7036485479,0.0462212883962
3.5,0.701971446457,0.460295669514,0.0766897682647,1.19321174955,-0.033440508618,1.31395361442,-0.657064092313,0.336824672245,0.315749679935,1.08196229525,-3.03436282989,0.1390103637,-1.70368957788,0.0462132696757
3.52,0.701971446457,0.460295669514,0.0766897682647,1.19321174955,-0.033440508618,1.31395361442,-0.657064092313,0.336824672245,0.315749679935,1.08196229525,-3.03436282989,0.1390103637,-1.70368957788,0.0462132696757
3.54,0.701884161353,0.460330590214,0.0763232507197,1.19239149593,-0.0349065850399,1.31459943098,-0.657046648608,0.337159993663,0.315475798108,1.08219269172,-3.03299552801,0.138111421248,-1.70384269554,0.046204512604
3.56,0.701884161353,0.460330590214,0.0763232507197,1.19239149593,-0.0349065850399,1.31459943098,-0.657046648608,0.337159993663,0.315475798108,1.08219269172,-3.03299552801,0.138111421248,-1.70384269554,0.046204512604
3.58,0.701779432543,0.460435319023,0.0760090892572,1.19113488337,-0.0365471963011,1.31512300845,-0.657046648608,0.337588980876,0.315261968399,1.08253898801,-3.03120383758,0.137505264321,-1.70389481813,0.0461887427636
3.6,0.701779432543,0.460435319023,0.0760090892572,1.19113488337,-0.0365471963011,1.31512300845,-0.657046648608,0.337588980876,0.315261968399,1.08253898801,-3.03120383758,0.137505264321,-1.70389481813,0.0461887427636
3.62,0.701692147438,0.460574935244,0.0756774757673,1.1895640178,-0.0377689256124,1.31534990978,-0.657046648608,0.338051566275,0.315173657445,1.08298155519,-3.02938051488,0.137605074807,-1.70398655688,0.0461658730321
3.64,0.701692147438,0.460574935244,0.0756774757673,1.1895640178,-0.0377689256124,1.31534990978,-0.657046648608,0.338051566275,0.315173657445,1.08298155519,-3.02938051488,0.137605074807,-1.70398655688,0.0461658730321
3.66,0.701587485207,0.460627299648,0.0755203991972,1.1886389688,-0.0393920806849,1.31562914222,-0.657046648608,0.338415067057,0.314988868584,1.08325302397,-3.0276745788,0.137025989988,-1.70390479714,0.0461523048869
3.68,0.701587485207,0.460627299648,0.0755203991972,1.1886389688,-0.0393920806849,1.31562914222,-0.657046648608,0.338415067057,0.314988868584,1.08325302397,-3.0276745788,0.137025989988,-1.70390479714,0.0461523048869
3.7,0.701500200103,0.460662187059,0.0754505827648,1.18780127148,-0.0409977837299,1.31583859984,-0.657046648608,0.338742922915,0.314832276666,1.08350729814,-3.02601099562,0.136482361642,-1.70373393957,0.0461390847793
3.72,0.701500200103,0.460662187059,0.0754505827648,1.18780127148,-0.0409977837299,1.31583859984,-0.657046648608,0.338742922915,0.314832276666,1.08350729814,-3.02601099562,0.136482361642,-1.70373393957,0.0461390847793
3.74,0.701395471293,0.460732028458,0.0753633143048,1.18685877877,-0.0428478318049,1.31618774026,-0.657046648608,0.339109161043,0.314634356592,1.08377640714,-3.02419378094,0.13572866628,-1.70356416218,0.0461260003894
3.76,0.701395471293,0.460732028458,0.0753633143048,1.18685877877,-0.0428478318049,1.31618774026,-0.657046648608,0.339109161043,0.314634356592,1.08377640714,-3.02419378094,0.13572866628,-1.70356416218,0.0461260003894
3.78,0.701290742483,0.460819280274,0.0751538816522,1.18528804636,-0.0444011746061,1.3164844164,-0.657046648608,0.339570468355,0.314522030336,1.08424496092,-3.02215679617,0.135641441231,-1.70352022819,0.0461011571066
3.8,0.701290742483,0.460819280274,0.0751538816522,1.18528804636,-0.0444011746061,1.3164844164,-0.657046648608,0.339570468355,0.314522030336,1.08424496092,-3.02215679617,0.135641441231,-1.70352022819,0.0461011571066
3.82,0.701220901083,0.460871644678,0.0748222681622,1.18427564567,-0.0457799846486,1.31669387402,-0.657046648608,0.339960020497,0.314347058246,1.08454751136,-3.02048865582,0.135281480399,-1.70359649342,0.0460853809862
3.84,0.701220901083,0.460871644678,0.0748222681622,1.18427564567,-0.0457799846486,1.31669387402,-0.657046648608,0.339960020497,0.314347058246,1.08454751136,-3.02048865582,0.135281480399,-1.70359649342,0.0460853809862
3.86,0.701081284863,0.460941452789,0.0744557422948,1.18347283576,-0.0475253163973,1.31744435282,-0.657046648608,0.34032852047,0.314006850082,1.08475735822,-3.01899993699,0.134081913262,-1.70377413228,0.0460781790814
3.88,0.701081284863,0.460941452789,0.0744557422948,1.18347283576,-0.0475253163973,1.31744435282,-0.657046648608,0.34032852047,0.314006850082,1.08475735822,-3.01899993699,0.134081913262,-1.70377413228,0.0460781790814
3.9,0.700959112348,0.460976373488,0.0739845042623,1.18240823711,-0.0493753644723,1.31788071176,-0.657046648608,0.340803162604,0.313697842961,1.08507925482,-3.01701046032,0.133263476505,-1.70396198939,0.0460625276832
3.92,0.700959112348,0.460976373488,0.0739845042623,1.18240823711,-0.0493753644723,1.31788071176,-0.657046648608,0.340803162604,0.313697842961,1.08507925482,-3.01701046032,0.133263476505,-1.70396198939,0.0460625276832
3.94,0.700767165012,0.461063625304,0.0734259977698,1.18143085699,-0.0509461593011,1.31828205014,-0.657064092313,0.341284561247,0.313369236556,1.08534844794,-3.01527881584,0.132509035414,-1.7043350256,0.0460501195236
3.96,0.700767165012,0.461063625304,0.0734259977698,1.18143085699,-0.0509461593011,1.31828205014,-0.657064092313,0.341284561247,0.313369236556,1.08534844794,-3.01527881584,0.132509035414,-1.7043350256,0.0460501195236
3.98,0.700470422288,0.461185797819,0.0730420281973,1.17973788549,-0.052848571781,1.31871840908,-0.657064092313,0.341891425036,0.313098970566,1.08583974779,-3.01294279552,0.132109962595,-1.70459826142,0.0460246176645
4.0,0.700226077258,0.461273082923,0.0728674995997,1.17895251928,-0.0541226613361,1.3190675495,-0.657046648608,0.341891425036,0.313098970566,1.08583974779,-3.01294279552,0.132109962595,-1.70459826142,0.0460246176645
4.02,0.700226077258,0.461273082923,0.0728674995997,1.17895251928,-0.0541226613361,1.3190675495,-0.657046648608,0.342234297461,0.312875878409,1.08605067341,-3.01166586458,0.131547624249,-1.70479353773,0.0460147525489
4.04,0.700034129922,0.461395255438,0.0728325872223,1.17781801266,-0.0557458164086,1.31952121899,-0.657046648608,0.342234297461,0.312875878409,1.08605067341,-3.01166586458,0.131547624249,-1.70479353773,0.0460147525489
4.06,0.700034129922,0.461395255438,0.0728325872223,1.17781801266,-0.0557458164086,1.31952121899,-0.657046648608,0.342604047513,0.312700270737,1.08636028439,-3.01002765405,0.130973641148,-1.70473923882,0.0459995490727
4.08,0.699929401113,0.461482507254,0.0728151351948,1.17647404841,-0.0571595346673,1.31974812032,-0.657046648608,0.342604047513,0.312700270737,1.08636028439,-3.01002765405,0.130973641148,-1.70473923882,0.0459995490727
4.1,0.699929401113,0.461482507254,0.0728151351948,1.17647404841,-0.0571595346673,1.31974812032,-0.657046648608,0.342972512422,0.312633929634,1.08676216989,-3.00826395364,0.130901706078,-1.70458406535,0.0459772556489
4.12,0.699772341187,0.461622123474,0.0726929626798,1.17547922459,-0.0588699540386,1.32000990905,-0.657046648608,0.343367362902,0.31244113761,1.08702422196,-3.00650779916,0.130274755371,-1.70454851813,0.0459639654176
4.14,0.699772341187,0.461622123474,0.0726929626798,1.17547922459,-0.0588699540386,1.32000990905,-0.657046648608,0.343367362902,0.31244113761,1.08702422196,-3.00650779916,0.130274755371,-1.70454851813,0.0459639654176
4.16,0.699650168672,0.461726852284,0.0725882421923,1.17389104847,-0.0603534845686,1.32020192297,-0.657046648608,0.343810797277,0.312369835303,1.08750058264,-3.00449680203,0.130337543955,-1.70446411308,0.0459369847458
4.18,0.699650168672,0.461726852284,0.0725882421923,1.17389104847,-0.0603534845686,1.32020192297,-0.657046648608,0.343810797277,0.312369835303,1.08750058264,-3.00449680203,0.130337543955,-1.70446411308,0.0459369847458
4.2,0.699545439862,0.461831581093,0.0725358861097,1.17287864778,-0.061941735586,1.32116185938,-0.657046648608,0.344073756776,0.312147000679,1.08776369484,-3.00326216734,0.129298017688,-1.70441570767,0.0459268635537
4.22,0.699545439862,0.461831581093,0.0725358861097,1.17287864778,-0.061941735586,1.32116185938,-0.657046648608,0.344073756776,0.312147000679,1.08776369484,-3.00326216734,0.129298017688,-1.70441570767,0.0459268635537
4.24,0.699370869653,0.462006118013,0.0724835217048,1.17151737299,-0.0636521591185,1.32154588721,-0.657046648608,0.344494759839,0.311998340438,1.0881291097,-3.00139973093,0.128854918227,-1.70434665537,0.045907745816
4.26,0.699370869653,0.462006118013,0.0724835217048,1.17151737299,-0.0636521591185,1.32154588721,-0.657046648608,0.344494759839,0.311998340438,1.0881291097,-3.00139973093,0.128854918227,-1.70434665537,0.045907745816
4.28,0.699248697138,0.462180654933,0.0723788012173,1.1707668942,-0.0653102224073,1.32189489447,-0.657046648608,0.344824564567,0.31178944282,1.08829335754,-2.99992319263,0.127978120086,-1.70430720965,0.0459007903468
4.3,0.699248697138,0.462180654933,0.0723788012173,1.1707668942,-0.0653102224073,1.32189489447,-0.657046648608,0.344824564567,0.31178944282,1.08829335754,-2.99992319263,0.127978120086,-1.70430720965,0.0459007903468
4.32,0.699196366023,0.462302827448,0.0719250152123,1.16930082402,-0.0668461090198,1.32210435209,-0.657046648608,0.345321488362,0.311620392917,1.08872060505,-2.99785456375,0.127779126256,-1.70446337743,0.0458770224658
4.34,0.699196366023,0.462302827448,0.0719250152123,1.16930082402,-0.0668461090198,1.32210435209,-0.657046648608,0.345321488362,0.311620392917,1.08872060505,-2.99785456375,0.127779126256,-1.70446337743,0.0458770224658
4.36,0.699091637213,0.462337714859,0.0713490566923,1.16793941607,-0.068364547766,1.32229636601,-0.657046648608,0.345844968963,0.311385098104,1.08915411835,-2.99575465144,0.127550069325,-1.70477686066,0.0458524318968
4.38,0.699091637213,0.462337714859,0.0713490566923,1.16793941607,-0.068364547766,1.32229636601,-0.657046648608,0.345844968963,0.311385098104,1.08915411835,-2.99575465144,0.127550069325,-1.70477686066,0.0458524318968
4.4,0.698952020993,0.462372635558,0.0710872596348,1.16717149357,-0.069638637321,1.32269783754,-0.657064092313,0.346162632791,0.311158972978,1.08938550994,-2.99445382444,0.126936424311,-1.70493392713,0.0458409313324
4.42,0.698952020993,0.462372635558,0.0710872596348,1.16717149357,-0.069638637321,1.32269783754,-0.657064092313,0.346162632791,0.311158972978,1.08938550994,-2.99445382444,0.126936424311,-1.70493392713,0.0458409313324
4.44,0.698847292183,0.462424999963,0.0708254625772,1.16631621938,-0.0711745280948,1.3230294011,-0.657046648608,0.346520791952,0.310933098734,1.08964205685,-2.99286458233,0.126274815882,-1.70504129226,0.0458276325245
4.46,0.698847292183,0.462424999963,0.0708254625772,1.16631621938,-0.0711745280948,1.3230294011,-0.657046648608,0.346520791952,0.310933098734,1.08964205685,-2.99286458233,0.126274815882,-1.70504129226,0.0458276325245
4.48,0.698620390858,0.462459887374,0.0706509256573,1.16546107836,-0.0726580586247,1.32330863354,-0.657046648608,0.346893597341,0.31070043063,1.08990911286,-2.99129909179,0.125722752856,-1.70518208816,0.0458131846539
4.5,0.698620390858,0.462459887374,0.0706509256573,1.16546107836,-0.0726580586247,1.32330863354,-0.657046648608,0.346893597341,0.31070043063,1.08990911286,-2.99129909179,0.125722752856,-1.70518208816,0.0458131846539
4.52,0.698271317018,0.462529695484,0.0705636655197,1.16404733929,-0.0743684821572,1.32369266136,-0.657046648608,0.347375566606,0.310478574625,1.09034451658,-2.98932199036,0.125383319055,-1.7053275093,0.0457887506779
4.54,0.698271317018,0.462529695484,0.0705636655197,1.16404733929,-0.0743684821572,1.32369266136,-0.657046648608,0.347375566606,0.310478574625,1.09034451658,-2.98932199036,0.125383319055,-1.7053275093,0.0457887506779
4.56,0.698114257093,0.462634424294,0.0705462051698,1.16279072673,-0.0756949277948,1.32414633086,-0.657064092313,0.347708022499,0.310363233391,1.09070753174,-2.98783434375,0.12509770074,-1.70528466741,0.0457690168285
4.58,0.697957197167,0.462721676109,0.0705113011148,1.16209257905,-0.0770737378373,1.32494927393,-0.657046648608,0.347708022499,0.310363233391,1.09070753174,-2.98783434375,0.12509770074,-1.70528466741,0.0457690168285
4.6,0.697957197167,0.462721676109,0.0705113011148,1.16209257905,-0.0770737378373,1.32494927393,-0.657046648608,0.347930031097,0.310128676837,1.09088251248,-2.98686253001,0.124083179241,-1.70535377097,0.0457627827795
4.62,0.697852468357,0.462756596809,0.0703367725172,1.16141187508,-0.0785049122847,1.32531572489,-0.657064092313,0.347930031097,0.310128676837,1.09088251248,-2.98686253001,0.124083179241,-1.70535377097,0.0457627827795
4.64,0.697852468357,0.462756596809,0.0703367725172,1.16141187508,-0.0785049122847,1.32531572489,-0.657064092313,0.348223148604,0.309912489572,1.0910901704,-2.9855012174,0.1233550539,-1.70539255338,0.045752318397
4.66,0.697765183253,0.462843848624,0.0700575151098,1.16053929035,-0.0801455193847,1.32571719643,-0.657064092313,0.348223148604,0.309912489572,1.0910901704,-2.9855012174,0.1233550539,-1.70539255338,0.045752318397
4.68,0.697765183253,0.462843848624,0.0700575151098,1.16053929035,-0.0801455193847,1.32571719643,-0.657064092313,0.348586913823,0.309669116943,1.091337483,-2.98387934248,0.122550862944,-1.70549213089,0.0457398878251
4.7,0.697677898148,0.462948577434,0.0699004385397,1.15921276981,-0.0814719733447,1.32603131628,-0.657046648608,0.348586913823,0.309669116943,1.091337483,-2.98387934248,0.122550862944,-1.70549213089,0.0457398878251
4.72,0.697677898148,0.462948577434,0.0699004385397,1.15921276981,-0.0814719733447,1.32603131628,-0.657046648608,0.348958277514,0.309561808162,1.09172899624,-2.98221861318,0.122390942413,-1.70552354452,0.0457175592145
4.74,0.697538281928,0.463035862538,0.0697957180523,1.15806081948,-0.0830951284172,1.32629310501,-0.657064092313,0.348958277514,0.309561808162,1.09172899624,-2.98221861318,0.122390942413,-1.70552354452,0.0457175592145
4.76,0.697538281928,0.463035862538,0.0697957180523,1.15806081948,-0.0830951284172,1.32629310501,-0.657064092313,0.349346973688,0.309399930963,1.09207563729,-2.98040328779,0.121973406874,-1.70548691533,0.0456977680756
4.78,0.697416109413,0.463105670648,0.0697433578085,1.15741513607,-0.0843168535673,1.32664224543,-0.657046648608,0.349346973688,0.309399930963,1.09207563729,-2.98040328779,0.121973406874,-1.70548691533,0.0456977680756
4.8,0.697416109413,0.463105670648,0.0697433578085,1.15741513607,-0.0843168535673,1.32664224543,-0.657046648608,0.349589489927,0.309235916497,1.09225652902,-2.97928709223,0.121377189265,-1.70551609843,0.045688674941
4.82,0.697328824308,0.463158035053,0.0697259016198,1.156612193,-0.0856433075272,1.32711349179,-0.657046648608,0.349589489927,0.309235916497,1.09225652902,-2.97928709223,0.121377189265,-1.70551609843,0.045688674941
4.84,0.697328824308,0.463158035053,0.0697259016198,1.156612193,-0.0856433075272,1.32711349179,-0.657046648608,0.349830250965,0.309084522565,1.09249523102,-2.97806380679,0.120763186591,-1.70545745534,0.0456763624548
4.86,0.697224162077,0.463227843163,0.069516464806,1.15580938309,-0.0868824930272,1.32742761164,-0.657046648608,0.349830250965,0.309084522565,1.09249523102,-2.97806380679,0.120763186591,-1.70545745534,0.0456763624548
4.88,0.697224162077,0.463227843163,0.069516464806,1.15580938309,-0.0868824930272,1.32742761164,-0.657046648608,0.350134400047,0.308902167336,1.09272942226,-2.97675882393,0.120255396708,-1.70557586706,0.0456638213897
4.9,0.697206651793,0.463315094979,0.0687485173386,1.1549192215,-0.0879122375522,1.3277766189,-0.657046648608,0.350134400047,0.308902167336,1.09272942226,-2.97675882393,0.120255396708,-1.70557586706,0.0456638213897
4.92,0.697206651793,0.463315094979,0.0687485173386,1.1549192215,-0.0879122375522,1.3277766189,-0.657046648608,0.350536742876,0.308623850904,1.09297884153,-2.97541113189,0.119738026987,-1.70611797248,0.0456510765589
4.94,0.697119433267,0.463437267494,0.0681376547635,1.153540503,-0.0892386831897,1.32800352022,-0.657064092313,0.350536742876,0.308623850904,1.09297884153,-2.97541113189,0.119738026987,-1.70611797248,0.0456510765589
4.96,0.697119433267,0.463437267494,0.0681376547635,1.153540503,-0.0892386831897,1.32800352022,-0.657064092313,0.351038539868,0.3084028162,1.09338271921,-2.97351970203,0.119529615227,-1.70650329866,0.0456277320754
4.98,0.697014704458,0.463507075604,0.068032934276,1.15282491162,-0.0904429646347,1.32821297784,-0.657046648608,0.351038539868,0.3084028162,1.09338271921,-2.97351970203,0.119529615227,-1.70650329866,0.0456277320754
5.0,0.697014704458,0.463507075604,0.068032934276,1.15282491162,-0.0904429646347,1.32821297784,-0.657046648608,0.35131204065,0.308255401596,1.09359266698,-2.97226869453,0.119090926368,-1.70654998746,0.0456160063673
5.02,0.696909975648,0.463629248119,0.0680154822485,1.15240599638,-0.0915076132147,1.32838754805,-0.657046648608,0.35131204065,0.308255401596,1.09359266698,-2.97226869453,0.119090926368,-1.70654998746,0.0456160063673
5.04,0.696909975648,0.463629248119,0.0680154822485,1.15240599638,-0.0915076132147,1.32838754805,-0.657046648608,0.351514714666,0.308121917969,1.09367979796,-2.9713551666,0.118520015391,-1.70653803568,0.0456120785607
5.06,0.696735405438,0.463699089518,0.0679980260598,1.15132395403,-0.0927293466871,1.32849221028,-0.657046648608,0.351514714666,0.308121917969,1.09367979796,-2.9713551666,0.118520015391,-1.70653803568,0.0456120785607
5.08,0.696735405438,0.463699089518,0.0679980260598,1.15132395403,-0.0927293466871,1.32849221028,-0.657046648608,0.351852344101,0.308026940785,1.09401643863,-2.96982081706,0.118460457384,-1.70653269031,0.0455914473348
5.1,0.696508570692,0.463751420634,0.0679631220048,1.15055589837,-0.0939161677822,1.32863189308,-0.657046648608,0.351852344101,0.308026940785,1.09401643863,-2.96982081706,0.118460457384,-1.70653269031,0.0455914473348
5.12,0.696508570692,0.463751420634,0.0679631220048,1.15055589837,-0.0939161677822,1.32863189308,-0.657046648608,0.352157855123,0.30787109312,1.09425537877,-2.96851629461,0.118158265715,-1.70661794646,0.0455772878767
5.14,0.696316556778,0.463856149444,0.0679631220048,1.14980541957,-0.0950506327947,1.3289984772,-0.657046648608,0.352157855123,0.30787109312,1.09425537877,-2.96851629461,0.118158265715,-1.70661794646,0.0455772878767
5.16,0.696316556778,0.463856149444,0.0679631220048,1.14980541957,-0.0950506327947,1.3289984772,-0.657046648608,0.352411962503,0.307717984515,1.09445620271,-2.9674534412,0.117669710268,-1.70668326484,0.0455666954329
5.18,0.696194384263,0.463943434548,0.0679456658161,1.14870593352,-0.0961676457796,1.32933004076,-0.657046648608,0.352697423744,0.307629625333,1.09478270886,-2.96614447145,0.117498573067,-1.70667622752,0.0455475873371
5.2,0.696194384263,0.463943434548,0.0679456658161,1.14870593352,-0.0961676457796,1.32933004076,-0.657046648608,0.352697423744,0.307629625333,1.09478270886,-2.96614447145,0.117498573067,-1.70667622752,0.0455475873371
5.22,0.696124542863,0.464013242658,0.0679456658161,1.14792056731,-0.0970228533847,1.32957438579,-0.657064092313,0.352898832453,0.30756872745,1.0950130524,-2.9651764283,0.117329651163,-1.70662094835,0.0455341544179
5.24,0.696124542863,0.464013242658,0.0679456658161,1.14792056731,-0.0970228533847,1.32957438579,-0.657064092313,0.352898832453,0.30756872745,1.0950130524,-2.9651764283,0.117329651163,-1.70662094835,0.0455341544179
5.26,0.696089655453,0.464100494474,0.0679456658161,1.14734452557,-0.0981224143421,1.32978384341,-0.657064092313,0.353093982839,0.307471945464,1.09516945756,-2.96414093165,0.116862069395,-1.70652249291,0.0455256277889
5.28,0.696089655453,0.464100494474,0.0679456658161,1.14734452557,-0.0981224143421,1.32978384341,-0.657064092313,0.353093982839,0.307471945464,1.09516945756,-2.96414093165,0.116862069395,-1.70652249291,0.0455256277889
5.3,0.696019880632,0.464187779578,0.0679456658161,1.14673372957,-0.0989078055147,1.33015029438,-0.657046648608,0.353250158098,0.307385932943,1.09532877423,-2.96343043446,0.116498806574,-1.70653911338,0.0455173869387
5.32,0.696019880632,0.464187779578,0.0679456658161,1.14673372957,-0.0989078055147,1.33015029438,-0.657046648608,0.353250158098,0.307385932943,1.09532877423,-2.96343043446,0.116498806574,-1.70653911338,0.0455173869387
5.34,0.695950039233,0.464275031394,0.0678758535448,1.14579123686,-0.0996757529822,1.33027253347,-0.657046648608,0.353495809156,0.307348364462,1.09560672876,-2.96234571145,0.116570719422,-1.70655254359,0.0455002246627
5.36,0.695950039233,0.464275031394,0.0678758535448,1.14579123686,-0.0996757529822,1.33027253347,-0.657046648608,0.353495809156,0.307348364462,1.09560672876,-2.96234571145,0.116570719422,-1.70655254359,0.0455002246627
5.38,0.695897708117,0.464327395798,0.0678584015173,1.14565155406,-0.10026916353,1.33039463941,-0.657046648608,0.353591678671,0.307258852305,1.09563140762,-2.96189854066,0.116168737532,-1.70655856999,0.045499646012
5.4,0.695897708117,0.464327395798,0.0678584015173,1.14565155406,-0.10026916353,1.33039463941,-0.657046648608,0.353591678671,0.307258852305,1.09563140762,-2.96189854066,0.116168737532,-1.70655856999,0.045499646012
5.42,0.695827866718,0.464344839504,0.0678234933011,1.145162864,-0.100862574077,1.33053432221,-0.657064092313,0.353740106865,0.307193926103,1.09578833728,-2.96121050686,0.116042024858,-1.70656494691,0.0454902741825
5.44,0.695827866718,0.464344839504,0.0678234933011,1.145162864,-0.100862574077,1.33053432221,-0.657064092313,0.353740106865,0.307193926103,1.09578833728,-2.96121050686,0.116042024858,-1.70656494691,0.0454902741825
5.46,0.695758025318,0.464362316498,0.0678060412735,1.14493596268,-0.10159561749,1.33070889241,-0.657046648608,0.353860324279,0.307083315441,1.09585844432,-2.96061011737,0.115608421974,-1.70658968216,0.0454869130858
5.48,0.695758025318,0.464362316498,0.0678060412735,1.14493596268,-0.10159561749,1.33070889241,-0.657046648608,0.353860324279,0.307083315441,1.09585844432,-2.96061011737,0.115608421974,-1.70658968216,0.0454869130858
5.5,0.695688250498,0.464397203909,0.0677536810298,1.14427270241,-0.10241592104,1.33095323744,-0.657046648608,0.354051131362,0.30699493633,1.0960647036,-2.95970770667,0.115378743401,-1.70660932958,0.0454748942834
5.52,0.695635852803,0.464432124608,0.0677187769748,1.14336523027,-0.103096600047,1.33138946323,-0.657046648608,0.354051131362,0.30699493633,1.0960647036,-2.95970770667,0.115378743401,-1.70660932958,0.0454748942834
5.54,0.695635852803,0.464432124608,0.0677187769748,1.14336523027,-0.103096600047,1.33138946323,-0.657046648608,0.354226536192,0.306939650973,1.09634448659,-2.95888670965,0.115282289258,-1.7066326694,0.0454586292269
5.56,0.695548634277,0.464467012019,0.067666416731,1.14261475147,-0.103585290107,1.33172115995,-0.657046648608,0.354226536192,0.306939650973,1.09634448659,-2.95888670965,0.115282289258,-1.7066326694,0.0454586292269
5.58,0.695548634277,0.464467012019,0.067666416731,1.14261475147,-0.103585290107,1.33172115995,-0.657046648608,0.354386211362,0.306884120935,1.09657315174,-2.95824394378,0.115260099722,-1.70672224753,0.0454451783999
5.6,0.695478792878,0.464484489013,0.0676315085148,1.14226561105,-0.104213613032,1.33186070959,-0.657046648608,0.354519375698,0.306798751425,1.09668431444,-2.95761875099,0.11500587023,-1.70675019999,0.0454388223931
5.62,0.695478792878,0.464484489013,0.0676315085148,1.14226561105,-0.104213613032,1.33186070959,-0.657046648608,0.354519375698,0.306798751425,1.09668431444,-2.95761875099,0.11500587023,-1.70675019999,0.0454388223931
5.64,0.695443905468,0.464484489013,0.0676140564873,1.14221327994,-0.104754659175,1.33200039239,-0.657046648608,0.354586226537,0.306706441267,1.09670356152,-2.95724355588,0.114593490021,-1.70675071371,0.0454385350726
5.66,0.695443905468,0.464484489013,0.0676140564873,1.14221327994,-0.104754659175,1.33200039239,-0.657046648608,0.354586226537,0.306706441267,1.09670356152,-2.95724355588,0.114593490021,-1.70675071371,0.0454385350726
5.68,0.695391507773,0.464484489013,0.0675966002986,1.14212606141,-0.105313165667,1.33208761091,-0.657046648608,0.354671372361,0.306615894874,1.09673653088,-2.95679974977,0.114238119343,-1.70675769657,0.0454371141545
5.7,0.695391507773,0.464484489013,0.0675966002986,1.14212606141,-0.105313165667,1.33208761091,-0.657046648608,0.354671372361,0.306615894874,1.09673653088,-2.95679974977,0.114238119343,-1.70675769657,0.0454371141545
5.72,0.695356620363,0.464519376424,0.067579148271,1.14168970247,-0.10562732713,1.33213994203,-0.657046648608,0.354777161486,0.306606418076,1.09686801455,-2.95632857695,0.114308835689,-1.70676069843,0.0454287919933
5.74,0.695356620363,0.464519376424,0.067579148271,1.14168970247,-0.10562732713,1.33213994203,-0.657046648608,0.354777161486,0.306606418076,1.09686801455,-2.95632857695,0.114308835689,-1.70676069843,0.0454287919933
5.76,0.695321732953,0.464519376424,0.0675267880273,1.14146280114,-0.105819316077,1.33217496259,-0.657046648608,0.354849047607,0.306577767932,1.09694483692,-2.95603931327,0.114321907185,-1.70681230539,0.0454239684056
5.78,0.695321732953,0.464519376424,0.0675267880273,1.14146280114,-0.105819316077,1.33217496259,-0.657046648608,0.354849047607,0.306577767932,1.09694483692,-2.95603931327,0.114321907185,-1.70681230539,0.0454239684056
5.8,0.695286845542,0.464536820129,0.0674918839723,1.14141047003,-0.10602874873,1.33220985001,-0.657046648608,0.354896276037,0.306533285345,1.09695543564,-2.95586426107,0.114180741107,-1.70685548989,0.0454236319215
5.82,0.695286845542,0.464536820129,0.0674918839723,1.14141047003,-0.10602874873,1.33220985001,-0.657046648608,0.354896276037,0.306533285345,1.09695543564,-2.95586426107,0.114180741107,-1.70685548989,0.0454236319215
5.84,0.695286845542,0.464536820129,0.0674395237285,1.14137558262,-0.106255641732,1.33226218112,-0.657064092313,0.354933449316,0.30648907366,1.09696794898,-2.95567789389,0.1140058767,-1.70686131312,0.0454232456237
5.86,0.695286845542,0.464536820129,0.0674395237285,1.14137558262,-0.106255641732,1.33226218112,-0.657064092313,0.354933449316,0.30648907366,1.09696794898,-2.95567789389,0.1140058767,-1.70686131312,0.0454232456237
5.88,0.695269335258,0.464554297123,0.0674220675398,1.14134056205,-0.10636036222,1.33229706853,-0.657046648608,0.354956818944,0.306466289617,1.09697151078,-2.95560361951,0.11392535506,-1.70690314423,0.0454232845876
5.9,0.695269335258,0.464554297123,0.0674220675398,1.14134056205,-0.10636036222,1.33229706853,-0.657046648608,0.354956818944,0.306466289617,1.09697151078,-2.95560361951,0.11392535506,-1.70690314423,0.0454232845876
5.92,0.695286845542,0.464554297123,0.0674220675398,1.14130567464,-0.106395274597,1.33233195594,-0.657046648608,0.354956818944,0.306466289617,1.09697151078,-2.95560361951,0.11392535506,-1.70690314423,0.0454232845876
5.94,0.695286845542,0.464554297123,0.0674220675398,1.14130567464,-0.106395274597,1.33233195594,-0.657046648608,0.354955966321,0.306468218576,1.09698240927,-2.9555761163,0.113903453913,-1.70688502186,0.0454227231188
5.96,0.695269335258,0.464554297123,0.0674220675398,1.14125334352,-0.106412726625,1.33236684335,-0.657046648608,0.354966218765,0.306461776685,1.09699891815,-2.95555126842,0.113906066678,-1.70690334656,0.0454217698261
5.98,0.695269335258,0.464554297123,0.0674220675398,1.14125334352,-0.106412726625,1.33236684335,-0.657046648608,0.354966218765,0.306461776685,1.09699891815,-2.95555126842,0.113906066678,-1.70690334656,0.0454217698261
6.0,0.695269335258,0.464554297123,0.0673871634848,1.14125334352,-0.106412726625,1.33236684335,-0.657046648608,0.354974860142,0.306451804565,1.09699879413,-2.95553963872,0.113895529125,-1.70693322976,0.0454218238365
6.02,0.695269335258,0.464554297123,0.0673871634848,1.14125334352,-0.106412726625,1.33236684335,-0.657046648608,0.354974860142,0.306451804565,1.09699879413,-2.95553963872,0.113895529125,-1.70693322976,0.0454218238365
6.04,0.695269335258,0.464554297123,0.0674046155123,1.14125334352,-0.106430178652,1.33236684335,-0.657046648608,0.354972518125,0.306454705459,1.09699907552,-2.95553178185,0.113889856346,-1.70691613961,0.0454217949233
6.06,0.695269335258,0.464554297123,0.0674046155123,1.14125334352,-0.106430178652,1.33236684335,-0.657046648608,0.354972518125,0.306454705459,1.09699907552,-2.95553178185,0.113889856346,-1.70691613961,0.0454217949233
6.08,0.695269335258,0.464571740828,0.0673871634848,1.14123589982,-0.106430178652,1.33240186392,-0.657046648608,0.354976257621,0.306448642066,1.09699546011,-2.95554875133,0.113858015241,-1.70693686223,0.045422241256
6.1,0.695269335258,0.464571740828,0.0673871634848,1.14123589982,-0.106430178652,1.33240186392,-0.657046648608,0.354976257621,0.306448642066,1.09699546011,-2.95554875133,0.113858015241,-1.70693686223,0.045422241256
6.12,0.695269335258,0.464554297123,0.0673871634848,1.14125334352,-0.106430178652,1.33240186392,-0.657046648608,0.354972673027,0.306445639934,1.09699780963,-2.95554794351,0.113857336896,-1.7069362442,0.0454220520662
6.14,0.695269335258,0.464554297123,0.0673871634848,1.14125334352,-0.106430178652,1.33240186392,-0.657046648608,0.354972673027,0.306445639934,1.09699780963,-2.95554794351,0.113857336896,-1.7069362442,0.0454220520662
6.16,0.695269335258,0.464571740828,0.0673871634848,1.14123589982,-0.106430178652,1.33240186392,-0.657046648608,0.354976257621,0.306448642066,1.09699546011,-2.95554875133,0.113858015241,-1.70693686223,0.045422241256
6.18,0.695269335258,0.464571740828,0.0673871634848,1.14123589982,-0.106430178652,1.33240186392,-0.657046648608,0.354976257621,0.306448642066,1.09699546011,-2.95554875133,0.113858015241,-1.70693686223,0.045422241256
6.2,0.695286845542,0.464571740828,0.0673871634848,1.14121845611,-0.10644763068,1.33240186392,-0.657046648608,0.35497522247,0.306454746678,1.09700150919,-2.95552405661,0.113860640915,-1.70691647795,0.0454218457117
6.22,0.695286845542,0.464571740828,0.0673871634848,1.14121845611,-0.10644763068,1.33240186392,-0.657046648608,0.35497522247,0.306454746678,1.09700150919,-2.95552405661,0.113860640915,-1.70691647795,0.0454218457117
6.24,0.695269335258,0.464571740828,0.0673871634848,1.14121845611,-0.10644763068,1.33240186392,-0.657046648608,0.354980588525,0.306448530914,1.09700150919,-2.95552405661,0.113860640915,-1.70693398823,0.0454218457117
6.26,0.695269335258,0.464571740828,0.0673871634848,1.14121845611,-0.10644763068,1.33240186392,-0.657046648608,0.354980588525,0.306448530914,1.09700150919,-2.95552405661,0.113860640915,-1.70693398823,0.0454218457117
6.28,0.695269335258,0.464571740828,0.0673871634848,1.14121845611,-0.10644763068,1.33241930762,-0.657046648608,0.354978513585,0.306446498963,1.09700090954,-2.95553500307,0.113847067389,-1.70693655997,0.0454219603221
6.3,0.695269335258,0.464571740828,0.0673871634848,1.14121845611,-0.10644763068,1.33241930762,-0.657046648608,0.354978513585,0.306446498963,1.09700090954,-2.95553500307,0.113847067389,-1.70693655997,0.0454219603221
6.32,0.695286845542,0.464589184534,0.0673871634848,1.14121845611,-0.106430178652,1.33240186392,-0.657046648608,0.354974476079,0.306457859917,1.0969931105,-2.95554955913,0.113858693579,-1.70691997,0.0454224304274
6.34,0.695286845542,0.464589184534,0.0673871634848,1.14121845611,-0.106430178652,1.33240186392,-0.657046648608,0.354974476079,0.306457859917,1.0969931105,-2.95554955913,0.113858693579,-1.70691997,0.0454224304274
6.36,0.695269335258,0.464589184534,0.0673871634848,1.14121845611,-0.10644763068,1.33241930762,-0.657046648608,0.354979745855,0.306447526963,1.09699273038,-2.95554683381,0.113834178543,-1.70693790388,0.0454225431243
6.38,0.695269335258,0.464589184534,0.0673871634848,1.14121845611,-0.10644763068,1.33241930762,-0.657046648608,0.354979745855,0.306447526963,1.09699273038,-2.95554683381,0.113834178543,-1.70693790388,0.0454225431243
6.4,0.695286845542,0.464589184534,0.0673871634848,1.14121845611,-0.10644763068,1.33241930762,-0.657046648608,0.354974379817,0.306453742712,1.09699273038,-2.95554683381,0.113834178543,-1.7069203936,0.0454225431243
6.42,0.695286845542,0.464589184534,0.0673871634848,1.14121845611,-0.10644763068,1.33241930762,-0.657046648608,0.354974379817,0.306453742712,1.09699273038,-2.95554683381,0.113834178543,-1.7069203936,0.0454225431243
6.44,0.695269335258,0.464589184534,0.0673871634848,1.14121845611,-0.106465082707,1.33241930762,-0.657046648608,0.354981724475,0.306445441712,1.0969929499,-2.95553316212,0.113823237068,-1.70693575625,0.0454225412125
6.46,0.695269335258,0.464589184534,0.0673871634848,1.14121845611,-0.106465082707,1.33241930762,-0.657046648608,0.354981724475,0.306445441712,1.0969929499,-2.95553316212,0.113823237068,-1.70693575625,0.0454225412125
6.48,0.695269335258,0.464589184534,0.0673871634848,1.14120101241,-0.106465082707,1.33243675133,-0.657046648608,0.354982001829,0.306445383841,1.09699817986,-2.95553308556,0.113823230708,-1.70693760226,0.0454222621559
6.5,0.695269335258,0.464589184534,0.0673871634848,1.14120101241,-0.106465082707,1.33243675133,-0.657046648608,0.354982001829,0.306445383841,1.09699817986,-2.95553308556,0.113823230708,-1.70693760226,0.0454222621559
6.52,0.695269335258,0.464606661528,0.0673871634848,1.1411835687,-0.106465082707,1.33243675133,-0.657046648608,0.354985588722,0.306448387866,1.09699581456,-2.95553391594,0.113823884443,-1.70693822286,0.0454224523972
6.54,0.695269335258,0.464606661528,0.0673871634848,1.1411835687,-0.106465082707,1.33243675133,-0.657046648608,0.354985588722,0.306448387866,1.09699581456,-2.95553391594,0.113823884443,-1.70693822286,0.0454224523972
6.56,0.695269335258,0.464658992644,0.0673871634848,1.1411835687,-0.106465082707,1.33241930762,-0.657046648608,0.354991359965,0.306453503403,1.09697187606,-2.95555846168,0.113798791411,-1.70693968205,0.0454240861955
6.58,0.695269335258,0.464658992644,0.0673871634848,1.1411835687,-0.106465082707,1.33241930762,-0.657046648608,0.354991359965,0.306453503403,1.09697187606,-2.95555846168,0.113798791411,-1.70693968205,0.0454240861955
6.6,0.695269335258,0.464711357049,0.0673871634848,1.1411835687,-0.106465082707,1.33241930762,-0.657046648608,0.354995057627,0.306456588117,1.09694732211,-2.95559397607,0.113760100118,-1.70694371414,0.0454258356574
6.62,0.695269335258,0.464711357049,0.0673871634848,1.1411835687,-0.106465082707,1.33241930762,-0.657046648608,0.354995057627,0.306456588117,1.09694732211,-2.95559397607,0.113760100118,-1.70694371414,0.0454258356574
6.64,0.695269335258,0.464746277748,0.0673871634848,1.1411835687,-0.106465082707,1.33241930762,-0.657046648608,0.354997522971,0.306458644789,1.09693094747,-2.95561765969,0.113734297644,-1.70694640228,0.0454270023135
6.66,0.695269335258,0.464746277748,0.0673871634848,1.1411835687,-0.106465082707,1.33241930762,-0.657046648608,0.354997522971,0.306458644789,1.09693094747,-2.95561765969,0.113734297644,-1.70694640228,0.0454270023135
6.68,0.695269335258,0.464763721454,0.0673871634848,1.14114868129,-0.106465082707,1.33241930762,-0.657046648608,0.355003460095,0.306463621139,1.09693442622,-2.95560744466,0.113748543136,-1.70694629583,0.045426797748
6.7,0.695269335258,0.464763721454,0.0673871634848,1.14114868129,-0.106465082707,1.33241930762,-0.657046648608,0.355003460095,0.306463621139,1.09693442622,-2.95560744466,0.113748543136,-1.70694629583,0.045426797748
6.72,0.695269335258,0.464868450263,0.0673871634848,1.14107877331,-0.106465082707,1.33243675133,-0.657046648608,0.355018206942,0.306475669267,1.09690807775,-2.95564524337,0.113711958715,-1.7069540237,0.0454288332423
6.74,0.695269335258,0.464868450263,0.0673871634848,1.14107877331,-0.106465082707,1.33243675133,-0.657046648608,0.355018206942,0.306475669267,1.09690807775,-2.95564524337,0.113711958715,-1.7069540237,0.0454288332423
6.76,0.695269335258,0.464955702079,0.0673871634848,1.1408867594,-0.106465082707,1.33243675133,-0.657064092313,0.355050264233,0.306502540195,1.09693132606,-2.9555811245,0.113793606151,-1.70693551047,0.045427412699
6.78,0.695269335258,0.464955702079,0.0673871634848,1.1408867594,-0.106465082707,1.33243675133,-0.657064092313,0.355050264233,0.306502540195,1.09693132606,-2.9555811245,0.113793606151,-1.70693551047,0.045427412699
6.8,0.695251891553,0.465008066484,0.0673697072961,1.14086931569,-0.106465082707,1.33241930762,-0.657046648608,0.355068056019,0.306498448766,1.09691313474,-2.95559080706,0.113780006827,-1.70698588692,0.0454286806122
6.82,0.695251891553,0.465008066484,0.0673697072961,1.14086931569,-0.106465082707,1.33241930762,-0.657046648608,0.355068056019,0.306498448766,1.09691313474,-2.95559080706,0.113780006827,-1.70698588692,0.0454286806122
6.84,0.695251891553,0.465042987183,0.0673871634848,1.14086931569,-0.106482534735,1.33241930762,-0.657064092313,0.355068177722,0.306503406824,1.09689703865,-2.95560468212,0.113745311732,-1.70695423115,0.0454298183716
6.86,0.695251891553,0.465042987183,0.0673871634848,1.14086931569,-0.106482534735,1.33241930762,-0.657064092313,0.355068177722,0.306503406824,1.09689703865,-2.95560468212,0.113745311732,-1.70695423115,0.0454298183716
6.88,0.695251891553,0.465339696618,0.0673871634848,1.14083442828,-0.106482534735,1.33243675133,-0.657046648608,0.355091732978,0.306522778821,1.09676893794,-2.95579676585,0.113542858836,-1.70699542787,0.0454390569253
6.9,0.695251891553,0.465339696618,0.0673871634848,1.14083442828,-0.106482534735,1.33243675133,-0.657046648608,0.355091732978,0.306522778821,1.09676893794,-2.95579676585,0.113542858836,-1.70699542787,0.0454390569253
6.92,0.695129719038,0.467399185668,0.0673697072961,1.14065999123,-0.106482534735,1.33240186392,-0.657046648608,0.35530566461,0.306618707294,1.09586214038,-2.95705528981,0.112178512152,-1.70727755612,0.0455036836344
6.94,0.695129719038,0.467399185668,0.0673697072961,1.14065999123,-0.106482534735,1.33240186392,-0.657046648608,0.35530566461,0.306618707294,1.09586214038,-2.95705528981,0.112178512152,-1.70727755612,0.0455036836344
6.96,0.694763201493,0.473263466389,0.0672998950248,1.14074720976,-0.10653489914,1.33241930762,-0.657046648608,0.355830330357,0.30678615676,1.09307959191,-2.96103035813,0.107708176548,-1.70813906605,0.0457013220263
6.98,0.694763201493,0.473263466389,0.0672998950248,1.14074720976,-0.10653489914,1.33241930762,-0.657046648608,0.355830330357,0.30678615676,1.09307959191,-2.96103035813,0.107708176548,-1.70813906605,0.0457013220263
7.0,0.694536300168,0.480541519463,0.0672300827535,1.14071232235,-0.106849060602,1.33241930762,-0.657046648608,0.35644065644,0.307054300145,1.08967360146,-2.96566469903,0.102134738348,-1.70890000744,0.0459424324255
7.02,0.694536300168,0.480541519463,0.0672300827535,1.14071232235,-0.106849060602,1.33241930762,-0.657046648608,0.35644065644,0.307054300145,1.08967360146,-2.96566469903,0.102134738348,-1.70890000744,0.0459424324255
7.04,0.693716046552,0.489355417538,0.0671777225098,1.14062497066,-0.10833258281,1.33240186392,-0.657046648608,0.357447735169,0.307047447923,1.08557207111,-2.97037863595,0.0947511091252,-1.71015143201,0.046231963177
7.06,0.693716046552,0.489355417538,0.0671777225098,1.14062497066,-0.10833258281,1.33240186392,-0.657046648608,0.357447735169,0.307047447923,1.08557207111,-2.97037863595,0.0947511091252,-1.71015143201,0.046231963177
7.08,0.692756110137,0.502759540068,0.067003189751,1.14086931569,-0.11253882937,1.33248908245,-0.657046648608,0.35901490522,0.306774737581,1.07922056143,-2.9762880108,0.0818885550022,-1.71151178266,0.0466786427212
7.1,0.692529208813,0.514732513118,0.067090458211,1.14067743494,-0.116273837897,1.33245419504,-0.657046648608,0.35901490522,0.306774737581,1.07922056143,-2.9762880108,0.0818885550022,-1.71151178266,0.0466786427212
7.12,0.692529208813,0.514732513118,0.067090458211,1.14067743494,-0.116273837897,1.33245419504,-0.657046648608,0.360177349812,0.306846276518,1.07367543308,-2.98133725177,0.0708998967709,-1.71176123739,0.0470646319153
7.14,0.692005564763,0.532622131293,0.0668984692635,1.14057263955,-0.118891825117,1.33240186392,-0.657046648608,0.360177349812,0.306846276518,1.07367543308,-2.98133725177,0.0708998967709,-1.71176123739,0.0470646319153
7.16,0.692005564763,0.532622131293,0.0668984692635,1.14057263955,-0.118891825117,1.33240186392,-0.657046648608,0.36159235216,0.307045494618,1.06527110431,-2.99117751716,0.05608018906,-1.71283286635,0.0476409660815
7.18,0.691761219733,0.551419321478,0.0660432574973,1.14078209717,-0.119555052097,1.33240186392,-0.657046648608,0.36159235216,0.307045494618,1.06527110431,-2.99117751716,0.05608018906,-1.71283286635,0.0476409660815
7.2,0.691761219733,0.551419321478,0.0660432574973,1.14078209717,-0.119555052097,1.33240186392,-0.657046648608,0.362727166958,0.307273632693,1.05628494296,-3.00310262709,0.0412788356019,-1.71430962354,0.0482476520608
7.22,0.692023075047,0.560721909613,0.0658687247386,1.14024107599,-0.119555052097,1.33226218112,-0.657046648608,0.363143790189,0.307697671327,1.05203378674,-3.00885345513,0.0348484113882,-1.71442197927,0.0485300355466
7.24,0.692023075047,0.560721909613,0.0658687247386,1.14024107599,-0.119555052097,1.33226218112,-0.657046648608,0.363143790189,0.307697671327,1.05203378674,-3.00885345513,0.0348484113882,-1.71442197927,0.0485300355466
7.26,0.691761219733,0.568977309519,0.065606927681,1.13947315349,-0.119589964475,1.33131968841,-0.657046648608,0.363816612811,0.307974195875,1.04836052172,-3.01319994556,0.0299455994649,-1.71498967238,0.0487682273613
7.28,0.691761219733,0.568977309519,0.065606927681,1.13947315349,-0.119589964475,1.33131968841,-0.657046648608,0.363816612811,0.307974195875,1.04836052172,-3.01319994556,0.0299455994649,-1.71498967238,0.0487682273613
7.3,0.691761219733,0.577529452148,0.065275314191,1.13702970319,-0.119659772585,1.32833521694,-0.657046648608,0.364936909894,0.308778014113,1.04509707342,-3.01538109305,0.0276793194347,-1.71516067991,0.0489665149918
7.32,0.691761219733,0.577529452148,0.065275314191,1.13702970319,-0.119659772585,1.32833521694,-0.657046648608,0.364936909894,0.308778014113,1.04509707342,-3.01538109305,0.0276793194347,-1.71516067991,0.0489665149918
7.34,0.692040518753,0.583934820623,0.065397486706,1.13238701446,-0.119642320557,1.3245826898,-0.657046648608,0.366221623756,0.310147657733,1.04355060985,-3.01451863743,0.0295372225727,-1.71461379923,0.049043686625
7.36,0.692040518753,0.583934820623,0.065397486706,1.13238701446,-0.119642320557,1.3245826898,-0.657046648608,0.366221623756,0.310147657733,1.04355060985,-3.01451863743,0.0295372225727,-1.71461379923,0.049043686625
7.38,0.691865948543,0.591404787744,0.0652229539473,1.12423640995,-0.119642320557,1.32039393688,-0.657046648608,0.368370972376,0.311808237316,1.04259225805,-3.01175862142,0.0335505669359,-1.71479752594,0.0490720876697
7.4,0.691865948543,0.591404787744,0.0652229539473,1.12423640995,-0.119642320557,1.32039393688,-0.657046648608,0.368370972376,0.311808237316,1.04259225805,-3.01175862142,0.0335505669359,-1.71479752594,0.0490720876697
7.42,0.691534384987,0.598909708853,0.0640710369073,1.1097501452,-0.120235731105,1.3155768111,-0.657046648608,0.371973807615,0.313969133275,1.04362979492,-3.0037718005,0.0422081226266,-1.71582501593,0.0489477517164
7.44,0.691534384987,0.598909708853,0.0640710369073,1.1097501452,-0.120235731105,1.3155768111,-0.657046648608,0.371973807615,0.313969133275,1.04362979492,-3.0037718005,0.0422081226266,-1.71582501593,0.0489477517164
7.46,0.691586716103,0.603849007148,0.0632681853848,1.0999937877,-0.123377320762,1.3140409661,-0.657046648608,0.374410425692,0.314976471512,1.04439364237,-2.99722262908,0.045062538973,-1.71594924447,0.0488619503557
7.48,0.691586716103,0.603849007148,0.0632681853848,1.0999937877,-0.123377320762,1.3140409661,-0.657046648608,0.374410425692,0.314976471512,1.04439364237,-2.99722262908,0.045062538973,-1.71594924447,0.0488619503557
7.5,0.691464543588,0.608247217688,0.0631983731135,1.09226196527,-0.131248759417,1.31376173366,-0.657046648608,0.376756509061,0.315134532859,1.04482533923,-2.98900812782,0.0430914822931,-1.7149967768,0.0488081718068
7.52,0.691464543588,0.608247217688,0.0631983731135,1.09226196527,-0.131248759417,1.31376173366,-0.657046648608,0.376756509061,0.315134532859,1.04482533923,-2.98900812782,0.0430914822931,-1.7149967768,0.0488081718068
7.54,0.690626779688,0.612942170953,0.0630238403548,1.08454758654,-0.14011503022,1.31343003695,-0.657046648608,0.379473012279,0.314878633155,1.04513045799,-2.98015945005,0.0402529350057,-1.71473064826,0.0487590503254
7.56,0.689893744598,0.617602236808,0.063093652626,1.07936394321,-0.1481784495,1.31320313562,-0.657046648608,0.379473012279,0.314878633155,1.04513045799,-2.98015945005,0.0402529350057,-1.71473064826,0.0487590503254
7.58,0.689893744598,0.617602236808,0.063093652626,1.07936394321,-0.1481784495,1.31320313562,-0.657046648608,0.381587206257,0.314480947893,1.04463433285,-2.97368054935,0.0359818261862,-1.71431556876,0.0487692703667
7.6,0.689282882023,0.623239616203,0.0629365718948,1.07395346514,-0.154531453569,1.31269700186,-0.657046648608,0.381587206257,0.314480947893,1.04463433285,-2.97368054935,0.0359818261862,-1.71431556876,0.0487692703667
7.62,0.689282882023,0.623239616203,0.0629365718948,1.07395346514,-0.154531453569,1.31269700186,-0.657046648608,0.383621037438,0.314347760386,1.04370426053,-2.96876982096,0.0323536037412,-1.71423352283,0.0488003785956
7.64,0.689108378392,0.628562875748,0.062971480111,1.06938068439,-0.156137156614,1.31013144562,-0.657046648608,0.383621037438,0.314347760386,1.04370426053,-2.96876982096,0.0323536037412,-1.71423352283,0.0488003785956
7.66,0.689108378392,0.628562875748,0.062971480111,1.06938068439,-0.156137156614,1.31013144562,-0.657046648608,0.385039303177,0.315122653924,1.04261270838,-2.96665371616,0.0329584052557,-1.7139777053,0.048829092705
7.68,0.688672019448,0.630988882343,0.0630587444098,1.06660560396,-0.156224425074,1.30611712975,-0.657046648608,0.386159488918,0.315858592755,1.04238768733,-2.96402631746,0.0364167528358,-1.71387242369,0.0488051683092
7.7,0.688672019448,0.630988882343,0.0630587444098,1.06660560396,-0.156224425074,1.30611712975,-0.657046648608,0.386159488918,0.315858592755,1.04238768733,-2.96402631746,0.0364167528358,-1.71387242369,0.0488051683092
7.72,0.687467738003,0.633013483983,0.0630063841661,1.06608202649,-0.156259329129,1.30006083512,-0.657046648608,0.387425974126,0.316201868558,1.04168848961,-2.96127748767,0.0400009600268,-1.71431743899,0.0488134601428
7.74,0.687467738003,0.633013483983,0.0630063841661,1.06608202649,-0.156259329129,1.30006083512,-0.657046648608,0.387425974126,0.316201868558,1.04168848961,-2.96127748767,0.0400009600268,-1.71431743899,0.0488134601428
7.76,0.685460580068,0.635282364073,0.0629889321386,1.06594241027,-0.15632913724,1.29117706235,-0.657046648608,0.389226949305,0.316524316749,1.04081654317,-2.95717878834,0.0453004773413,-1.71511700496,0.0488177333135
7.78,0.685460580068,0.635282364073,0.0629889321386,1.06594241027,-0.15632913724,1.29117706235,-0.657046648608,0.389226949305,0.316524316749,1.04081654317,-2.95717878834,0.0453004773413,-1.71511700496,0.0488177333135
7.8,0.683086971168,0.637464025638,0.0630063841661,1.06566311125,-0.156364041295,1.28341035251,-0.657046648608,0.39101664528,0.316595915056,1.04001032691,-2.95365882241,0.0499352748879,-1.71640372988,0.0488206623331
7.82,0.683086971168,0.637464025638,0.0630063841661,1.06566311125,-0.156364041295,1.28341035251,-0.657046648608,0.39101664528,0.316595915056,1.04001032691,-2.95365882241,0.0499352748879,-1.71640372988,0.0488206623331
7.84,0.678950549363,0.642054250093,0.0629889321386,1.06522681888,-0.156364041295,1.27484083275,-0.657046648608,0.39355330672,0.316125287217,1.03806524795,-2.9511806312,0.0535466742442,-1.71943882868,0.0488843771304
7.86,0.678950549363,0.642054250093,0.0629889321386,1.06522681888,-0.156364041295,1.27484083275,-0.657046648608,0.39355330672,0.316125287217,1.03806524795,-2.9511806312,0.0535466742442,-1.71943882868,0.0488843771304
7.88,0.674482497423,0.646784090768,0.0629191198673,1.06533154769,-0.156381501644,1.27086153745,-0.657046648608,0.39556310753,0.314884182811,1.03574864681,-2.9519467121,0.0530388809333,-1.72353230444,0.0490000698112
7.9,0.674482497423,0.646784090768,0.0629191198673,1.06533154769,-0.156381501644,1.27086153745,-0.657046648608,0.39556310753,0.314884182811,1.03574864681,-2.9519467121,0.0530388809333,-1.72353230444,0.0490000698112
7.92,0.672440452078,0.647970928508,0.0630063841661,1.06524426259,-0.156398961994,1.27009361495,-0.657046648608,0.396322108315,0.314222895717,1.0351975132,-2.95224578943,0.0528542523294,-1.72543188065,0.0490276779613
7.94,0.672440452078,0.647970928508,0.0630063841661,1.06524426259,-0.156398961994,1.27009361495,-0.657046648608,0.396322108315,0.314222895717,1.0351975132,-2.95224578943,0.0528542523294,-1.72543188065,0.0490276779613
7.96,0.671236170633,0.648093101023,0.0630238403548,1.06526170629,-0.156398961994,1.26909865797,-0.657046648608,0.396816898118,0.313866069763,1.03515661124,-2.95173194575,0.0535317636136,-1.72647830415,0.0490238830731
7.98,0.671236170633,0.648093101023,0.0630238403548,1.06526170629,-0.156398961994,1.26909865797,-0.657046648608,0.396816898118,0.313866069763,1.03515661124,-2.95173194575,0.0535317636136,-1.72647830415,0.0490238830731
8.0,0.669543199128,0.648197829833,0.0629365718948,1.06522681888,-0.1564164057,1.26854019309,-0.657046648608,0.39744653271,0.313236402075,1.03513028663,-2.95138287344,0.0538690928344,-1.72815587667,0.0490217628121
8.02,0.669543199128,0.648197829833,0.0629365718948,1.06522681888,-0.1564164057,1.26854019309,-0.657046648608,0.39744653271,0.313236402075,1.03513028663,-2.95138287344,0.0538690928344,-1.72815587667,0.0490217628121
8.04,0.668164414053,0.648354889758,0.0629365718948,1.06519186489,-0.1564164057,1.26827840435,-0.657046648608,0.397919388667,0.312725758449,1.03506916845,-2.95130500715,0.0539839240664,-1.72950126949,0.0490235202659
8.06,0.668164414053,0.648354889758,0.0629365718948,1.06519186489,-0.1564164057,1.26827840435,-0.657046648608,0.397919388667,0.312725758449,1.03506916845,-2.95130500715,0.0539839240664,-1.72950126949,0.0490235202659
8.08,0.666837960093,0.649314826173,0.0629889321386,1.06522681888,-0.1564164057,1.26799917191,-0.657029204903,0.398372175529,0.312259010982,1.03457943667,-2.95182981741,0.0534925816264,-1.73079742733,0.0490512921512
8.1,0.666837960093,0.649314826173,0.0629889321386,1.06522681888,-0.1564164057,1.26799917191,-0.657029204903,0.398372175529,0.312259010982,1.03457943667,-2.95182981741,0.0534925816264,-1.73079742733,0.0490512921512
8.12,0.665563837248,0.650536551323,0.0629540280835,1.06520937518,-0.1564164057,1.267807158,-0.657046648608,0.398832451435,0.311787033731,1.03397178991,-2.95251189767,0.0527387643855,-1.73209674653,0.0490864025454
8.14,0.665563837248,0.650536551323,0.0629540280835,1.06520937518,-0.1564164057,1.267807158,-0.657046648608,0.398832451435,0.311787033731,1.03397178991,-2.95251189767,0.0527387643855,-1.73209674653,0.0490864025454
8.16,0.664534126013,0.652264476817,0.062971480111,1.06515697748,-0.1564164057,1.26766760835,-0.657046648608,0.399213741924,0.311434672373,1.03311761696,-2.95357155469,0.0516232776127,-1.73315361014,0.0491362567265
8.18,0.664534126013,0.652264476817,0.062971480111,1.06515697748,-0.1564164057,1.26766760835,-0.657046648608,0.399213741924,0.311434672373,1.03311761696,-2.95357155469,0.0516232776127,-1.73315361014,0.0491362567265
8.2,0.664307224688,0.654969715853,0.0630063841661,1.06522681888,-0.1564164057,1.26744070703,-0.657046648608,0.399350640981,0.311417610195,1.03173108876,-2.9553258192,0.0497698934803,-1.7334126648,0.0492180158469
8.22,0.664307224688,0.654969715853,0.0630063841661,1.06522681888,-0.1564164057,1.26744070703,-0.657046648608,0.399350640981,0.311417610195,1.03173108876,-2.9553258192,0.0497698934803,-1.7334126648,0.0492180158469
8.24,0.664272337277,0.658093870128,0.0630238403548,1.06491263245,-0.1564164057,1.267196362,-0.657046648608,0.3995038058,0.311527640535,1.03025631715,-2.9570996162,0.0479096447851,-1.73350406656,0.0493020506017
8.26,0.664272337277,0.658093870128,0.0630238403548,1.06491263245,-0.1564164057,1.267196362,-0.657046648608,0.3995038058,0.311527640535,1.03025631715,-2.9570996162,0.0479096447851,-1.73350406656,0.0493020506017
8.28,0.664219939583,0.661095785308,0.0629889321386,1.06400509373,-0.1564164057,1.26716134143,-0.657046648608,0.399743461262,0.311662970825,1.02902844312,-2.958516303,0.0464103523552,-1.73368179981,0.0493683993889
8.3,0.664219939583,0.661095785308,0.0629889321386,1.06400509373,-0.1564164057,1.26716134143,-0.657046648608,0.399743461262,0.311662970825,1.02902844312,-2.958516303,0.0464103523552,-1.73368179981,0.0493683993889
8.32,0.664202495878,0.663731249523,0.0629889321386,1.06185831958,-0.1564164057,1.26716134143,-0.657029204903,0.400159654489,0.311972312587,1.02838303316,-2.95892967234,0.0461228411987,-1.73381860647,0.0493912687794
8.34,0.664202495878,0.663731249523,0.0629889321386,1.06185831958,-0.1564164057,1.26716134143,-0.657029204903,0.400159654489,0.311972312587,1.02838303316,-2.95892967234,0.0461228411987,-1.73381860647,0.0493912687794
8.36,0.664237383288,0.665354446207,0.0630238403548,1.05793135539,-0.1564164057,1.26716134143,-0.657046648608,0.400831317577,0.312527754802,1.02882370335,-2.95753227846,0.0479559863477,-1.73382588385,0.0493362360091
8.38,0.664237383288,0.665354446207,0.0630238403548,1.05793135539,-0.1564164057,1.26716134143,-0.657046648608,0.400831317577,0.312527754802,1.02882370335,-2.95753227846,0.0479559863477,-1.73382588385,0.0493362360091
8.4,0.664027992247,0.667361537563,0.0629889321386,1.05231135312,-0.156433866049,1.26716134143,-0.657029204903,0.401886998883,0.313183038814,1.02961656378,-2.95526811318,0.0507732812504,-1.73418424479,0.0492460544882
8.42,0.664027992247,0.667361537563,0.0629889321386,1.05231135312,-0.156433866049,1.26716134143,-0.657029204903,0.401886998883,0.313183038814,1.02961656378,-2.95526811318,0.0507732812504,-1.73418424479,0.0492460544882
8.44,0.664010481963,0.668827607743,0.0630063841661,1.04548713599,-0.1564164057,1.26716134143,-0.657029204903,0.403052222828,0.314076017145,1.03107715963,-2.95191605587,0.0549545761275,-1.73427960889,0.0491042386225
8.46,0.664010481963,0.668827607743,0.0630063841661,1.04548713599,-0.1564164057,1.26716134143,-0.657029204903,0.403052222828,0.314076017145,1.03107715963,-2.95191605587,0.0549545761275,-1.73427960889,0.0491042386225
8.48,0.663661474702,0.669665371643,0.0630063841661,1.0398672003,-0.1564164057,1.26714389773,-0.657029204903,0.404111060521,0.314660726959,1.03247416153,-2.94887611627,0.0586686209016,-1.73467352108,0.0489736317069
8.5,0.663661474702,0.669665371643,0.0630063841661,1.0398672003,-0.1564164057,1.26714389773,-0.657029204903,0.404111060521,0.314660726959,1.03247416153,-2.94887611627,0.0586686209016,-1.73467352108,0.0489736317069
8.52,0.662247735638,0.669804987863,0.0630238403548,1.03470100068,-0.1564164057,1.26710901032,-0.657046648608,0.40540802425,0.314746315421,1.03408655732,-2.94564877517,0.0625656047848,-1.73605890435,0.04883243038
8.54,0.662247735638,0.669804987863,0.0630238403548,1.03470100068,-0.1564164057,1.26710901032,-0.657046648608,0.40540802425,0.314746315421,1.03408655732,-2.94564877517,0.0625656047848,-1.73605890435,0.04883243038
8.56,0.660223133998,0.670188949113,0.0630238403548,1.02981410008,-0.1564164057,1.2669169964,-0.657029204903,0.406875930141,0.314557651949,1.03549174408,-2.94266172397,0.0661895019042,-1.73807732323,0.0487033176496
8.58,0.660223133998,0.670188949113,0.0630238403548,1.02981410008,-0.1564164057,1.2669169964,-0.657029204903,0.406875930141,0.314557651949,1.03549174408,-2.94266172397,0.0661895019042,-1.73807732323,0.0487033176496
8.6,0.657378278743,0.670695149457,0.0630238403548,1.02689940342,-0.1564164057,1.26681233417,-0.657029204903,0.408269454246,0.313776871051,1.03618890631,-2.94107320453,0.0681370439846,-1.74091751411,0.0486338516866
8.62,0.657378278743,0.670695149457,0.0630238403548,1.02689940342,-0.1564164057,1.26681233417,-0.657029204903,0.408269454246,0.313776871051,1.03618890631,-2.94107320453,0.0681370439846,-1.74091751411,0.0486338516866
8.64,0.653939938038,0.670887096793,0.0629889321386,1.02457805906,-0.1564164057,1.26669009508,-0.657029204903,0.409751960919,0.312659614213,1.03685505896,-2.93962437794,0.0698590390294,-1.74436001429,0.0485714701221
8.66,0.653939938038,0.670887096793,0.0629889321386,1.02457805906,-0.1564164057,1.26669009508,-0.657029204903,0.409751960919,0.312659614213,1.03685505896,-2.93962437794,0.0698590390294,-1.74436001429,0.0485714701221
8.68,0.650466776503,0.671777258387,0.0629889321386,1.02298981636,-0.1564164057,1.26655054544,-0.657029204903,0.411134022317,0.311458715833,1.03692170752,-2.93912393193,0.0705318993381,-1.74784410352,0.0485508429631
8.7,0.650466776503,0.671777258387,0.0629889321386,1.02298981636,-0.1564164057,1.26655054544,-0.657029204903,0.411134022317,0.311458715833,1.03692170752,-2.93912393193,0.0705318993381,-1.74784410352,0.0485508429631
8.72,0.646487414623,0.675704222573,0.0630762005985,1.01904540847,-0.1564164057,1.26532882029,-0.657029204903,0.413244789029,0.31053057645,1.03622673739,-2.93854085068,0.0716547830686,-1.75172755868,0.0485430514686
8.74,0.646487414623,0.675704222573,0.0630762005985,1.01904540847,-0.1564164057,1.26532882029,-0.657029204903,0.413244789029,0.31053057645,1.03622673739,-2.93854085068,0.0716547830686,-1.75172755868,0.0485430514686
8.76,0.641862302758,0.684134192687,0.0629365718948,1.0101965897,-0.156433866049,1.26290281369,-0.657029204903,0.416668863289,0.31004553697,1.03484349474,-2.93700006005,0.0740541680036,-1.75641732363,0.0485117055689
8.78,0.641862302758,0.684134192687,0.0629365718948,1.0101965897,-0.156433866049,1.26290281369,-0.657029204903,0.416668863289,0.31004553697,1.03484349474,-2.93700006005,0.0740541680036,-1.75641732363,0.0485117055689
8.8,0.639331567353,0.690591892278,0.0630762005985,0.999288281871,-0.156468770104,1.26253622957,-0.657029204903,0.41941047739,0.310466834036,1.03508837996,-2.9341964497,0.0779962842913,-1.75901661586,0.0483677532493
8.82,0.639331567353,0.690591892278,0.0630762005985,0.999288281871,-0.156468770104,1.26253622957,-0.657029204903,0.41941047739,0.310466834036,1.03508837996,-2.9341964497,0.0779962842913,-1.75901661586,0.0483677532493
8.84,0.637045176978,0.698672721973,0.0630238403548,0.985238376067,-0.156451309755,1.26244901104,-0.657011761198,0.422623617091,0.311276225862,1.0355068141,-2.93060193787,0.0828909780478,-1.761630041,0.0481646110296
8.86,0.637045176978,0.698672721973,0.0630238403548,0.985238376067,-0.156451309755,1.26244901104,-0.657011761198,0.422623617091,0.311276225862,1.0355068141,-2.93060193787,0.0828909780478,-1.761630041,0.0481646110296
8.88,0.634811184298,0.707451765928,0.0630063841661,0.969827128892,-0.15648621381,1.26243156734,-0.657029204903,0.426034634516,0.312240232493,1.03599988615,-2.92662040799,0.0882344996744,-1.76414179995,0.0479216610121
8.9,0.634811184298,0.707451765928,0.0630063841661,0.969827128892,-0.15648621381,1.26243156734,-0.657029204903,0.426034634516,0.312240232493,1.03599988615,-2.92662040799,0.0882344996744,-1.76414179995,0.0479216610121
8.92,0.633554505158,0.714293426768,0.0630762005985,0.957400353192,-0.156468770104,1.26244901104,-0.657029204903,0.428570774719,0.313248522184,1.03651486499,-2.92334207339,0.0927606176056,-1.76556390147,0.0477052079124
8.94,0.633554505158,0.714293426768,0.0630762005985,0.957400353192,-0.156468770104,1.26244901104,-0.657029204903,0.428570774719,0.313248522184,1.03651486499,-2.92334207339,0.0927606176056,-1.76556390147,0.0477052079124
8.96,0.631529903518,0.723456431973,0.0629365718948,0.944467443727,-0.15648621381,1.26241412363,-0.657029204903,0.431534029656,0.313941196663,1.03595862263,-2.92115007434,0.0958878915081,-1.76801769892,0.0475249783453
8.98,0.631529903518,0.723456431973,0.0629365718948,0.944467443727,-0.15648621381,1.26241412363,-0.657029204903,0.431534029656,0.313941196663,1.03595862263,-2.92115007434,0.0958878915081,-1.76801769892,0.0475249783453
9.0,0.630796868428,0.729477839197,0.0631285608423,0.933890766037,-0.15648621381,1.26244901104,-0.657029204903,0.433544947755,0.314950206571,1.03627782491,-2.91855642797,0.0996259081186,-1.76880057527,0.0473253766263
9.02,0.630796868428,0.729477839197,0.0631285608423,0.933890766037,-0.15648621381,1.26244901104,-0.657029204903,0.433544947755,0.314950206571,1.03627782491,-2.91855642797,0.0996259081186,-1.76880057527,0.0473253766263
9.04,0.627620383038,0.739146911588,0.063093652626,0.921760733062,-0.156468770104,1.26272824348,-0.657011761198,0.436672159262,0.315020020834,1.03514196673,-2.91749593792,0.101589717006,-1.77245922489,0.0471649229417
9.06,0.627620383038,0.739146911588,0.063093652626,0.921760733062,-0.156468770104,1.26272824348,-0.657011761198,0.436672159262,0.315020020834,1.03514196673,-2.91749593792,0.101589717006,-1.77245922489,0.0471649229417
9.08,0.621860831128,0.749147680692,0.0629889321386,0.909857601412,-0.15648621381,1.26515425008,-0.657029204903,0.440321255661,0.313645407987,1.03365252752,-2.9180875423,0.10141228902,-1.77911923642,0.04702470587
9.1,0.621860831128,0.749147680692,0.0629889321386,0.909857601412,-0.15648621381,1.26515425008,-0.657029204903,0.440321255661,0.313645407987,1.03365252752,-2.9180875423,0.10141228902,-1.77911923642,0.04702470587
9.12,0.618597060633,0.753388831307,0.0630762005985,0.902492296522,-0.156503674159,1.26737079905,-0.657011761198,0.442308856784,0.312841654252,1.03374871038,-2.91765667511,0.102258121222,-1.7828572731,0.0468826368182
9.14,0.618597060633,0.753388831307,0.0630762005985,0.902492296522,-0.156503674159,1.26737079905,-0.657011761198,0.442308856784,0.312841654252,1.03374871038,-2.91765667511,0.102258121222,-1.7828572731,0.0468826368182
9.16,0.615629966283,0.758851707073,0.0630412923823,0.895004819117,-0.15648621381,1.2717864533,-0.657011761198,0.443989492673,0.311920170216,1.03313830675,-2.91932128401,0.100559286529,-1.78684006993,0.0467804580036
9.18,0.615629966283,0.758851707073,0.0630412923823,0.895004819117,-0.15648621381,1.2717864533,-0.657011761198,0.443989492673,0.311920170216,1.03313830675,-2.91932128401,0.100559286529,-1.78684006993,0.0467804580036
9.2,0.612872396133,0.764646212972,0.063093652626,0.885091401697,-0.156503674159,1.27662102278,-0.657029204903,0.445918289758,0.311313786292,1.03314080862,-2.91993268289,0.100169846425,-1.79057656304,0.0465899284548
9.22,0.612872396133,0.764646212972,0.063093652626,0.885091401697,-0.156503674159,1.27662102278,-0.657029204903,0.445918289758,0.311313786292,1.03314080862,-2.91993268289,0.100169846425,-1.79057656304,0.0465899284548
9.24,0.610411435548,0.768834965893,0.0630587444098,0.877952998132,-0.156503674159,1.27965795853,-0.657029204903,0.447520510631,0.310681218856,1.03314538857,-2.92007913596,0.10019774618,-1.79372982136,0.0464444445711
