GitHatake/ROS1EARs/catkin_ws/src/torobo_robot/torobo_EARs2021/scripts/arm/2021_kaiya_csv/test_manipulability_joint_1.csv
time,joint_1,joint_2,joint_3,joint_4,joint_5,joint_6,joint_7,x,y,z,roll,pitch,yaw,manipulability
0.0,0.465758578568,0.853431076868,0.0593062880161,0.742847041028,-0.0960280129147,1.33852793338,-0.656313613518,0.499109415267,0.256414188899,1.02871654244,-2.97305736863,0.132198388342,-1.96161252217,0.0429584146481
0.02,0.465758578568,0.853431076868,0.0593062880161,0.742847041028,-0.0960280129147,1.33852793338,-0.656313613518,0.499109415267,0.256414188899,1.02871654244,-2.97305736863,0.132198388342,-1.96161252217,0.0429584146481
0.04,0.465758578568,0.853431076868,0.0593062880161,0.742847041028,-0.0960280129147,1.33854537708,-0.656313613518,0.49910689398,0.256412752188,1.02871593192,-2.97306832101,0.13218476441,-1.9616148606,0.0429584854938
0.06,0.465758578568,0.853431076868,0.0593062880161,0.742847041028,-0.0960280129147,1.33854537708,-0.656313613518,0.49910689398,0.256412752188,1.02871593192,-2.97306832101,0.13218476441,-1.9616148606,0.0429584854938
0.08,0.465758578568,0.853431076868,0.0593062880161,0.742847041028,-0.0960280129147,1.33854537708,-0.656313613518,0.49910689398,0.256412752188,1.02871593192,-2.97306832101,0.13218476441,-1.9616148606,0.0429584854938
0.1,0.465758578568,0.853431076868,0.0593062880161,0.742847041028,-0.0960280129147,1.33854537708,-0.656313613518,0.49910689398,0.256412752188,1.02871593192,-2.97306832101,0.13218476441,-1.9616148606,0.0429584854938
0.12,0.465758578568,0.853431076868,0.0593062880161,0.742864484733,-0.0960454649422,1.33854537708,-0.656313613518,0.499105527196,0.256409000963,1.02871024272,-2.97306555883,0.132160271573,-1.9616132883,0.0429593259202
0.14,0.465758578568,0.853431076868,0.0593062880161,0.742864484733,-0.0960454649422,1.33854537708,-0.656313613518,0.499105527196,0.256409000963,1.02871024272,-2.97306555883,0.132160271573,-1.9616132883,0.0429593259202
0.16,0.465758578568,0.853431076868,0.0593062880161,0.742847041028,-0.0960280129147,1.33854537708,-0.656313613518,0.49910689398,0.256412752188,1.02871593192,-2.97306832101,0.13218476441,-1.9616148606,0.0429584854938
0.18,0.465758578568,0.853431076868,0.0593062880161,0.742847041028,-0.0960280129147,1.33854537708,-0.656313613518,0.49910689398,0.256412752188,1.02871593192,-2.97306832101,0.13218476441,-1.9616148606,0.0429584854938
0.2,0.465758578568,0.853431076868,0.0593062880161,0.742847041028,-0.0960454649422,1.33854537708,-0.656313613518,0.499108294368,0.256410231708,1.02871608005,-2.97305457053,0.13217387415,-1.96161261933,0.0429584831969
0.22,0.465758578568,0.853431076868,0.0593062880161,0.742847041028,-0.0960454649422,1.33854537708,-0.656313613518,0.499108294368,0.256410231708,1.02871608005,-2.97305457053,0.13217387415,-1.96161261933,0.0429584831969
0.24,0.465758578568,0.853431076868,0.0593062880161,0.742847041028,-0.0960280129147,1.33852793338,-0.656313613518,0.499109415267,0.256414188899,1.02871654244,-2.97305736863,0.132198388342,-1.96161252217,0.0429584146481
0.26,0.465758578568,0.853431076868,0.0593062880161,0.742847041028,-0.0960280129147,1.33852793338,-0.656313613518,0.499109415267,0.256414188899,1.02871654244,-2.97305736863,0.132198388342,-1.96161252217,0.0429584146481
0.28,0.465758578568,0.853431076868,0.0593062880161,0.742847041028,-0.0960280129147,1.33854537708,-0.656313613518,0.49910689398,0.256412752188,1.02871593192,-2.97306832101,0.13218476441,-1.9616148606,0.0429584854938
0.3,0.465758578568,0.853431076868,0.0593062880161,0.742864484733,-0.0960454649422,1.33854537708,-0.656313613518,0.49910689398,0.256412752188,1.02871593192,-2.97306832101,0.13218476441,-1.9616148606,0.0429584854938
0.32,0.465758578568,0.853431076868,0.0593062880161,0.742864484733,-0.0960454649422,1.33854537708,-0.656313613518,0.499105527196,0.256409000963,1.02871024272,-2.97306555883,0.132160271573,-1.9616132883,0.0429593259202
0.34,0.465758578568,0.853431076868,0.0593062880161,0.742864484733,-0.0960454649422,1.33854537708,-0.656313613518,0.499105527196,0.256409000963,1.02871024272,-2.97306555883,0.132160271573,-1.9616132883,0.0429593259202
0.36,0.465758578568,0.853431076868,0.0593062880161,0.742847041028,-0.0960454649422,1.33854537708,-0.656313613518,0.499108294368,0.256410231708,1.02871608005,-2.97305457053,0.13217387415,-1.96161261933,0.0429584831969
0.38,0.465758578568,0.853431076868,0.0593062880161,0.742847041028,-0.0960454649422,1.33854537708,-0.656313613518,0.499108294368,0.256410231708,1.02871608005,-2.97305457053,0.13217387415,-1.96161261933,0.0429584831969
0.4,0.465758578568,0.853431076868,0.0593062880161,0.742847041028,-0.0960280129147,1.33854537708,-0.656313613518,0.49910689398,0.256412752188,1.02871593192,-2.97306832101,0.13218476441,-1.9616148606,0.0429584854938
0.42,0.465758578568,0.853431076868,0.0593062880161,0.742847041028,-0.0960280129147,1.33854537708,-0.656313613518,0.49910689398,0.256412752188,1.02871593192,-2.97306832101,0.13218476441,-1.9616148606,0.0429584854938
0.44,0.465758578568,0.853431076868,0.0593062880161,0.742847041028,-0.0960280129147,1.33854537708,-0.656313613518,0.49910689398,0.256412752188,1.02871593192,-2.97306832101,0.13218476441,-1.9616148606,0.0429584854938
0.46,0.465758578568,0.853431076868,0.0593062880161,0.742864484733,-0.0960454649422,1.33854537708,-0.656313613518,0.49910689398,0.256412752188,1.02871593192,-2.97306832101,0.13218476441,-1.9616148606,0.0429584854938
0.48,0.465758578568,0.853431076868,0.0593062880161,0.742864484733,-0.0960454649422,1.33854537708,-0.656313613518,0.499105527196,0.256409000963,1.02871024272,-2.97306555883,0.132160271573,-1.9616132883,0.0429593259202
0.5,0.465758578568,0.853431076868,0.0593062880161,0.742847041028,-0.0960280129147,1.33854537708,-0.656313613518,0.499105527196,0.256409000963,1.02871024272,-2.97306555883,0.132160271573,-1.9616132883,0.0429593259202
0.52,0.465758578568,0.853431076868,0.0593062880161,0.742847041028,-0.0960280129147,1.33854537708,-0.656313613518,0.49910689398,0.256412752188,1.02871593192,-2.97306832101,0.13218476441,-1.9616148606,0.0429584854938
0.54,0.465758578568,0.853431076868,0.0593062880161,0.742847041028,-0.0960280129147,1.33854537708,-0.656313613518,0.49910689398,0.256412752188,1.02871593192,-2.97306832101,0.13218476441,-1.9616148606,0.0429584854938
0.56,0.465758578568,0.853431076868,0.0593062880161,0.742847041028,-0.0960280129147,1.33854537708,-0.656313613518,0.49910689398,0.256412752188,1.02871593192,-2.97306832101,0.13218476441,-1.9616148606,0.0429584854938
0.58,0.465758578568,0.853431076868,0.0593062880161,0.742864484733,-0.0960454649422,1.33854537708,-0.656313613518,0.49910689398,0.256412752188,1.02871593192,-2.97306832101,0.13218476441,-1.9616148606,0.0429584854938
0.6,0.465758578568,0.853431076868,0.0593062880161,0.742864484733,-0.0960454649422,1.33854537708,-0.656313613518,0.499105527196,0.256409000963,1.02871024272,-2.97306555883,0.132160271573,-1.9616132883,0.0429593259202
0.62,0.465758578568,0.853431076868,0.0593062880161,0.742847041028,-0.0960280129147,1.33852793338,-0.656313613518,0.499105527196,0.256409000963,1.02871024272,-2.97306555883,0.132160271573,-1.9616132883,0.0429593259202
0.64,0.465758578568,0.853431076868,0.0593062880161,0.742847041028,-0.0960280129147,1.33852793338,-0.656313613518,0.499109415267,0.256414188899,1.02871654244,-2.97305736863,0.132198388342,-1.96161252217,0.0429584146481
0.66,0.465758578568,0.853431076868,0.0593062880161,0.742847041028,-0.0960454649422,1.33854537708,-0.656313613518,0.499108294368,0.256410231708,1.02871608005,-2.97305457053,0.13217387415,-1.96161261933,0.0429584831969
0.68,0.465758578568,0.853431076868,0.0593062880161,0.742847041028,-0.0960454649422,1.33854537708,-0.656313613518,0.499108294368,0.256410231708,1.02871608005,-2.97305457053,0.13217387415,-1.96161261933,0.0429584831969
0.7,0.465758578568,0.853431076868,0.0592888359885,0.742847041028,-0.0960280129147,1.33854537708,-0.656313613518,0.499109695702,0.256407304585,1.02871586685,-2.9730582967,0.132176150318,-1.96162501242,0.0429584929202
0.72,0.465758578568,0.853431076868,0.0592888359885,0.742847041028,-0.0960280129147,1.33854537708,-0.656313613518,0.499109695702,0.256407304585,1.02871586685,-2.9730582967,0.132176150318,-1.96162501242,0.0429584929202
0.74,0.465758578568,0.853431076868,0.0593062880161,0.742864484733,-0.0960280129147,1.33854537708,-0.656313613518,0.499104126804,0.256411521441,1.02871009459,-2.97307930929,0.13217116181,-1.96161552968,0.0429593282172
0.76,0.465758578568,0.853431076868,0.0593062880161,0.742864484733,-0.0960280129147,1.33854537708,-0.656313613518,0.499104126804,0.256411521441,1.02871009459,-2.97307930929,0.13217116181,-1.96161552968,0.0429593282172
0.78,0.465758578568,0.853431076868,0.0593062880161,0.742864484733,-0.0960280129147,1.33854537708,-0.656313613518,0.499104126804,0.256411521441,1.02871009459,-2.97307930929,0.13217116181,-1.96161552968,0.0429593282172
0.8,0.465758578568,0.853431076868,0.0593062880161,0.742864484733,-0.0960280129147,1.33854537708,-0.656313613518,0.499104126804,0.256411521441,1.02871009459,-2.97307930929,0.13217116181,-1.96161552968,0.0429593282172
0.82,0.465758578568,0.853431076868,0.0593062880161,0.742847041028,-0.0960280129147,1.33854537708,-0.656313613518,0.49910689398,0.256412752188,1.02871593192,-2.97306832101,0.13218476441,-1.9616148606,0.0429584854938
0.84,0.465758578568,0.853431076868,0.0593062880161,0.742847041028,-0.0960280129147,1.33854537708,-0.656313613518,0.49910689398,0.256412752188,1.02871593192,-2.97306832101,0.13218476441,-1.9616148606,0.0429584854938
0.86,0.465758578568,0.853431076868,0.0593062880161,0.742864484733,-0.0960280129147,1.33852793338,-0.656313613518,0.499106648099,0.256412958159,1.02871070507,-2.97306835696,0.132184785767,-1.96161319141,0.0429592573718
0.88,0.465758578568,0.853431076868,0.0593062880161,0.742864484733,-0.0960280129147,1.33852793338,-0.656313613518,0.499106648099,0.256412958159,1.02871070507,-2.97306835696,0.132184785767,-1.96161319141,0.0429592573718
0.9,0.465758578568,0.853431076868,0.0592888359885,0.742864484733,-0.0960280129147,1.33852793338,-0.656313613518,0.499109449855,0.256407510498,1.02871064,-2.97305833268,0.132176171658,-1.96162334324,0.0429592647984
0.92,0.465758578568,0.853431076868,0.0592888359885,0.742864484733,-0.0960280129147,1.33852793338,-0.656313613518,0.499109449855,0.256407510498,1.02871064,-2.97305833268,0.132176171658,-1.96162334324,0.0429592647984
0.94,0.465758578568,0.853431076868,0.0593062880161,0.742847041028,-0.0960280129147,1.33854537708,-0.656313613518,0.49910689398,0.256412752188,1.02871593192,-2.97306832101,0.13218476441,-1.9616148606,0.0429584854938
0.96,0.465758578568,0.853431076868,0.0593062880161,0.742847041028,-0.0960280129147,1.33854537708,-0.656313613518,0.49910689398,0.256412752188,1.02871593192,-2.97306832101,0.13218476441,-1.9616148606,0.0429584854938
0.98,0.465776022273,0.853431076868,0.0593062880161,0.742847041028,-0.0960280129147,1.33854537708,-0.656313613518,0.499102421115,0.256421458422,1.02871593192,-2.97306832101,0.13218476441,-1.96159741689,0.0429584854938
1.0,0.465776022273,0.853431076868,0.0593062880161,0.742847041028,-0.0960280129147,1.33854537708,-0.656313613518,0.499102421115,0.256421458422,1.02871593192,-2.97306832101,0.13218476441,-1.96159741689,0.0429584854938
1.02,0.465758578568,0.853431076868,0.0593062880161,0.742847041028,-0.0960280129147,1.33854537708,-0.656313613518,0.49910689398,0.256412752188,1.02871593192,-2.97306832101,0.13218476441,-1.9616148606,0.0429584854938
1.04,0.465758578568,0.853431076868,0.0593062880161,0.742847041028,-0.0960280129147,1.33854537708,-0.656313613518,0.49910689398,0.256412752188,1.02871593192,-2.97306832101,0.13218476441,-1.9616148606,0.0429584854938
1.06,0.465758578568,0.853448520573,0.0593062880161,0.742881928438,-0.0960280129147,1.33854537708,-0.656313613518,0.499101728909,0.256410476303,1.0286944698,-2.97310182413,0.132144378628,-1.96161771744,0.0429605722739
1.08,0.465758578568,0.853448520573,0.0593062880161,0.742881928438,-0.0960280129147,1.33854537708,-0.656313613518,0.499101728909,0.256410476303,1.0286944698,-2.97310182413,0.132144378628,-1.96161771744,0.0429605722739
1.1,0.465741101574,0.853431076868,0.0592888359885,0.742864484733,-0.0960280129147,1.33854537708,-0.656313613518,0.499111409678,0.256397350873,1.02871002952,-2.973069285,0.132162547724,-1.96164315864,0.0429593356439
1.12,0.465741101574,0.853431076868,0.0592888359885,0.742864484733,-0.0960280129147,1.33854537708,-0.656313613518,0.499111409678,0.256397350873,1.02871002952,-2.973069285,0.132162547724,-1.96164315864,0.0429593356439
1.14,0.465741101574,0.853431076868,0.0592888359885,0.742864484733,-0.0960280129147,1.33854537708,-0.656313613518,0.499111409678,0.256397350873,1.02871002952,-2.973069285,0.132162547724,-1.96164315864,0.0429593356439
1.16,0.465741101574,0.853431076868,0.0592888359885,0.742864484733,-0.0960280129147,1.33854537708,-0.656313613518,0.499111409678,0.256397350873,1.02871002952,-2.973069285,0.132162547724,-1.96164315864,0.0429593356439
1.18,0.465741101574,0.853431076868,0.0592888359885,0.742864484733,-0.0960454649422,1.33852793338,-0.656313613518,0.499115331325,0.256396267019,1.02871078817,-2.97304458225,0.132165281367,-1.96163857878,0.0429592625013
1.2,0.465741101574,0.853431076868,0.0592888359885,0.742864484733,-0.0960454649422,1.33852793338,-0.656313613518,0.499115331325,0.256396267019,1.02871078817,-2.97304458225,0.132165281367,-1.96163857878,0.0429592625013
1.22,0.465758578568,0.853413633162,0.0593062880161,0.742847041028,-0.0960280129147,1.33852793338,-0.656313613518,0.499109045554,0.256414003066,1.02872633012,-2.97304584189,0.132211568856,-1.96161100271,0.0429580132907
1.24,0.465758578568,0.853413633162,0.0593062880161,0.742847041028,-0.0960280129147,1.33852793338,-0.656313613518,0.499109045554,0.256414003066,1.02872633012,-2.97304584189,0.132211568856,-1.96161100271,0.0429580132907
1.26,0.465741101574,0.853448520573,0.0592888359885,0.742864484733,-0.0960280129147,1.33854537708,-0.656313613518,0.499111779141,0.256397536572,1.02870024195,-2.97308081147,0.132149367042,-1.9616446775,0.042959736992
1.28,0.465741101574,0.853448520573,0.0592888359885,0.742864484733,-0.0960280129147,1.33854537708,-0.656313613518,0.499111779141,0.256397536572,1.02870024195,-2.97308081147,0.132149367042,-1.9616446775,0.042959736992
1.3,0.465776022273,0.853431076868,0.0593062880161,0.742864484733,-0.0960280129147,1.33854537708,-0.656313613518,0.499099653961,0.256420227627,1.02871009459,-2.97307930929,0.13217116181,-1.96159808598,0.0429593282172
1.32,0.465776022273,0.853431076868,0.0593062880161,0.742864484733,-0.0960280129147,1.33854537708,-0.656313613518,0.499099653961,0.256420227627,1.02871009459,-2.97307930929,0.13217116181,-1.96159808598,0.0429593282172
1.34,0.465741101574,0.853431076868,0.0593062880161,0.742864484733,-0.0960280129147,1.33854537708,-0.656313613518,0.49910860803,0.256402798561,1.02871009459,-2.97307930929,0.13217116181,-1.96163300668,0.0429593282172
1.36,0.465741101574,0.853431076868,0.0593062880161,0.742864484733,-0.0960280129147,1.33854537708,-0.656313613518,0.49910860803,0.256402798561,1.02871009459,-2.97307930929,0.13217116181,-1.96163300668,0.0429593282172
1.38,0.465723657868,0.853431076868,0.0592888359885,0.742864484733,-0.0960280129147,1.33854537708,-0.656313613518,0.499115882122,0.256388644481,1.02871002952,-2.973069285,0.132162547724,-1.96166060235,0.0429593356439
1.4,0.465723657868,0.853431076868,0.0592888359885,0.742864484733,-0.0960280129147,1.33854537708,-0.656313613518,0.499115882122,0.256388644481,1.02871002952,-2.973069285,0.132162547724,-1.96166060235,0.0429593356439
1.42,0.465810909684,0.853448520573,0.0593411962323,0.742864484733,-0.0960280129147,1.33854537708,-0.656313613518,0.499085472361,0.256448721678,1.02870043741,-2.97311088694,0.132175212005,-1.96154441166,0.0429597147042
1.44,0.465810909684,0.853448520573,0.0593411962323,0.742864484733,-0.0960280129147,1.33854537708,-0.656313613518,0.499085472361,0.256448721678,1.02870043741,-2.97311088694,0.132175212005,-1.96154441166,0.0429597147042
1.46,0.465671293464,0.853413633162,0.0592888359885,0.742829597322,-0.0960280129147,1.33852793338,-0.656313613518,0.499136993113,0.256366219873,1.02873210253,-2.97302482934,0.13221655741,-1.96170776994,0.0429571779783
1.48,0.465671293464,0.853413633162,0.0592888359885,0.742829597322,-0.0960280129147,1.33852793338,-0.656313613518,0.499136993113,0.256366219873,1.02873210253,-2.97302482934,0.13221655741,-1.96170776994,0.0429571779783
1.5,0.465357140323,0.853396189457,0.0592713797998,0.742829597322,-0.0960454649422,1.33854537708,-0.656313613518,0.499218814284,0.256199809208,1.02874136279,-2.97300047827,0.132196607984,-1.96203065621,0.0429568525891
1.52,0.465357140323,0.853396189457,0.0592713797998,0.742829597322,-0.0960454649422,1.33854537708,-0.656313613518,0.499218814284,0.256199809208,1.02874136279,-2.97300047827,0.132196607984,-1.96203065621,0.0429568525891
1.54,0.465287332213,0.853483474562,0.0593062880161,0.742864484733,-0.0960280129147,1.33852793338,-0.656313613518,0.499228535971,0.256178284596,1.02868130481,-2.97310298084,0.132145193791,-1.96208900052,0.0429604629174
1.56,0.465287332213,0.853483474562,0.0593062880161,0.742864484733,-0.0960280129147,1.33852793338,-0.656313613518,0.499228535971,0.256178284596,1.02868130481,-2.97310298084,0.132145193791,-1.96208900052,0.0429604629174
1.58,0.464938258374,0.853448520573,0.0593062880161,0.742847041028,-0.0960280129147,1.33854537708,-0.656313613518,0.499317436288,0.256003423944,1.02870614429,-2.97307984765,0.132171583852,-1.96243669993,0.0429588868396
1.6,0.464938258374,0.853448520573,0.0593062880161,0.742847041028,-0.0960280129147,1.33854537708,-0.656313613518,0.499317436288,0.256003423944,1.02870614429,-2.97307984765,0.132171583852,-1.96243669993,0.0429588868396
1.62,0.463559440009,0.853448520573,0.0593586482598,0.742847041028,-0.0960280129147,1.33854537708,-0.656313613518,0.499661573519,0.25533107512,1.02870633999,-2.97310992293,0.132197429138,-1.96378506119,0.0429588645462
1.64,0.463559440009,0.853448520573,0.0593586482598,0.742847041028,-0.0960280129147,1.33854537708,-0.656313613518,0.499661573519,0.25533107512,1.02870633999,-2.97310992293,0.132197429138,-1.96378506119,0.0429588645462
1.66,0.460574935244,0.853500918267,0.0593761002873,0.742864484733,-0.0960105608872,1.33854537708,-0.656313613518,0.500415560827,0.253846022737,1.02867102008,-2.97317931125,0.132163740414,-1.96676688862,0.0429609076461
1.68,0.460574935244,0.853500918267,0.0593761002873,0.742864484733,-0.0960105608872,1.33854537708,-0.656313613518,0.500415560827,0.253846022737,1.02867102008,-2.97317931125,0.132163740414,-1.96676688862,0.0429609076461
1.7,0.455426212619,0.853466030857,0.059393556476,0.742847041028,-0.0960105608872,1.33854537708,-0.656313613518,0.501715196759,0.251272484604,1.02869649799,-2.97315529554,0.132212320284,-1.97190175102,0.0429592548367
1.72,0.455426212619,0.853466030857,0.059393556476,0.742847041028,-0.0960105608872,1.33854537708,-0.656313613518,0.501715196759,0.251272484604,1.02869649799,-2.97315529554,0.132212320284,-1.97190175102,0.0429592548367
1.74,0.448113272134,0.853535805677,0.0594284605311,0.742864484733,-0.0959931088597,1.33854537708,-0.656313613518,0.50353123819,0.247609855731,1.02865149392,-2.97324619263,0.132174118019,-1.97920337819,0.0429616902249
1.76,0.448113272134,0.853535805677,0.0594284605311,0.742864484733,-0.0959931088597,1.33854537708,-0.656313613518,0.50353123819,0.247609855731,1.02865149392,-2.97324619263,0.132174118019,-1.97920337819,0.0429616902249
1.78,0.438583782674,0.853500918267,0.0594633687473,0.742847041028,-0.0959931088597,1.33854537708,-0.656313613518,0.505864680633,0.242812138589,1.02867703789,-2.97323220071,0.132231313306,-1.98870885784,0.0429600300025
1.8,0.438583782674,0.853500918267,0.0594633687473,0.742847041028,-0.0959931088597,1.33854537708,-0.656313613518,0.505864680633,0.242812138589,1.02867703789,-2.97323220071,0.132231313306,-1.98870885784,0.0429600300025
1.82,0.425738158314,0.853518361972,0.059515728991,0.742864484733,-0.0959931088597,1.33852793338,-0.656313613518,0.508934322971,0.236311189631,1.02866222157,-2.97327383955,0.132244004606,-2.00152388046,0.0429611808474
1.84,0.425738158314,0.853518361972,0.059515728991,0.742864484733,-0.0959931088597,1.33852793338,-0.656313613518,0.508934322971,0.236311189631,1.02866222157,-2.97327383955,0.132244004606,-2.00152388046,0.0429611808474
1.86,0.409908029189,0.853500918267,0.0595680892348,0.742829597322,-0.0959756568322,1.33854537708,-0.656313613518,0.512605184005,0.228245492254,1.02868312457,-2.97329511262,0.132307504584,-2.01732528237,0.0429591448313
1.88,0.390883937679,0.853500918267,0.0595855412623,0.742847041028,-0.0959756568322,1.33852793338,-0.656313613518,0.512605184005,0.228245492254,1.02868312457,-2.97329511262,0.132307504584,-2.01732528237,0.0429591448313
1.9,0.390883937679,0.853500918267,0.0595855412623,0.742847041028,-0.0959756568322,1.33852793338,-0.656313613518,0.516851710034,0.218458796951,1.02867796426,-2.97330517215,0.132316142398,-2.03633755591,0.0429599092754
1.92,0.368578631969,0.853535805677,0.0596553535336,0.742864484733,-0.0959407527771,1.33852793338,-0.656313613518,0.516851710034,0.218458796951,1.02867796426,-2.97330517215,0.132316142398,-2.03633755591,0.0429599092754
1.94,0.368578631969,0.853535805677,0.0596553535336,0.742864484733,-0.0959407527771,1.33852793338,-0.656313613518,0.521582078423,0.20690427958,1.02865252432,-2.97340681811,0.132332429472,-2.05861046031,0.0429615293369
1.96,0.368578631969,0.853535805677,0.0596553535336,0.742864484733,-0.0959407527771,1.33852793338,-0.656313613518,0.521582078423,0.20690427958,1.02865252432,-2.97340681811,0.132332429472,-2.05861046031,0.0429615293369
1.98,0.343637862044,0.853500918267,0.0594982728023,0.742864484733,-0.0959931088597,1.33854537708,-0.656313613518,0.526598543774,0.193771471977,1.02867133278,-2.97326323702,0.132234941696,-2.08363514497,0.0429608578357
2.0,0.343637862044,0.853500918267,0.0594982728023,0.742864484733,-0.0959931088597,1.33854537708,-0.656313613518,0.526598543774,0.193771471977,1.02867133278,-2.97326323702,0.132234941696,-2.08363514497,0.0429608578357
2.02,0.316969233204,0.853535805677,0.0595331810186,0.742864484733,-0.0959931088597,1.33852793338,-0.656313613518,0.531577861264,0.179673483921,1.02865250012,-2.97329539202,0.132239441394,-2.11028417568,0.0429615746904
2.04,0.288747282369,0.853500918267,0.0594982728023,0.742829597322,-0.0959931088597,1.33852793338,-0.656313613518,0.531577861264,0.179673483921,1.02865250012,-2.97329539202,0.132239441394,-2.11028417568,0.0429615746904
2.06,0.288747282369,0.853500918267,0.0594982728023,0.742829597322,-0.0959931088597,1.33852793338,-0.656313613518,0.53644493387,0.164591262903,1.02868361742,-2.97323030875,0.132275771528,-2.13852205406,0.0429591015153
2.08,0.258081831299,0.853518361972,0.0594982728023,0.742847041028,-0.0959931088597,1.33852793338,-0.656313613518,0.53644493387,0.164591262903,1.02868361742,-2.97323030875,0.132275771528,-2.13852205406,0.0429591015153
2.1,0.258081831299,0.853518361972,0.0594982728023,0.742847041028,-0.0959931088597,1.33852793338,-0.656313613518,0.541236636964,0.148065604895,1.02866799253,-2.97325282497,0.132248989432,-2.16918969283,0.0429603455682
2.12,0.228079623854,0.853500918267,0.0594982728023,0.742847041028,-0.0959931088597,1.33854537708,-0.656313613518,0.545431500594,0.131762216387,1.02867716987,-2.97325224902,0.13224854445,-2.19919271598,0.0429600151056
2.14,0.228079623854,0.853500918267,0.0594982728023,0.742847041028,-0.0959931088597,1.33854537708,-0.656313613518,0.545431500594,0.131762216387,1.02867716987,-2.97325224902,0.13224854445,-2.19919271598,0.0429600151056
2.16,0.196593885879,0.853500918267,0.0594808207748,0.742829597322,-0.0959931088597,1.33852793338,-0.656313613518,0.54931617167,0.114521603063,1.02868355139,-2.97322028462,0.132267155876,-2.23068560058,0.0429591089645
2.18,0.196593885879,0.853500918267,0.0594808207748,0.742829597322,-0.0959931088597,1.33852793338,-0.656313613518,0.54931617167,0.114521603063,1.02868355139,-2.97322028462,0.132267155876,-2.23068560058,0.0429591089645
2.2,0.165282684824,0.853518361972,0.0594982728023,0.742847041028,-0.0959931088597,1.33852793338,-0.656313613518,0.552628479115,0.0972742752003,1.02866799253,-2.97325282497,0.132248989432,-2.26198883931,0.0429603455682
2.22,0.165282684824,0.853518361972,0.0594982728023,0.742847041028,-0.0959931088597,1.33852793338,-0.656313613518,0.552628479115,0.0972742752003,1.02866799253,-2.97325282497,0.132248989432,-2.26198883931,0.0429603455682
2.24,0.13419836845,0.853500918267,0.0594808207748,0.742847041028,-0.0960105608872,1.33852793338,-0.656313613518,0.555385705054,0.0800430147461,1.02867786183,-2.97321752186,0.132242663256,-2.29307954225,0.0429599494163
2.26,0.13419836845,0.853500918267,0.0594808207748,0.742847041028,-0.0960105608872,1.33852793338,-0.656313613518,0.555385705054,0.0800430147461,1.02867786183,-2.97321752186,0.132242663256,-2.29307954225,0.0429599494163
2.28,0.103096600047,0.853518361972,0.0594982728023,0.742864484733,-0.0959931088597,1.33852793338,-0.656313613518,0.55760247003,0.0627424257441,1.02866215544,-2.97326381299,0.132235386696,-2.32417559126,0.042961188301
2.3,0.103096600047,0.853518361972,0.0594982728023,0.742864484733,-0.0959931088597,1.33852793338,-0.656313613518,0.55760247003,0.0627424257441,1.02866215544,-2.97326381299,0.132235386696,-2.32417559126,0.042961188301
2.32,0.0710523555797,0.853500918267,0.0594982728023,0.742847041028,-0.0959931088597,1.33854537708,-0.656313613518,0.559326138048,0.0448450086866,1.02867716987,-2.97325224902,0.13224854445,-2.35621998425,0.0429600151056
2.34,0.0710523555797,0.853500918267,0.0594982728023,0.742847041028,-0.0959931088597,1.33854537708,-0.656313613518,0.559326138048,0.0448450086866,1.02867716987,-2.97325224902,0.13224854445,-2.35621998425,0.0429600151056
2.36,0.0401774801799,0.853518361972,0.0594808207748,0.742847041028,-0.0960105608872,1.33854537708,-0.656313613518,0.560444883701,0.0275482791327,1.02866746384,-2.973240002,0.13221585946,-2.38710428658,0.042960421563
2.38,0.0401774801799,0.853518361972,0.0594808207748,0.742847041028,-0.0960105608872,1.33854537708,-0.656313613518,0.560444883701,0.0275482791327,1.02866746384,-2.973240002,0.13221585946,-2.38710428658,0.042960421563
2.4,0.00905825870966,0.853518361972,0.0594633687473,0.742847041028,-0.0960105608872,1.33852793338,-0.656313613518,0.561033688637,0.0100912006104,1.02866800822,-2.97321902555,0.132220868107,-2.41823132221,0.0429603581681
2.42,0.00905825870966,0.853518361972,0.0594633687473,0.742847041028,-0.0960105608872,1.33852793338,-0.656313613518,0.561033688637,0.0100912006104,1.02866800822,-2.97321902555,0.132220868107,-2.41823132221,0.0429603581681
2.44,-0.0242251702174,0.853518361972,0.0594808207748,0.742829597322,-0.0959931088597,1.33852793338,-0.656313613518,0.561061834576,-0.00857527438147,1.02867376364,-2.97323181264,0.132253976392,-2.45150617694,0.0429595102668
2.46,-0.0242251702174,0.853518361972,0.0594808207748,0.742829597322,-0.0959931088597,1.33852793338,-0.656313613518,0.561061834576,-0.00857527438147,1.02867376364,-2.97323181264,0.132253976392,-2.45150617694,0.0429595102668
2.48,-0.0562519626573,0.853500918267,0.0594982728023,0.742829597322,-0.0959931088597,1.33852793338,-0.656313613518,0.560499397188,-0.0265306737672,1.02868361742,-2.97323030875,0.132275771528,-2.48352129909,0.0429591015153
2.5,-0.0562519626573,0.853500918267,0.0594982728023,0.742829597322,-0.0959931088597,1.33852793338,-0.656313613518,0.560499397188,-0.0265306737672,1.02868361742,-2.97323030875,0.132275771528,-2.48352129909,0.0429591015153
2.52,-0.0898146417097,0.853518361972,0.0594982728023,0.742829597322,-0.0960105608872,1.33852793338,-0.656313613518,0.5592937374,-0.0453269792638,1.02867397728,-2.97322808603,0.132251702277,-2.51708325502,0.0429595005214
2.54,-0.0898146417097,0.853518361972,0.0594982728023,0.742829597322,-0.0960105608872,1.33852793338,-0.656313613518,0.5592937374,-0.0453269792638,1.02867397728,-2.97322808603,0.132251702277,-2.51708325502,0.0429595005214
2.56,-0.1222603161,0.853518361972,0.0594808207748,0.742829597322,-0.0959931088597,1.33852793338,-0.656313613518,0.557528509202,-0.0634498146203,1.02867376364,-2.97323181264,0.132253976392,-2.54954132282,0.0429595102668
2.58,-0.1222603161,0.853518361972,0.0594808207748,0.742829597322,-0.0959931088597,1.33852793338,-0.656313613518,0.557528509202,-0.0634498146203,1.02867376364,-2.97323181264,0.132253976392,-2.54954132282,0.0429595102668
2.6,-0.155229584604,0.853518361972,0.0594808207748,0.742847041028,-0.0960105608872,1.33852793338,-0.656313613518,0.55513071826,-0.0817955661396,1.02866807414,-2.97322904986,0.13222948379,-2.58250901529,0.042960350721
2.62,-0.155229584604,0.853518361972,0.0594808207748,0.742847041028,-0.0960105608872,1.33852793338,-0.656313613518,0.55513071826,-0.0817955661396,1.02866807414,-2.97322904986,0.13222948379,-2.58250901529,0.042960350721
2.64,-0.189734748044,0.853518361972,0.0594808207748,0.742847041028,-0.0960105608872,1.33852793338,-0.656313613518,0.551978470624,-0.100897953216,1.02866807414,-2.97322904986,0.13222948379,-2.61701417873,0.042960350721
2.66,-0.223140342204,0.853518361972,0.0594808207748,0.742829597322,-0.0959931088597,1.33852793338,-0.656313613518,0.551978470624,-0.100897953216,1.02866807414,-2.97322904986,0.13222948379,-2.61701417873,0.042960350721
2.68,-0.223140342204,0.853518361972,0.0594808207748,0.742829597322,-0.0959931088597,1.33852793338,-0.656313613518,0.548304024025,-0.119275373763,1.02867376364,-2.97323181264,0.132253976392,-2.65042134892,0.0429595102668
2.7,-0.257907311024,0.853500918267,0.0594808207748,0.742829597322,-0.0959931088597,1.33852793338,-0.656313613518,0.548304024025,-0.119275373763,1.02867376364,-2.97323181264,0.132253976392,-2.65042134892,0.0429595102668
2.72,-0.257907311024,0.853500918267,0.0594808207748,0.742829597322,-0.0959931088597,1.33852793338,-0.656313613518,0.543826271095,-0.138262217881,1.02868355139,-2.97322028462,0.132267155876,-2.68518679748,0.0429591089645
2.74,-0.292028496569,0.853500918267,0.0594982728023,0.742829597322,-0.0959931088597,1.33852793338,-0.656313613518,0.538794678443,-0.156728253294,1.02868361742,-2.97323030875,0.132275771528,-2.719297833,0.0429591015153
2.76,-0.292028496569,0.853500918267,0.0594982728023,0.742829597322,-0.0959931088597,1.33852793338,-0.656313613518,0.538794678443,-0.156728253294,1.02868361742,-2.97323030875,0.132275771528,-2.719297833,0.0429591015153
2.78,-0.326236933929,0.853500918267,0.0594982728023,0.742829597322,-0.0959931088597,1.33852793338,-0.656313613518,0.533119072764,-0.175064288631,1.02868361742,-2.97323030875,0.132275771528,-2.75350627036,0.0429591015153
2.8,-0.326236933929,0.853500918267,0.0594982728023,0.742829597322,-0.0959931088597,1.33852793338,-0.656313613518,0.533119072764,-0.175064288631,1.02868361742,-2.97323030875,0.132275771528,-2.75350627036,0.0429591015153
2.82,-0.360393040174,0.853535805677,0.0594808207748,0.742864484733,-0.0959931088597,1.33852793338,-0.656313613518,0.526822877389,-0.193171552392,1.02865230175,-2.97326531665,0.132213591425,-2.78767690145,0.0429615970469
2.84,-0.360393040174,0.853535805677,0.0594808207748,0.742864484733,-0.0959931088597,1.33852793338,-0.656313613518,0.526822877389,-0.193171552392,1.02865230175,-2.97326531665,0.132213591425,-2.78767690145,0.0429615970469
2.86,-0.393781190629,0.853535805677,0.0594808207748,0.742847041028,-0.0959931088597,1.33852793338,-0.656313613518,0.52008355839,-0.210651558686,1.02865813879,-2.97325432865,0.132227194161,-2.82106438476,0.0429607543112
2.88,-0.393781190629,0.853535805677,0.0594808207748,0.742847041028,-0.0959931088597,1.33852793338,-0.656313613518,0.52008355839,-0.210651558686,1.02865813879,-2.97325432865,0.132227194161,-2.82106438476,0.0429607543112
2.9,-0.428495795043,0.853518361972,0.0594633687473,0.742847041028,-0.0960105608872,1.33852793338,-0.656313613518,0.512455039083,-0.228583606224,1.02866800822,-2.97321902555,0.132220868107,-2.85578537596,0.0429603581681
2.92,-0.428495795043,0.853518361972,0.0594633687473,0.742847041028,-0.0960105608872,1.33852793338,-0.656313613518,0.512455039083,-0.228583606224,1.02866800822,-2.97321902555,0.132220868107,-2.85578537596,0.0429603581681
2.94,-0.461377778444,0.853535805677,0.0594808207748,0.742829597322,-0.0959931088597,1.33852793338,-0.656313613518,0.504669962512,-0.245301059551,1.02866397589,-2.97324334062,0.13224079689,-2.88866030527,0.0429599115581
2.96,-0.461377778444,0.853535805677,0.0594808207748,0.742829597322,-0.0959931088597,1.33852793338,-0.656313613518,0.504669962512,-0.245301059551,1.02866397589,-2.97324334062,0.13224079689,-2.88866030527,0.0429599115581
2.98,-0.495795673423,0.853500918267,0.0594982728023,0.742829597322,-0.0960105608872,1.33852793338,-0.656313613518,0.495930870485,-0.262518814409,1.02868376502,-2.97321655785,0.13226488162,-2.92306276648,0.042959099219
3.0,-0.495795673423,0.853500918267,0.0594982728023,0.742829597322,-0.0960105608872,1.33852793338,-0.656313613518,0.495930870485,-0.262518814409,1.02868376502,-2.97321655785,0.13226488162,-2.92306276648,0.042959099219
3.02,-0.530876795383,0.853518361972,0.0594808207748,0.742829597322,-0.0960105608872,1.33852793338,-0.656313613518,0.486415473273,-0.279757055728,1.02867391128,-2.97321806178,0.132243086487,-2.95815555872,0.0429595079704
3.04,-0.530876795383,0.853518361972,0.0594808207748,0.742829597322,-0.0960105608872,1.33852793338,-0.656313613518,0.486415473273,-0.279757055728,1.02867391128,-2.97321806178,0.132243086487,-2.95815555872,0.0429595079704
3.06,-0.562886127473,0.853518361972,0.0594808207748,0.742847041028,-0.0959931088597,1.33852793338,-0.656313613518,0.477211951144,-0.295176688368,1.02866792649,-2.9732428007,0.13224037367,-2.99016780165,0.0429603530175
3.08,-0.562886127473,0.853518361972,0.0594808207748,0.742847041028,-0.0959931088597,1.33852793338,-0.656313613518,0.477211951144,-0.295176688368,1.02866792649,-2.9732428007,0.13224037367,-2.99016780165,0.0429603530175
3.1,-0.595977568493,0.853535805677,0.0594982728023,0.742847041028,-0.0959931088597,1.33852793338,-0.656313613518,0.467188384047,-0.31079896649,1.02865820483,-2.97326435307,0.132235810038,-3.02325061269,0.0429607468622
3.12,-0.595977568493,0.853535805677,0.0594982728023,0.742847041028,-0.0959931088597,1.33852793338,-0.656313613518,0.467188384047,-0.31079896649,1.02865820483,-2.97326435307,0.132235810038,-3.02325061269,0.0429607468622
3.14,-0.629749713488,0.853518361972,0.0594633687473,0.742829597322,-0.0960105608872,1.33852793338,-0.656313613518,0.456420933941,-0.326410718346,1.02867384537,-2.97320803746,0.132234470798,-3.05703862692,0.0429595154172
3.16,-0.629749713488,0.853518361972,0.0594633687473,0.742829597322,-0.0960105608872,1.33852793338,-0.656313613518,0.456420933941,-0.326410718346,1.02867384537,-2.97320803746,0.132234470798,-3.05703862692,0.0429595154172
3.18,-0.663975594553,0.853535805677,0.0594808207748,0.742847041028,-0.0959931088597,1.33852793338,-0.656313613518,0.444987559877,-0.34182899005,1.02865813879,-2.97325432865,0.132227194161,-3.09125878868,0.0429607543112
3.2,-0.663975594553,0.853535805677,0.0594808207748,0.742847041028,-0.0959931088597,1.33852793338,-0.656313613518,0.444987559877,-0.34182899005,1.02865813879,-2.97325432865,0.132227194161,-3.09125878868,0.0429607543112
3.22,-0.697101989562,0.853535805677,0.0594982728023,0.742847041028,-0.0960105608872,1.33852793338,-0.656313613518,0.433424066253,-0.356377142759,1.02865835243,-2.9732506022,0.132224920206,-3.12437279003,0.0429607445656
3.24,-0.697101989562,0.853535805677,0.0594982728023,0.742847041028,-0.0960105608872,1.33852793338,-0.656313613518,0.433424066253,-0.356377142759,1.02865835243,-2.9732506022,0.132224920206,-3.12437279003,0.0429607445656
3.26,-0.732148190822,0.853500918267,0.0594808207748,0.742829597322,-0.0959931088597,1.33852793338,-0.656313613518,0.420670136404,-0.371349014224,1.02868355139,-2.97322028462,0.132267155876,3.1237576299,0.0429591089645
3.28,-0.732148190822,0.853500918267,0.0594808207748,0.742829597322,-0.0959931088597,1.33852793338,-0.656313613518,0.420670136404,-0.371349014224,1.02868355139,-2.97322028462,0.132267155876,3.1237576299,0.0429591089645
3.3,-0.765623593092,0.853518361972,0.0594982728023,0.742829597322,-0.0959931088597,1.33852793338,-0.656313613518,0.408010221533,-0.385216268538,1.02867382967,-2.97324183692,0.13226259216,3.09029085728,0.0429595028178
3.32,-0.765623593092,0.853518361972,0.0594982728023,0.742829597322,-0.0959931088597,1.33852793338,-0.656313613518,0.408010221533,-0.385216268538,1.02867382967,-2.97324183692,0.13226259216,3.09029085728,0.0429595028178
3.34,-0.798697590407,0.853535805677,0.0594808207748,0.742829597322,-0.0960105608872,1.33852793338,-0.656313613518,0.395042722713,-0.398504370658,1.02866412353,-2.97322958978,0.132229907011,3.05720743345,0.0429599092617
3.36,-0.798697590407,0.853535805677,0.0594808207748,0.742829597322,-0.0960105608872,1.33852793338,-0.656313613518,0.395042722713,-0.398504370658,1.02866412353,-2.97322958978,0.132229907011,3.05720743345,0.0429599092617
3.38,-0.831893760237,0.853535805677,0.0594982728023,0.742829597322,-0.0959931088597,1.33852793338,-0.656313613518,0.38160522606,-0.411390118011,1.02866404192,-2.97325336505,0.132249412774,3.02401916991,0.0429599041093
3.4,-0.831893760237,0.853535805677,0.0594982728023,0.742829597322,-0.0959931088597,1.33852793338,-0.656313613518,0.38160522606,-0.411390118011,1.02866404192,-2.97325336505,0.132249412774,3.02401916991,0.0429599041093
3.42,-0.863903092327,0.853535805677,0.0594808207748,0.742847041028,-0.0960105608872,1.33852793338,-0.656313613518,0.368235083342,-0.423395814348,1.02865828643,-2.97324057782,0.132216304306,2.99200126435,0.0429607520147
3.44,-0.863903092327,0.853535805677,0.0594808207748,0.742847041028,-0.0960105608872,1.33852793338,-0.656313613518,0.368235083342,-0.423395814348,1.02865828643,-2.97324057782,0.132216304306,2.99200126435,0.0429607520147
3.46,-0.896697790622,0.853518361972,0.0594633687473,0.742829597322,-0.0960105608872,1.33852793338,-0.656313613518,0.354151203806,-0.435248148569,1.02867384537,-2.97320803746,0.132234470798,2.95919860312,0.0429595154172
3.48,-0.896697790622,0.853518361972,0.0594633687473,0.742829597322,-0.0960105608872,1.33852793338,-0.656313613518,0.354151203806,-0.435248148569,1.02867384537,-2.97320803746,0.132234470798,2.95919860312,0.0429595154172
3.5,-0.928584950197,0.853518361972,0.0594808207748,0.742829597322,-0.0960105608872,1.33852793338,-0.656313613518,0.340099565625,-0.446314136378,1.02867391128,-2.97321806178,0.132243086487,2.92732159364,0.0429595079704
3.52,-0.928584950197,0.853518361972,0.0594808207748,0.742829597322,-0.0960105608872,1.33852793338,-0.656313613518,0.340099565625,-0.446314136378,1.02867391128,-2.97321806178,0.132243086487,2.92732159364,0.0429595079704
3.54,-0.958587190932,0.853535805677,0.0594633687473,0.742829597322,-0.0960280129147,1.33852793338,-0.656313613518,0.326551062361,-0.456321157008,1.02866420534,-2.97320581454,0.132210401273,2.89730992619,0.0429599144114
3.56,-0.958587190932,0.853535805677,0.0594633687473,0.742829597322,-0.0960280129147,1.33852793338,-0.656313613518,0.326551062361,-0.456321157008,1.02866420534,-2.97320581454,0.132210401273,2.89730992619,0.0429599144114
3.58,-0.988118185311,0.853535805677,0.0594633687473,0.742847041028,-0.0960105608872,1.33852793338,-0.656313613518,0.312935819104,-0.465759882829,1.02865822052,-2.97323055337,0.132207688507,2.86777602125,0.0429607594616
3.6,-0.988118185311,0.853535805677,0.0594633687473,0.742847041028,-0.0960105608872,1.33852793338,-0.656313613518,0.312935819104,-0.465759882829,1.02865822052,-2.97323055337,0.132207688507,2.86777602125,0.0429607594616
3.62,-1.01449007143,0.853518361972,0.0594633687473,0.742829597322,-0.0960280129147,1.33852793338,-0.656313613518,0.300544337279,-0.473853598337,1.0286739931,-2.97319428669,0.13222358084,2.84140856543,0.0429595131204
3.64,-1.01449007143,0.853518361972,0.0594633687473,0.742829597322,-0.0960280129147,1.33852793338,-0.656313613518,0.300544337279,-0.473853598337,1.0286739931,-2.97319428669,0.13222358084,2.84140856543,0.0429595131204
3.66,-1.0405652814,0.853518361972,0.0594633687473,0.742829597322,-0.0960105608872,1.33852793338,-0.656313613518,0.288090163429,-0.481526825552,1.02867384537,-2.97320803746,0.132234470798,2.81533111235,0.0429595154172
3.68,-1.0405652814,0.853518361972,0.0594633687473,0.742829597322,-0.0960105608872,1.33852793338,-0.656313613518,0.288090163429,-0.481526825552,1.02867384537,-2.97320803746,0.132234470798,2.81533111235,0.0429595154172
3.7,-1.06493007616,0.853535805677,0.0594633687473,0.742847041028,-0.0960105608872,1.33852793338,-0.656313613518,0.276272374202,-0.48840011321,1.02865822052,-2.97323055337,0.132207688507,2.7909641304,0.0429607594616
3.72,-1.06493007616,0.853535805677,0.0594633687473,0.742847041028,-0.0960105608872,1.33852793338,-0.656313613518,0.276272374202,-0.48840011321,1.02865822052,-2.97323055337,0.132207688507,2.7909641304,0.0429607594616
3.74,-1.08927742721,0.853535805677,0.0594633687473,0.742847041028,-0.0960105608872,1.33852793338,-0.656313613518,0.264300417809,-0.494981196084,1.02865822052,-2.97323055337,0.132207688507,2.76661677935,0.0429607594616
3.76,-1.08927742721,0.853535805677,0.0594633687473,0.742847041028,-0.0960105608872,1.33852793338,-0.656313613518,0.264300417809,-0.494981196084,1.02865822052,-2.97323055337,0.132207688507,2.76661677935,0.0429607594616
3.78,-1.11299647199,0.853518361972,0.0594633687473,0.742847041028,-0.0960280129147,1.33852793338,-0.656313613518,0.252483980328,-0.501111342053,1.02866815595,-2.97320527479,0.132209978174,2.74290149751,0.0429603558712
3.8,-1.11299647199,0.853518361972,0.0594633687473,0.742847041028,-0.0960280129147,1.33852793338,-0.656313613518,0.252483980328,-0.501111342053,1.02866815595,-2.97320527479,0.132209978174,2.74290149751,0.0429603558712
3.82,-1.13380075353,0.853518361972,0.0594633687473,0.742829597322,-0.0960280129147,1.33852793338,-0.656313613518,0.242005983538,-0.506258071796,1.0286739931,-2.97319428669,0.13222358084,2.72209788333,0.0429595131204
3.84,-1.13380075353,0.853518361972,0.0594633687473,0.742829597322,-0.0960280129147,1.33852793338,-0.656313613518,0.242005983538,-0.506258071796,1.0286739931,-2.97319428669,0.13222358084,2.72209788333,0.0429595131204
3.86,-1.1549366652,0.853518361972,0.0594808207748,0.742847041028,-0.0960105608872,1.33852793338,-0.656313613518,0.231259577386,-0.511253006703,1.02866807414,-2.97322904986,0.13222948379,2.70096921129,0.042960350721
3.88,-1.17300088688,0.853518361972,0.0594633687473,0.742829597322,-0.0960280129147,1.33852793338,-0.656313613518,0.231259577386,-0.511253006703,1.02866807414,-2.97322904986,0.13222948379,2.70096921129,0.042960350721
3.9,-1.17300088688,0.853518361972,0.0594633687473,0.742829597322,-0.0960280129147,1.33852793338,-0.656313613518,0.2219797663,-0.515353388153,1.0286739931,-2.97319428669,0.13222358084,2.68289774998,0.0429595131204
3.92,-1.19108255226,0.853518361972,0.0594633687473,0.742847041028,-0.0960280129147,1.33852793338,-0.656313613518,0.2219797663,-0.515353388153,1.0286739931,-2.97319428669,0.13222358084,2.68289774998,0.0429595131204
3.94,-1.19108255226,0.853518361972,0.0594633687473,0.742847041028,-0.0960280129147,1.33852793338,-0.656313613518,0.21262455159,-0.519279825834,1.02866815595,-2.97320527479,0.132209978174,2.66481541724,0.0429603558712
3.96,-1.20731411963,0.853500918267,0.0594633687473,0.742847041028,-0.0960280129147,1.33852793338,-0.656313613518,0.21262455159,-0.519279825834,1.02866815595,-2.97320527479,0.132209978174,2.66481541724,0.0429603558712
3.98,-1.20731411963,0.853500918267,0.0594633687473,0.742847041028,-0.0960280129147,1.33852793338,-0.656313613518,0.204168040585,-0.522662113847,1.02867794365,-2.97319374692,0.132223157731,2.64858536961,0.0429599545667
4.0,-1.22150357507,0.853500918267,0.0594633687473,0.742847041028,-0.0960105608872,1.33852793338,-0.656313613518,0.204168040585,-0.522662113847,1.02867794365,-2.97319374692,0.132223157731,2.64858536961,0.0429599545667
4.02,-1.22150357507,0.853500918267,0.0594633687473,0.742847041028,-0.0960105608872,1.33852793338,-0.656313613518,0.196734111379,-0.525505335967,1.02867779592,-2.9732074977,0.132234047689,2.63439367105,0.0429599568636
4.04,-1.23461098817,0.853500918267,0.0594633687473,0.742847041028,-0.0960105608872,1.33852793338,-0.656313613518,0.196734111379,-0.525505335967,1.02867779592,-2.9732074977,0.132234047689,2.63439367105,0.0429599568636
4.06,-1.23461098817,0.853500918267,0.0594633687473,0.742847041028,-0.0960105608872,1.33852793338,-0.656313613518,0.189829393448,-0.528038796011,1.02867779592,-2.9732074977,0.132234047689,2.62128625796,0.0429599568636
4.08,-1.2455541834,0.853500918267,0.0594633687473,0.742829597322,-0.0960105608872,1.33852793338,-0.656313613518,0.184040541681,-0.530087390422,1.02868363312,-2.97319650958,0.132247650372,2.61034373036,0.0429591141152
4.1,-1.2455541834,0.853500918267,0.0594633687473,0.742829597322,-0.0960105608872,1.33852793338,-0.656313613518,0.184040541681,-0.530087390422,1.02868363312,-2.97319650958,0.132247650372,2.61034373036,0.0429591141152
4.12,-1.25630549788,0.853500918267,0.0594633687473,0.742847041028,-0.0960280129147,1.33852793338,-0.656313613518,0.17832737659,-0.532033477148,1.02867794365,-2.97319374692,0.132223157731,2.59959399135,0.0429599545667
4.14,-1.25630549788,0.853500918267,0.0594633687473,0.742847041028,-0.0960280129147,1.33852793338,-0.656313613518,0.17832737659,-0.532033477148,1.02867794365,-2.97319374692,0.132223157731,2.59959399135,0.0429599545667
4.16,-1.26590472887,0.853518361972,0.0594633687473,0.742847041028,-0.0960105608872,1.33852793338,-0.656313613518,0.173214962943,-0.533720159567,1.02866800822,-2.97321902555,0.132220868107,2.58999099739,0.0429603581681
4.18,-1.26590472887,0.853518361972,0.0594633687473,0.742847041028,-0.0960105608872,1.33852793338,-0.656313613518,0.173214962943,-0.533720159567,1.02866800822,-2.97321902555,0.132220868107,2.58999099739,0.0429603581681
4.2,-1.27459648772,0.853500918267,0.0594633687473,0.742847041028,-0.0960105608872,1.33852793338,-0.656313613518,0.168569391034,-0.535205128073,1.02867779592,-2.9732074977,0.132234047689,2.5813007584,0.0429599568636
4.22,-1.27459648772,0.853500918267,0.0594633687473,0.742847041028,-0.0960105608872,1.33852793338,-0.656313613518,0.168569391034,-0.535205128073,1.02867779592,-2.9732074977,0.132234047689,2.5813007584,0.0429599568636
4.24,-1.28203163401,0.853500918267,0.0594808207748,0.742847041028,-0.0960280129147,1.33852793338,-0.656313613518,0.16458856795,-0.53644279679,1.02867800952,-2.97320377105,0.13223177332,2.57387800569,0.0429599471194
4.26,-1.28203163401,0.853500918267,0.0594808207748,0.742847041028,-0.0960280129147,1.33852793338,-0.656313613518,0.16458856795,-0.53644279679,1.02867800952,-2.97320377105,0.13223177332,2.57387800569,0.0429599471194
4.28,-1.28758179488,0.853500918267,0.0594284605311,0.742847041028,-0.0960280129147,1.33852793338,-0.656313613518,0.161591106423,-0.537353323802,1.02867781212,-2.97317369605,0.132205924801,2.56829739077,0.0429599694566
4.3,-1.28758179488,0.853500918267,0.0594284605311,0.742847041028,-0.0960280129147,1.33852793338,-0.656313613518,0.161591106423,-0.537353323802,1.02867781212,-2.97317369605,0.132205924801,2.56829739077,0.0429599694566
4.32,-1.29126441404,0.853500918267,0.0594633687473,0.742847041028,-0.0960280129147,1.33852793338,-0.656313613518,0.159622892941,-0.5379412664,1.02867794365,-2.97319374692,0.132223157731,2.5646350752,0.0429599545667
4.34,-1.29126441404,0.853500918267,0.0594633687473,0.742847041028,-0.0960280129147,1.33852793338,-0.656313613518,0.159622892941,-0.5379412664,1.02867794365,-2.97319374692,0.132223157731,2.5646350752,0.0429599545667
4.36,-1.29243380807,0.853500918267,0.0594284605311,0.742829597322,-0.0960280129147,1.33852793338,-0.656313613518,0.158982662614,-0.538133986122,1.02868364932,-2.97316270789,0.132219527446,2.56344604538,0.0429591267077
4.38,-1.29243380807,0.853500918267,0.0594284605311,0.742829597322,-0.0960280129147,1.33852793338,-0.656313613518,0.158982662614,-0.538133986122,1.02868364932,-2.97316270789,0.132219527446,2.56344604538,0.0429591267077
4.4,-1.29196256172,0.853500918267,0.0594633687473,0.742829597322,-0.0960280129147,1.33852793338,-0.656313613518,0.159247986397,-0.538055523742,1.02868378085,-2.97318275879,0.132236760389,2.56393759504,0.0429591118184
4.42,-1.29196256172,0.853500918267,0.0594633687473,0.742829597322,-0.0960280129147,1.33852793338,-0.656313613518,0.159247986397,-0.538055523742,1.02868378085,-2.97318275879,0.132236760389,2.56393759504,0.0429591118184
4.44,-1.2900775763,0.853500918267,0.0594982728023,0.742864484733,-0.0959931088597,1.33852793338,-0.656313613518,0.160277738856,-0.537743163332,1.02867194307,-2.97325228488,0.13224856608,2.56583705964,0.0429607869936
4.46,-1.2900775763,0.853500918267,0.0594982728023,0.742864484733,-0.0959931088597,1.33852793338,-0.656313613518,0.160277738856,-0.537743163332,1.02867194307,-2.97325228488,0.13224856608,2.56583705964,0.0429607869936
4.48,-1.28670907699,0.853500918267,0.0594110085035,0.742829597322,-0.0960454649422,1.33852793338,-0.656313613518,0.162052117081,-0.537217734104,1.02868373159,-2.97313893288,0.132200022072,2.5691628684,0.042959131851
4.5,-1.28670907699,0.853500918267,0.0594110085035,0.742829597322,-0.0960454649422,1.33852793338,-0.656313613518,0.162052117081,-0.537217734104,1.02868373159,-2.97313893288,0.132200022072,2.5691628684,0.042959131851
4.52,-1.28147303597,0.853500918267,0.0594982728023,0.742847041028,-0.0959931088597,1.33852793338,-0.656313613518,0.164899506816,-0.53634709824,1.02867778022,-2.97324129683,0.132262168808,2.57444226729,0.0429599442632
4.54,-1.2737413467,0.853500918267,0.0594110085035,0.742829597322,-0.0960454649422,1.33852793338,-0.656313613518,0.164899506816,-0.53634709824,1.02867778022,-2.97324129683,0.132262168808,2.57444226729,0.0429599442632
4.56,-1.2737413467,0.853500918267,0.0594110085035,0.742829597322,-0.0960454649422,1.33852793338,-0.656313613518,0.169004791203,-0.535071175674,1.02868373159,-2.97313893288,0.132200022072,2.5821305987,0.042959131851
4.58,-1.26337406005,0.853500918267,0.0594459125586,0.742829597322,-0.0960105608872,1.33852793338,-0.656313613518,0.169004791203,-0.535071175674,1.02868373159,-2.97313893288,0.132200022072,2.5821305987,0.042959131851
4.6,-1.26337406005,0.853500918267,0.0594459125586,0.742829597322,-0.0960105608872,1.33852793338,-0.656313613518,0.174559907235,-0.533284543534,1.02868356727,-2.97318648294,0.132239032845,2.59251370101,0.0429591215618
4.62,-1.25026664695,0.853500918267,0.0594284605311,0.742847041028,-0.0960280129147,1.33852793338,-0.656313613518,0.181525383869,-0.530950859579,1.02867781212,-2.97317369605,0.132205924801,2.6056125387,0.0429599694566
4.64,-1.25026664695,0.853500918267,0.0594284605311,0.742847041028,-0.0960280129147,1.33852793338,-0.656313613518,0.181525383869,-0.530950859579,1.02867781212,-2.97317369605,0.132205924801,2.6056125387,0.0429599694566
4.66,-1.23560581199,0.853500918267,0.059393556476,0.742829597322,-0.0960454649422,1.33852793338,-0.656313613518,0.189276426594,-0.528240683709,1.02868366607,-2.97312890847,0.132191406857,2.62025598266,0.0429591392893
4.68,-1.23560581199,0.853500918267,0.059393556476,0.742829597322,-0.0960454649422,1.33852793338,-0.656313613518,0.189276426594,-0.528240683709,1.02868366607,-2.97312890847,0.132191406857,2.62025598266,0.0429591392893
4.7,-1.21694823803,0.853500918267,0.0594808207748,0.742847041028,-0.0960280129147,1.33852793338,-0.656313613518,0.199128980989,-0.524602630434,1.02867800952,-2.97320377105,0.13223177332,2.63896140167,0.0429599471194
4.72,-1.21694823803,0.853500918267,0.0594808207748,0.742847041028,-0.0960280129147,1.33852793338,-0.656313613518,0.199128980989,-0.524602630434,1.02867800952,-2.97320377105,0.13223177332,2.63896140167,0.0429599471194
4.74,-1.19556798132,0.853500918267,0.0593411962323,0.742829597322,-0.0960629252921,1.33852793338,-0.656313613518,0.210249025327,-0.520249216851,1.02868361816,-2.97308507536,0.132154664371,2.66026560119,0.0429591592941
4.76,-1.19556798132,0.853500918267,0.0593411962323,0.742829597322,-0.0960629252921,1.33852793338,-0.656313613518,0.210249025327,-0.520249216851,1.02868361816,-2.97308507536,0.132154664371,2.66026560119,0.0429591592941
4.78,-1.17097635182,0.853518361972,0.0592364757448,0.742864484733,-0.0960280129147,1.33852793338,-0.656313613518,0.222947500644,-0.514928922894,1.02866146968,-2.97308593092,0.132084372384,2.68478897761,0.0429612952295
4.8,-1.17097635182,0.853518361972,0.0592364757448,0.742864484733,-0.0960280129147,1.33852793338,-0.656313613518,0.222947500644,-0.514928922894,1.02866146968,-2.97308593092,0.132084372384,2.68478897761,0.0429612952295
4.82,-1.145162864,0.853500918267,0.059184115501,0.742829597322,-0.0960454649422,1.33852793338,-0.656313613518,0.236146685493,-0.509017254584,1.02868288611,-2.97300859999,0.132088023936,2.71057710615,0.0429592283857
4.84,-1.145162864,0.853500918267,0.059184115501,0.742829597322,-0.0960454649422,1.33852793338,-0.656313613518,0.236146685493,-0.509017254584,1.02868288611,-2.97300859999,0.132088023936,2.71057710615,0.0429592283857
4.86,-1.11711538351,0.853500918267,0.0592364757448,0.742847041028,-0.0960280129147,1.33852793338,-0.656313613518,0.250346372313,-0.502182245931,1.02867709451,-2.97306341674,0.132111156036,2.73865213311,0.0429600511905
4.88,-1.11711538351,0.853500918267,0.0592364757448,0.742847041028,-0.0960280129147,1.33852793338,-0.656313613518,0.250346372313,-0.502182245931,1.02867709451,-2.97306341674,0.132111156036,2.73865213311,0.0429600511905
4.9,-1.08854439212,0.853500918267,0.0592364757448,0.742847041028,-0.0960280129147,1.33852793338,-0.656313613518,0.264590092872,-0.494825622833,1.02867709451,-2.97306341674,0.132111156036,2.7672231245,0.0429600511905
4.92,-1.08854439212,0.853500918267,0.0592364757448,0.742847041028,-0.0960280129147,1.33852793338,-0.656313613518,0.264590092872,-0.494825622833,1.02867709451,-2.97306341674,0.132111156036,2.7672231245,0.0429600511905
4.94,-1.05831531664,0.853500918267,0.0592190195561,0.742829597322,-0.0960105608872,1.33852793338,-0.656313613518,0.279423553472,-0.486606703143,1.02868271872,-2.97305615116,0.132127032666,2.79744047406,0.0429592181533
4.96,-1.05831531664,0.853500918267,0.0592190195561,0.742829597322,-0.0960105608872,1.33852793338,-0.656313613518,0.279423553472,-0.486606703143,1.02868271872,-2.97305615116,0.132127032666,2.79744047406,0.0429592181533
4.98,-1.02726592097,0.853518361972,0.0592713797998,0.742864484733,-0.0960105608872,1.33852793338,-0.656313613518,0.294408260438,-0.477682999903,1.02866145128,-2.97311973173,0.132112491413,2.82851746921,0.0429612826862
5.0,-1.02726592097,0.853518361972,0.0592713797998,0.742864484733,-0.0960105608872,1.33852793338,-0.656313613518,0.294408260438,-0.477682999903,1.02866145128,-2.97311973173,0.132112491413,2.82851746921,0.0429612826862
5.02,-0.996984447791,0.853500918267,0.0592015675286,0.742829597322,-0.0960280129147,1.33852793338,-0.656313613518,0.308716032875,-0.468570299098,1.02868280231,-2.97303237555,0.132107528288,2.85876343287,0.0429592232708
5.04,-0.996984447791,0.853500918267,0.0592015675286,0.742829597322,-0.0960280129147,1.33852793338,-0.656313613518,0.308716032875,-0.468570299098,1.02868280231,-2.97303237555,0.132107528288,2.85876343287,0.0429592232708
5.06,-0.964957605417,0.853518361972,0.0592713797998,0.742864484733,-0.0959931088597,1.33852793338,-0.656313613518,0.323583619293,-0.458422085232,1.02866130319,-2.97313348215,0.132123381537,2.89082354249,0.0429612849827
5.08,-0.964957605417,0.853518361972,0.0592713797998,0.742864484733,-0.0959931088597,1.33852793338,-0.656313613518,0.323583619293,-0.458422085232,1.02866130319,-2.97313348215,0.132123381537,2.89082354249,0.0429612849827
5.1,-0.934257283582,0.853483474562,0.0592364757448,0.742829597322,-0.0960280129147,1.33852793338,-0.656313613518,0.337491235321,-0.44828886937,1.0286927195,-2.97304090244,0.132137939647,2.92151242086,0.0429588071281
5.12,-0.934257283582,0.853483474562,0.0592364757448,0.742829597322,-0.0960280129147,1.33852793338,-0.656313613518,0.337491235321,-0.44828886937,1.0286927195,-2.97304090244,0.132137939647,2.92151242086,0.0429588071281
5.14,-0.903574405452,0.853518361972,0.0592539277723,0.742847041028,-0.0959931088597,1.33852793338,-0.656313613518,0.351092925647,-0.43771488611,1.02866707532,-2.97311246871,0.132128369736,2.95219726038,0.0429604496669
5.16,-0.903574405452,0.853518361972,0.0592539277723,0.742847041028,-0.0959931088597,1.33852793338,-0.656313613518,0.351092925647,-0.43771488611,1.02866707532,-2.97311246871,0.132128369736,2.95219726038,0.0429604496669
5.18,-0.871442900847,0.853518361972,0.0592364757448,0.742847041028,-0.0960105608872,1.33852793338,-0.656313613518,0.364966939902,-0.426215679101,1.02866715858,-2.973088693,0.132108865194,2.9843208558,0.0429604547891
5.2,-0.871442900847,0.853518361972,0.0592364757448,0.742847041028,-0.0960105608872,1.33852793338,-0.656313613518,0.364966939902,-0.426215679101,1.02866715858,-2.973088693,0.132108865194,2.9843208558,0.0429604547891
5.22,-0.842051522688,0.853500918267,0.0592364757448,0.742847041028,-0.0960105608872,1.33852793338,-0.656313613518,0.377334300043,-0.41530595343,1.02867694629,-2.97307716707,0.132122046285,3.01371375229,0.0429600534874
5.24,-0.842051522688,0.853500918267,0.0592364757448,0.742847041028,-0.0960105608872,1.33852793338,-0.656313613518,0.377334300043,-0.41530595343,1.02867694629,-2.97307716707,0.132122046285,3.01371375229,0.0429600534874
5.26,-0.810565834647,0.853500918267,0.0592713797998,0.742847041028,-0.0960105608872,1.33852793338,-0.656313613518,0.390230114033,-0.403212922534,1.02867707611,-2.97309721731,0.132139274896,3.04521974293,0.0429600386473
5.28,-0.810565834647,0.853500918267,0.0592713797998,0.742847041028,-0.0960105608872,1.33852793338,-0.656313613518,0.390230114033,-0.403212922534,1.02867707611,-2.97309721731,0.132139274896,3.04521974293,0.0429600386473
5.3,-0.781226854182,0.853500918267,0.0592364757448,0.742829597322,-0.0960105608872,1.33852793338,-0.656313613518,0.40188383601,-0.39160309634,1.02868278352,-2.9730661788,0.132135648881,3.07453909022,0.042959210735
5.32,-0.781226854182,0.853500918267,0.0592364757448,0.742829597322,-0.0960105608872,1.33852793338,-0.656313613518,0.40188383601,-0.39160309634,1.02868278352,-2.9730661788,0.132135648881,3.07453909022,0.042959210735
5.34,-0.751311898552,0.853518361972,0.0592539277723,0.742847041028,-0.0959931088597,1.33852793338,-0.656313613518,0.413421275384,-0.379398752003,1.02866707532,-2.97311246871,0.132128369736,3.10445976728,0.0429604496669
5.36,-0.751311898552,0.853518361972,0.0592539277723,0.742847041028,-0.0959931088597,1.33852793338,-0.656313613518,0.413421275384,-0.379398752003,1.02866707532,-2.97311246871,0.132128369736,3.10445976728,0.0429604496669
5.38,-0.724416368388,0.853518361972,0.0592364757448,0.742847041028,-0.0960105608872,1.33852793338,-0.656313613518,0.423468819632,-0.368150554981,1.02866715858,-2.973088693,0.132108865194,3.13134738826,0.0429604547891
5.4,-0.724416368388,0.853518361972,0.0592364757448,0.742847041028,-0.0960105608872,1.33852793338,-0.656313613518,0.423468819632,-0.368150554981,1.02866715858,-2.973088693,0.132108865194,3.13134738826,0.0429604547891
5.42,-0.695409018057,0.853500918267,0.0592539277723,0.742829597322,-0.0959931088597,1.33852793338,-0.656313613518,0.43397579758,-0.355708450079,1.02868270024,-2.97308995439,0.132155153363,-3.12282047144,0.0429592056127
5.44,-0.695409018057,0.853500918267,0.0592539277723,0.742829597322,-0.0959931088597,1.33852793338,-0.656313613518,0.43397579758,-0.355708450079,1.02868270024,-2.97308995439,0.132155153363,-3.12282047144,0.0429592056127
5.46,-0.666977576313,0.853500918267,0.0592539277723,0.742829597322,-0.0959931088597,1.33852793338,-0.656313613518,0.443912349526,-0.343227796486,1.02868270024,-2.97308995439,0.132155153363,-3.09438902969,0.0429592056127
5.48,-0.640343834883,0.853500918267,0.0592364757448,0.742847041028,-0.0960105608872,1.33852793338,-0.656313613518,0.443912349526,-0.343227796486,1.02868270024,-2.97308995439,0.132155153363,-3.09438902969,0.0429592056127
5.5,-0.640343834883,0.853500918267,0.0592364757448,0.742847041028,-0.0960105608872,1.33852793338,-0.656313613518,0.452887691661,-0.331289824301,1.02867694629,-2.97307716707,0.132122046285,-3.06776386708,0.0429600534874
5.52,-0.613099230878,0.853518361972,0.0592539277723,0.742864484733,-0.0959931088597,1.33852793338,-0.656313613518,0.452887691661,-0.331289824301,1.02867694629,-2.97307716707,0.132122046285,-3.06776386708,0.0429600534874
5.54,-0.613099230878,0.853518361972,0.0592539277723,0.742864484733,-0.0959931088597,1.33852793338,-0.656313613518,0.461747347495,-0.31882057189,1.0286612382,-2.9731234569,0.132114767093,-3.04051354131,0.042961292404
5.56,-0.586640059658,0.853483474562,0.0592364757448,0.742829597322,-0.0960105608872,1.33852793338,-0.656313613518,0.461747347495,-0.31882057189,1.0286612382,-2.9731234569,0.132114767093,-3.04051354131,0.042961292404
5.58,-0.586640059658,0.853483474562,0.0592364757448,0.742829597322,-0.0960105608872,1.33852793338,-0.656313613518,0.470019822726,-0.306503679025,1.02869257127,-2.9730546528,0.132148829946,-3.0140579038,0.0429588094248
5.6,-0.560233219553,0.853500918267,0.0592364757448,0.742847041028,-0.0960105608872,1.33852793338,-0.656313613518,0.470019822726,-0.306503679025,1.02869257127,-2.9730546528,0.132148829946,-3.0140579038,0.0429588094248
5.62,-0.560233219553,0.853500918267,0.0592364757448,0.742847041028,-0.0960105608872,1.33852793338,-0.656313613518,0.477946670908,-0.293985014432,1.02867694629,-2.97307716707,0.132122046285,-2.98765325175,0.0429600534874
5.64,-0.535397211728,0.853500918267,0.0592539277723,0.742864484733,-0.0959931088597,1.33852793338,-0.656313613518,0.485101851307,-0.282015780704,1.02867102585,-2.97311193087,0.132127948101,-2.96281000375,0.0429608910995
5.66,-0.535397211728,0.853500918267,0.0592539277723,0.742864484733,-0.0959931088597,1.33852793338,-0.656313613518,0.485101851307,-0.282015780704,1.02867102585,-2.97311193087,0.132127948101,-2.96281000375,0.0429608910995
5.68,-0.510665899423,0.853500918267,0.0592364757448,0.742829597322,-0.0960105608872,1.33852793338,-0.656313613518,0.491928305523,-0.26994470718,1.02868278352,-2.9730661788,0.132135648881,-2.9380852622,0.042959210735
5.7,-0.510665899423,0.853500918267,0.0592364757448,0.742829597322,-0.0960105608872,1.33852793338,-0.656313613518,0.491928305523,-0.26994470718,1.02868278352,-2.9730661788,0.132135648881,-2.9380852622,0.042959210735
5.72,-0.485236439438,0.853500918267,0.0592364757448,0.742847041028,-0.0959931088597,1.33852793338,-0.656313613518,0.498631696643,-0.257345166554,1.02867679812,-2.97309091745,0.132132936503,-2.91265871344,0.0429600557838
5.74,-0.485236439438,0.853500918267,0.0592364757448,0.742847041028,-0.0959931088597,1.33852793338,-0.656313613518,0.498631696643,-0.257345166554,1.02867679812,-2.97309091745,0.132132936503,-2.91265871344,0.0429600557838
5.76,-0.461081069009,0.853500918267,0.0592364757448,0.742847041028,-0.0960105608872,1.33852793338,-0.656313613518,0.504700720698,-0.245229263079,1.02867694629,-2.97307716707,0.132122046285,-2.88850110121,0.0429600534874
5.78,-0.461081069009,0.853500918267,0.0592364757448,0.742847041028,-0.0960105608872,1.33852793338,-0.656313613518,0.504700720698,-0.245229263079,1.02867694629,-2.97307716707,0.132122046285,-2.88850110121,0.0429600534874
5.8,-0.435948351748,0.853500918267,0.0592539277723,0.742829597322,-0.0960105608872,1.33852793338,-0.656313613518,0.510709177491,-0.232464482585,1.02868284838,-2.97307620397,0.132144263143,-2.86335756333,0.0429592033164
5.82,-0.435948351748,0.853500918267,0.0592539277723,0.742829597322,-0.0960105608872,1.33852793338,-0.656313613518,0.510709177491,-0.232464482585,1.02868284838,-2.97307620397,0.132144263143,-2.86335756333,0.0429592033164
5.84,-0.412421287599,0.853500918267,0.0592364757448,0.742847041028,-0.0960105608872,1.33852793338,-0.656313613518,0.516031423745,-0.220390060237,1.02867694629,-2.97307716707,0.132122046285,-2.8398413198,0.0429600534874
5.86,-0.412421287599,0.853500918267,0.0592364757448,0.742847041028,-0.0960105608872,1.33852793338,-0.656313613518,0.516031423745,-0.220390060237,1.02867694629,-2.97307716707,0.132122046285,-2.8398413198,0.0429600534874
5.88,-0.388265950459,0.853500918267,0.0592539277723,0.742847041028,-0.0960105608872,1.33852793338,-0.656313613518,0.521206229185,-0.207856374764,1.02867701116,-2.97308719223,0.13213066054,-2.81567583133,0.0429600460684
5.9,-0.388265950459,0.853500918267,0.0592539277723,0.742847041028,-0.0960105608872,1.33852793338,-0.656313613518,0.521206229185,-0.207856374764,1.02867701116,-2.97308719223,0.13213066054,-2.81567583133,0.0429600460684
5.92,-0.365820995239,0.853500918267,0.0592364757448,0.742847041028,-0.0960105608872,1.33852793338,-0.656313613518,0.525737746026,-0.196112292695,1.02867694629,-2.97307716707,0.132122046285,-2.79324102744,0.0429600534874
5.94,-0.365820995239,0.853500918267,0.0592364757448,0.742847041028,-0.0960105608872,1.33852793338,-0.656313613518,0.525737746026,-0.196112292695,1.02867694629,-2.97307716707,0.132122046285,-2.79324102744,0.0429600534874
5.96,-0.343009555764,0.853500918267,0.0592364757448,0.742864484733,-0.0959931088597,1.33852793338,-0.656313613518,0.530072236246,-0.184065570222,1.02867096094,-2.97310190569,0.132119333875,-2.77043249915,0.0429608985187
5.98,-0.343009555764,0.853500918267,0.0592364757448,0.742864484733,-0.0959931088597,1.33852793338,-0.656313613518,0.530072236246,-0.184065570222,1.02867096094,-2.97310190569,0.132119333875,-2.77043249915,0.0429608985187
6.0,-0.319953771259,0.853483474562,0.0592364757448,0.742829597322,-0.0960105608872,1.33852793338,-0.656313613518,0.534179226358,-0.171801318792,1.02869257127,-2.9730546528,0.132148829946,-2.7473716154,0.0429588094248
6.02,-0.319953771259,0.853483474562,0.0592364757448,0.742829597322,-0.0960105608872,1.33852793338,-0.656313613518,0.534179226358,-0.171801318792,1.02869257127,-2.9730546528,0.132148829946,-2.7473716154,0.0429588094248
6.04,-0.298241851129,0.853500918267,0.0592364757448,0.742864484733,-0.0959931088597,1.33852793338,-0.656313613518,0.537778594441,-0.1601589621,1.02867096094,-2.97310190569,0.132119333875,-2.72566479451,0.0429608985187
6.06,-0.298241851129,0.853500918267,0.0592364757448,0.742864484733,-0.0959931088597,1.33852793338,-0.656313613518,0.537778594441,-0.1601589621,1.02867096094,-2.97310190569,0.132119333875,-2.72566479451,0.0429608985187
6.08,-0.275901641364,0.853500918267,0.0592539277723,0.742847041028,-0.0959931088597,1.33852793338,-0.656313613518,0.541226575032,-0.148100962361,1.02867686302,-2.97310094264,0.132141550736,-2.70331376414,0.0429600483648
6.1,-0.275901641364,0.853500918267,0.0592539277723,0.742847041028,-0.0959931088597,1.33852793338,-0.656313613518,0.541226575032,-0.148100962361,1.02867686302,-2.97310094264,0.132141550736,-2.70331376414,0.0429600483648
6.12,-0.254503907664,0.853483474562,0.0592364757448,0.742847041028,-0.0960105608872,1.33852793338,-0.656313613518,0.544268961853,-0.136495576945,1.02868673399,-2.97306564111,0.132135227357,-2.68192242138,0.0429596521747
6.14,-0.254503907664,0.853483474562,0.0592364757448,0.742847041028,-0.0960105608872,1.33852793338,-0.656313613518,0.544268961853,-0.136495576945,1.02868673399,-2.97306564111,0.132135227357,-2.68192242138,0.0429596521747
6.16,-0.233036365854,0.853500918267,0.0592539277723,0.742864484733,-0.0960105608872,1.33852793338,-0.656313613518,0.547072402215,-0.124774191017,1.02867117399,-2.97309818047,0.13211705793,-2.66044691585,0.042960888803
6.18,-0.233036365854,0.853500918267,0.0592539277723,0.742864484733,-0.0960105608872,1.33852793338,-0.656313613518,0.547072402215,-0.124774191017,1.02867117399,-2.97309818047,0.13211705793,-2.66044691585,0.042960888803
6.2,-0.211900420889,0.853466030857,0.0592190195561,0.742829597322,-0.0960105608872,1.33852793338,-0.656313613518,0.54958981558,-0.113197671371,1.02870229422,-2.97303309942,0.132153395011,-2.63932690016,0.0429584155222
6.22,-0.211900420889,0.853466030857,0.0592190195561,0.742829597322,-0.0960105608872,1.33852793338,-0.656313613518,0.54958981558,-0.113197671371,1.02870229422,-2.97303309942,0.132153395011,-2.63932690016,0.0429584155222
6.24,-0.190467783134,0.853518361972,0.0592364757448,0.742864484733,-0.0960105608872,1.33852793338,-0.656313613518,0.551885964128,-0.101386197052,1.02866132146,-2.97309968122,0.132095262583,-2.61789000277,0.0429612975265
6.26,-0.190467783134,0.853518361972,0.0592364757448,0.742864484733,-0.0960105608872,1.33852793338,-0.656313613518,0.551885964128,-0.101386197052,1.02866132146,-2.97309968122,0.132095262583,-2.61789000277,0.0429612975265
6.28,-0.166731311299,0.853466030857,0.0592190195561,0.742847041028,-0.0960105608872,1.33852793338,-0.656313613518,0.554137600993,-0.0882655302205,1.02869645689,-2.97304408777,0.132139792437,-2.59415846044,0.04295925827
6.3,-0.166731311299,0.853466030857,0.0592190195561,0.742847041028,-0.0960105608872,1.33852793338,-0.656313613518,0.554137600993,-0.0882655302205,1.02869645689,-2.97304408777,0.132139792437,-2.59415846044,0.04295925827
6.32,-0.144111835805,0.853500918267,0.0592190195561,0.742864484733,-0.0960105608872,1.33852793338,-0.656313613518,0.555990041263,-0.0757092607611,1.02867104431,-2.97307812771,0.132099827479,-2.57154269124,0.0429609036411
6.34,-0.144111835805,0.853500918267,0.0592190195561,0.742864484733,-0.0960105608872,1.33852793338,-0.656313613518,0.555990041263,-0.0757092607611,1.02867104431,-2.97307812771,0.132099827479,-2.57154269124,0.0429609036411
6.36,-0.119886665587,0.853483474562,0.0592364757448,0.742829597322,-0.0960280129147,1.33852793338,-0.656313613518,0.557666809281,-0.0622171531473,1.0286927195,-2.97304090244,0.132137939647,-2.54730226832,0.0429588071281
6.38,-0.119886665587,0.853483474562,0.0592364757448,0.742829597322,-0.0960280129147,1.33852793338,-0.656313613518,0.557666809281,-0.0622171531473,1.0286927195,-2.97304090244,0.132137939647,-2.54730226832,0.0429588071281
6.4,-0.0955218708272,0.853500918267,0.0592190195561,0.742847041028,-0.0960280129147,1.33852793338,-0.656313613518,0.559013933257,-0.0486183067285,1.02867702975,-2.97305338915,0.132102539805,-2.52294981533,0.0429600586091
6.42,-0.0694990127785,0.853518361972,0.0592015675286,0.742864484733,-0.0960280129147,1.33852793338,-0.656313613518,0.559013933257,-0.0486183067285,1.02867702975,-2.97305338915,0.132102539805,-2.52294981533,0.0429600586091
6.44,-0.0694990127785,0.853518361972,0.0592015675286,0.742864484733,-0.0960280129147,1.33852793338,-0.656313613518,0.560086743769,-0.0340621381525,1.02866134024,-2.97306587778,0.132067141859,-2.49693929611,0.0429613100628
6.46,-0.0446455237973,0.853500918267,0.0592364757448,0.742829597322,-0.0960280129147,1.33852793338,-0.656313613518,0.560086743769,-0.0340621381525,1.02866134024,-2.97306587778,0.132067141859,-2.49693929611,0.0429613100628
6.48,-0.0446455237973,0.853500918267,0.0592364757448,0.742829597322,-0.0960280129147,1.33852793338,-0.656313613518,0.560766300681,-0.0201212335761,1.02868293174,-2.97305242845,0.132124758608,-2.47206264505,0.0429592084382
6.5,-0.018151423555,0.853535805677,0.0592190195561,0.742864484733,-0.0960280129147,1.33852793338,-0.656313613518,0.561097258237,-0.00526465801657,1.02865161725,-2.97308742891,0.132062574839,-2.44558307304,0.0429617039411
6.52,-0.018151423555,0.853535805677,0.0592190195561,0.742864484733,-0.0960280129147,1.33852793338,-0.656313613518,0.561097258237,-0.00526465801657,1.02865161725,-2.97308742891,0.132062574839,-2.44558307304,0.0429617039411
6.54,0.00987856329997,0.853500918267,0.0592190195561,0.742829597322,-0.0960280129147,1.33852793338,-0.656313613518,0.561029628205,0.0104626652593,1.02868286698,-2.97304240084,0.132116142371,-2.41754871176,0.0429592158565
6.56,0.00987856329997,0.853500918267,0.0592190195561,0.742829597322,-0.0960280129147,1.33852793338,-0.656313613518,0.561029628205,0.0104626652593,1.02868286698,-2.97304240084,0.132116142371,-2.41754871176,0.0429592158565
6.58,0.0373151396074,0.853500918267,0.0592364757448,0.742847041028,-0.0960105608872,1.33852793338,-0.656313613518,0.560527915579,0.0258585537112,1.02867694629,-2.97307716707,0.132122046285,-2.39010489259,0.0429600534874
6.6,0.0373151396074,0.853500918267,0.0592364757448,0.742847041028,-0.0960105608872,1.33852793338,-0.656313613518,0.560527915579,0.0258585537112,1.02867694629,-2.97307716707,0.132122046285,-2.39010489259,0.0429600534874
6.62,0.0652055019198,0.853535805677,0.0592190195561,0.742864484733,-0.0960105608872,1.33852793338,-0.656313613518,0.559587060149,0.0414736858296,1.02865146899,-2.97310117917,0.132073465034,-2.36222838946,0.0429617062382
6.64,0.0652055019198,0.853535805677,0.0592190195561,0.742864484733,-0.0960105608872,1.33852793338,-0.656313613518,0.559587060149,0.0414736858296,1.02865146899,-2.97310117917,0.132073465034,-2.36222838946,0.0429617062382
6.66,0.0951902573372,0.853500918267,0.0592190195561,0.742829597322,-0.0960105608872,1.33852793338,-0.656313613518,0.558097357696,0.0582318221583,1.02868271872,-2.97305615116,0.132127032666,-2.33223925914,0.0429592181533
6.68,0.0951902573372,0.853500918267,0.0592190195561,0.742829597322,-0.0960105608872,1.33852793338,-0.656313613518,0.558097357696,0.0582318221583,1.02868271872,-2.97305615116,0.132127032666,-2.33223925914,0.0429592181533
6.7,0.124546698152,0.853518361972,0.0592364757448,0.742847041028,-0.0959931088597,1.33852793338,-0.656313613518,0.556143753771,0.0745968643786,1.02866701041,-2.97310244337,0.132119755387,-2.3028770943,0.0429604570856
6.72,0.124546698152,0.853518361972,0.0592364757448,0.742847041028,-0.0959931088597,1.33852793338,-0.656313613518,0.556143753771,0.0745968643786,1.02866701041,-2.97310244337,0.132119755387,-2.3028770943,0.0429604570856
6.74,0.153309728419,0.853500918267,0.0592539277723,0.742829597322,-0.0960105608872,1.33852793338,-0.656313613518,0.553770551466,0.0905636569827,1.02868284838,-2.97307620397,0.132144263143,-2.27409948316,0.0429592033164
6.76,0.153309728419,0.853500918267,0.0592539277723,0.742829597322,-0.0960105608872,1.33852793338,-0.656313613518,0.553770551466,0.0905636569827,1.02868284838,-2.97307620397,0.132144263143,-2.27409948316,0.0429592033164
6.78,0.183050130484,0.853518361972,0.0592015675286,0.742847041028,-0.0960105608872,1.33852793338,-0.656313613518,0.55083358152,0.106972164292,1.02866702907,-2.97306863977,0.1320916347,-2.24439172512,0.0429604696219
6.8,0.183050130484,0.853518361972,0.0592015675286,0.742847041028,-0.0960105608872,1.33852793338,-0.656313613518,0.55083358152,0.106972164292,1.02866702907,-2.97306863977,0.1320916347,-2.24439172512,0.0429604696219
6.82,0.213733025259,0.853518361972,0.0592190195561,0.742847041028,-0.0959931088597,1.33852793338,-0.656313613518,0.547290530853,0.123829095696,1.02866694557,-2.97309241556,0.132111139085,-2.21370092079,0.042960464504
6.84,0.213733025259,0.853518361972,0.0592190195561,0.742847041028,-0.0959931088597,1.33852793338,-0.656313613518,0.547290530853,0.123829095696,1.02866694557,-2.97309241556,0.132111139085,-2.21370092079,0.042960464504
6.86,0.243054545374,0.853500918267,0.0592364757448,0.742847041028,-0.0959931088597,1.33852793338,-0.656313613518,0.54342301342,0.139826793326,1.02867679812,-2.97309091745,0.132132936503,-2.18436772863,0.0429600557838
6.88,0.243054545374,0.853500918267,0.0592364757448,0.742847041028,-0.0959931088597,1.33852793338,-0.656313613518,0.54342301342,0.139826793326,1.02867679812,-2.97309091745,0.132132936503,-2.18436772863,0.0429600557838
6.9,0.273475634769,0.853518361972,0.0592539277723,0.742847041028,-0.0960105608872,1.33852793338,-0.656313613518,0.538918133559,0.156294320383,1.02866722345,-2.97309871831,0.132117479566,-2.15393576454,0.0429604473704
6.92,0.273475634769,0.853518361972,0.0592539277723,0.742847041028,-0.0960105608872,1.33852793338,-0.656313613518,0.538918133559,0.156294320383,1.02866722345,-2.97309871831,0.132117479566,-2.15393576454,0.0429604473704
6.94,0.302587730554,0.853518361972,0.0592190195561,0.742847041028,-0.0960280129147,1.33852793338,-0.656313613518,0.534145098133,0.171900537687,1.02866724204,-2.97306491494,0.132089358625,-2.12484173203,0.0429604599106
6.96,0.333130992464,0.853518361972,0.0592364757448,0.742829597322,-0.0960105608872,1.33852793338,-0.656313613518,0.534145098133,0.171900537687,1.02866724204,-2.97306491494,0.132089358625,-2.12484173203,0.0429604599106
6.98,0.333130992464,0.853518361972,0.0592364757448,0.742829597322,-0.0960105608872,1.33852793338,-0.656313613518,0.528646175445,0.188141668442,1.02867299575,-2.97307770475,0.132122467798,-2.0942898888,0.0429596120343
7.0,0.363080835504,0.853518361972,0.0592364757448,0.742829597322,-0.0960105608872,1.33852793338,-0.656313613518,0.528646175445,0.188141668442,1.02867299575,-2.97307770475,0.132122467798,-2.0942898888,0.0429596120343
7.02,0.363080835504,0.853518361972,0.0592364757448,0.742829597322,-0.0960105608872,1.33852793338,-0.656313613518,0.522775126103,0.203887796949,1.02867299575,-2.97307770475,0.132122467798,-2.06434004576,0.0429596120343
7.04,0.392541988484,0.853535805677,0.0592364757448,0.742847041028,-0.0960105608872,1.33852793338,-0.656313613518,0.522775126103,0.203887796949,1.02867299575,-2.97307770475,0.132122467798,-2.06434004576,0.0429596120343
7.06,0.392541988484,0.853535805677,0.0592364757448,0.742847041028,-0.0960105608872,1.33852793338,-0.656313613518,0.516539899275,0.219197782812,1.02865737087,-2.97310021889,0.132095684087,-2.03488108022,0.0429608560799
7.08,0.422945634174,0.853518361972,0.0592364757448,0.742829597322,-0.0960105608872,1.33852793338,-0.656313613518,0.516539899275,0.219197782812,1.02865737087,-2.97310021889,0.132095684087,-2.03488108022,0.0429608560799
7.1,0.422945634174,0.853518361972,0.0592364757448,0.742829597322,-0.0960105608872,1.33852793338,-0.656313613518,0.509640233853,0.234799698158,1.02867299575,-2.97307770475,0.132122467798,-2.00447524709,0.0429596120343
7.12,0.451726116469,0.853518361972,0.0592364757448,0.742829597322,-0.0959931088597,1.33852793338,-0.656313613518,0.509640233853,0.234799698158,1.02867299575,-2.97307770475,0.132122467798,-2.00447524709,0.0429596120343
7.14,0.451726116469,0.853518361972,0.0592364757448,0.742829597322,-0.0959931088597,1.33852793338,-0.656313613518,0.502671096353,0.249370667505,1.02867284758,-2.97309145513,0.132133358015,-1.9756970066,0.0429596143307
7.16,0.481798132024,0.853535805677,0.0592364757448,0.742847041028,-0.0960105608872,1.33852793338,-0.656313613518,0.502671096353,0.249370667505,1.02867284758,-2.97309145513,0.132133358015,-1.9756970066,0.0429596143307
7.18,0.481798132024,0.853535805677,0.0592364757448,0.742847041028,-0.0960105608872,1.33852793338,-0.656313613518,0.494944934737,0.264368392799,1.02865737087,-2.97310021889,0.132095684087,-1.94562493668,0.0429608560799
7.2,0.510910244453,0.853535805677,0.0592364757448,0.742864484733,-0.0959931088597,1.33852793338,-0.656313613518,0.487035755736,0.278664329911,1.02865138563,-2.97312495742,0.13209297161,-1.91651573536,0.0429617011163
7.22,0.510910244453,0.853535805677,0.0592364757448,0.742864484733,-0.0959931088597,1.33852793338,-0.656313613518,0.487035755736,0.278664329911,1.02865138563,-2.97312495742,0.13209297161,-1.91651573536,0.0429617011163
7.24,0.540947339308,0.853535805677,0.0592364757448,0.742847041028,-0.0960105608872,1.33852793338,-0.656313613518,0.47845130851,0.293164596972,1.02865737087,-2.97310021889,0.132095684087,-1.88647572939,0.0429608560799
7.26,0.540947339308,0.853535805677,0.0592364757448,0.742847041028,-0.0960105608872,1.33852793338,-0.656313613518,0.47845130851,0.293164596972,1.02865737087,-2.97310021889,0.132095684087,-1.88647572939,0.0429608560799
7.28,0.569727854893,0.853518361972,0.0592364757448,0.742829597322,-0.0960105608872,1.33852793338,-0.656313613518,0.469819180955,0.306812651994,1.02867299575,-2.97307770475,0.132122467798,-1.85769302638,0.0429596120343
7.3,0.569727854893,0.853518361972,0.0592364757448,0.742829597322,-0.0960105608872,1.33852793338,-0.656313613518,0.469819180955,0.306812651994,1.02867299575,-2.97307770475,0.132122467798,-1.85769302638,0.0429596120343
7.32,0.599189007873,0.853535805677,0.0592364757448,0.742829597322,-0.0960105608872,1.33852793338,-0.656313613518,0.460577897675,0.320519156534,1.02866320799,-2.97308923067,0.132109286698,-1.82823339173,0.0429600133226
7.34,0.599189007873,0.853535805677,0.0592364757448,0.742829597322,-0.0960105608872,1.33852793338,-0.656313613518,0.460577897675,0.320519156534,1.02866320799,-2.97308923067,0.132109286698,-1.82823339173,0.0429600133226
7.36,0.628894505883,0.853535805677,0.0592539277723,0.742847041028,-0.0959931088597,1.33852793338,-0.656313613518,0.450846949779,0.334062950704,1.0286572876,-2.97312399473,0.132115188719,-1.79852065387,0.0429608509579
7.38,0.628894505883,0.853535805677,0.0592539277723,0.742847041028,-0.0959931088597,1.33852793338,-0.656313613518,0.450846949779,0.334062950704,1.0286572876,-2.97312399473,0.132115188719,-1.79852065387,0.0429608509579
7.4,0.657011761198,0.853535805677,0.0592364757448,0.742847041028,-0.0959931088597,1.33854537708,-0.656313613518,0.441278634262,0.34659911066,1.02865661248,-2.9731249213,0.13209295019,-1.77041588717,0.0429609292184
7.42,0.657011761198,0.853535805677,0.0592364757448,0.742847041028,-0.0959931088597,1.33854537708,-0.656313613518,0.441278634262,0.34659911066,1.02865661248,-2.9731249213,0.13209295019,-1.77041588717,0.0429609292184
7.44,0.685757322793,0.853518361972,0.0592713797998,0.742829597322,-0.0959931088597,1.33852793338,-0.656313613518,0.431130930844,0.359151883248,1.02867297747,-2.97311150576,0.132150586827,-1.74164549842,0.0429595994916
7.46,0.685757322793,0.853518361972,0.0592713797998,0.742829597322,-0.0959931088597,1.33852793338,-0.656313613518,0.431130930844,0.359151883248,1.02867297747,-2.97311150576,0.132150586827,-1.74164549842,0.0429595994916
7.48,0.713298602943,0.853535805677,0.0592539277723,0.742847041028,-0.0960105608872,1.33852793338,-0.656313613518,0.421081134666,0.370879779027,1.02865743574,-2.97311024434,0.132104298574,-1.71411431466,0.0429608486614
7.5,0.713298602943,0.853535805677,0.0592539277723,0.742847041028,-0.0960105608872,1.33852793338,-0.656313613518,0.421081134666,0.370879779027,1.02865743574,-2.97311024434,0.132104298574,-1.71411431466,0.0429608486614
7.52,0.739548383122,0.853535805677,0.0592539277723,0.742847041028,-0.0960105608872,1.33852793338,-0.656313613518,0.411201675149,0.381804026717,1.02865743574,-2.97311024434,0.132104298574,-1.68786453448,0.0429608486614
7.54,0.739548383122,0.853535805677,0.0592539277723,0.742847041028,-0.0960105608872,1.33852793338,-0.656313613518,0.411201675149,0.381804026717,1.02865743574,-2.97311024434,0.132104298574,-1.68786453448,0.0429608486614
7.56,0.765606149387,0.853535805677,0.0592713797998,0.742829597322,-0.0959931088597,1.33852793338,-0.656313613518,0.401110156787,0.392396559884,1.02866318971,-2.97312303196,0.132137405934,-1.66179819052,0.0429600007804
7.58,0.765606149387,0.853535805677,0.0592713797998,0.742829597322,-0.0959931088597,1.33852793338,-0.656313613518,0.401110156787,0.392396559884,1.02866318971,-2.97312303196,0.132137405934,-1.66179819052,0.0429600007804
7.6,0.791070496782,0.853535805677,0.0592539277723,0.742847041028,-0.0959931088597,1.33852793338,-0.656313613518,0.390991241631,0.402475932357,1.0286572876,-2.97312399473,0.132115188719,-1.63634466298,0.0429608509579
7.62,0.791070496782,0.853535805677,0.0592539277723,0.742847041028,-0.0959931088597,1.33852793338,-0.656313613518,0.390991241631,0.402475932357,1.0286572876,-2.97312399473,0.132115188719,-1.63634466298,0.0429608509579
7.64,0.816360273968,0.853535805677,0.0592364757448,0.742847041028,-0.0960105608872,1.33852793338,-0.656313613518,0.380695455959,0.412228219976,1.02865737087,-2.97310021889,0.132095684087,-1.61106279473,0.0429608560799
7.66,0.816360273968,0.853535805677,0.0592364757448,0.742847041028,-0.0960105608872,1.33852793338,-0.656313613518,0.380695455959,0.412228219976,1.02865737087,-2.97310021889,0.132095684087,-1.61106279473,0.0429608560799
7.68,0.839869861123,0.853535805677,0.0592713797998,0.742847041028,-0.0960105608872,1.33852793338,-0.656313613518,0.370890635606,0.421071568513,1.02865750069,-2.97312026972,0.132112913162,-1.58753290546,0.0429608412407
7.7,0.839869861123,0.853535805677,0.0592713797998,0.742847041028,-0.0960105608872,1.33852793338,-0.656313613518,0.370890635606,0.421071568513,1.02865750069,-2.97312026972,0.132112913162,-1.58753290546,0.0429608412407
7.72,0.863012930733,0.853535805677,0.0592713797998,0.742847041028,-0.0959931088597,1.33854537708,-0.656313613518,0.36104326083,0.429541073973,1.02865674237,-2.9731449722,0.132110179175,-1.56439441547,0.042960914379
7.74,0.863012930733,0.853535805677,0.0592713797998,0.742847041028,-0.0959931088597,1.33854537708,-0.656313613518,0.36104326083,0.429541073973,1.02865674237,-2.9731449722,0.132110179175,-1.56439441547,0.042960914379
7.76,0.887273063262,0.853535805677,0.0592539277723,0.742847041028,-0.0959931088597,1.33852793338,-0.656313613518,0.35052381628,0.438171292281,1.0286572876,-2.97312399473,0.132115188719,-1.5401420965,0.0429608509579
7.78,0.887273063262,0.853535805677,0.0592539277723,0.742847041028,-0.0959931088597,1.33852793338,-0.656313613518,0.35052381628,0.438171292281,1.0286572876,-2.97312399473,0.132115188719,-1.5401420965,0.0429608509579
7.8,0.908356577243,0.853535805677,0.0592364757448,0.742864484733,-0.0959931088597,1.33852793338,-0.656313613518,0.341211297702,0.445457614651,1.02865138563,-2.97312495742,0.13209297161,-1.51906940257,0.0429617011163
7.82,0.908356577243,0.853535805677,0.0592364757448,0.742864484733,-0.0959931088597,1.33852793338,-0.656313613518,0.341211297702,0.445457614651,1.02865138563,-2.97312495742,0.13209297161,-1.51906940257,0.0429617011163
7.84,0.930801565752,0.853535805677,0.0592364757448,0.742847041028,-0.0960105608872,1.33852793338,-0.656313613518,0.331132205966,0.453003970959,1.02865737087,-2.97310021889,0.132095684087,-1.49662150295,0.0429608560799
7.86,0.930801565752,0.853535805677,0.0592364757448,0.742847041028,-0.0960105608872,1.33852793338,-0.656313613518,0.331132205966,0.453003970959,1.02865737087,-2.97310021889,0.132095684087,-1.49662150295,0.0429608560799
7.88,0.951134600937,0.853518361972,0.0592364757448,0.742847041028,-0.0959931088597,1.33854537708,-0.656313613518,0.321849232822,0.459641582885,1.02866640014,-2.97311339548,0.13210613135,-1.4762915293,0.0429605279281
7.9,0.951134600937,0.853518361972,0.0592364757448,0.742847041028,-0.0959931088597,1.33854537708,-0.656313613518,0.321849232822,0.459641582885,1.02866640014,-2.97311339548,0.13210613135,-1.4762915293,0.0429605279281
7.92,0.972270579192,0.853535805677,0.0592364757448,0.742847041028,-0.0960105608872,1.33852793338,-0.656313613518,0.312067282189,0.466342306594,1.02865737087,-2.97310021889,0.132095684087,-1.45515248951,0.0429608560799
7.94,0.992027705792,0.853518361972,0.0592713797998,0.742829597322,-0.0959931088597,1.33852793338,-0.656313613518,0.312067282189,0.466342306594,1.02865737087,-2.97310021889,0.132095684087,-1.45515248951,0.0429608560799
7.96,0.992027705792,0.853518361972,0.0592713797998,0.742829597322,-0.0959931088597,1.33852793338,-0.656313613518,0.302782146861,0.472426635906,1.02867297747,-2.97311150576,0.132150586827,-1.43537511542,0.0429595994916
7.98,1.00996968837,0.853570693088,0.0592713797998,0.742864484733,-0.0959931088597,1.33852793338,-0.656313613518,0.302782146861,0.472426635906,1.02867297747,-2.97311150576,0.132150586827,-1.43537511542,0.0429595994916
8.0,1.00996968837,0.853570693088,0.0592713797998,0.742864484733,-0.0959931088597,1.33852793338,-0.656313613518,0.294254794864,0.47777889371,1.02863194019,-2.97316806045,0.132083838758,-1.41743902554,0.042962488831
8.02,1.0266026607,0.853535805677,0.0592713797998,0.742847041028,-0.0959931088597,1.33852793338,-0.656313613518,0.294254794864,0.47777889371,1.02863194019,-2.97316806045,0.132083838758,-1.41743902554,0.042962488831
8.04,1.0266026607,0.853535805677,0.0592713797998,0.742847041028,-0.0959931088597,1.33852793338,-0.656313613518,0.286268837312,0.482608720257,1.02865735259,-2.97313402014,0.132123803284,-1.40080234815,0.0429608435372
8.06,1.0422408092,0.853553249383,0.0592713797998,0.742847041028,-0.0959931088597,1.33854537708,-0.656313613518,0.286268837312,0.482608720257,1.02865735259,-2.97313402014,0.132123803284,-1.40080234815,0.0429608435372
8.08,1.0422408092,0.853553249383,0.0592713797998,0.742847041028,-0.0959931088597,1.33854537708,-0.656313613518,0.2786859123,0.487024019633,1.0286469547,-2.97315649828,0.13209699823,-1.38516805521,0.0429613156587
8.1,1.05828036265,0.853553249383,0.0592539277723,0.742864484733,-0.0959931088597,1.33854537708,-0.656313613518,0.2786859123,0.487024019633,1.0286469547,-2.97315649828,0.13209699823,-1.38516805521,0.0429613156587
8.12,1.05828036265,0.853553249383,0.0592539277723,0.742864484733,-0.0959931088597,1.33854537708,-0.656313613518,0.270842509766,0.491425657837,1.02864105275,-2.9731574608,0.132074780888,-1.3691393213,0.0429621658211
8.14,1.07246995126,0.853588203372,0.0592713797998,0.742864484733,-0.0959931088597,1.33854537708,-0.656313613518,0.263837337041,0.495222804131,1.02862150513,-2.97319058232,0.132056983273,-1.35494262306,0.0429621658211
8.16,1.07246995126,0.853588203372,0.0592713797998,0.742864484733,-0.0959931088597,1.33854537708,-0.656313613518,0.263837337041,0.495222804131,1.02862150513,-2.97319058232,0.132056983273,-1.35494262306,0.0429629624632
8.18,1.08688630803,0.853570693088,0.0592364757448,0.742864484733,-0.0959931088597,1.33852793338,-0.656313613518,0.256682778618,0.49897145497,1.02863181028,-2.97314800899,0.132066609276,-1.34054270758,0.0429625036701
8.2,1.08688630803,0.853570693088,0.0592364757448,0.742864484733,-0.0959931088597,1.33852793338,-0.656313613518,0.256682778618,0.49897145497,1.02863181028,-2.97314800899,0.132066609276,-1.34054270758,0.0429625036701
8.22,1.1008315516,0.853553249383,0.0592713797998,0.742829597322,-0.0959931088597,1.33854537708,-0.656313613518,0.249690424461,0.502510019263,1.02865279171,-2.97314551019,0.132110600912,-1.32657664418,0.0429604728996
8.24,1.1008315516,0.853553249383,0.0592713797998,0.742829597322,-0.0959931088597,1.33854537708,-0.656313613518,0.249690424461,0.502510019263,1.02865279171,-2.97314551019,0.132110600912,-1.32657664418,0.0429604728996
8.26,1.11301391569,0.853605647077,0.0592713797998,0.742864484733,-0.0960105608872,1.33854537708,-0.656313613518,0.243550540785,0.505509117481,1.02861186558,-2.9731883579,0.132032912304,-1.31439793352,0.0429633614159
8.28,1.11301391569,0.853605647077,0.0592713797998,0.742864484733,-0.0960105608872,1.33854537708,-0.656313613518,0.243550540785,0.505509117481,1.02861186558,-2.9731883579,0.132032912304,-1.31439793352,0.0429633614159
8.3,1.12619117019,0.853588203372,0.0592364757448,0.742864484733,-0.0960105608872,1.33854537708,-0.656313613518,0.236879298228,0.508668925405,1.02862152339,-2.97315678026,0.132028863571,-1.30123946352,0.0429629750054
8.32,1.12619117019,0.853588203372,0.0592364757448,0.742864484733,-0.0960105608872,1.33854537708,-0.656313613518,0.236879298228,0.508668925405,1.02862152339,-2.97315678026,0.132028863571,-1.30123946352,0.0429629750054
8.34,1.13832120316,0.853588203372,0.0592539277723,0.742829597322,-0.0959931088597,1.33854537708,-0.656313613518,0.230686397112,0.511513777134,1.02863311391,-2.9731585804,0.132075573778,-1.28910018524,0.0429612843725
8.36,1.13832120316,0.853588203372,0.0592539277723,0.742829597322,-0.0959931088597,1.33854537708,-0.656313613518,0.230686397112,0.511513777134,1.02863311391,-2.9731585804,0.132075573778,-1.28910018524,0.0429612843725
8.38,1.1509399262,0.853605647077,0.0592713797998,0.742847041028,-0.0959931088597,1.33854537708,-0.656313613518,0.224206738892,0.514384060062,1.0286175543,-2.97319112027,0.13205740498,-1.27647349771,0.0429625209635
8.4,1.1509399262,0.853605647077,0.0592713797998,0.742847041028,-0.0959931088597,1.33854537708,-0.656313613518,0.224206738892,0.514384060062,1.0286175543,-2.97319112027,0.13205740498,-1.27647349771,0.0429625209635
8.42,1.16282561414,0.853605647077,0.0592539277723,0.742864484733,-0.0959931088597,1.33854537708,-0.656313613518,0.218081551288,0.517007416298,1.0286116525,-2.97319208226,0.132035187267,-1.26459862847,0.0429633711327
8.44,1.16282561414,0.853605647077,0.0592539277723,0.742864484733,-0.0959931088597,1.33854537708,-0.656313613518,0.218081551288,0.517007416298,1.0286116525,-2.97319208226,0.132035187267,-1.26459862847,0.0429633711327
8.46,1.17385616106,0.853588203372,0.0592713797998,0.742847041028,-0.0959931088597,1.33854537708,-0.656313613518,0.212360996425,0.519386145165,1.02862734199,-2.97317959431,0.132070585978,-1.2535557451,0.0429621197167
8.48,1.17385616106,0.853588203372,0.0592713797998,0.742847041028,-0.0959931088597,1.33854537708,-0.656313613518,0.212360996425,0.519386145165,1.02862734199,-2.97317959431,0.132070585978,-1.2535557451,0.0429621197167
8.5,1.18371718079,0.853623090782,0.0592539277723,0.742864484733,-0.0959931088597,1.33854537708,-0.656313613518,0.207233807585,0.521450709676,1.02860186486,-2.973203608,0.132022006129,-1.24370857913,0.0429637723708
8.52,1.18371718079,0.853623090782,0.0592539277723,0.742864484733,-0.0959931088597,1.33854537708,-0.656313613518,0.207233807585,0.521450709676,1.02860186486,-2.973203608,0.132022006129,-1.24370857913,0.0429637723708
8.54,1.19256606614,0.853570693088,0.0592713797998,0.742847041028,-0.0959931088597,1.33854537708,-0.656313613518,0.202606576572,0.523267877234,1.02863716703,-2.97316802432,0.132083817267,-1.23484431632,0.0429617169274
8.56,1.19256606614,0.853570693088,0.0592713797998,0.742847041028,-0.0959931088597,1.33854537708,-0.656313613518,0.202606576572,0.523267877234,1.02863716703,-2.97316802432,0.132083817267,-1.23484431632,0.0429617169274
8.58,1.20078657864,0.853605647077,0.0592713797998,0.742864484733,-0.0959931088597,1.33854537708,-0.656313613518,0.198297320168,0.524913708398,1.02861171749,-2.97320210825,0.132043802268,-1.22662751326,0.0429633637125
8.6,1.20078657864,0.853605647077,0.0592713797998,0.742864484733,-0.0959931088597,1.33854537708,-0.656313613518,0.198297320168,0.524913708398,1.02861171749,-2.97320210825,0.132043802268,-1.22662751326,0.0429633637125
8.62,1.20762823948,0.853605647077,0.0592713797998,0.742864484733,-0.0959931088597,1.33854537708,-0.656313613518,0.194701425657,0.526258095707,1.02861171749,-2.97320210825,0.132043802268,-1.21978585242,0.0429633637125
8.64,1.20762823948,0.853605647077,0.0592713797998,0.742864484733,-0.0959931088597,1.33854537708,-0.656313613518,0.194701425657,0.526258095707,1.02861171749,-2.97320210825,0.132043802268,-1.21978585242,0.0429633637125
8.66,1.21331794999,0.853588203372,0.0592713797998,0.742847041028,-0.0959931088597,1.33854537708,-0.656313613518,0.191705082765,0.527359765088,1.02862734199,-2.97317959431,0.132070585978,-1.21409395617,0.0429621197167
8.68,1.21331794999,0.853588203372,0.0592713797998,0.742847041028,-0.0959931088597,1.33854537708,-0.656313613518,0.191705082765,0.527359765088,1.02862734199,-2.97317959431,0.132070585978,-1.21409395617,0.0429621197167
8.7,1.21792561815,0.853588203372,0.0592713797998,0.742847041028,-0.0959931088597,1.33854537708,-0.656313613518,0.18927315756,0.528237477295,1.02862734199,-2.97317959431,0.132070585978,-1.20948628801,0.0429621197167
8.72,1.21792561815,0.853588203372,0.0592713797998,0.742847041028,-0.0959931088597,1.33854537708,-0.656313613518,0.18927315756,0.528237477295,1.02862734199,-2.97317959431,0.132070585978,-1.20948628801,0.0429621197167
8.74,1.2209799976,0.853588203372,0.0592713797998,0.742864484733,-0.0959931088597,1.33854537708,-0.656313613518,0.187657668028,0.528810330628,1.02862150513,-2.97319058232,0.132056983273,-1.20643257672,0.0429629624632
8.76,1.2209799976,0.853588203372,0.0592713797998,0.742864484733,-0.0959931088597,1.33854537708,-0.656313613518,0.187657668028,0.528810330628,1.02862150513,-2.97319058232,0.132056983273,-1.20643257672,0.0429629624632
8.78,1.22349322272,0.853588203372,0.0592713797998,0.742864484733,-0.0959931088597,1.33852793338,-0.656313613518,0.186328901505,0.529283062559,1.02862211515,-2.97317963047,0.132070607488,-1.20391701489,0.0429628916234
8.8,1.22349322272,0.853588203372,0.0592713797998,0.742864484733,-0.0959931088597,1.33852793338,-0.656313613518,0.186328901505,0.529283062559,1.02862211515,-2.97317963047,0.132070607488,-1.20391701489,0.0429628916234
8.82,1.22483718697,0.853623090782,0.0592713797998,0.742864484733,-0.0959931088597,1.33854537708,-0.656313613518,0.185616834861,0.529531001148,1.02860192985,-2.97321363414,0.132030621245,-1.20257842236,0.0429637649508
8.84,1.22548287037,0.853588203372,0.0592539277723,0.742864484733,-0.0960105608872,1.33854537708,-0.656313613518,0.185616834861,0.529531001148,1.02860192985,-2.97321363414,0.132030621245,-1.20257842236,0.0429637649508
8.86,1.22548287037,0.853588203372,0.0592539277723,0.742864484733,-0.0960105608872,1.33854537708,-0.656313613518,0.185283142402,0.529647082196,1.02862158827,-2.97316680614,0.132037478377,-1.20193761232,0.0429629675871
8.88,1.22523852534,0.853588203372,0.0592364757448,0.742829597322,-0.0959931088597,1.33852793338,-0.656331057223,0.185283142402,0.529647082196,1.02862158827,-2.97316680614,0.132037478377,-1.20193761232,0.0429629675871
8.9,1.22523852534,0.853588203372,0.0592364757448,0.742829597322,-0.0959931088597,1.33852793338,-0.656331057223,0.185418743455,0.529609010843,1.02863365911,-2.97313531786,0.132077658477,-1.20217332852,0.0429612209498
8.92,1.22427872209,0.853605647077,0.0592713797998,0.742864484733,-0.0959931088597,1.33854537708,-0.656313613518,0.185418743455,0.529609010843,1.02863365911,-2.97313531786,0.132077658477,-1.20217332852,0.0429612209498
8.94,1.22427872209,0.853605647077,0.0592713797998,0.742864484733,-0.0959931088597,1.33854537708,-0.656313613518,0.185912390513,0.529426870779,1.02861171749,-2.97320210825,0.132043802268,-1.20313536982,0.0429633637125
8.96,1.22225405387,0.853657978192,0.0592713797998,0.742881928438,-0.0959931088597,1.33854537708,-0.656313613518,0.185912390513,0.529426870779,1.02861171749,-2.97320210825,0.132043802268,-1.20313536982,0.0429633637125
8.98,1.22225405387,0.853657978192,0.0592713797998,0.742881928438,-0.0959931088597,1.33854537708,-0.656313613518,0.186983176161,0.529047739844,1.02857651795,-2.97324767365,0.131990656406,-1.20516525722,0.0429654101333
9.0,1.21897290625,0.853623090782,0.0592888359885,0.742847041028,-0.0959931088597,1.33852793338,-0.656313613518,0.18871520634,0.528441015435,1.02860844166,-2.97320172285,0.13206646551,-1.20842954604,0.0429628439368
9.02,1.21897290625,0.853623090782,0.0592888359885,0.742847041028,-0.0959931088597,1.33852793338,-0.656313613518,0.18871520634,0.528441015435,1.02860844166,-2.97320172285,0.13206646551,-1.20842954604,0.0429628439368
9.04,1.21403354137,0.853623090782,0.0592888359885,0.742847041028,-0.0959931088597,1.33854537708,-0.656313613518,0.191322186303,0.527499671272,1.02860783169,-2.97321267466,0.132052841244,-1.21337124732,0.0429629147756
9.06,1.21403354137,0.853623090782,0.0592888359885,0.742847041028,-0.0959931088597,1.33854537708,-0.656313613518,0.191322186303,0.527499671272,1.02860783169,-2.97321267466,0.132052841244,-1.21337124732,0.0429629147756
9.08,1.20815181695,0.853623090782,0.0594110085035,0.742847041028,-0.0959931088597,1.33854537708,-0.656313613518,0.194381232096,0.526380088109,1.02860828947,-2.97328285983,0.132113154745,-1.21918191636,0.0429628627577
9.1,1.20815181695,0.853623090782,0.0594110085035,0.742847041028,-0.0959931088597,1.33854537708,-0.656313613518,0.194381232096,0.526380088109,1.02860828947,-2.97328285983,0.132113154745,-1.21918191636,0.0429628627577
9.12,1.19956485349,0.853588203372,0.0595506330461,0.742829597322,-0.0959756568322,1.33854537708,-0.656313613518,0.198846385103,0.52471184004,1.02863408229,-2.97334277271,0.132232940681,-1.22768621795,0.0429611602258
9.14,1.19956485349,0.853588203372,0.0595506330461,0.742829597322,-0.0959756568322,1.33854537708,-0.656313613518,0.198846385103,0.52471184004,1.02863408229,-2.97334277271,0.132232940681,-1.22768621795,0.0429611602258
9.16,1.18886587012,0.853657978192,0.059393556476,0.742864484733,-0.0959931088597,1.33854537708,-0.656313613518,0.204500943874,0.522529383475,1.02858281181,-2.97330687589,0.132064575575,-1.23848171595,0.0429645153908
