GitHatake/ROS1EARs/catkin_ws/src/torobo_robot/torobo_EARs2021/scripts/arm/2021_kaiya_csv/test_manipulability_20220119_4.csv
time,joint_1,joint_2,joint_3,joint_4,joint_5,joint_6,joint_7,x,y,z,roll,pitch,yaw,manipulability
0.0,-0.0776322443298,0.142872650305,0.245759817699,1.50408986728,-0.0496371656911,1.22413903929,-0.657116490007,0.383463632552,0.0521595450591,1.11679107103,-2.95922573332,0.207197926357,-2.29412069681,0.0378671854331
0.02,-0.0776322443298,0.142872650305,0.245742357349,1.50408986728,-0.0496371656911,1.22413903929,-0.657116490007,0.383464555496,0.0521531949507,1.11679086782,-2.95922420457,0.20719594074,-2.29413766477,0.0378673324989
0.04,-0.0776322443298,0.142872650305,0.245742357349,1.50408986728,-0.0496371656911,1.22413903929,-0.657116490007,0.383464555496,0.0521531949507,1.11679086782,-2.95922420457,0.20719594074,-2.29413766477,0.0378673324989
0.06,-0.0776322443298,0.142872650305,0.245707453294,1.50405497987,-0.0496546177186,1.22412159558,-0.657116490007,0.383476115504,0.0521388957681,1.11680334923,-2.95917367561,0.207221690844,-2.29416151367,0.037867341358
0.08,-0.0776322443298,0.142872650305,0.245707453294,1.50405497987,-0.0496546177186,1.22412159558,-0.657116490007,0.383476115504,0.0521388957681,1.11680334923,-2.95917367561,0.207221690844,-2.29416151367,0.037867341358
0.1,-0.0776671483848,0.14290755436,0.245689992944,1.50405497987,-0.0496720697461,1.22410415188,-0.657116490007,0.383486029074,0.0521165999768,1.11679078863,-2.95917561099,0.207201346674,-2.29421258537,0.0378681330333
0.12,-0.0776671483848,0.14290755436,0.245689992944,1.50405497987,-0.0496720697461,1.22410415188,-0.657116490007,0.383486029074,0.0521165999768,1.11679078863,-2.95917561099,0.207201346674,-2.29421258537,0.0378681330333
0.14,-0.0776671483848,0.14290755436,0.245707453294,1.50408986728,-0.0496720697461,1.22412159558,-0.657116490007,0.383475860913,0.0521218054879,1.11677814591,-2.95921077366,0.207162678066,-2.29420158732,0.0378682708945
0.16,-0.0776671483848,0.14290755436,0.245707453294,1.50408986728,-0.0496720697461,1.22412159558,-0.657116490007,0.383475860913,0.0521218054879,1.11677814591,-2.95921077366,0.207162678066,-2.29420158732,0.0378682708945
0.18,-0.0776496963573,0.142855206599,0.245707453294,1.50408986728,-0.0496371656911,1.22412159558,-0.657116490007,0.383468177246,0.0521344522088,1.11679786456,-2.95919573058,0.207216051022,-2.29418354808,0.0378669644341
0.2,-0.0776496963573,0.142855206599,0.245707453294,1.50408986728,-0.0496371656911,1.22412159558,-0.657116490007,0.383468177246,0.0521344522088,1.11679786456,-2.95919573058,0.207216051022,-2.29418354808,0.0378669644341
0.22,-0.0776671483848,0.142872650305,0.245707453294,1.50408986728,-0.0496371656911,1.22413903929,-0.657116490007,0.383468219857,0.052127116174,1.11679046163,-2.95922114844,0.207191971475,-2.29420648855,0.0378676264598
0.24,-0.0776671483848,0.142872650305,0.245707453294,1.50408986728,-0.0496371656911,1.22413903929,-0.657116490007,0.383468219857,0.052127116174,1.11679046163,-2.95922114844,0.207191971475,-2.29420648855,0.0378676264598
0.26,-0.0776671483848,0.142890110654,0.245707453294,1.50408986728,-0.0496371656911,1.22413903929,-0.657116490007,0.383468219857,0.052127116174,1.11679046163,-2.95922114844,0.207191971475,-2.29420648855,0.0378676264598
0.28,-0.0776671483848,0.142890110654,0.245707453294,1.50408986728,-0.0496371656911,1.22413903929,-0.657116490007,0.383470165815,0.0521269647323,1.11678385693,-2.95923539793,0.207181463956,-2.29420941978,0.0378680623514
0.3,-0.0776322443298,0.14299482282,0.245759817699,1.5041247547,-0.0496197095024,1.22413903929,-0.657116490007,0.383470165815,0.0521269647323,1.11678385693,-2.95923539793,0.207181463956,-2.29420941978,0.0378680623514
0.32,-0.0776322443298,0.14299482282,0.245759817699,1.5041247547,-0.0496197095024,1.22413903929,-0.657116490007,0.383470340333,0.0521605839819,1.11673277494,-2.95936173464,0.207108272068,-2.29414871487,0.0378702939903
0.34,-0.0776322443298,0.142977379114,0.245724913644,1.50410731099,-0.0496371656911,1.22413903929,-0.657116490007,0.383470340333,0.0521605839819,1.11673277494,-2.95936173464,0.207108272068,-2.29414871487,0.0378702939903
0.36,-0.0776322443298,0.142977379114,0.245724913644,1.50410731099,-0.0496371656911,1.22413903929,-0.657116490007,0.383473930028,0.0521456166917,1.11674502849,-2.95931937254,0.207117396216,-2.29417390015,0.0378701231727
0.38,-0.0776322443298,0.143029726875,0.245742357349,1.50410731099,-0.0496371656911,1.22413903929,-0.657116490007,0.383478839579,0.0521515070984,1.11672542972,-2.95936362192,0.207087879294,-2.29416573329,0.0378712832794
0.4,-0.0776322443298,0.143029726875,0.245742357349,1.50410731099,-0.0496371656911,1.22413903929,-0.657116490007,0.383478839579,0.0521515070984,1.11672542972,-2.95936362192,0.207087879294,-2.29416573329,0.0378712832794
0.42,-0.0776322443298,0.143047187225,0.245742357349,1.50408986728,-0.0496371656911,1.22412159558,-0.657116490007,0.38348681414,0.0521521747893,1.11672564895,-2.95935546492,0.207104490986,-2.29416440246,0.037871463621
0.44,-0.0776322443298,0.143047187225,0.245742357349,1.50408986728,-0.0496371656911,1.22412159558,-0.657116490007,0.38348681414,0.0521521747893,1.11672564895,-2.95935546492,0.207104490986,-2.29416440246,0.037871463621
0.46,-0.0776322443298,0.14306463093,0.245724913644,1.50407242358,-0.0496371656911,1.22412159558,-0.657116490007,0.383492897249,0.0521460058346,1.11672486708,-2.9593569461,0.207105543902,-2.29418257753,0.0378720170069
0.48,-0.0776322443298,0.14306463093,0.245724913644,1.50407242358,-0.0496371656911,1.22412159558,-0.657116490007,0.383492897249,0.0521460058346,1.11672486708,-2.9593569461,0.207105543902,-2.29418257753,0.0378720170069
0.5,-0.0776322443298,0.143134455684,0.245724913644,1.50408986728,-0.0496371656911,1.22410415188,-0.657133933713,0.383500266959,0.0521455671722,1.11669323645,-2.95941036884,0.207060408545,-2.29417590968,0.037873563125
0.52,-0.0776322443298,0.143134455684,0.245724913644,1.50408986728,-0.0496371656911,1.22410415188,-0.657133933713,0.383500266959,0.0521455671722,1.11669323645,-2.95941036884,0.207060408545,-2.29417590968,0.037873563125
0.54,-0.0776322443298,0.14315189939,0.245742357349,1.50408986728,-0.0496371656911,1.22410415188,-0.657116490007,0.383501287462,0.0521517602343,1.11668684086,-2.95942973826,0.207055058577,-2.29417941499,0.0378738518401
0.56,-0.0776322443298,0.14315189939,0.245742357349,1.50408986728,-0.0496371656911,1.22410415188,-0.657116490007,0.383501287462,0.0521517602343,1.11668684086,-2.95942973826,0.207055058577,-2.29417941499,0.0378738518401
0.58,-0.0776322443298,0.143221724144,0.245742357349,1.50408986728,-0.0496371656911,1.22408670817,-0.657133933713,0.383511873194,0.0521516480867,1.11666122942,-2.9594719365,0.207023461322,-2.29417104271,0.0378753690469
0.6,-0.0776322443298,0.143221724144,0.245742357349,1.50408986728,-0.0496371656911,1.22408670817,-0.657133933713,0.383511873194,0.0521516480867,1.11666122942,-2.9594719365,0.207023461322,-2.29417104271,0.0378753690469
0.62,-0.0776322443298,0.143291532255,0.245724913644,1.50408986728,-0.0496371656911,1.22410415188,-0.657133933713,0.383517753855,0.0521442068914,1.11663381283,-2.95953855369,0.206965878924,-2.2942022565,0.0378774860241
0.64,-0.0776322443298,0.143291532255,0.245724913644,1.50408986728,-0.0496371656911,1.22410415188,-0.657133933713,0.383517753855,0.0521442068914,1.11663381283,-2.95953855369,0.206965878924,-2.2942022565,0.0378774860241
0.66,-0.0776322443298,0.14350097323,0.245707453294,1.50408986728,-0.0496371656911,1.22410415188,-0.657133933713,0.383541978472,0.0521360440373,1.11655437089,-2.95970792788,0.206837836837,-2.29425433199,0.0378828648214
0.68,-0.0776322443298,0.14350097323,0.245707453294,1.50408986728,-0.0496371656911,1.22410415188,-0.657133933713,0.383541978472,0.0521360440373,1.11655437089,-2.95970792788,0.206837836837,-2.29425433199,0.0378828648214
0.7,-0.0776322443298,0.14397220294,0.245707453294,1.50407242358,-0.0496371656911,1.22410415188,-0.657133933713,0.383597569638,0.0521322962756,1.11638208916,-2.96008120407,0.206567746196,-2.29433154874,0.037894611994
0.72,-0.0776322443298,0.14397220294,0.245707453294,1.50407242358,-0.0496371656911,1.22410415188,-0.657133933713,0.383597569638,0.0521322962756,1.11638208916,-2.96008120407,0.206567746196,-2.29433154874,0.037894611994
0.74,-0.0776322443298,0.144373641184,0.245724913644,1.50408986728,-0.0496371656911,1.22410415188,-0.657116490007,0.383597569638,0.0521322962756,1.11638208916,-2.96008120407,0.206567746196,-2.29433154874,0.037894611994
0.76,-0.0776322443298,0.144373641184,0.245724913644,1.50408986728,-0.0496371656911,1.22410415188,-0.657116490007,0.383637969113,0.0521348555175,1.11622436557,-2.96042507894,0.206317712592,-2.29440094055,0.0379045306646
0.78,-0.0776322443298,0.14487977495,0.245724913644,1.50408986728,-0.0496371656911,1.22412159558,-0.657116490007,0.383637969113,0.0521348555175,1.11622436557,-2.96042507894,0.206317712592,-2.29440094055,0.0379045306646
0.8,-0.0776322443298,0.14487977495,0.245724913644,1.50408986728,-0.0496371656911,1.22412159558,-0.657116490007,0.383691232659,0.0521300009637,1.11603201146,-2.9608491391,0.205999429366,-2.29448799804,0.0379174184902
0.82,-0.0776322443298,0.146014248284,0.245742357349,1.50405497987,-0.0496371656911,1.22410415188,-0.657133933713,0.383824937466,0.0521277372861,1.11561557517,-2.96173879304,0.205355915497,-2.29463661561,0.0379453960393
0.84,-0.0776322443298,0.146014248284,0.245742357349,1.50405497987,-0.0496371656911,1.22410415188,-0.657133933713,0.383824937466,0.0521277372861,1.11561557517,-2.96173879304,0.205355915497,-2.29463661561,0.0379453960393
0.86,-0.0776147923022,0.148213353555,0.245759817699,1.50408986728,-0.0496197095024,1.22412159558,-0.657133933713,0.383824937466,0.0521277372861,1.11561557517,-2.96173879304,0.205355915497,-2.29463661561,0.0379453960393
0.88,-0.0776147923022,0.148213353555,0.245759817699,1.50408986728,-0.0496197095024,1.22412159558,-0.657133933713,0.384054931703,0.0521236061107,1.11477004518,-2.96358069063,0.204003673902,-2.29497658636,0.0380007016453
0.9,-0.0775973402747,0.151930910055,0.245759817699,1.50405497987,-0.0496022574748,1.22410415188,-0.657116490007,0.384467149769,0.0521027648208,1.11337359459,-2.96659312874,0.201817769047,-2.29558544129,0.0380940010291
0.92,-0.0775973402747,0.151930910055,0.245759817699,1.50405497987,-0.0496022574748,1.22410415188,-0.657116490007,0.384467149769,0.0521027648208,1.11337359459,-2.96659312874,0.201817769047,-2.29558544129,0.0380940010291
0.94,-0.0775973402747,0.15699236422,0.245777261404,1.50405497987,-0.0496022574748,1.22408670817,-0.657133933713,0.385011084117,0.0520674558238,1.11145353915,-2.97069923692,0.198777132431,-2.29636811285,0.0382216553581
0.96,-0.0775973402747,0.15699236422,0.245777261404,1.50405497987,-0.0496022574748,1.22408670817,-0.657133933713,0.385011084117,0.0520674558238,1.11145353915,-2.97069923692,0.198777132431,-2.29636811285,0.0382216553581
0.98,-0.0775973402747,0.163764250239,0.245899433919,1.50403753617,-0.0495149890149,1.22405182076,-0.657151377418,0.38572132527,0.0520717314256,1.10888798665,-2.97624710054,0.194795032056,-2.29732340893,0.0383925381611
1.0,-0.0775973402747,0.163764250239,0.245899433919,1.50403753617,-0.0495149890149,1.22405182076,-0.657151377418,0.38572132527,0.0520717314256,1.10888798665,-2.97624710054,0.194795032056,-2.29732340893,0.0383925381611
1.02,-0.0775624278973,0.172054554199,0.246004162729,1.5040025156,-0.0496022574748,1.22405182076,-0.657151377418,0.386568790032,0.0520444412932,1.10574326292,-2.98289258949,0.189767983253,-2.29844824575,0.038604287208
1.04,-0.0775624278973,0.172054554199,0.246004162729,1.5040025156,-0.0496022574748,1.22405182076,-0.657151377418,0.386568790032,0.0520444412932,1.10574326292,-2.98289258949,0.189767983253,-2.29844824575,0.038604287208
1.06,-0.0775973402747,0.181863309389,0.245899433919,1.50396762819,-0.0495498972311,1.22401680019,-0.657151377418,0.387554167833,0.051927534675,1.10200926358,-2.99081976852,0.183897299713,-2.30006547008,0.0388584875
1.08,-0.0775973402747,0.181863309389,0.245899433919,1.50396762819,-0.0495498972311,1.22401680019,-0.657151377418,0.387554167833,0.051927534675,1.10200926358,-2.99081976852,0.183897299713,-2.30006547008,0.0388584875
1.1,-0.0775973402747,0.191584796119,0.245899433919,1.50382807855,-0.0495673492586,1.22389469426,-0.657151377418,0.388524810266,0.0518589451047,1.09833918217,-2.99849357348,0.178189216389,-2.30145102128,0.0391106115149
1.12,-0.0775973402747,0.191584796119,0.245899433919,1.50382807855,-0.0495673492586,1.22389469426,-0.657151377418,0.388524810266,0.0518589451047,1.09833918217,-2.99849357348,0.178189216389,-2.30145102128,0.0391106115149
1.14,-0.0775100718148,0.201079381524,0.246091431189,1.50367095205,-0.0495498972311,1.22361546182,-0.657168821123,0.389453823979,0.0519086992395,1.0947613648,-3.00590699262,0.17279543,-2.30246192251,0.0393552704993
1.16,-0.0775100718148,0.201079381524,0.246091431189,1.50367095205,-0.0495498972311,1.22361546182,-0.657168821123,0.389453823979,0.0519086992395,1.0947613648,-3.00590699262,0.17279543,-2.30246192251,0.0393552704993
1.18,-0.0775275238423,0.211149925449,0.245969258674,1.50360117722,-0.0495673492586,1.22134644857,-0.657151377418,0.390729604968,0.051851055377,1.09098886878,-3.01251505862,0.168469438471,-2.303740952,0.0395939960088
1.2,-0.0775275238423,0.211149925449,0.245969258674,1.50360117722,-0.0495673492586,1.22134644857,-0.657151377418,0.390729604968,0.051851055377,1.09098886878,-3.01251505862,0.168469438471,-2.303740952,0.0395939960088
1.22,-0.0774751677597,0.220068568979,0.246231047409,1.50354884611,-0.0495498972311,1.21724491417,-0.657168821123,0.3921459517,0.0520273510367,1.08771115783,-3.01712202181,0.166346741134,-2.30420130234,0.03977664208
1.24,-0.0774751677597,0.220068568979,0.246231047409,1.50354884611,-0.0495498972311,1.21724491417,-0.657168821123,0.3921459517,0.0520273510367,1.08771115783,-3.01712202181,0.166346741134,-2.30420130234,0.03977664208
1.26,-0.0774228033548,0.229632962494,0.246370680274,1.50328705737,-0.0495498972311,1.20884996463,-0.657168821123,0.394340838899,0.0522784824031,1.08438250036,-3.01939522708,0.16733717741,-2.30444990118,0.0399216496164
1.28,-0.0774228033548,0.229632962494,0.246370680274,1.50328705737,-0.0495498972311,1.20884996463,-0.657168821123,0.394340838899,0.0522784824031,1.08438250036,-3.01939522708,0.16733717741,-2.30444990118,0.0399216496164
1.3,-0.0771261022422,0.237644034014,0.246492852789,1.50325203681,-0.0494626329323,1.19541085482,-0.657168821123,0.397150311547,0.0527823968752,1.08174352667,-3.01746605055,0.173112799794,-2.30382583642,0.0399543950186
1.32,-0.0771261022422,0.237644034014,0.246492852789,1.50325203681,-0.0494626329323,1.19541085482,-0.657168821123,0.397150311547,0.0527823968752,1.08174352667,-3.01746605055,0.173112799794,-2.30382583642,0.0399543950186
1.34,-0.0769864693773,0.246178683004,0.246632469009,1.50312993087,-0.0487644977361,1.18064549079,-0.657186264828,0.400201572008,0.053361847408,1.07896774344,-3.01554728997,0.180051700547,-2.30346845264,0.0399773353322
1.36,-0.0769864693773,0.246178683004,0.246632469009,1.50312993087,-0.0487644977361,1.18064549079,-0.657186264828,0.400201572008,0.053361847408,1.07896774344,-3.01554728997,0.180051700547,-2.30346845264,0.0399773353322
1.38,-0.0769864693773,0.254626080179,0.247365520744,1.50319970569,-0.0472460631511,1.16767762733,-0.657168821123,0.402837967573,0.0541798306651,1.07610048304,-3.01555342633,0.186102027852,-2.30320990504,0.0400137707998
1.4,-0.0769864693773,0.254626080179,0.247365520744,1.50319970569,-0.0472460631511,1.16767762733,-0.657168821123,0.402837967573,0.0541798306651,1.07610048304,-3.01555342633,0.186102027852,-2.30320990504,0.0400137707998
1.42,-0.0770213817547,0.261886656259,0.249931143559,1.50325203681,-0.0425162224761,1.15785136186,-0.657186264828,0.404673088831,0.0560804534525,1.07363437243,-3.01939647795,0.192739482759,-2.30251134083,0.0400468686353
1.44,-0.0770213817547,0.261886656259,0.249931143559,1.50325203681,-0.0425162224761,1.15785136186,-0.657186264828,0.404673088831,0.0560804534525,1.07363437243,-3.01939647795,0.192739482759,-2.30251134083,0.0400468686353
1.46,-0.0767072202923,0.268501449064,0.254137390119,1.50316481828,-0.0380830829136,1.15265034141,-0.657186264828,0.405611100507,0.0585683872608,1.07133384696,-3.0256060072,0.196421083082,-2.30031234583,0.0401186380421
1.48,-0.0767072202923,0.268501449064,0.254137390119,1.50316481828,-0.0380830829136,1.15265034141,-0.657186264828,0.405611100507,0.0585683872608,1.07133384696,-3.0256060072,0.196421083082,-2.30031234583,0.0401186380421
1.5,-0.0757996482823,0.274400667129,0.260507837894,1.50295536066,-0.0372453273361,1.15156829906,-0.657203708533,0.405764412938,0.0614478952611,1.0692437824,-3.03129340851,0.195724307443,-2.29456889389,0.0402166151895
1.52,-0.0757996482823,0.274400667129,0.260507837894,1.50295536066,-0.0372453273361,1.15156829906,-0.657203708533,0.405764412938,0.0614478952611,1.0692437824,-3.03129340851,0.195724307443,-2.29456889389,0.0402166151895
1.54,-0.0749967967598,0.279339932134,0.266459420364,1.50290302954,-0.0378212858561,1.15151583478,-0.657186264828,0.405696459836,0.0638846931114,1.06743629596,-3.03579421068,0.193791639156,-2.28882060911,0.0403062887783
1.56,-0.0749967967598,0.279339932134,0.266459420364,1.50290302954,-0.0378212858561,1.15151583478,-0.657186264828,0.405696459836,0.0638846931114,1.06743629596,-3.03579421068,0.193791639156,-2.28882060911,0.0403062887783
1.58,-0.0749793447323,0.283546195339,0.271904852424,1.50314737457,-0.0385019648636,1.15156829906,-0.657186264828,0.405563653768,0.0657917847249,1.06581287305,-3.03979995648,0.19185109496,-2.28418206537,0.0403801679944
1.6,-0.0749793447323,0.283546195339,0.271904852424,1.50314737457,-0.0385019648636,1.15156829906,-0.657186264828,0.405563653768,0.0657917847249,1.06581287305,-3.03979995648,0.19185109496,-2.28418206537,0.0403801679944
1.62,-0.0749967967598,0.287228847784,0.275639852629,1.50325203681,-0.0396887859586,1.15158574276,-0.657186264828,0.405552034627,0.0669755427429,1.06440143681,-3.04259112709,0.189704076263,-2.28089219865,0.0404528896405
1.64,-0.0749967967598,0.287228847784,0.275639852629,1.50325203681,-0.0396887859586,1.15158574276,-0.657186264828,0.405552034627,0.0669755427429,1.06440143681,-3.04259112709,0.189704076263,-2.28089219865,0.0404528896405
1.66,-0.0747524517298,0.291103480854,0.278222935794,1.5032171494,-0.0405614497524,1.15156829906,-0.657186264828,0.405629754247,0.0678872053953,1.06293252448,-3.04549084349,0.187523896374,-2.27853675043,0.040540412812
1.68,-0.0747524517298,0.291103480854,0.278222935794,1.5032171494,-0.0405614497524,1.15156829906,-0.657186264828,0.405629754247,0.0678872053953,1.06293252448,-3.04549084349,0.187523896374,-2.27853675043,0.040540412812
1.7,-0.0741939452373,0.295170094549,0.279880986599,1.5032171494,-0.0405090936698,1.15158574276,-0.657186264828,0.405708407989,0.0687205109009,1.06135488,-3.04916906647,0.185523483468,-2.27708345087,0.0406417746845
1.72,-0.0741939452373,0.295170094549,0.279880986599,1.5032171494,-0.0405090936698,1.15158574276,-0.657186264828,0.405708407989,0.0687205109009,1.06135488,-3.04916906647,0.185523483468,-2.27708345087,0.0406417746845
1.74,-0.0730943926022,0.299533417679,0.281015459934,1.5032171494,-0.0405614497524,1.15156829906,-0.657186264828,0.405802030576,0.0695631736776,1.05964452789,-3.05289808591,0.183197143624,-2.27557220362,0.0407556137349
1.76,-0.0730943926022,0.299533417679,0.281015459934,1.5032171494,-0.0405614497524,1.15156829906,-0.657186264828,0.405802030576,0.0695631736776,1.05964452789,-3.05289808591,0.183197143624,-2.27557220362,0.0407556137349
1.78,-0.0729198556823,0.303809455704,0.281137632449,1.50314737457,-0.0408057989436,1.15155072219,-0.657186264828,0.406037967481,0.0696274313363,1.05796033396,-3.05618053709,0.180624574979,-2.27582751252,0.0408758667914
1.8,-0.0729198556823,0.303809455704,0.281137632449,1.50314737457,-0.0408057989436,1.15155072219,-0.657186264828,0.406037967481,0.0696274313363,1.05796033396,-3.05618053709,0.180624574979,-2.27582751252,0.0408758667914
1.82,-0.0731118446297,0.308399680159,0.281120188744,1.50325203681,-0.0416959147649,1.15156829906,-0.657186264828,0.406291265129,0.069387801984,1.05608321136,-3.05931555868,0.17728661986,-2.27638487352,0.0410064614792
1.84,-0.0731118446297,0.308399680159,0.281120188744,1.50325203681,-0.0416959147649,1.15156829906,-0.657186264828,0.406291265129,0.069387801984,1.05608321136,-3.05931555868,0.17728661986,-2.27638487352,0.0410064614792
1.86,-0.0729896721147,0.314141821654,0.281137632449,1.50319970569,-0.0431096330236,1.15162063017,-0.657186264828,0.406616071593,0.0692075694877,1.05379068644,-3.06290870545,0.173062838622,-2.27655030084,0.0411706446249
1.88,-0.0729896721147,0.314141821654,0.281137632449,1.50319970569,-0.0431096330236,1.15162063017,-0.657186264828,0.406616071593,0.0692075694877,1.05379068644,-3.06290870545,0.173062838622,-2.27655030084,0.0411706446249
1.9,-0.0728849516272,0.320634441944,0.281242361259,1.50332194478,-0.0435459628399,1.15156829906,-0.657186264828,0.406902403066,0.0691997898713,1.05115208335,-3.06794148026,0.168937476458,-2.27709169756,0.0413537477517
1.92,-0.0728849516272,0.320634441944,0.281242361259,1.50332194478,-0.0435459628399,1.15156829906,-0.657186264828,0.406902403066,0.0691997898713,1.05115208335,-3.06794148026,0.168937476458,-2.27709169756,0.0413537477517
1.94,-0.0729198556823,0.328331343679,0.281294725664,1.5032171494,-0.0434936067573,1.15151583478,-0.657186264828,0.407276131053,0.069191634035,1.04810289223,-3.0741830789,0.164545927996,-2.27813725235,0.0415726808362
1.96,-0.0729198556823,0.328331343679,0.281294725664,1.5032171494,-0.0434936067573,1.15151583478,-0.657186264828,0.407276131053,0.069191634035,1.04810289223,-3.0741830789,0.164545927996,-2.27813725235,0.0415726808362
1.98,-0.0729198556823,0.335591919759,0.281294725664,1.50316481828,-0.0435285108124,1.15151583478,-0.657203708533,0.407591597886,0.0691652604128,1.04520548295,-3.08004382981,0.160259180904,-2.27906376158,0.0417805475261
2.0,-0.0729198556823,0.335591919759,0.281294725664,1.50316481828,-0.0435285108124,1.15151583478,-0.657203708533,0.407591597886,0.0691652604128,1.04520548295,-3.08004382981,0.160259180904,-2.27906376158,0.0417805475261
2.02,-0.0729373077098,0.342520865704,0.281259804964,1.50312993087,-0.0435459628399,1.15151583478,-0.657186264828,0.407872492534,0.0691235522925,1.04243247218,-3.08564959928,0.156153330013,-2.28001328944,0.0419794075108
2.04,-0.0729373077098,0.342520865704,0.281259804964,1.50312993087,-0.0435459628399,1.15151583478,-0.657186264828,0.407872492534,0.0691235522925,1.04243247218,-3.08564959928,0.156153330013,-2.28001328944,0.0419794075108
2.06,-0.0729373077098,0.348943677884,0.281242361259,1.50307759975,-0.0435634190286,1.15142861626,-0.657203708533,0.408133096317,0.0691012914946,1.03986925199,-3.0907696634,0.152428839096,-2.2808042524,0.0421625743557
2.08,-0.0729373077098,0.348943677884,0.281242361259,1.50307759975,-0.0435634190286,1.15142861626,-0.657203708533,0.408133096317,0.0691012914946,1.03986925199,-3.0907696634,0.152428839096,-2.2808042524,0.0421625743557
2.1,-0.0729373077098,0.354005148694,0.281224917554,1.50292047325,-0.0436855915436,1.15118427123,-0.657221152238,0.408388579716,0.0690745524209,1.03788754277,-3.09453383964,0.149656662937,-2.28136537169,0.0423048797498
2.12,-0.0729373077098,0.354005148694,0.281224917554,1.50292047325,-0.0436855915436,1.15118427123,-0.657221152238,0.408388579716,0.0690745524209,1.03788754277,-3.09453383964,0.149656662937,-2.28136537169,0.0423048797498
2.14,-0.0729547597373,0.358159014204,0.281224917554,1.50250155801,-0.0437204997598,1.14891539114,-0.657221152238,0.409003432344,0.0691338544612,1.0364019343,-3.09622143669,0.149284638562,-2.28178957562,0.0423920019671
2.16,-0.0729547597373,0.358159014204,0.281224917554,1.50250155801,-0.0437204997598,1.14891539114,-0.657221152238,0.409003432344,0.0691338544612,1.0364019343,-3.09622143669,0.149284638562,-2.28178957562,0.0423920019671
2.18,-0.0729373077098,0.362068567974,0.281224917554,1.50241433948,-0.0438252160861,1.14217839253,-0.657221152238,0.410258665947,0.0693372878243,1.03501869477,-3.09510860353,0.152291652993,-2.28196097363,0.0424035500602
2.2,-0.0729373077098,0.362068567974,0.281224917554,1.50241433948,-0.0438252160861,1.14217839253,-0.657221152238,0.410258665947,0.0693372878243,1.03501869477,-3.09510860353,0.152291652993,-2.28196097363,0.0424035500602
2.22,-0.0729373077098,0.366641315434,0.281242361259,1.50227465669,-0.0438775763299,1.13359129591,-0.657186264828,0.411843832822,0.0696072186881,1.03343034111,-3.093410239,0.15644335865,-2.28220599321,0.0424044778847
2.24,-0.0729373077098,0.366641315434,0.281242361259,1.50227465669,-0.0438775763299,1.13359129591,-0.657186264828,0.411843832822,0.0696072186881,1.03343034111,-3.093410239,0.15644335865,-2.28220599321,0.0424044778847
2.26,-0.0729373077098,0.370585756614,0.281242361259,1.50222232557,-0.0438601243024,1.12667986025,-0.657186264828,0.413104899392,0.0698261921298,1.03202512902,-3.09233363414,0.159608439001,-2.28244798068,0.0424111201047
2.28,-0.0729373077098,0.370585756614,0.281242361259,1.50222232557,-0.0438601243024,1.12667986025,-0.657186264828,0.413104899392,0.0698261921298,1.03202512902,-3.09233363414,0.159608439001,-2.28244798068,0.0424111201047
2.3,-0.0729547597373,0.373657546484,0.281207440559,1.50223976928,-0.0438950325186,1.1239397338,-0.657186264828,0.413637620547,0.0698827744541,1.03083971542,-3.09311641467,0.159899816953,-2.28277244524,0.0424570895976
2.32,-0.0729547597373,0.373657546484,0.281207440559,1.50223976928,-0.0438950325186,1.1239397338,-0.657186264828,0.413637620547,0.0698827744541,1.03083971542,-3.09311641467,0.159899816953,-2.28277244524,0.0424570895976
2.34,-0.0730071241422,0.375315597289,0.281172553149,1.50206519907,-0.0439299365736,1.12374771989,-0.657186264828,0.4137631602,0.0698487821773,1.03022194859,-3.09420182499,0.159168691369,-2.28304885924,0.0425030351602
2.36,-0.0730071241422,0.375315597289,0.281172553149,1.50206519907,-0.0439299365736,1.12374771989,-0.657186264828,0.4137631602,0.0698487821773,1.03022194859,-3.09420182499,0.159168691369,-2.28304885924,0.0425030351602
2.38,-0.0730071241422,0.375804287349,0.281189996854,1.5018384309,-0.0439299365736,1.12369538877,-0.657186264828,0.413840960934,0.0698598972425,1.03009543888,-3.09442890996,0.159100613667,-2.28309482953,0.0425171752327
2.4,-0.0730071241422,0.375804287349,0.281189996854,1.5018384309,-0.0439299365736,1.12369538877,-0.657186264828,0.413840960934,0.0698598972425,1.03009543888,-3.09442890996,0.159100613667,-2.28309482953,0.0425171752327
2.42,-0.0730071241422,0.375751922944,0.281207440559,1.50159408587,-0.0438775763299,1.12367794507,-0.657186264828,0.413902324696,0.0698790176546,1.03019451808,-3.09426755923,0.159371344065,-2.28309400473,0.0425162846026
2.44,-0.0730071241422,0.375751922944,0.281207440559,1.50159408587,-0.0438775763299,1.12367794507,-0.657186264828,0.413902324696,0.0698790176546,1.03019451808,-3.09426755923,0.159371344065,-2.28309400473,0.0425162846026
2.46,-0.0730071241422,0.375769399939,0.281207440559,1.50152417789,-0.0438601243024,1.12367794507,-0.657186264828,0.413920121401,0.0698827619926,1.0302093442,-3.09425167715,0.159425430182,-2.28310361861,0.0425170860022
2.48,-0.0730071241422,0.375769399939,0.281207440559,1.50152417789,-0.0438601243024,1.12367794507,-0.657186264828,0.413920121401,0.0698827619926,1.0302093442,-3.09425167715,0.159425430182,-2.28310361861,0.0425170860022
2.5,-0.0730420281973,0.375734479239,0.281207440559,1.50108781895,-0.0438252160861,1.12369538877,-0.657186264828,0.414029388198,0.0698802809339,1.03035949407,-3.09398857095,0.159792917224,-2.28315012178,0.0425181800234
2.52,-0.0730420281973,0.375734479239,0.281207440559,1.50108781895,-0.0438252160861,1.12369538877,-0.657186264828,0.414029388198,0.0698802809339,1.03035949407,-3.09398857095,0.159792917224,-2.28315012178,0.0425181800234
2.54,-0.0730420281973,0.375751922944,0.281207440559,1.49972654415,-0.0438252160861,1.12369538877,-0.657186264828,0.414377784696,0.0699027023201,1.03077710302,-3.09315199437,0.160844821768,-2.2831552065,0.0425242950774
2.56,-0.0730420281973,0.375751922944,0.281207440559,1.49972654415,-0.0438252160861,1.12369538877,-0.657186264828,0.414377784696,0.0699027023201,1.03077710302,-3.09315199437,0.160844821768,-2.2831552065,0.0425242950774
2.58,-0.0730420281973,0.375664671129,0.281189996854,1.49689906603,-0.0438601243024,1.12367794507,-0.657186264828,0.415101490379,0.0699377709699,1.03169596824,-3.09127159879,0.163092087798,-2.28314723386,0.0425328264608
2.6,-0.0730420281973,0.375664671129,0.281189996854,1.49689906603,-0.0438601243024,1.12367794507,-0.657186264828,0.415101490379,0.0699377709699,1.03169596824,-3.09127159879,0.163092087798,-2.28314723386,0.0425328264608
2.62,-0.0730071241422,0.375874095459,0.281224917554,1.49262309458,-0.0438601243024,1.12374771989,-0.657186264828,0.416176630522,0.0700312863642,1.03294976996,-3.08881852061,0.166259111283,-2.28310901362,0.0425555722598
2.64,-0.0730071241422,0.375874095459,0.281224917554,1.49262309458,-0.0438601243024,1.12374771989,-0.657186264828,0.416176630522,0.0700312863642,1.03294976996,-3.08881852061,0.166259111283,-2.28310901362,0.0425555722598
2.66,-0.0730071241422,0.375891572454,0.281207440559,1.48714270853,-0.0438601243024,1.12374771989,-0.657168821123,0.417561789678,0.070110219318,1.03466610938,-3.08540215148,0.170521241805,-2.28312820114,0.0425745088084
2.68,-0.0730071241422,0.375891572454,0.281207440559,1.48714270853,-0.0438601243024,1.12374771989,-0.657168821123,0.417561789678,0.070110219318,1.03466610938,-3.08540215148,0.170521241805,-2.28312820114,0.0425745088084
2.7,-0.0730071241422,0.376013744969,0.281207440559,1.48031849139,-0.0438775763299,1.12373027618,-0.657186264828,0.419278963454,0.0702108501918,1.03677336257,-3.0811998468,0.175776399648,-2.28307871064,0.0425974669825
2.72,-0.0730071241422,0.376013744969,0.281207440559,1.48031849139,-0.0438775763299,1.12373027618,-0.657186264828,0.419278963454,0.0702108501918,1.03677336257,-3.0811998468,0.175776399648,-2.28307871064,0.0425974669825
2.74,-0.0730245761698,0.376135917484,0.281189996854,1.47419228878,-0.0438950325186,1.12371283248,-0.657186264828,0.42081186217,0.0702835876791,1.03866875291,-3.07743027105,0.180482459116,-2.28306527361,0.0426156160327
2.76,-0.0730245761698,0.376135917484,0.281189996854,1.47419228878,-0.0438950325186,1.12371283248,-0.657186264828,0.42081186217,0.0702835876791,1.03866875291,-3.07743027105,0.180482459116,-2.28306527361,0.0426156160327
2.78,-0.0730420281973,0.376799144464,0.281172553149,1.46762986038,-0.0439124845461,1.1236603682,-0.657186264828,0.4224657738,0.0703587022156,1.04048848668,-3.07380327936,0.185233467155,-2.28310750579,0.0426473046741
2.8,-0.0730420281973,0.376799144464,0.281172553149,1.46762986038,-0.0439124845461,1.1236603682,-0.657186264828,0.4224657738,0.0703587022156,1.04048848668,-3.07380327936,0.185233467155,-2.28310750579,0.0426473046741
2.82,-0.0730245761698,0.380062881669,0.281207440559,1.46005516445,-0.0439299365736,1.12371283248,-0.657168821123,0.424428821178,0.0704675043828,1.04155321354,-3.07174181794,0.189155857161,-2.28346010216,0.0427564474267
2.84,-0.0730245761698,0.380062881669,0.281207440559,1.46005516445,-0.0439299365736,1.12371283248,-0.657168821123,0.424428821178,0.0704675043828,1.04155321354,-3.07174181794,0.189155857161,-2.28346010216,0.0427564474267
2.86,-0.0730071241422,0.387253649639,0.281207440559,1.45063037051,-0.0438950325186,1.123800051,-0.657151377418,0.426976280161,0.0705760233092,1.04156156183,-3.07177998641,0.192166885769,-2.28444937351,0.0429832396576
2.88,-0.0730071241422,0.387253649639,0.281207440559,1.45063037051,-0.0438950325186,1.123800051,-0.657151377418,0.426976280161,0.0705760233092,1.04156156183,-3.07177998641,0.192166885769,-2.28444937351,0.0429832396576
2.9,-0.0730420281973,0.398388858789,0.281189996854,1.43959995675,-0.0438950325186,1.12383493841,-0.657151377418,0.430064971061,0.0706498719004,1.0404031701,-3.07396096252,0.194077816911,-2.28608848937,0.043326259361
2.92,-0.0730420281973,0.398388858789,0.281189996854,1.43959995675,-0.0438950325186,1.12383493841,-0.657151377418,0.430064971061,0.0706498719004,1.0404031701,-3.07396096252,0.194077816911,-2.28608848937,0.043326259361
2.94,-0.0730071241422,0.409471703534,0.281189996854,1.42893599395,-0.0438950325186,1.12414905826,-0.657151377418,0.432998777107,0.070736167524,1.03910617076,-3.07650254986,0.195504912117,-2.28768766018,0.0436684317595
2.96,-0.0730071241422,0.409471703534,0.281189996854,1.42893599395,-0.0438950325186,1.12414905826,-0.657151377418,0.432998777107,0.070736167524,1.03910617076,-3.07650254986,0.195504912117,-2.28768766018,0.0436684317595
2.98,-0.0730420281973,0.421793717134,0.281155076154,1.41495586297,-0.0440172050336,1.12563270531,-0.657151377418,0.436589980474,0.0707384780204,1.03826602204,-3.07858947022,0.197753823252,-2.28959490793,0.0440599671467
3.0,-0.0730420281973,0.421793717134,0.281155076154,1.41495586297,-0.0440172050336,1.12563270531,-0.657151377418,0.436589980474,0.0707384780204,1.03826602204,-3.07858947022,0.197753823252,-2.28959490793,0.0440599671467
3.02,-0.0730769322523,0.432335507414,0.281102745039,1.39865452078,-0.0443313623349,1.12894874034,-0.657151377418,0.440376278964,0.0706509492392,1.03883900213,-3.07874671689,0.201304694594,-2.29126554618,0.0444108496791
3.04,-0.0730769322523,0.432335507414,0.281102745039,1.39865452078,-0.0443313623349,1.12894874034,-0.657151377418,0.440376278964,0.0706509492392,1.03883900213,-3.07874671689,0.201304694594,-2.29126554618,0.0444108496791
3.06,-0.0730420281973,0.442406051339,0.281137632449,1.37987470772,-0.0460068776511,1.13259647208,-0.657151377418,0.444695729131,0.0704013094151,1.04036771135,-3.07610487348,0.206038918725,-2.29220551355,0.0447282950527
3.08,-0.0730420281973,0.442406051339,0.281137632449,1.37987470772,-0.0460068776511,1.13259647208,-0.657151377418,0.444695729131,0.0704013094151,1.04036771135,-3.07610487348,0.206038918725,-2.29220551355,0.0447282950527
3.1,-0.0730245761698,0.452197362823,0.281137632449,1.36174084438,-0.0475602204524,1.13519704889,-0.657151377418,0.448990287096,0.0701446260224,1.04182630668,-3.07306892283,0.21130811284,-2.29318664645,0.0450036295746
3.12,-0.0730245761698,0.452197362823,0.281137632449,1.36174084438,-0.0475602204524,1.13519704889,-0.657151377418,0.448990287096,0.0701446260224,1.04182630668,-3.07306892283,0.21130811284,-2.29318664645,0.0450036295746
3.14,-0.0730420281973,0.460662187059,0.281102745039,1.34793528361,-0.0488866744123,1.13558107672,-0.657151377418,0.452546691324,0.069921868283,1.04252794114,-3.07045514743,0.215861379239,-2.29404699541,0.045209206455
3.16,-0.0730420281973,0.460662187059,0.281102745039,1.34793528361,-0.0488866744123,1.13558107672,-0.657151377418,0.452546691324,0.069921868283,1.04252794114,-3.07045514743,0.215861379239,-2.29404699541,0.045209206455
3.18,-0.0730245761698,0.469947364778,0.281137632449,1.33577023007,-0.0504923732961,1.13627909124,-0.657151377418,0.455682603418,0.0696684175488,1.04229784127,-3.06952557125,0.218241952198,-2.29491083468,0.0454449073098
3.2,-0.0730245761698,0.469947364778,0.281137632449,1.33577023007,-0.0504923732961,1.13627909124,-0.657151377418,0.455682603418,0.0696684175488,1.04229784127,-3.06952557125,0.218241952198,-2.29491083468,0.0454449073098
3.22,-0.0730420281973,0.477644266513,0.281102745039,1.32739272423,-0.0508937990574,1.13839097798,-0.657151377418,0.457601173939,0.0695052295726,1.04148383095,-3.07150835207,0.218185134305,-2.29619934609,0.0456686815868
3.24,-0.0730420281973,0.477644266513,0.281102745039,1.32739272423,-0.0508937990574,1.13839097798,-0.657151377418,0.457601173939,0.0695052295726,1.04148383095,-3.07150835207,0.218185134305,-2.29619934609,0.0456686815868
3.26,-0.0730071241422,0.485620400689,0.281137632449,1.32000990905,-0.0529183840523,1.14237040644,-0.657151377418,0.459021739157,0.0690887083192,1.04011954179,-3.07421896413,0.214781123354,-2.29691891555,0.0459306579416
3.28,-0.0730071241422,0.485620400689,0.281137632449,1.32000990905,-0.0529183840523,1.14237040644,-0.657151377418,0.459021739157,0.0690887083192,1.04011954179,-3.07421896413,0.214781123354,-2.29691891555,0.0459306579416
3.3,-0.0730245761698,0.492322478598,0.281102745039,1.31374428995,-0.0572293469386,1.14744932096,-0.657151377418,0.460021270003,0.0682426779212,1.03888734537,-3.07542101094,0.209048488318,-2.2967191799,0.0461716885013
3.32,-0.0730245761698,0.492322478598,0.281102745039,1.31374428995,-0.0572293469386,1.14744932096,-0.657151377418,0.460021270003,0.0682426779212,1.03888734537,-3.07542101094,0.209048488318,-2.2967191799,0.0461716885013
3.34,-0.0730071241422,0.497558453039,0.281120188744,1.30817668538,-0.0623431613473,1.15319136258,-0.657133933713,0.460710603089,0.0672912053566,1.03805984447,-3.07565953857,0.202685305259,-2.29596345415,0.0463759708633
3.36,-0.0730071241422,0.497558453039,0.281120188744,1.30817668538,-0.0623431613473,1.15319136258,-0.657133933713,0.460710603089,0.0672912053566,1.03805984447,-3.07565953857,0.202685305259,-2.29596345415,0.0463759708633
3.38,-0.0729722200872,0.502427943223,0.281137632449,1.30225994039,-0.0677187769748,1.15851462213,-0.657151377418,0.461541522014,0.0663139999208,1.03752183491,-3.07490734714,0.196983028191,-2.29501107399,0.0465562044135
3.4,-0.0729722200872,0.502427943223,0.281137632449,1.30225994039,-0.0677187769748,1.15851462213,-0.657151377418,0.461541522014,0.0663139999208,1.03752183491,-3.07490734714,0.196983028191,-2.29501107399,0.0465562044135
3.42,-0.0729896721147,0.506075674968,0.281137632449,1.29718102587,-0.0707556461448,1.16212746646,-0.657151377418,0.462349736424,0.0657130356358,1.03734824516,-3.07449397137,0.194078684772,-2.29474158496,0.0466784353693
3.44,-0.0729896721147,0.506075674968,0.281137632449,1.29718102587,-0.0707556461448,1.16212746646,-0.657151377418,0.462349736424,0.0657130356358,1.03734824516,-3.07449397137,0.194078684772,-2.29474158496,0.0466784353693
3.46,-0.0729896721147,0.510700786833,0.281137632449,1.29122952663,-0.0719250152123,1.16359353664,-0.657168821123,0.463688010758,0.0654601180066,1.03709563946,-3.07447448701,0.194043623692,-2.29518104984,0.0467939121407
3.48,-0.0729896721147,0.510700786833,0.281137632449,1.29122952663,-0.0719250152123,1.16359353664,-0.657168821123,0.463688010758,0.0654601180066,1.03709563946,-3.07447448701,0.194043623692,-2.29518104984,0.0467939121407
3.5,-0.0729547597373,0.515954238268,0.281155076154,1.2850684366,-0.0722740807298,1.16551340947,-0.657151377418,0.464990032521,0.0653367988225,1.03661071348,-3.075778755,0.193917992506,-2.29603854699,0.0469313125325
3.52,-0.0729547597373,0.524715771939,0.281155076154,1.27676070558,-0.0739496002073,1.16788708495,-0.657151377418,0.464990032521,0.0653367988225,1.03661071348,-3.075778755,0.193917992506,-2.29603854699,0.0469313125325
3.54,-0.0729373077098,0.524715771939,0.281155076154,1.27676070558,-0.0739496002073,1.16788708495,-0.657151377418,0.466864307697,0.0649601730378,1.03516490224,-3.07778540238,0.192175862922,-2.29704199552,0.0471636549398
3.56,-0.0729722200872,0.534908521668,0.281137632449,1.26623642559,-0.0762708863148,1.17336733784,-0.657151377418,0.466864307697,0.0649601730378,1.03516490224,-3.07778540238,0.192175862922,-2.29704199552,0.0471636549398
3.58,-0.0729722200872,0.534908521668,0.281137632449,1.26623642559,-0.0762708863148,1.17336733784,-0.657151377418,0.468800456184,0.0643404402905,1.03364305405,-3.08095568229,0.188428891733,-2.29831267467,0.0474531808878
3.6,-0.0729896721147,0.546619672693,0.281102745039,1.25277987207,-0.0765501437222,1.1806803782,-0.657151377418,0.468800456184,0.0643404402905,1.03364305405,-3.08095568229,0.188428891733,-2.29831267467,0.0474531808878
3.62,-0.0729896721147,0.546619672693,0.281102745039,1.25277987207,-0.0765501437222,1.1806803782,-0.657151377418,0.471088119537,0.0639497422775,1.03229457665,-3.08625695658,0.185749865777,-2.30070855109,0.047771562966
3.64,-0.0729896721147,0.557859577363,0.281120188744,1.23579782591,-0.0769864693773,1.19043673569,-0.657151377418,0.473761873507,0.0634503675943,1.03218931136,-3.09036180318,0.184065814261,-2.3031393464,0.0480429352903
3.66,-0.0729896721147,0.557859577363,0.281120188744,1.23579782591,-0.0769864693773,1.19043673569,-0.657151377418,0.473761873507,0.0634503675943,1.03218931136,-3.09036180318,0.184065814261,-2.3031393464,0.0480429352903
3.68,-0.0729722200872,0.568890090993,0.281120188744,1.21719258306,-0.0778765893598,1.19914593825,-0.657151377418,0.473761873507,0.0634503675943,1.03218931136,-3.09036180318,0.184065814261,-2.3031393464,0.0480429352903
3.7,-0.0729722200872,0.568890090993,0.281120188744,1.21719258306,-0.0778765893598,1.19914593825,-0.657151377418,0.47696186704,0.0628731189763,1.03269549575,-3.09226040083,0.184302869015,-2.30541661913,0.0482470563646
3.72,-0.0729722200872,0.579170025959,0.281102745039,1.19829066406,-0.0780860303348,1.20762823948,-0.657168821123,0.47696186704,0.0628731189763,1.03269549575,-3.09226040083,0.184302869015,-2.30541661913,0.0482470563646
3.74,-0.0729722200872,0.579170025959,0.281102745039,1.19829066406,-0.0780860303348,1.20762823948,-0.657168821123,0.480193788731,0.0623634718751,1.03363550583,-3.09376374279,0.185783940896,-2.30786574818,0.0483907901214
3.76,-0.0729547597373,0.589048622548,0.281137632449,1.18012178016,-0.0781732987947,1.21679124468,-0.657168821123,0.480193788731,0.0623634718751,1.03363550583,-3.09376374279,0.185783940896,-2.30786574818,0.0483907901214
3.78,-0.0729547597373,0.589048622548,0.281137632449,1.18012178016,-0.0781732987947,1.21679124468,-0.657168821123,0.483091309053,0.0618661498796,1.03449016157,-3.09594259726,0.186486583512,-2.31028349823,0.0485104198516
3.8,-0.0729373077098,0.597565811188,0.281120188744,1.16500727571,-0.0783129233372,1.22415648299,-0.657186264828,0.485530756288,0.0614129829168,1.0350436911,-3.09776146703,0.187017879996,-2.31234227215,0.048594801024
3.82,-0.0729373077098,0.597565811188,0.281120188744,1.16500727571,-0.0783129233372,1.22415648299,-0.657186264828,0.485530756288,0.0614129829168,1.0350436911,-3.09776146703,0.187017879996,-2.31234227215,0.048594801024
3.84,-0.0729373077098,0.605943383608,0.281120188744,1.15156829906,-0.0784001917972,1.22822312998,-0.657186264828,0.488113389249,0.0610638903396,1.0352073954,-3.09852514729,0.188973688165,-2.31425405286,0.0486542139222
3.86,-0.0729373077098,0.605943383608,0.281120188744,1.15156829906,-0.0784001917972,1.22822312998,-0.657186264828,0.488113389249,0.0610638903396,1.0352073954,-3.09852514729,0.188973688165,-2.31425405286,0.0486542139222
3.88,-0.0729198556823,0.613483258708,0.281120188744,1.14090433626,-0.0792728514298,1.22864204522,-0.657186264828,0.490661430367,0.0607298461751,1.03496571135,-3.09745940394,0.191709777162,-2.31555210749,0.0486919466366
3.9,-0.0729198556823,0.613483258708,0.281120188744,1.14090433626,-0.0792728514298,1.22864204522,-0.657186264828,0.490661430367,0.0607298461751,1.03496571135,-3.09745940394,0.191709777162,-2.31555210749,0.0486919466366
3.92,-0.0728674995997,0.621005623523,0.281137632449,1.13097340856,-0.0829729559022,1.22864204522,-0.657186264828,0.493177973449,0.0599880701077,1.03445920761,-3.09429953052,0.192548906479,-2.31588198107,0.0487305604523
3.94,-0.0728674995997,0.621005623523,0.281137632449,1.13097340856,-0.0829729559022,1.22864204522,-0.657186264828,0.493177973449,0.0599880701077,1.03445920761,-3.09429953052,0.192548906479,-2.31588198107,0.0487305604523
3.96,-0.0728849516272,0.626852460538,0.281120188744,1.12343346688,-0.0875806240622,1.22864204522,-0.657168821123,0.495138294765,0.0590949140192,1.03397505256,-3.09054786707,0.192015817562,-2.31570489983,0.0487586685527
3.98,-0.0728849516272,0.626852460538,0.281120188744,1.12343346688,-0.0875806240622,1.22864204522,-0.657168821123,0.495138294765,0.0590949140192,1.03397505256,-3.09054786707,0.192015817562,-2.31570489983,0.0487586685527
4.0,-0.0728674995997,0.631372843593,0.281137632449,1.1170804961,-0.0916472377572,1.22860702465,-0.657168821123,0.496779962533,0.0583387191596,1.03376180367,-3.08690041134,0.191743358427,-2.31537977087,0.0487654124824
4.02,-0.0728674995997,0.631372843593,0.281137632449,1.1170804961,-0.0916472377572,1.22860702465,-0.657168821123,0.496779962533,0.0583387191596,1.03376180367,-3.08690041134,0.191743358427,-2.31537977087,0.0487654124824
4.04,-0.0727802311397,0.635771054133,0.281172553149,1.11111148657,-0.0950506327947,1.22858958094,-0.657168821123,0.49830330042,0.0577317970998,1.03348922941,-3.08394485102,0.191630264444,-2.31515523479,0.048773680898
4.06,-0.0727802311397,0.635771054133,0.281172553149,1.11111148657,-0.0950506327947,1.22858958094,-0.657168821123,0.49830330042,0.0577317970998,1.03348922941,-3.08394485102,0.191630264444,-2.31515523479,0.048773680898
4.08,-0.0722740807298,0.639890032233,0.281155076154,1.10566605451,-0.0970228533847,1.22864204522,-0.657151377418,0.49962808952,0.0575455658937,1.03319233512,-3.08227017809,0.192052610359,-2.31495396644,0.0487831844532
4.1,-0.0722740807298,0.639890032233,0.281155076154,1.10566605451,-0.0970228533847,1.22864204522,-0.657151377418,0.49962808952,0.0575455658937,1.03319233512,-3.08227017809,0.192052610359,-2.31495396644,0.0487831844532
4.12,-0.0711745280948,0.645038788148,0.281172553149,1.09910362611,-0.0977035323922,1.22862446835,-0.657168821123,0.501162508657,0.0578478230281,1.03276123603,-3.08171848044,0.193529589719,-2.31470631234,0.0487966410689
4.14,-0.0711745280948,0.645038788148,0.281172553149,1.09910362611,-0.0977035323922,1.22862446835,-0.657168821123,0.501162508657,0.0578478230281,1.03276123603,-3.08171848044,0.193529589719,-2.31470631234,0.0487966410689
4.16,-0.0699353425948,0.650379491398,0.281155076154,1.09217468016,-0.0988554494322,1.22867693263,-0.657168821123,0.502771522626,0.0581216464355,1.03233710699,-3.08074258527,0.194814207831,-2.31427554422,0.0488046952026
4.18,-0.0699353425948,0.650379491398,0.281155076154,1.09217468016,-0.0988554494322,1.22867693263,-0.657168821123,0.502771522626,0.0581216464355,1.03233710699,-3.08074258527,0.194814207831,-2.31427554422,0.0488046952026
4.2,-0.0685739845798,0.656907032388,0.281137632449,1.08439052661,-0.0992743313821,1.22869437633,-0.657151377418,0.504570947006,0.0585515322915,1.03160003266,-3.08074657301,0.196477169114,-2.31419548171,0.0488251366533
4.22,-0.0685739845798,0.656907032388,0.281137632449,1.08439052661,-0.0992743313821,1.22869437633,-0.657151377418,0.504570947006,0.0585515322915,1.03160003266,-3.08074657301,0.196477169114,-2.31419548171,0.0488251366533
4.24,-0.0674744277835,0.663347288273,0.281155076154,1.07706010913,-0.0993441394922,1.22874670745,-0.657168821123,0.506260004781,0.0589256627893,1.03075359189,-3.08127116495,0.198032015813,-2.31440095033,0.0488488981429
4.26,-0.0674744277835,0.663347288273,0.281155076154,1.07706010913,-0.0993441394922,1.22874670745,-0.657168821123,0.506260004781,0.0589256627893,1.03075359189,-3.08127116495,0.198032015813,-2.31440095033,0.0488488981429
4.28,-0.0665319517185,0.669229079277,0.281120188744,1.07035806451,-0.0994314079522,1.22879903856,-0.657168821123,0.507803518374,0.059211219827,1.02997035177,-3.08171025746,0.199410483325,-2.31470516592,0.0488664853834
4.3,-0.0665319517185,0.669229079277,0.281120188744,1.07035806451,-0.0994314079522,1.22879903856,-0.657168821123,0.507803518374,0.059211219827,1.02997035177,-3.08171025746,0.199410483325,-2.31470516592,0.0488664853834
4.32,-0.0653451264623,0.673749462333,0.281137632449,1.06463340001,-0.0996932050097,1.22879903856,-0.657186264828,0.509092123051,0.0596389208209,1.02955019872,-3.08151953809,0.200845068538,-2.31439961741,0.0488622011919
4.34,-0.0653451264623,0.673749462333,0.281137632449,1.06463340001,-0.0996932050097,1.22879903856,-0.657186264828,0.509092123051,0.0596389208209,1.02955019872,-3.08151953809,0.200845068538,-2.31439961741,0.0488622011919
4.36,-0.0644026503973,0.677432081488,0.281102745039,1.05941486928,-0.101002206942,1.22886881338,-0.657186264828,0.510280873742,0.0597685493169,1.02936601969,-3.08015851801,0.201709266819,-2.31392312815,0.0488430026543
4.38,-0.0644026503973,0.677432081488,0.281102745039,1.05941486928,-0.101002206942,1.22886881338,-0.657186264828,0.510280873742,0.0597685493169,1.02936601969,-3.08015851801,0.201709266819,-2.31392312815,0.0488430026543
4.4,-0.0630587444098,0.681027482118,0.281172553149,1.05428355707,-0.10636036222,1.22897360877,-0.657168821123,0.511521862886,0.059507138917,1.02915254492,-3.07558236525,0.200169644193,-2.31174884239,0.0488198786636
4.42,-0.0630587444098,0.681027482118,0.281172553149,1.05428355707,-0.10636036222,1.22897360877,-0.657168821123,0.511521862886,0.059507138917,1.02915254492,-3.07558236525,0.200169644193,-2.31174884239,0.0488198786636
4.44,-0.061243604551,0.683575661228,0.281207440559,1.05023442037,-0.115209180995,1.229078271,-0.657151377418,0.512574065332,0.0589527576614,1.02908146543,-3.06803146675,0.196338448947,-2.30788575909,0.0487901497782
4.46,-0.061243604551,0.683575661228,0.281207440559,1.05023442037,-0.115209180995,1.229078271,-0.657151377418,0.512574065332,0.0589527576614,1.02908146543,-3.06803146675,0.196338448947,-2.30788575909,0.0487901497782
4.48,-0.0591143032298,0.685268632733,0.281189996854,1.04648195981,-0.125175012755,1.22956696106,-0.657151377418,0.513496820211,0.0583632341323,1.02933321687,-3.05931973249,0.191789857099,-2.30332744541,0.0487441429158
4.5,-0.0591143032298,0.685268632733,0.281189996854,1.04648195981,-0.125175012755,1.22956696106,-0.657151377418,0.513496820211,0.0583632341323,1.02933321687,-3.05931973249,0.191789857099,-2.30332744541,0.0487441429158
4.52,-0.0567930129611,0.686176171453,0.281224917554,1.0430087317,-0.131842169965,1.2308760379,-0.657151377418,0.514100836423,0.0583979567103,1.02990736554,-3.0533487804,0.188857069351,-2.2994786718,0.0486888210979
4.54,-0.0567930129611,0.686176171453,0.281224917554,1.0430087317,-0.131842169965,1.2308760379,-0.657151377418,0.514100836423,0.0583979567103,1.02990736554,-3.0533487804,0.188857069351,-2.2994786718,0.0486888210979
4.56,-0.0541052051473,0.686682371797,0.281189996854,1.03845346123,-0.135716803035,1.23345903784,-0.657151377418,0.514616085437,0.0589734345215,1.03101722867,-3.04938366385,0.187637329893,-2.29624261763,0.0486037007119
4.58,-0.0541052051473,0.686682371797,0.281189996854,1.03845346123,-0.135716803035,1.23345903784,-0.657151377418,0.514616085437,0.0589734345215,1.03101722867,-3.04938366385,0.187637329893,-2.29624261763,0.0486037007119
4.6,-0.0511905084923,0.686682371797,0.281172553149,1.03445665565,-0.138422067037,1.23480300208,-0.657151377418,0.515148941308,0.0599078268818,1.03225799876,-3.04553587445,0.187992039165,-2.29291851018,0.0485059310527
4.62,-0.0511905084923,0.686682371797,0.281172553149,1.03445665565,-0.138422067037,1.23480300208,-0.657151377418,0.515148941308,0.0599078268818,1.03225799876,-3.04553587445,0.187992039165,-2.29291851018,0.0485059310527
4.64,-0.0487994059523,0.686944160532,0.281172553149,1.03115799774,-0.140167394625,1.23478555838,-0.657151377418,0.515761231587,0.0607886410647,1.03319378505,-3.04225920318,0.189309587465,-2.29027250768,0.0484222726743
4.66,-0.0487994059523,0.686944160532,0.281172553149,1.03115799774,-0.140167394625,1.23478555838,-0.657151377418,0.515761231587,0.0607886410647,1.03319378505,-3.04225920318,0.189309587465,-2.29027250768,0.0484222726743
4.68,-0.0468795456061,0.688829079373,0.281137632449,1.02759748452,-0.140394279305,1.23490766431,-0.657133933713,0.516432346317,0.0616416975809,1.03338733186,-3.04140180963,0.190612748128,-2.2888291195,0.0483816420017
4.7,-0.0468795456061,0.688829079373,0.281137632449,1.02759748452,-0.140394279305,1.23490766431,-0.657133933713,0.516432346317,0.0616416975809,1.03338733186,-3.04140180963,0.190612748128,-2.2888291195,0.0483816420017
4.72,-0.0456403601061,0.693244800197,0.281207440559,1.02182048891,-0.140341931544,1.23502990341,-0.657116490007,0.517664277864,0.0621730347862,1.03301450113,-3.04143022706,0.192257664673,-2.2885819827,0.048353522416
4.74,-0.0456403601061,0.693244800197,0.281207440559,1.02182048891,-0.140341931544,1.23502990341,-0.657116490007,0.517664277864,0.0621730347862,1.03301450113,-3.04143022706,0.192257664673,-2.2885819827,0.048353522416
4.76,-0.0446455237973,0.699126524623,0.281172553149,1.0143155678,-0.140341931544,1.23543137494,-0.657116490007,0.519269013214,0.062477719301,1.03243217164,-3.04162359106,0.194001492307,-2.28897068971,0.0483195557233
4.78,-0.0446455237973,0.699126524623,0.281172553149,1.0143155678,-0.140341931544,1.23543137494,-0.657116490007,0.519269013214,0.062477719301,1.03243217164,-3.04162359106,0.194001492307,-2.28897068971,0.0483195557233
4.8,-0.0440172050336,0.705619178202,0.281207440559,1.00503039008,-0.140307010845,1.23777002985,-0.657133933713,0.520955425734,0.0625187685359,1.03204382168,-3.04244611747,0.195248299177,-2.29003081627,0.0482628805777
4.82,-0.0440172050336,0.705619178202,0.281207440559,1.00503039008,-0.140307010845,1.23777002985,-0.657133933713,0.520955425734,0.0625187685359,1.03204382168,-3.04244611747,0.195248299177,-2.29003081627,0.0482628805777
4.84,-0.0440172050336,0.711518346333,0.281189996854,0.995134349782,-0.140324471195,1.24239514172,-0.657133933713,0.522411969563,0.0621158782656,1.03206780929,-3.04378265385,0.195469082634,-2.29189333459,0.048181870408
4.86,-0.0440172050336,0.711518346333,0.281189996854,0.995134349782,-0.140324471195,1.24239514172,-0.657133933713,0.522411969563,0.0621158782656,1.03206780929,-3.04378265385,0.195469082634,-2.29189333459,0.048181870408
4.88,-0.0441393775486,0.717888827398,0.281137632449,0.982620355557,-0.140394279305,1.24866089397,-0.657151377418,0.524149904361,0.0615027492977,1.03263632314,-3.04481463464,0.19604917837,-2.29423494957,0.0480374311272
4.9,-0.0441393775486,0.717888827398,0.281137632449,0.982620355557,-0.140394279305,1.24866089397,-0.657151377418,0.524149904361,0.0615027492977,1.03263632314,-3.04481463464,0.19604917837,-2.29423494957,0.0480374311272
4.92,-0.0442440980361,0.724241798178,0.281172553149,0.969914347417,-0.140394279305,1.25476951972,-0.657151377418,0.525925679065,0.060930910044,1.03327839513,-3.04571227235,0.196994312599,-2.2965437759,0.0478700026661
4.94,-0.0442440980361,0.724241798178,0.281172553149,0.969914347417,-0.140394279305,1.25476951972,-0.657151377418,0.525925679065,0.060930910044,1.03327839513,-3.04571227235,0.196994312599,-2.2965437759,0.0478700026661
4.96,-0.0439124845461,0.732235409348,0.281294725664,0.954747445272,-0.140341931544,1.260354568,-0.657151377418,0.528277828041,0.0605604902383,1.03388362377,-3.04612018583,0.199274981929,-2.2987506128,0.0476492567793
4.98,-0.0439124845461,0.732235409348,0.281294725664,0.954747445272,-0.140341931544,1.260354568,-0.657151377418,0.528277828041,0.0605604902383,1.03388362377,-3.04612018583,0.199274981929,-2.2987506128,0.0476492567793
5.0,-0.0437379517873,0.742323463557,0.281364533774,0.937555941487,-0.14035937525,1.26723124941,-0.657151377418,0.530869234984,0.0599601773003,1.03398481326,-3.04764779361,0.200685135511,-2.30170512685,0.0474078201625
5.02,-0.0437379517873,0.742323463557,0.281364533774,0.937555941487,-0.14035937525,1.26723124941,-0.657151377418,0.530869234984,0.0599601773003,1.03398481326,-3.04764779361,0.200685135511,-2.30170512685,0.0474078201625
5.04,-0.0432318055386,0.755116690223,0.281329613074,0.916123353667,-0.140341931544,1.27908204995,-0.657151377418,0.533507507476,0.0592089094007,1.03383609148,-3.05175022208,0.199657036623,-2.30549675636,0.0470970231645
5.06,-0.0432318055386,0.755116690223,0.281329613074,0.916123353667,-0.140341931544,1.27908204995,-0.657151377418,0.533507507476,0.0592089094007,1.03383609148,-3.05175022208,0.199657036623,-2.30549675636,0.0470970231645
5.08,-0.0417831832249,0.769026979807,0.281329613074,0.891985393652,-0.140376835599,1.29503425172,-0.657168821123,0.535918673484,0.0587402610691,1.03379860409,-3.05757057268,0.196713217068,-2.30895773825,0.0466938038877
5.1,-0.0417831832249,0.769026979807,0.281329613074,0.891985393652,-0.140376835599,1.29503425172,-0.657168821123,0.535918673484,0.0587402610691,1.03379860409,-3.05757057268,0.196713217068,-2.30895773825,0.0466938038877
5.12,-0.0404218252099,0.783583019377,0.281277248669,0.865142261182,-0.14042918336,1.31205131845,-0.657186264828,0.538626105533,0.058054721698,1.03421891468,-3.06283633518,0.194521196519,-2.31291183264,0.0461459396318
5.14,-0.0404218252099,0.783583019377,0.281277248669,0.865142261182,-0.14042918336,1.31205131845,-0.657186264828,0.538626105533,0.058054721698,1.03421891468,-3.06283633518,0.194521196519,-2.31291183264,0.0461459396318
5.16,-0.0390430151674,0.798453245377,0.281224917554,0.836710819438,-0.140411739655,1.32821297784,-0.657186264828,0.541688471131,0.0573214525728,1.03497025764,-3.06689004206,0.194032432294,-2.31702084385,0.0454645264805
5.18,-0.0390430151674,0.798453245377,0.281224917554,0.836710819438,-0.140411739655,1.32821297784,-0.657186264828,0.541688471131,0.0573214525728,1.03497025764,-3.06689004206,0.194032432294,-2.31702084385,0.0454645264805
5.2,-0.0376118448811,0.811595545883,0.281277248669,0.810251648217,-0.14042918336,1.34116339759,-0.657203708533,0.544759409133,0.0567696295488,1.03607505372,-3.06884470156,0.19568438295,-2.32041705793,0.044735795747
5.22,-0.0376118448811,0.811595545883,0.281277248669,0.810251648217,-0.14042918336,1.34116339759,-0.657203708533,0.544759409133,0.0567696295488,1.03607505372,-3.06884470156,0.19568438295,-2.32041705793,0.044735795747
5.24,-0.0358839693211,0.824737912967,0.281242361259,0.784700015718,-0.140568816225,1.35240326897,-0.657203708533,0.547851536162,0.056374671881,1.03689263879,-3.07016156142,0.197839180646,-2.32342984519,0.0439805700187
5.26,-0.0358839693211,0.824737912967,0.281242361259,0.784700015718,-0.140568816225,1.35240326897,-0.657203708533,0.547851536162,0.056374671881,1.03689263879,-3.07016156142,0.197839180646,-2.32342984519,0.0439805700187
5.28,-0.033684853648,0.836606090628,0.281207440559,0.763598991453,-0.140743353145,1.35973361987,-0.657203708533,0.55065625204,0.0564852170797,1.03704483483,-3.07076477902,0.200430258141,-2.32521374603,0.0433331025233
5.3,-0.033684853648,0.836606090628,0.281207440559,0.763598991453,-0.140743353145,1.35973361987,-0.657203708533,0.55065625204,0.0564852170797,1.03704483483,-3.07076477902,0.200430258141,-2.32521374603,0.0433331025233
5.32,-0.0311715806736,0.847950757397,0.281224917554,0.745081033708,-0.141860366129,1.36493477348,-0.657238662522,0.553295105458,0.0567774411378,1.03667253134,-3.07047434972,0.202476706638,-2.32607507735,0.0427519224185
5.34,-0.0311715806736,0.847950757397,0.281224917554,0.745081033708,-0.141860366129,1.36493477348,-0.657238662522,0.553295105458,0.0567774411378,1.03667253134,-3.07047434972,0.202476706638,-2.32607507735,0.0427519224185
5.36,-0.0281347073424,0.857637340072,0.281207440559,0.729949085552,-0.145979344229,1.36805892775,-0.657203708533,0.555646440387,0.0570433492787,1.03611658901,-3.06725560722,0.202769599849,-2.32539234193,0.0422612726603
5.38,-0.0281347073424,0.857637340072,0.281207440559,0.729949085552,-0.145979344229,1.36805892775,-0.657203708533,0.555646440387,0.0570433492787,1.03611658901,-3.06725560722,0.202769599849,-2.32539234193,0.0422612726603
5.4,-0.0246265959787,0.865596063832,0.281189996854,0.717731767472,-0.151599296565,1.3691235264,-0.657221152238,0.557766697174,0.0575013083133,1.03560295899,-3.06198647209,0.202639232356,-2.32335181785,0.0418495932744
5.42,-0.0246265959787,0.865596063832,0.281189996854,0.717731767472,-0.151599296565,1.3691235264,-0.657221152238,0.557766697174,0.0575013083133,1.03560295899,-3.06198647209,0.202639232356,-2.32335181785,0.0418495932744
5.44,-0.0205774322306,0.871669802172,0.281224917554,0.707329593413,-0.157847571825,1.36908863899,-0.657221152238,0.559664472248,0.0582871241568,1.03557194005,-3.0552242945,0.202856602628,-2.32018210292,0.0414704580712
5.46,-0.0205774322306,0.871669802172,0.281224917554,0.707329593413,-0.157847571825,1.36908863899,-0.657221152238,0.559664472248,0.0582871241568,1.03557194005,-3.0552242945,0.202856602628,-2.32018210292,0.0414704580712
5.48,-0.0166678940653,0.876382199142,0.281189996854,0.698149144503,-0.164898706929,1.36905375158,-0.657221152238,0.561331434862,0.0588997795488,1.03588996738,-3.04748872673,0.202489319608,-2.31678882302,0.0411142177996
5.5,-0.0166678940653,0.876382199142,0.281189996854,0.698149144503,-0.164898706929,1.36905375158,-0.657221152238,0.561331434862,0.0588997795488,1.03588996738,-3.04748872673,0.202489319608,-2.31678882302,0.0411142177996
5.52,-0.0128630763875,0.880047374592,0.281242361259,0.690539494583,-0.174044235139,1.3691235264,-0.657186264828,0.562734332704,0.0592120328586,1.036268808,-3.03835378496,0.200274886023,-2.31294025286,0.0408083961157
5.54,-0.0128630763875,0.880047374592,0.281242361259,0.690539494583,-0.174044235139,1.3691235264,-0.657186264828,0.562734332704,0.0592120328586,1.036268808,-3.03835378496,0.200274886023,-2.31294025286,0.0408083961157
5.56,-0.0087615523956,0.882682838807,0.281242361259,0.685338407553,-0.184481296609,1.3691060827,-0.657168821123,0.563732550004,0.0595770293576,1.03643766603,-3.02879595678,0.19611269859,-2.30830476318,0.0405988154821
5.58,-0.0087615523956,0.882682838807,0.281242361259,0.685338407553,-0.184481296609,1.3691060827,-0.657168821123,0.563732550004,0.0595770293576,1.03643766603,-3.02879595678,0.19611269859,-2.30830476318,0.0405988154821
5.6,-0.00472984223545,0.884550313942,0.281294725664,0.681743073503,-0.191898949259,1.3691235264,-0.657168821123,0.564350334613,0.0604911673537,1.03653846962,-3.02211421427,0.193076171544,-2.30388806757,0.0404536729667
5.62,-0.00472984223545,0.884550313942,0.281294725664,0.681743073503,-0.191898949259,1.3691235264,-0.657168821123,0.564350334613,0.0604911673537,1.03653846962,-3.02211421427,0.193076171544,-2.30388806757,0.0404536729667
5.64,-0.00062831850367,0.888040985762,0.281242361259,0.676943391428,-0.196297176444,1.36915841381,-0.657168821123,0.565125668358,0.0618557987004,1.03613161724,-3.01830853033,0.191673343547,-2.3002302145,0.0402811574287
5.66,-0.00062831850367,0.888040985762,0.281242361259,0.676943391428,-0.196297176444,1.36915841381,-0.657168821123,0.565125668358,0.0618557987004,1.03613161724,-3.01830853033,0.191673343547,-2.3002302145,0.0402811574287
5.68,0.00221656822077,0.891706161212,0.281277248669,0.671026713013,-0.197902879489,1.36921074493,-0.657168821123,0.566074919476,0.0629513349621,1.03600698549,-3.0162434755,0.192775163873,-2.29828555261,0.0400528174299
5.7,0.00221656822077,0.891706161212,0.281277248669,0.671026713013,-0.197902879489,1.36921074493,-0.657168821123,0.566074919476,0.0629513349621,1.03600698549,-3.0162434755,0.192775163873,-2.29828555261,0.0400528174299
5.72,0.00476474889123,0.896436001887,0.281224917554,0.663452017083,-0.198583566819,1.36931554032,-0.657151377418,0.567308513347,0.0639291508072,1.03582111088,-3.01470223605,0.194923564346,-2.29714659212,0.0397577337793
5.74,0.00476474889123,0.896436001887,0.281224917554,0.663452017083,-0.198583566819,1.36931554032,-0.657151377418,0.567308513347,0.0639291508072,1.03582111088,-3.01470223605,0.194923564346,-2.29714659212,0.0397577337793
5.76,0.00640535859201,0.901200729973,0.281259804964,0.654812655927,-0.201149189634,1.3706419277,-0.657151377418,0.568618528863,0.0640296565023,1.03591385937,-3.01184133095,0.195786555971,-2.29686127157,0.0394055069508
5.78,0.00640535859201,0.901200729973,0.281259804964,0.654812655927,-0.201149189634,1.3706419277,-0.657151377418,0.568618528863,0.0640296565023,1.03591385937,-3.01184133095,0.195786555971,-2.29686127157,0.0394055069508
5.8,0.00787143501388,0.905494278282,0.281294725664,0.644218467953,-0.204290787614,1.37647132101,-0.657151377418,0.56951299284,0.0637174498498,1.03673880668,-3.00981486146,0.194576229781,-2.29730497271,0.0389458970913
5.82,0.00787143501388,0.905494278282,0.281294725664,0.644218467953,-0.204290787614,1.37647132101,-0.657151377418,0.56951299284,0.0637174498498,1.03673880668,-3.00981486146,0.194576229781,-2.29730497271,0.0389458970913
5.84,0.00912807202122,0.909717985192,0.281294725664,0.631564857508,-0.205425260949,1.38673394542,-0.657168821123,0.569949015296,0.0633804114824,1.03810975576,-3.01086965193,0.192743116032,-2.29888905722,0.0383762056766
5.86,0.00912807202122,0.909717985192,0.281294725664,0.631564857508,-0.205425260949,1.38673394542,-0.657168821123,0.569949015296,0.0633804114824,1.03810975576,-3.01086965193,0.192743116032,-2.29888905722,0.0383762056766
5.88,0.00998328378746,0.914395428172,0.281294725664,0.617619680513,-0.205460165004,1.3981134996,-0.657168821123,0.57038768539,0.0629002389995,1.03960258474,-3.01307893385,0.191411586006,-2.30133469051,0.0377339999644
5.9,0.00998328378746,0.914395428172,0.281294725664,0.617619680513,-0.205460165004,1.3981134996,-0.657168821123,0.57038768539,0.0629002389995,1.03960258474,-3.01307893385,0.191411586006,-2.30133469051,0.0377339999644
5.92,0.0109432139606,0.920888081752,0.281312169369,0.600724852873,-0.205425260949,1.40928359616,-0.657151377418,0.571336909575,0.0623588523125,1.04103223319,-3.01481552742,0.191357813702,-2.30424138356,0.0369469360858
5.94,0.0109432139606,0.920888081752,0.281312169369,0.600724852873,-0.205425260949,1.40928359616,-0.657151377418,0.571336909575,0.0623588523125,1.04103223319,-3.01481552742,0.191357813702,-2.30424138356,0.0369469360858
5.96,0.0113446397218,0.928567506492,0.281329613074,0.583411176574,-0.205407800599,1.41739931327,-0.657151377418,0.572885121287,0.0615477045741,1.04202487625,-3.01525867464,0.193208143784,-2.30759950637,0.0361335061596
5.98,0.0113446397218,0.928567506492,0.281329613074,0.583411176574,-0.205407800599,1.41739931327,-0.657151377418,0.572885121287,0.0615477045741,1.04202487625,-3.01525867464,0.193208143784,-2.30759950637,0.0361335061596
6.0,0.0122347576237,0.937189423942,0.281329613074,0.566394242998,-0.205407800599,1.42396174167,-0.657151377418,0.574608465564,0.0610505828092,1.04242184943,-3.01558927226,0.195378762381,-2.31043605995,0.0353318491896
6.02,0.0122347576237,0.937189423942,0.281329613074,0.566394242998,-0.205407800599,1.42396174167,-0.657151377418,0.574608465564,0.0610505828092,1.04242184943,-3.01558927226,0.195378762381,-2.31043605995,0.0353318491896
6.04,0.0128281702518,0.945479777837,0.281329613074,0.551925455243,-0.205425260949,1.42996570519,-0.657151377418,0.576020503267,0.0605098670798,1.04217531994,-3.01683992089,0.196214636866,-2.31320414795,0.0346518000617
6.06,0.0128281702518,0.945479777837,0.281329613074,0.551925455243,-0.205425260949,1.42996570519,-0.657151377418,0.576020503267,0.0605098670798,1.04217531994,-3.01683992089,0.196214636866,-2.31320414795,0.0346518000617
6.08,0.0131423296337,0.953857350257,0.281364533774,0.538137371463,-0.205425260949,1.43827343621,-0.657151377418,0.576947830743,0.059788822239,1.04155158647,-3.02004678089,0.194670337751,-2.31641269771,0.0339997588597
6.1,0.0131423296337,0.953857350257,0.281364533774,0.538137371463,-0.205425260949,1.43827343621,-0.657151377418,0.576947830743,0.059788822239,1.04155158647,-3.02004678089,0.194670337751,-2.31641269771,0.0339997588597
6.12,0.0130376091462,0.962566552812,0.281364533774,0.524576155718,-0.205442704654,1.44712232156,-0.657168821123,0.5777652873,0.0588040010753,1.04062586192,-3.02393141288,0.192247153597,-2.32011084891,0.033351923149
6.14,0.0130376091462,0.962566552812,0.281364533774,0.524576155718,-0.205442704654,1.44712232156,-0.657168821123,0.5777652873,0.0588040010753,1.04062586192,-3.02393141288,0.192247153597,-2.32011084891,0.033351923149
6.16,0.0130550632543,0.970385593772,0.281399421184,0.512620659663,-0.205425260949,1.45398142611,-0.657168821123,0.578613865832,0.0580328560769,1.03975366868,-3.02690991849,0.190783050346,-2.32319097992,0.0327701575673
6.18,0.0130550632543,0.970385593772,0.281399421184,0.512620659663,-0.205425260949,1.45398142611,-0.657168821123,0.578613865832,0.0580328560769,1.03975366868,-3.02690991849,0.190783050346,-2.32319097992,0.0327701575673
6.2,0.0132645021487,0.979408982757,0.281399421184,0.497872606179,-0.205442704654,1.46173069225,-0.657186264828,0.579718542228,0.0571801393642,1.03904720798,-3.02961413889,0.189900289146,-2.32665329588,0.0320270837355
6.22,0.0132645021487,0.979408982757,0.281399421184,0.497872606179,-0.205442704654,1.46173069225,-0.657186264828,0.579718542228,0.0571801393642,1.03904720798,-3.02961413889,0.189900289146,-2.32665329588,0.0320270837355
6.24,0.0134913951512,0.988100675027,0.281504149994,0.483560911639,-0.205407800599,1.47050966963,-0.657186264828,0.58054562612,0.0563680722778,1.03834221766,-3.03308224033,0.188179006849,-2.33006905955,0.0312896906759
6.26,0.0134913951512,0.988100675027,0.281504149994,0.483560911639,-0.205407800599,1.47050966963,-0.657186264828,0.58054562612,0.0563680722778,1.03834221766,-3.03308224033,0.188179006849,-2.33006905955,0.0312896906759
6.28,0.0142593394978,0.997158951422,0.281451785589,0.468097300059,-0.205477608709,1.47731644306,-0.657203708533,0.581814427551,0.0557818313224,1.03784729279,-3.03471489849,0.188477282125,-2.33301429447,0.0304717403975
6.3,0.0142593394978,0.997158951422,0.281451785589,0.468097300059,-0.205477608709,1.47731644306,-0.657203708533,0.581814427551,0.0557818313224,1.03784729279,-3.03471489849,0.188477282125,-2.33301429447,0.0304717403975
6.32,0.0148003918821,1.00569365035,0.281469262584,0.455408768913,-0.205477608709,1.48113874501,-0.657203708533,0.583158150578,0.0553092264427,1.03685101772,-3.03582918373,0.189397084201,-2.3355183007,0.0298045044152
6.34,0.0148003918821,1.00569365035,0.281469262584,0.455408768913,-0.205477608709,1.48113874501,-0.657203708533,0.583158150578,0.0553092264427,1.03685101772,-3.03582918373,0.189397084201,-2.3355183007,0.0298045044152
6.36,0.0148352990581,1.01450751513,0.281504149994,0.443331067054,-0.205477608709,1.48548462444,-0.657186264828,0.584345496417,0.0545615783391,1.03546066934,-3.0378400874,0.189228287215,-2.33855532541,0.0291680604303
6.38,0.0148352990581,1.01450751513,0.281504149994,0.443331067054,-0.205477608709,1.48548462444,-0.657186264828,0.584345496417,0.0545615783391,1.03546066934,-3.0378400874,0.189228287215,-2.33855532541,0.0291680604303
6.4,0.0145734988796,1.02271058392,0.281486706289,0.431899181759,-0.205477608709,1.4908776588,-0.657186264828,0.585249525251,0.0536327404075,1.03416555182,-3.04040192471,0.18811226514,-2.34182157037,0.0285534417933
6.42,0.0145734988796,1.02271058392,0.281486706289,0.431899181759,-0.205477608709,1.4908776588,-0.657186264828,0.585249525251,0.0536327404075,1.03416555182,-3.04040192471,0.18811226514,-2.34182157037,0.0285534417933
6.44,0.0146433121912,1.03101838152,0.281504149994,0.419873844304,-0.205477608709,1.49747510777,-0.657186264828,0.585995926657,0.0528422353915,1.03294792928,-3.04345721628,0.186443770015,-2.34493024387,0.0278920372497
6.46,0.0146433121912,1.03101838152,0.281504149994,0.419873844304,-0.205477608709,1.49747510777,-0.657186264828,0.585995926657,0.0528422353915,1.03294792928,-3.04345721628,0.186443770015,-2.34493024387,0.0278920372497
6.48,0.0147305785706,1.03934355625,0.281608878804,0.406818795614,-0.205442704654,1.50311248716,-0.657186264828,0.587009424391,0.0520454994335,1.0320769809,-3.04539578957,0.186384777695,-2.34805065869,0.0271546765101
6.5,0.0147305785706,1.03934355625,0.281608878804,0.406818795614,-0.205442704654,1.50311248716,-0.657186264828,0.587009424391,0.0520454994335,1.0320769809,-3.04539578957,0.186384777695,-2.34805065869,0.0271546765101
6.52,0.0147131255028,1.04670886114,0.281678686914,0.394008091954,-0.205442704654,1.50787714867,-0.657186264828,0.588091461354,0.0511958971043,1.03170782692,-3.04619263106,0.187451462342,-2.35107073322,0.0264115169377
6.54,0.0147131255028,1.04670886114,0.281678686914,0.394008091954,-0.205442704654,1.50787714867,-0.657186264828,0.588091461354,0.0511958971043,1.03170782692,-3.04619263106,0.187451462342,-2.35107073322,0.0264115169377
6.56,0.0147131255028,1.05475480342,0.281800859429,0.380377068099,-0.205460165004,1.51272916186,-0.657186264828,0.58925632791,0.0503082193671,1.03118857702,-3.04706760018,0.188616425045,-2.35426859852,0.0256128254672
6.58,0.0147131255028,1.05475480342,0.281800859429,0.380377068099,-0.205460165004,1.51272916186,-0.657186264828,0.58925632791,0.0503082193671,1.03118857702,-3.04706760018,0.188616425045,-2.35426859852,0.0256128254672
6.6,0.0147131255028,1.06262624208,0.281800859429,0.367513966744,-0.205460165004,1.51843644924,-0.657186264828,0.590153565946,0.0494129325936,1.03047851391,-3.04873326813,0.188555317947,-2.35746063144,0.0248516204321
6.62,0.0147131255028,1.06262624208,0.281800859429,0.367513966744,-0.205460165004,1.51843644924,-0.657186264828,0.590153565946,0.0494129325936,1.03047851391,-3.04873326813,0.188555317947,-2.35746063144,0.0248516204321
6.64,0.014695672435,1.07089915227,0.281800859429,0.353080099689,-0.205460165004,1.52533044119,-0.657203708533,0.591036534759,0.0483812637586,1.0299819471,-3.05050399427,0.188488379833,-2.36101069103,0.0239798274181
6.66,0.014695672435,1.07089915227,0.281800859429,0.353080099689,-0.205460165004,1.52533044119,-0.657203708533,0.591036534759,0.0483812637586,1.0299819471,-3.05050399427,0.188488379833,-2.36101069103,0.0239798274181
6.68,0.0147131255028,1.08006209089,0.281818303134,0.335365018434,-0.205442704654,1.53285280601,-0.657203708533,0.592206285532,0.0471518001799,1.02997421018,-3.05141888121,0.189870009601,-2.36515374694,0.0228855582227
6.7,0.0147131255028,1.08006209089,0.281818303134,0.335365018434,-0.205442704654,1.53285280601,-0.657203708533,0.592206285532,0.0471518001799,1.02997421018,-3.05141888121,0.189870009601,-2.36515374694,0.0228855582227
6.72,0.0147131255028,1.08852694842,0.281853223834,0.318801854219,-0.205425260949,1.53766993179,-0.657186264828,0.593623053238,0.0460241857896,1.03008902371,-3.05083511707,0.192985878973,-2.36889084296,0.0218496777267
6.74,0.0147131255028,1.08852694842,0.281853223834,0.318801854219,-0.205425260949,1.53766993179,-0.657186264828,0.593623053238,0.0460241857896,1.03008902371,-3.05083511707,0.192985878973,-2.36889084296,0.0218496777267
6.76,0.0147131255028,1.09768995362,0.281853223834,0.300790030239,-0.205425260949,1.54226015624,-0.657186264828,0.59522536547,0.0447807110762,1.03024425087,-3.0497222153,0.196868086168,-2.37290617731,0.0207090988582
6.78,0.0147131255028,1.09768995362,0.281853223834,0.300790030239,-0.205425260949,1.54226015624,-0.657186264828,0.59522536547,0.0447807110762,1.03024425087,-3.0497222153,0.196868086168,-2.37290617731,0.0207090988582
6.8,0.014695672435,1.10617225485,0.281818303134,0.284349038539,-0.205442704654,1.54786264823,-0.657186264828,0.596417202476,0.0435881326022,1.03024886339,-3.04963508883,0.199169193054,-2.37673044733,0.0196553319669
6.82,0.014695672435,1.10617225485,0.281818303134,0.284349038539,-0.205442704654,1.54786264823,-0.657186264828,0.596417202476,0.0435881326022,1.03024886339,-3.04963508883,0.199169193054,-2.37673044733,0.0196553319669
6.84,0.0146433121912,1.11434036965,0.281783415724,0.269583557994,-0.205495069059,1.55594361108,-0.657203708533,0.596964781193,0.0424339737529,1.0298013184,-3.05181014977,0.198392672724,-2.38049339448,0.0187007158534
6.86,0.0146433121912,1.11434036965,0.281783415724,0.269583557994,-0.205495069059,1.55594361108,-0.657203708533,0.596964781193,0.0424339737529,1.0298013184,-3.05181014977,0.198392672724,-2.38049339448,0.0187007158534
6.88,0.0145909529878,1.12132171329,0.281765938729,0.257348796209,-0.205512512764,1.56358808183,-0.657221152238,0.597241164725,0.0414622374782,1.02926052883,-3.05437640862,0.196858124166,-2.38371015416,0.0179030675821
6.9,0.0145909529878,1.12132171329,0.281765938729,0.257348796209,-0.205512512764,1.56358808183,-0.657221152238,0.597241164725,0.0414622374782,1.02926052883,-3.05437640862,0.196858124166,-2.38371015416,0.0179030675821
6.92,0.0145560458118,1.12694164898,0.281765938729,0.248081095484,-0.205582337519,1.56800373608,-0.657221152238,0.597671383453,0.0407403991447,1.02869507684,-3.05565423461,0.196504341681,-2.386102236,0.0172980248473
6.94,0.0145560458118,1.12694164898,0.281765938729,0.248081095484,-0.205582337519,1.56800373608,-0.657221152238,0.597671383453,0.0407403991447,1.02869507684,-3.05565423461,0.196504341681,-2.386102236,0.0172980248473
6.96,0.0146084060556,1.13282337341,0.281783415724,0.239860599634,-0.205599781224,1.56964437647,-0.657221152238,0.598435349001,0.0401909869354,1.02773242784,-3.05602658289,0.197355799473,-2.38809900471,0.0167661843785
6.98,0.0146084060556,1.13282337341,0.281783415724,0.239860599634,-0.205599781224,1.56964437647,-0.657221152238,0.598435349001,0.0401909869354,1.02773242784,-3.05602658289,0.197355799473,-2.38809900471,0.0167661843785
7.0,0.0145909529878,1.13868765413,0.281818303134,0.231709911894,-0.205582337519,1.57042974267,-0.657203708533,0.59932345508,0.0396224968886,1.02678348939,-3.05593069511,0.198866140048,-2.39010948089,0.0162363433182
7.02,0.0145909529878,1.13868765413,0.281818303134,0.231709911894,-0.205582337519,1.57042974267,-0.657203708533,0.59932345508,0.0396224968886,1.02678348939,-3.05593069511,0.198866140048,-2.39010948089,0.0162363433182
7.04,0.0145560458118,1.14470906135,0.281800859429,0.223594128209,-0.205599781224,1.57131990427,-0.657203708533,0.600184157271,0.0390227367166,1.02571840851,-3.05595613579,0.200088150172,-2.39216398788,0.0157063673606
7.06,0.0145560458118,1.14470906135,0.281800859429,0.223594128209,-0.205599781224,1.57131990427,-0.657203708533,0.600184157271,0.0390227367166,1.02571840851,-3.05595613579,0.200088150172,-2.39216398788,0.0157063673606
7.08,0.0144687794325,1.15123660234,0.281748495024,0.215425996764,-0.205826682549,1.57369357974,-0.657221152238,0.600808060422,0.0383223513945,1.02430468083,-3.05702703438,0.199647457769,-2.39445577577,0.0151710372792
7.1,0.0144687794325,1.15123660234,0.281748495024,0.215425996764,-0.205826682549,1.57369357974,-0.657221152238,0.600808060422,0.0383223513945,1.02430468083,-3.05702703438,0.199647457769,-2.39445577577,0.0151710372792
7.12,0.0144513263646,1.15762459369,0.281765938729,0.205564877169,-0.207449829299,1.5792088532,-0.657203708533,0.601091486923,0.0372836540133,1.02338472205,-3.05796017566,0.197357493655,-2.39721397171,0.0145096929547
7.14,0.0144513263646,1.15762459369,0.281765938729,0.205564877169,-0.207449829299,1.5792088532,-0.657203708533,0.601091486923,0.0372836540133,1.02338472205,-3.05796017566,0.197357493655,-2.39721397171,0.0145096929547
7.16,0.0143291528093,1.16341896643,0.281765938729,0.195808486384,-0.210032929109,1.58666131004,-0.657221152238,0.60103158696,0.0359984155102,1.0227072135,-3.05898888408,0.193296046853,-2.40015934132,0.0138469447692
7.18,0.0143291528093,1.16341896643,0.281765938729,0.195808486384,-0.210032929109,1.58666131004,-0.657221152238,0.60103158696,0.0359984155102,1.0227072135,-3.05898888408,0.193296046853,-2.40015934132,0.0138469447692
7.2,0.0140673536712,1.16785219754,0.281748495024,0.187553086479,-0.212441475354,1.59240348483,-0.657221152238,0.601061120817,0.0347804230548,1.02243076736,-3.05900807339,0.190508113147,-2.40276720745,0.0132814919227
7.22,0.0140673536712,1.16785219754,0.281748495024,0.187553086479,-0.212441475354,1.59240348483,-0.657221152238,0.601061120817,0.0347804230548,1.02243076736,-3.05900807339,0.190508113147,-2.40276720745,0.0132814919227
7.24,0.0141720731184,1.17251219682,0.281783415724,0.17854717449,-0.216385916534,1.59530073777,-0.657221152238,0.601638416103,0.0335119372291,1.02233642944,-3.05582891757,0.189488336457,-2.40508689111,0.0126641394159
7.26,0.0141720731184,1.17251219682,0.281783415724,0.17854717449,-0.216385916534,1.59530073777,-0.657221152238,0.601638416103,0.0335119372291,1.02233642944,-3.05582891757,0.189488336457,-2.40508689111,0.0126641394159
7.28,0.014119713915,1.17636938618,0.281783415724,0.172124378954,-0.218829383479,1.59564987819,-0.657203708533,0.602335019425,0.0326046640006,1.02200720304,-3.05312469367,0.189924644134,-2.40682847114,0.0122260739238
7.3,0.014119713915,1.17636938618,0.281783415724,0.172124378954,-0.218829383479,1.59564987819,-0.657203708533,0.602335019425,0.0326046640006,1.02200720304,-3.05312469367,0.189924644134,-2.40682847114,0.0122260739238
7.32,0.0142942466737,1.17949354046,0.281818303134,0.167970480155,-0.219178440674,1.59575454042,-0.657186264828,0.602789470484,0.0323595352549,1.02142845624,-3.05270412234,0.190595902986,-2.40771964568,0.0119447425922
7.34,0.0142942466737,1.17949354046,0.281818303134,0.167970480155,-0.219178440674,1.59575454042,-0.657186264828,0.602789470484,0.0323595352549,1.02142845624,-3.05270412234,0.190595902986,-2.40771964568,0.0119447425922
7.36,0.0141371669828,1.18242568082,0.281818303134,0.165247780769,-0.219195901024,1.59587664636,-0.657186264828,0.603097059184,0.032065152939,1.02051401706,-3.0531998733,0.190440216308,-2.40866923175,0.0117636246296
7.38,0.0141371669828,1.18242568082,0.281818303134,0.165247780769,-0.219195901024,1.59587664636,-0.657186264828,0.603097059184,0.032065152939,1.02051401706,-3.0531998733,0.190440216308,-2.40866923175,0.0117636246296
7.4,0.0140673536712,1.18574184901,0.281783415724,0.16184437741,-0.219248265429,1.59587664636,-0.657186264828,0.603494937267,0.0317616567132,1.01958449358,-3.05343965757,0.190586731381,-2.40968605705,0.0115351851225
7.42,0.0140673536712,1.18574184901,0.281783415724,0.16184437741,-0.219248265429,1.59587664636,-0.657186264828,0.603494937267,0.0317616567132,1.01958449358,-3.05343965757,0.190586731381,-2.40968605705,0.0115351851225
7.44,0.0139975403596,1.18984325024,0.281818303134,0.157411246169,-0.219195901024,1.59613856825,-0.657186264828,0.603958764787,0.0314128037977,1.01849713005,-3.05391725611,0.190854220387,-2.41095248031,0.0112355118146
7.46,0.0139975403596,1.18984325024,0.281818303134,0.157411246169,-0.219195901024,1.59613856825,-0.657186264828,0.603958764787,0.0314128037977,1.01849713005,-3.05391725611,0.190854220387,-2.41095248031,0.0112355118146
7.48,0.014084806739,1.19321174955,0.281818303134,0.15369368967,-0.219195901024,1.5981282159,-0.657186264828,0.604045066619,0.031176365361,1.01756477915,-3.05531783289,0.189688901403,-2.41199497936,0.0109818667246
7.5,0.014084806739,1.19321174955,0.281818303134,0.15369368967,-0.219195901024,1.5981282159,-0.657186264828,0.604045066619,0.031176365361,1.01756477915,-3.05531783289,0.189688901403,-2.41199497936,0.0109818667246
7.52,0.0140324475356,1.1953585237,0.281800859429,0.149696884085,-0.219213361374,1.60414962313,-0.657168821123,0.603475409103,0.0307891178089,1.01732125208,-3.05823526533,0.186464987322,-2.41336290572,0.0107000731576
7.54,0.0140324475356,1.1953585237,0.281800859429,0.149696884085,-0.219213361374,1.60414962313,-0.657168821123,0.603475409103,0.0307891178089,1.01732125208,-3.05823526533,0.186464987322,-2.41336290572,0.0107000731576
7.56,0.0137881014653,1.19630101641,0.281765938729,0.145508097875,-0.219265709134,1.61193377668,-0.657186264828,0.602619597597,0.0302465928157,1.01780817543,-3.06129233276,0.182876994712,-2.41488222822,0.0103982208745
7.58,0.0137881014653,1.19630101641,0.281765938729,0.145508097875,-0.219265709134,1.61193377668,-0.657186264828,0.602619597597,0.0302465928157,1.01780817543,-3.06129233276,0.182876994712,-2.41488222822,0.0103982208745
7.6,0.0137008350859,1.19637079123,0.281765938729,0.140237202735,-0.219248265429,1.621149113,-0.657186264828,0.601609729886,0.0297274798354,1.01911676992,-3.06413579853,0.179744144313,-2.41639251104,0.010014354783
7.62,0.0137008350859,1.19637079123,0.281765938729,0.140237202735,-0.219248265429,1.621149113,-0.657186264828,0.601609729886,0.0297274798354,1.01911676992,-3.06413579853,0.179744144313,-2.41639251104,0.010014354783
7.64,0.0138753678446,1.19633590382,0.281783415724,0.134460165507,-0.219178440674,1.62994553408,-0.657168821123,0.601609729886,0.0297274798354,1.01911676992,-3.06413579853,0.179744144313,-2.41639251104,0.010014354783
7.66,0.0138753678446,1.19633590382,0.281783415724,0.134460165507,-0.219178440674,1.62994553408,-0.657168821123,0.600700089808,0.0293474284414,1.02066076215,-3.06642527039,0.177469525159,-2.4176815937,0.00959415326118
7.68,0.0140324475356,1.19623124159,0.281783415724,0.131039318442,-0.219091188859,1.63638585654,-0.657186264828,0.599947811735,0.0291496885477,1.02158711105,-3.06851533312,0.175234878314,-2.41841956411,0.00934393486455
7.7,0.0140324475356,1.19623124159,0.281783415724,0.131039318442,-0.219091188859,1.63638585654,-0.657186264828,0.599947811735,0.0291496885477,1.02158711105,-3.06851533312,0.175234878314,-2.41841956411,0.00934393486455
7.72,0.0139277270481,1.1961264462,0.281765938729,0.13032373538,-0.219073728509,1.64502515112,-0.657168821123,0.598574698854,0.0289552464543,1.02160994281,-3.07341353885,0.169061950493,-2.41913925507,0.0092844311656
7.74,0.0139277270481,1.1961264462,0.281765938729,0.13032373538,-0.219073728509,1.64502515112,-0.657168821123,0.598574698854,0.0289552464543,1.02160994281,-3.07341353885,0.169061950493,-2.41913925507,0.0092844311656
7.76,0.0140324475356,1.19575999524,0.281765938729,0.130376091462,-0.219021364104,1.65540988147,-0.657186264828,0.59682276313,0.0289339956052,1.0215145371,-3.07967126982,0.161124623366,-2.41950391265,0.00927629194182
7.78,0.0140324475356,1.19575999524,0.281765938729,0.130376091462,-0.219021364104,1.65540988147,-0.657186264828,0.59682276313,0.0289339956052,1.0215145371,-3.07967126982,0.161124623366,-2.41950391265,0.00927629194182
7.8,0.0140324475356,1.19403213632,0.281748495024,0.13056808041,-0.218759575369,1.66671966083,-0.657186264828,0.594877531463,0.0288815256085,1.02218097144,-3.0858213622,0.153492930304,-2.41979700864,0.00927145907065
7.82,0.0140324475356,1.19403213632,0.281748495024,0.13056808041,-0.218759575369,1.66671966083,-0.657186264828,0.594877531463,0.0288815256085,1.02218097144,-3.0858213622,0.153492930304,-2.41979700864,0.00927145907065
7.84,0.014084806739,1.18987827081,0.281748495024,0.13072515698,-0.218585038449,1.67595244086,-0.657186264828,0.593234442389,0.0288641763903,1.02436479286,-3.08901082151,0.149329873038,-2.41968199719,0.00925742143079
7.86,0.014084806739,1.18987827081,0.281748495024,0.13072515698,-0.218585038449,1.67595244086,-0.657186264828,0.593234442389,0.0288641763903,1.02436479286,-3.08901082151,0.149329873038,-2.41968199719,0.00925742143079
7.88,0.0140499006034,1.18324593443,0.281713607614,0.131493104447,-0.218619942504,1.68254975667,-0.657221152238,0.591916700798,0.0288190854205,1.02789513115,-3.08908733442,0.148495696952,-2.41919117502,0.00928058584532
7.9,0.0140499006034,1.18324593443,0.281713607614,0.131493104447,-0.218619942504,1.68254975667,-0.657221152238,0.591916700798,0.0288190854205,1.02789513115,-3.08908733442,0.148495696952,-2.41919117502,0.00928058584532
7.92,0.0140324475356,1.17355935176,0.281713607614,0.135856427577,-0.218619942504,1.68729710763,-0.657203708533,0.590474696797,0.0290639875105,1.03217767398,-3.08804592423,0.148612022138,-2.41771864855,0.00954699311121
7.94,0.0140324475356,1.17355935176,0.281713607614,0.135856427577,-0.218619942504,1.68729710763,-0.657203708533,0.590474696797,0.0290639875105,1.03217767398,-3.08804592423,0.148612022138,-2.41771864855,0.00954699311121
7.96,0.0140149934275,1.16090574131,0.281731051319,0.148195909849,-0.218585038449,1.68881550892,-0.657238662522,0.588721237251,0.0298979378701,1.03585375113,-3.08745686093,0.147167826038,-2.41437112007,0.0103604127308
7.98,0.0140149934275,1.16090574131,0.281731051319,0.148195909849,-0.218585038449,1.68881550892,-0.657238662522,0.588721237251,0.0298979378701,1.03585375113,-3.08745686093,0.147167826038,-2.41437112007,0.0103604127308
8.0,0.0140324475356,1.14778088451,0.281731051319,0.167551614849,-0.218602482154,1.68862349501,-0.657238662522,0.586542046436,0.0312250416835,1.03769571908,-3.08928953804,0.141754361147,-2.40970968004,0.011650959371
8.02,0.0140324475356,1.14778088451,0.281731051319,0.167551614849,-0.218602482154,1.68862349501,-0.657238662522,0.586542046436,0.0312250416835,1.03769571908,-3.08928953804,0.141754361147,-2.40970968004,0.011650959371
8.04,0.0140324475356,1.13572062636,0.281713607614,0.191061185359,-0.218532674044,1.68801269901,-0.657238662522,0.584005584844,0.0328124491281,1.03764350594,-3.0939000614,0.132567447087,-2.40441325724,0.0132168121141
8.06,0.0140324475356,1.13572062636,0.281713607614,0.191061185359,-0.218532674044,1.68801269901,-0.657238662522,0.584005584844,0.0328124491281,1.03764350594,-3.0939000614,0.132567447087,-2.40441325724,0.0132168121141
8.08,0.0139800872918,1.1236603682,0.281696130619,0.219091188859,-0.218602482154,1.68396349573,-0.657238662522,0.581509594725,0.0346527334964,1.03628104955,-3.09878673937,0.122394224709,-2.39823559284,0.0150789754189
8.1,0.0139800872918,1.1236603682,0.281696130619,0.219091188859,-0.218602482154,1.68396349573,-0.657238662522,0.581509594725,0.0346527334964,1.03628104955,-3.09878673937,0.122394224709,-2.39823559284,0.0150789754189
8.12,0.0139975403596,1.11261251074,0.281748495024,0.248290536459,-0.218532674044,1.67385799782,-0.657238662522,0.579812143338,0.0366972930892,1.03407737112,-3.10145632336,0.115448756897,-2.39159917054,0.017018678059
8.14,0.0139975403596,1.11261251074,0.281748495024,0.248290536459,-0.218532674044,1.67385799782,-0.657238662522,0.579812143338,0.0366972930892,1.03407737112,-3.10145632336,0.115448756897,-2.39159917054,0.017018678059
8.16,0.01424188643,1.10201832276,0.281748495024,0.276512520584,-0.218375597474,1.65815000792,-0.657203708533,0.57903589538,0.0388747607409,1.0319791976,-3.10051843451,0.113403153329,-2.38482485665,0.0188885539007
8.18,0.01424188643,1.10201832276,0.281748495024,0.276512520584,-0.218375597474,1.65815000792,-0.657203708533,0.57903589538,0.0388747607409,1.0319791976,-3.10051843451,0.113403153329,-2.38482485665,0.0188885539007
8.2,0.0142767936059,1.08842221961,0.281748495024,0.306916132984,-0.217712370494,1.64034770814,-0.657186264828,0.578150575526,0.0411667218223,1.0309595584,-3.09789653919,0.113798126224,-2.37750637372,0.020860662972
8.22,0.0142767936059,1.08842221961,0.281748495024,0.306916132984,-0.217712370494,1.64034770814,-0.657186264828,0.578150575526,0.0411667218223,1.0309595584,-3.09789653919,0.113798126224,-2.37750637372,0.020860662972
8.24,0.0141895272265,1.07157978966,0.281713607614,0.338820769554,-0.214553328809,1.62242316926,-0.657186264828,0.576836379806,0.043870560478,1.03132338951,-3.0957575697,0.116943798305,-2.36960773831,0.022866008726
8.26,0.0141895272265,1.07157978966,0.281713607614,0.338820769554,-0.214553328809,1.62242316926,-0.657186264828,0.576836379806,0.043870560478,1.03132338951,-3.0957575697,0.116943798305,-2.36960773831,0.022866008726
8.28,0.0141720731184,1.05253825445,0.281661243209,0.372365979934,-0.211865516834,1.60603447539,-0.657186264828,0.57484743628,0.0465673233872,1.03235226012,-3.09359760874,0.118833934634,-2.36138394655,0.0249024387254
8.3,0.0141720731184,1.03138489907,0.281661243209,0.408633939634,-0.211027752934,1.59025671067,-0.657186264828,0.57484743628,0.0465673233872,1.03235226012,-3.09359760874,0.118833934634,-2.36138394655,0.0249024387254
8.32,0.0141720731184,1.03138489907,0.281661243209,0.408633939634,-0.211027752934,1.59025671067,-0.657186264828,0.572206577297,0.0490743692299,1.033653117,-3.09046509383,0.118456650273,-2.35270973748,0.0270254007357
8.34,0.0141371669828,1.01131358604,0.281329613074,0.443174007129,-0.211254654259,1.5766257201,-0.657186264828,0.572206577297,0.0490743692299,1.033653117,-3.09046509383,0.118456650273,-2.35270973748,0.0270254007357
8.36,0.0141371669828,1.01131358604,0.281329613074,0.443174007129,-0.211254654259,1.5766257201,-0.657186264828,0.569315512805,0.051095569473,1.03471613861,-3.08736952874,0.11604576376,-2.34481407054,0.0289747584498
8.38,0.014084806739,0.991102656787,0.280701306794,0.479110336693,-0.211254654259,1.56145875138,-0.657186264828,0.566316783188,0.0531079281046,1.03536118174,-3.0840328435,0.113745164775,-2.3368258923,0.0309394970302
8.4,0.014084806739,0.991102656787,0.280701306794,0.479110336693,-0.211254654259,1.56145875138,-0.657186264828,0.566316783188,0.0531079281046,1.03536118174,-3.0840328435,0.113745164775,-2.3368258923,0.0309394970302
8.42,0.0141371669828,0.973457416931,0.280456961764,0.510247017473,-0.211219750204,1.54829900717,-0.657151377418,0.563557244215,0.0549436172797,1.03593387606,-3.08124748486,0.112008044355,-2.32975028994,0.0325745667225
8.44,0.0141371669828,0.973457416931,0.280456961764,0.510247017473,-0.211219750204,1.54829900717,-0.657151377418,0.563557244215,0.0549436172797,1.03593387606,-3.08124748486,0.112008044355,-2.32975028994,0.0325745667225
8.46,0.0141371669828,0.954415815137,0.280456961764,0.543600247228,-0.211219750204,1.5352613689,-0.657151377418,0.563557244215,0.0549436172797,1.03593387606,-3.08124748486,0.112008044355,-2.32975028994,0.0325745667225
8.48,0.0141371669828,0.954415815137,0.280456961764,0.543600247228,-0.211219750204,1.5352613689,-0.657151377418,0.560266820756,0.0568653930358,1.03653673668,-3.07893078183,0.109479526843,-2.32216045364,0.0342502453972
8.5,0.0141022608471,0.938795176922,0.280090444219,0.571455713808,-0.211272097964,1.52485919484,-0.657151377418,0.560266820756,0.0568653930358,1.03653673668,-3.07893078183,0.109479526843,-2.32216045364,0.0342502453972
8.52,0.0141022608471,0.938795176922,0.280090444219,0.571455713808,-0.211272097964,1.52485919484,-0.657151377418,0.557345386488,0.058271765285,1.03679532643,-3.07725174319,0.106495175879,-2.31614590179,0.0355958358743
8.54,0.0138404606687,0.922371595637,0.279636641569,0.600567792948,-0.212703280734,1.51608021746,-0.657133933713,0.553885667927,0.0592535629458,1.03701216335,-3.07559510576,0.100867024615,-2.31028272854,0.0369380217425
8.56,0.0138404606687,0.922371595637,0.279636641569,0.600567792948,-0.212703280734,1.51608021746,-0.657133933713,0.553885667927,0.0592535629458,1.03701216335,-3.07559510576,0.100867024615,-2.31028272854,0.0369380217425
8.58,0.0138404606687,0.906820732242,0.279531946049,0.628370861833,-0.213541027989,1.50573050767,-0.657151377418,0.550768177644,0.0605259548066,1.03714398627,-3.07350187182,0.0974259530781,-2.30417250062,0.0381695982784
8.6,0.0138404606687,0.906820732242,0.279531946049,0.628370861833,-0.213541027989,1.50573050767,-0.657151377418,0.550768177644,0.0605259548066,1.03714398627,-3.07350187182,0.0974259530781,-2.30417250062,0.0381695982784
8.62,0.0137008350859,0.893591146632,0.279462104649,0.653451247978,-0.213506123934,1.49400181308,-0.657133933713,0.548275556146,0.0617698789515,1.03682691641,-3.07137760783,0.0961395797395,-2.29879891593,0.0392521816383
8.64,0.0137008350859,0.893591146632,0.279462104649,0.653451247978,-0.213506123934,1.49400181308,-0.657133933713,0.548275556146,0.0617698789515,1.03682691641,-3.07137760783,0.0961395797395,-2.29879891593,0.0392521816383
8.66,0.0136484748421,0.879209610692,0.279374852834,0.681516172178,-0.213453759529,1.48038826622,-0.657116490007,0.545475210206,0.0631925677195,1.03620137883,-3.06903115046,0.0947760150178,-2.2927284596,0.0404168105601
8.68,0.0136484748421,0.879209610692,0.279374852834,0.681516172178,-0.213453759529,1.48038826622,-0.657116490007,0.545475210206,0.0631925677195,1.03620137883,-3.06903115046,0.0947760150178,-2.2927284596,0.0404168105601
8.7,0.0135263012868,0.864967690973,0.279217776264,0.710924994042,-0.213506123934,1.46618123391,-0.657133933713,0.54245475545,0.0645585997063,1.03503830988,-3.06712500053,0.0926140181184,-2.28653890704,0.0415902686865
8.72,0.0135263012868,0.864967690973,0.279217776264,0.710924994042,-0.213506123934,1.46618123391,-0.657133933713,0.54245475545,0.0645585997063,1.03503830988,-3.06712500053,0.0926140181184,-2.28653890704,0.0415902686865
8.74,0.0134739420834,0.847811141177,0.278833798369,0.746704230392,-0.213593392394,1.44918174404,-0.657133933713,0.54245475545,0.0645585997063,1.03503830988,-3.06712500053,0.0926140181184,-2.28653890704,0.0415902686865
8.76,0.0134739420834,0.847811141177,0.278833798369,0.746704230392,-0.213593392394,1.44918174404,-0.657133933713,0.538586164567,0.0661265033855,1.03345031861,-3.06503481294,0.0894955745324,-2.27914155392,0.0429309116946
8.78,0.0131946888371,0.828647433447,0.278729086204,0.786235927297,-0.213715564909,1.42900576878,-0.657116490007,0.538586164567,0.0661265033855,1.03345031861,-3.06503481294,0.0894955745324,-2.27914155392,0.0429309116946
8.8,0.0131946888371,0.828647433447,0.278729086204,0.786235927297,-0.213715564909,1.42900576878,-0.657116490007,0.534342709365,0.0678009503517,1.03176581239,-3.06190136321,0.0874179564685,-2.27098888264,0.044286257824
8.82,0.0115017194128,0.807720912813,0.278676721799,0.828228518208,-0.214256619374,1.40594998427,-0.657116490007,0.534342709365,0.0678009503517,1.03176581239,-3.06190136321,0.0874179564685,-2.27098888264,0.044286257824
8.84,0.0115017194128,0.807720912813,0.278676721799,0.828228518208,-0.214256619374,1.40594998427,-0.657116490007,0.529974580111,0.0687520976827,1.03021878596,-3.05689236182,0.08659704297,-2.26356241195,0.0455642319852
8.86,0.00912807202122,0.785659952133,0.278641817744,0.871652358467,-0.217642562384,1.37900212299,-0.657081536018,0.529974580111,0.0687520976827,1.03021878596,-3.05689236182,0.08659704297,-2.26356241195,0.0455642319852
8.88,0.00912807202122,0.785659952133,0.278641817744,0.871652358467,-0.217642562384,1.37900212299,-0.657081536018,0.525872429285,0.0689800245603,1.02880870556,-3.04730784269,0.0866883471132,-2.25596328465,0.0467000779657
8.9,0.00912807202122,0.785659952133,0.278641817744,0.871652358467,-0.217642562384,1.37900212299,-0.657081536018,0.525872429285,0.0689800245603,1.02880870556,-3.04730784269,0.0866883471132,-2.25596328465,0.0467000779657
8.92,0.00623082531311,0.764052794102,0.278676721799,0.910451020282,-0.222442211169,1.35530052192,-0.657081536018,0.522025334293,0.0684358324431,1.02845543155,-3.0361877232,0.0865579714793,-2.24944102262,0.0475100310287
8.94,0.00623082531311,0.764052794102,0.278676721799,0.910451020282,-0.222442211169,1.35530052192,-0.657081536018,0.522025334293,0.0684358324431,1.02845543155,-3.0361877232,0.0865579714793,-2.24944102262,0.0475100310287
8.96,0.00312413945054,0.743021544658,0.278624357394,0.948638819522,-0.225531444744,1.33432160359,-0.657064092313,0.517648074401,0.0678550189444,1.02782448931,-3.02816901569,0.0853184195388,-2.24373990937,0.0481785689349
8.98,0.00312413945054,0.743021544658,0.278624357394,0.948638819522,-0.225531444744,1.33432160359,-0.657064092313,0.517648074401,0.0678550189444,1.02782448931,-3.02816901569,0.0853184195388,-2.24373990937,0.0481785689349
9.0,0.000261799381947,0.725079562078,0.278606913689,0.976913134762,-0.225758346069,1.31932933823,-0.657064092313,0.514113408319,0.0674145179281,1.0284871406,-3.02235045446,0.0866846728377,-2.24029650275,0.0485175271434
9.02,-0.00256563399835,0.707696110958,0.278484741174,1.00129537323,-0.225740885719,1.30786243237,-0.657046648608,0.514113408319,0.0674145179281,1.0284871406,-3.02235045446,0.0866846728377,-2.24029650275,0.0485175271434
9.04,-0.00256563399835,0.707696110958,0.278484741174,1.00129537323,-0.225740885719,1.30786243237,-0.657046648608,0.510726433951,0.0667608876393,1.02993209446,-3.01685311615,0.0879255441957,-2.2378637333,0.0486986677873
9.06,-0.00476474889123,0.695513680288,0.278100763279,1.01565946546,-0.225705981664,1.30309777087,-0.657046648608,0.510726433951,0.0667608876393,1.02993209446,-3.01685311615,0.0879255441957,-2.2378637333,0.0486986677873
9.08,-0.00476474889123,0.695513680288,0.278100763279,1.01565946546,-0.225705981664,1.30309777087,-0.657046648608,0.508372102534,0.0659002734345,1.031672643,-3.01320129514,0.0881162300672,-2.23727374947,0.0487333591014
9.1,-0.00637045193623,0.687904096947,0.277978590764,1.02368796404,-0.225653617259,1.30234729207,-0.657029204903,0.508372102534,0.0659002734345,1.031672643,-3.01320129514,0.0881162300672,-2.23727374947,0.0487333591014
9.12,-0.00637045193623,0.687904096947,0.277978590764,1.02368796404,-0.225653617259,1.30234729207,-0.657029204903,0.506727697615,0.0651872617665,1.03299092866,-3.01177229842,0.0872710561943,-2.23743023327,0.0487313800828
9.14,-0.00722566318232,0.682860069843,0.277315363784,1.02965697357,-0.225636173554,1.30236473578,-0.657011761198,0.506727697615,0.0651872617665,1.03299092866,-3.01177229842,0.0872710561943,-2.23743023327,0.0487313800828
9.16,-0.00722566318232,0.682860069843,0.277315363784,1.02965697357,-0.225636173554,1.30236473578,-0.657011761198,0.505429292017,0.0645866079944,1.03361306348,-3.01131258591,0.0855111908415,-2.23774384507,0.0487503181359
