GitHatake/ROS1EARs/catkin_ws/src/torobo_robot/torobo_EARs2021/scripts/arm/2021_kaiya_csv/test_manipulability_joint_7.csv
time,joint_1,joint_2,joint_3,joint_4,joint_5,joint_6,joint_7,x,y,z,roll,pitch,yaw,manipulability
0.0,0.465706214163,0.853989608327,0.0595331810186,0.745011258887,-0.0961850978071,1.33863259561,-0.656261282402,0.498751256899,0.256280282492,1.02767809429,-2.97486841842,0.130029581005,-1.96170812587,0.0430759980553
0.02,0.465706214163,0.853989608327,0.0595331810186,0.745011258887,-0.0961676457796,1.33863259561,-0.656261282402,0.498751256899,0.256280282492,1.02767809429,-2.97486841842,0.130029581005,-1.96170812587,0.0430759980553
0.04,0.465706214163,0.853989608327,0.0595331810186,0.745011258887,-0.0961676457796,1.33863259561,-0.656261282402,0.49874985563,0.256282802561,1.02767794633,-2.97488216727,0.130040466489,-1.96171038503,0.043076000366
0.06,0.465706214163,0.853989608327,0.0595331810186,0.745011258887,-0.0961676457796,1.33863259561,-0.656261282402,0.49874985563,0.256282802561,1.02767794633,-2.97488216727,0.130040466489,-1.96171038503,0.043076000366
0.08,0.465706214163,0.853989608327,0.0595331810186,0.745011258887,-0.0961676457796,1.33863259561,-0.656261282402,0.49874985563,0.256282802561,1.02767794633,-2.97488216727,0.130040466489,-1.96171038503,0.043076000366
0.1,0.465706214163,0.853989608327,0.0595331810186,0.745011258887,-0.0961676457796,1.33863259561,-0.656261282402,0.49874985563,0.256282802561,1.02767794633,-2.97488216727,0.130040466489,-1.96171038503,0.043076000366
0.12,0.465706214163,0.853989608327,0.059515728991,0.745011258887,-0.0961850978071,1.33863259561,-0.656261282402,0.498754061297,0.256274830576,1.02767802826,-2.97485839173,0.130020963123,-1.96171829146,0.0430760055414
0.14,0.465706214163,0.853989608327,0.059515728991,0.745011258887,-0.0961850978071,1.33863259561,-0.656261282402,0.498754061297,0.256274830576,1.02767802826,-2.97485839173,0.130020963123,-1.96171829146,0.0430760055414
0.16,0.465706214163,0.853972164622,0.0595331810186,0.745011258887,-0.0961850978071,1.33863259561,-0.656261282402,0.498754061297,0.256274830576,1.02767802826,-2.97485839173,0.130020963123,-1.96171829146,0.0430760055414
0.18,0.465706214163,0.853972164622,0.0595331810186,0.745011258887,-0.0961850978071,1.33863259561,-0.656261282402,0.498750903361,0.256280104813,1.02768787532,-2.97485689555,0.130042762013,-1.9617066317,0.0430755967461
0.2,0.465706214163,0.853972164622,0.0595331810186,0.745011258887,-0.0961850978071,1.33863259561,-0.656261282402,0.498750903361,0.256280104813,1.02768787532,-2.97485689555,0.130042762013,-1.9617066317,0.0430755967461
0.22,0.465706214163,0.853989608327,0.0595331810186,0.745011258887,-0.0961850978071,1.33863259561,-0.656278726108,0.498751256899,0.256280282492,1.02767809429,-2.97486616901,0.130026686152,-1.9616907776,0.0430759980553
0.24,0.465706214163,0.853989608327,0.0595331810186,0.745011258887,-0.0961850978071,1.33863259561,-0.656278726108,0.498751256899,0.256280282492,1.02767809429,-2.97486616901,0.130026686152,-1.9616907776,0.0430759980553
0.26,0.465706214163,0.853989608327,0.059515728991,0.745011258887,-0.0961850978071,1.33863259561,-0.656278726108,0.498754061297,0.256274830576,1.02767802826,-2.97485614247,0.130018068098,-1.96170094324,0.0430760055414
0.28,0.465706214163,0.853989608327,0.059515728991,0.745011258887,-0.0961850978071,1.33863259561,-0.656278726108,0.498754061297,0.256274830576,1.02767802826,-2.97485614247,0.130018068098,-1.96170094324,0.0430760055414
0.3,0.465706214163,0.853989608327,0.0595331810186,0.745011258887,-0.0961850978071,1.33863259561,-0.656278726108,0.498751256899,0.256280282492,1.02767809429,-2.97486616901,0.130026686152,-1.9616907776,0.0430759980553
0.32,0.465706214163,0.853989608327,0.0595331810186,0.745011258887,-0.0961850978071,1.33863259561,-0.656278726108,0.498751256899,0.256280282492,1.02767809429,-2.97486616901,0.130026686152,-1.9616907776,0.0430759980553
0.34,0.465706214163,0.853989608327,0.0595331810186,0.745011258887,-0.0961850978071,1.33863259561,-0.656278726108,0.498751256899,0.256280282492,1.02767809429,-2.97486616901,0.130026686152,-1.9616907776,0.0430759980553
0.36,0.465706214163,0.853972164622,0.0595331810186,0.745011258887,-0.0961850978071,1.3386151519,-0.656261282402,0.498753425859,0.256281542809,1.02768847777,-2.97484595212,0.130056390619,-1.96170431842,0.0430755260037
0.38,0.465706214163,0.853972164622,0.0595331810186,0.745011258887,-0.0961850978071,1.3386151519,-0.656261282402,0.498753425859,0.256281542809,1.02768847777,-2.97484595212,0.130056390619,-1.96170431842,0.0430755260037
0.4,0.465706214163,0.853972164622,0.0595331810186,0.745011258887,-0.0961850978071,1.33863259561,-0.656261282402,0.498750903361,0.256280104813,1.02768787532,-2.97485689555,0.130042762013,-1.9617066317,0.0430755967461
0.42,0.465706214163,0.853972164622,0.0595331810186,0.745011258887,-0.0961850978071,1.33863259561,-0.656261282402,0.498750903361,0.256280104813,1.02768787532,-2.97485689555,0.130042762013,-1.9617066317,0.0430755967461
0.44,0.465706214163,0.853989608327,0.0595331810186,0.745011258887,-0.0961850978071,1.33863259561,-0.656261282402,0.498751256899,0.256280282492,1.02767809429,-2.97486841842,0.130029581005,-1.96170812587,0.0430759980553
0.46,0.465706214163,0.853989608327,0.0595331810186,0.745011258887,-0.0961850978071,1.33863259561,-0.656261282402,0.498751256899,0.256280282492,1.02767809429,-2.97486841842,0.130029581005,-1.96170812587,0.0430759980553
0.48,0.465706214163,0.853989608327,0.0595331810186,0.745011258887,-0.0961850978071,1.33863259561,-0.656261282402,0.498751256899,0.256280282492,1.02767809429,-2.97486841842,0.130029581005,-1.96170812587,0.0430759980553
0.5,0.465706214163,0.853989608327,0.0595331810186,0.745011258887,-0.0961850978071,1.33863259561,-0.656278726108,0.498751256899,0.256280282492,1.02767809429,-2.97486616901,0.130026686152,-1.9616907776,0.0430759980553
0.52,0.465706214163,0.853989608327,0.0595331810186,0.745011258887,-0.0961850978071,1.33863259561,-0.656278726108,0.498751256899,0.256280282492,1.02767809429,-2.97486616901,0.130026686152,-1.9616907776,0.0430759980553
0.54,0.465706214163,0.853989608327,0.059515728991,0.745011258887,-0.0961850978071,1.33863259561,-0.656278726108,0.498754061297,0.256274830576,1.02767802826,-2.97485614247,0.130018068098,-1.96170094324,0.0430760055414
0.56,0.465706214163,0.853989608327,0.059515728991,0.745011258887,-0.0961850978071,1.33863259561,-0.656278726108,0.498754061297,0.256274830576,1.02767802826,-2.97485614247,0.130018068098,-1.96170094324,0.0430760055414
0.58,0.465706214163,0.853972164622,0.0595331810186,0.745011258887,-0.0961850978071,1.33863259561,-0.656278726108,0.498750903361,0.256280104813,1.02768787532,-2.97485464591,0.130039866962,-1.96168928343,0.0430755967461
0.6,0.465706214163,0.853972164622,0.0595331810186,0.745011258887,-0.0961850978071,1.33863259561,-0.656278726108,0.498750903361,0.256280104813,1.02768787532,-2.97485464591,0.130039866962,-1.96168928343,0.0430755967461
0.62,0.465706214163,0.853972164622,0.0595331810186,0.745011258887,-0.0961850978071,1.33863259561,-0.656278726108,0.498750903361,0.256280104813,1.02768787532,-2.97485464591,0.130039866962,-1.96168928343,0.0430755967461
0.64,0.465706214163,0.853989608327,0.0595331810186,0.745011258887,-0.0961850978071,1.33863259561,-0.656261282402,0.498751256899,0.256280282492,1.02767809429,-2.97486841842,0.130029581005,-1.96170812587,0.0430759980553
0.66,0.465706214163,0.853989608327,0.0595331810186,0.745011258887,-0.0961850978071,1.33863259561,-0.656261282402,0.498751256899,0.256280282492,1.02767809429,-2.97486841842,0.130029581005,-1.96170812587,0.0430759980553
0.68,0.465706214163,0.853972164622,0.059515728991,0.745011258887,-0.0961850978071,1.33863259561,-0.656278726108,0.498753707761,0.256274652897,1.0276878093,-2.97484461953,0.130031249024,-1.96169944919,0.0430756042324
0.7,0.465706214163,0.853972164622,0.059515728991,0.745011258887,-0.0961850978071,1.33863259561,-0.656278726108,0.498753707761,0.256274652897,1.0276878093,-2.97484461953,0.130031249024,-1.96169944919,0.0430756042324
0.72,0.465706214163,0.853989608327,0.0595331810186,0.745011258887,-0.0961850978071,1.3386151519,-0.656261282402,0.498753779406,0.256281720494,1.02767869669,-2.97485747504,0.130043209637,-1.96170581275,0.0430759273135
0.74,0.465706214163,0.853989608327,0.0595331810186,0.745011258887,-0.0961850978071,1.3386151519,-0.656261282402,0.498753779406,0.256281720494,1.02767869669,-2.97485747504,0.130043209637,-1.96170581275,0.0430759273135
0.76,0.465706214163,0.853989608327,0.0595331810186,0.745011258887,-0.0961850978071,1.3386151519,-0.656261282402,0.498753779406,0.256281720494,1.02767869669,-2.97485747504,0.130043209637,-1.96170581275,0.0430759273135
0.78,0.465706214163,0.853989608327,0.0595331810186,0.745011258887,-0.0961676457796,1.33863259561,-0.656261282402,0.49874985563,0.256282802561,1.02767794633,-2.97488216727,0.130040466489,-1.96171038503,0.043076000366
0.8,0.465706214163,0.853989608327,0.0595331810186,0.745011258887,-0.0961676457796,1.33863259561,-0.656261282402,0.49874985563,0.256282802561,1.02767794633,-2.97488216727,0.130040466489,-1.96171038503,0.043076000366
0.82,0.465706214163,0.853972164622,0.0595331810186,0.745011258887,-0.0961850978071,1.33863259561,-0.656261282402,0.498750903361,0.256280104813,1.02768787532,-2.97485689555,0.130042762013,-1.9617066317,0.0430755967461
0.84,0.465706214163,0.853972164622,0.0595331810186,0.745011258887,-0.0961850978071,1.33863259561,-0.656261282402,0.498750903361,0.256280104813,1.02768787532,-2.97485689555,0.130042762013,-1.9617066317,0.0430755967461
0.86,0.465706214163,0.853989608327,0.0595331810186,0.745011258887,-0.0961850978071,1.33863259561,-0.656278726108,0.498751256899,0.256280282492,1.02767809429,-2.97486616901,0.130026686152,-1.9616907776,0.0430759980553
0.88,0.465706214163,0.853989608327,0.0595331810186,0.745011258887,-0.0961850978071,1.33863259561,-0.656278726108,0.498751256899,0.256280282492,1.02767809429,-2.97486616901,0.130026686152,-1.9616907776,0.0430759980553
0.9,0.465706214163,0.853989608327,0.0595331810186,0.745011258887,-0.0961850978071,1.33863259561,-0.656278726108,0.498751256899,0.256280282492,1.02767809429,-2.97486616901,0.130026686152,-1.9616907776,0.0430759980553
0.92,0.465706214163,0.853989608327,0.0595331810186,0.745011258887,-0.0961676457796,1.33863259561,-0.656261282402,0.49874985563,0.256282802561,1.02767794633,-2.97488216727,0.130040466489,-1.96171038503,0.043076000366
0.94,0.465706214163,0.853989608327,0.0595331810186,0.745011258887,-0.0961676457796,1.33863259561,-0.656261282402,0.49874985563,0.256282802561,1.02767794633,-2.97488216727,0.130040466489,-1.96171038503,0.043076000366
0.96,0.465706214163,0.853989608327,0.0595331810186,0.745011258887,-0.0961850978071,1.33863259561,-0.656278726108,0.498751256899,0.256280282492,1.02767809429,-2.97486616901,0.130026686152,-1.9616907776,0.0430759980553
0.98,0.465706214163,0.853989608327,0.0595331810186,0.745011258887,-0.0961850978071,1.33863259561,-0.656278726108,0.498751256899,0.256280282492,1.02767809429,-2.97486616901,0.130026686152,-1.9616907776,0.0430759980553
1.0,0.465706214163,0.853989608327,0.0595331810186,0.745011258887,-0.0961850978071,1.33863259561,-0.656278726108,0.498751256899,0.256280282492,1.02767809429,-2.97486616901,0.130026686152,-1.9616907776,0.0430759980553
1.02,0.465706214163,0.853989608327,0.0595331810186,0.745011258887,-0.0961850978071,1.33863259561,-0.656278726108,0.498751256899,0.256280282492,1.02767809429,-2.97486616901,0.130026686152,-1.9616907776,0.0430759980553
1.04,0.465706214163,0.853989608327,0.0595331810186,0.745011258887,-0.0961850978071,1.33863259561,-0.656278726108,0.498751256899,0.256280282492,1.02767809429,-2.97486616901,0.130026686152,-1.9616907776,0.0430759980553
1.06,0.465706214163,0.853972164622,0.0595331810186,0.745011258887,-0.0961850978071,1.33863259561,-0.656261282402,0.498750903361,0.256280104813,1.02768787532,-2.97485689555,0.130042762013,-1.9617066317,0.0430755967461
1.08,0.465706214163,0.853972164622,0.0595331810186,0.745011258887,-0.0961850978071,1.33863259561,-0.656261282402,0.498750903361,0.256280104813,1.02768787532,-2.97485689555,0.130042762013,-1.9617066317,0.0430755967461
1.1,0.465706214163,0.853972164622,0.0595331810186,0.745011258887,-0.0961850978071,1.3386151519,-0.656278726108,0.498753425859,0.256281542809,1.02768847777,-2.97484370225,0.130053495379,-1.96168697015,0.0430755260037
1.12,0.465706214163,0.853972164622,0.0595331810186,0.745011258887,-0.0961850978071,1.3386151519,-0.656278726108,0.498753425859,0.256281542809,1.02768847777,-2.97484370225,0.130053495379,-1.96168697015,0.0430755260037
1.14,0.465706214163,0.853972164622,0.059515728991,0.745011258887,-0.0961850978071,1.3386151519,-0.656278726108,0.498756230271,0.256276090872,1.02768841175,-2.97483367587,0.130044877418,-1.96169713577,0.04307553349
1.16,0.465706214163,0.853972164622,0.059515728991,0.745011258887,-0.0961850978071,1.3386151519,-0.656278726108,0.498756230271,0.256276090872,1.02768841175,-2.97483367587,0.130044877418,-1.96169713577,0.04307553349
1.18,0.465706214163,0.853972164622,0.059515728991,0.745011258887,-0.0961850978071,1.3386151519,-0.656278726108,0.498756230271,0.256276090872,1.02768841175,-2.97483367587,0.130044877418,-1.96169713577,0.04307553349
1.2,0.465706214163,0.853972164622,0.0595331810186,0.745011258887,-0.0961850978071,1.3386151519,-0.656278726108,0.498753425859,0.256281542809,1.02768847777,-2.97484370225,0.130053495379,-1.96168697015,0.0430755260037
1.22,0.465706214163,0.853972164622,0.0595331810186,0.745011258887,-0.0961850978071,1.3386151519,-0.656278726108,0.498753425859,0.256281542809,1.02768847777,-2.97484370225,0.130053495379,-1.96168697015,0.0430755260037
1.24,0.465723657868,0.853989608327,0.0595331810186,0.745011258887,-0.0961850978071,1.3386151519,-0.656261282402,0.498749308827,0.256290420569,1.02767869669,-2.97485747504,0.130043209637,-1.96168836904,0.0430759273135
1.26,0.465723657868,0.853989608327,0.0595331810186,0.745011258887,-0.0961850978071,1.3386151519,-0.656261282402,0.498749308827,0.256290420569,1.02767869669,-2.97485747504,0.130043209637,-1.96168836904,0.0430759273135
1.28,0.465688737169,0.853937210633,0.059515728991,0.744958861193,-0.0961850978071,1.3385977082,-0.656243772118,0.498770875964,0.256272173563,1.02772612363,-2.97477116103,0.130131585866,-1.96174213616,0.0430721334046
1.3,0.465688737169,0.853937210633,0.059515728991,0.744958861193,-0.0961850978071,1.3385977082,-0.656243772118,0.498770875964,0.256272173563,1.02772612363,-2.97477116103,0.130131585866,-1.96174213616,0.0430721334046
1.32,0.465688737169,0.853937210633,0.059515728991,0.744958861193,-0.0961850978071,1.3385977082,-0.656243772118,0.498770875964,0.256272173563,1.02772612363,-2.97477116103,0.130131585866,-1.96174213616,0.0430721334046
1.34,0.465741101574,0.853954720917,0.0595506330461,0.744976304898,-0.0961327334022,1.33858026449,-0.656208884708,0.498747738843,0.256317134656,1.02771076697,-2.97484857812,0.130174065606,-1.96171074793,0.0430732981185
1.36,0.465741101574,0.853954720917,0.0595506330461,0.744976304898,-0.0961327334022,1.33858026449,-0.656208884708,0.498747738843,0.256317134656,1.02771076697,-2.97484857812,0.130174065606,-1.96171074793,0.0430732981185
1.38,0.465741101574,0.853954720917,0.0595680892348,0.744976304898,-0.0961327334022,1.3385977082,-0.656191441003,0.49874241098,0.256321149583,1.02771023058,-2.97487180223,0.130171950619,-1.96172024284,0.0430733613934
1.4,0.465741101574,0.853954720917,0.0595680892348,0.744976304898,-0.0961327334022,1.3385977082,-0.656191441003,0.49874241098,0.256321149583,1.02771023058,-2.97487180223,0.130171950619,-1.96172024284,0.0430733613934
1.42,0.465706214163,0.853937210633,0.0595331810186,0.744958861193,-0.0961327334022,1.33858026449,-0.656139109887,0.498761910721,0.256295341701,1.02772634864,-2.9748250119,0.13020386766,-1.96182304934,0.0430720620829
1.44,0.465706214163,0.853937210633,0.0595331810186,0.744958861193,-0.0961327334022,1.33858026449,-0.656139109887,0.498761910721,0.256295341701,1.02772634864,-2.9748250119,0.13020386766,-1.96182304934,0.0430720620829
1.46,0.465706214163,0.853937210633,0.0595331810186,0.744958861193,-0.0961327334022,1.33858026449,-0.656139109887,0.498761910721,0.256295341701,1.02772634864,-2.9748250119,0.13020386766,-1.96182304934,0.0430720620829
1.48,0.465741101574,0.853954720917,0.0595680892348,0.744958861193,-0.0961152813747,1.33858026449,-0.656034381078,0.498746312866,0.256326345367,1.02771651478,-2.97488391133,0.130236133348,-1.96187575162,0.0430724522709
1.5,0.465741101574,0.853954720917,0.0595680892348,0.744958861193,-0.0961152813747,1.33858026449,-0.656034381078,0.498746312866,0.256326345367,1.02771651478,-2.97488391133,0.130236133348,-1.96187575162,0.0430724522709
1.52,0.465758578568,0.853954720917,0.0595855412623,0.744958861193,-0.0960454649422,1.33856282079,-0.655912208563,0.498735943878,0.256352032546,1.02771659364,-2.97495380221,0.130322180551,-1.96197635434,0.0430723832362
1.54,0.465758578568,0.853954720917,0.0595855412623,0.744958861193,-0.0960454649422,1.33856282079,-0.655912208563,0.498735943878,0.256352032546,1.02771659364,-2.97495380221,0.130322180551,-1.96197635434,0.0430723832362
1.56,0.465741101574,0.853919766928,0.0595506330461,0.744941417488,-0.0960629252921,1.33851048967,-0.655737638353,0.498757074611,0.256335085228,1.0277438469,-2.97487567739,0.130403959982,-1.96217493524,0.0430705386231
1.58,0.465741101574,0.853919766928,0.0595506330461,0.744941417488,-0.0960629252921,1.33851048967,-0.655737638353,0.498757074611,0.256335085228,1.0277438469,-2.97487567739,0.130403959982,-1.96217493524,0.0430705386231
1.6,0.465741101574,0.853919766928,0.0595506330461,0.744941417488,-0.0960629252921,1.33851048967,-0.655737638353,0.498757074611,0.256335085228,1.0277438469,-2.97487567739,0.130403959982,-1.96217493524,0.0430705386231
1.62,0.465723657868,0.853919766928,0.0595506330461,0.744923973783,-0.0961152813747,1.33849304597,-0.654812655927,0.498771052632,0.256321500515,1.02775072279,-2.97493219259,0.130552067884,-1.96310260937,0.043069620169
1.64,0.465723657868,0.853919766928,0.0595506330461,0.744923973783,-0.0961152813747,1.33849304597,-0.654812655927,0.498771052632,0.256321500515,1.02775072279,-2.97493219259,0.130552067884,-1.96310260937,0.043069620169
1.66,0.465758578568,0.853919766928,0.0595855412623,0.744923973783,-0.0960280129147,1.33842313799,-0.651252142708,0.498759591387,0.256368186119,1.02775253575,-2.97543986431,0.13126797671,-1.96659110182,0.0430693327594
1.68,0.465758578568,0.853919766928,0.0595855412623,0.744923973783,-0.0960280129147,1.33842313799,-0.651252142708,0.498759591387,0.256368186119,1.02775253575,-2.97543986431,0.13126797671,-1.96659110182,0.0430693327594
1.7,0.465741101574,0.853919766928,0.0595855412623,0.744941417488,-0.0959756568322,1.33840569428,-0.645981280858,0.498759609601,0.256367229441,1.02774686724,-2.97617015156,0.132170194334,-1.97185780023,0.0430701094943
1.72,0.465741101574,0.853919766928,0.0595855412623,0.744941417488,-0.0959756568322,1.33840569428,-0.645981280858,0.498759609601,0.256367229441,1.02774686724,-2.97617015156,0.132170194334,-1.97185780023,0.0430701094943
1.74,0.465741101574,0.853919766928,0.0595855412623,0.744941417488,-0.0959756568322,1.33840569428,-0.645981280858,0.498759609601,0.256367229441,1.02774686724,-2.97617015156,0.132170194334,-1.97185780023,0.0430701094943
1.76,0.465706214163,0.853902323222,0.0595680892348,0.744906530078,-0.0960978293472,1.33833591946,-0.636957891873,0.498796462719,0.256334784206,1.02777168968,-2.97717682692,0.133664352282,-1.98085469691,0.0430677343785
1.78,0.465706214163,0.853902323222,0.0595680892348,0.744906530078,-0.0960978293472,1.33833591946,-0.636957891873,0.498796462719,0.256334784206,1.02777168968,-2.97717682692,0.133664352282,-1.98085469691,0.0430677343785
1.8,0.465723657868,0.853919766928,0.0595680892348,0.744923973783,-0.0960978293472,1.33833591946,-0.622681084743,0.498789565708,0.256342426022,1.0277560773,-2.97910928752,0.135960190776,-1.99505490634,0.0430689764442
1.82,0.465723657868,0.853919766928,0.0595680892348,0.744923973783,-0.0960978293472,1.33833591946,-0.622681084743,0.498789565708,0.256342426022,1.0277560773,-2.97910928752,0.135960190776,-1.99505490634,0.0430689764442
1.84,0.465706214163,0.853919766928,0.0595506330461,0.744923973783,-0.0961327334022,1.33833591946,-0.603430158488,0.498799644998,0.256323232173,1.02775630638,-2.98169962052,0.139021123485,-2.01425995106,0.0430689793112
1.86,0.465706214163,0.853919766928,0.0595506330461,0.744923973783,-0.0961327334022,1.33833591946,-0.603430158488,0.498799644998,0.256323232173,1.02775630638,-2.98169962052,0.139021123485,-2.01425995106,0.0430689793112
1.88,0.465706214163,0.853919766928,0.0595506330461,0.744923973783,-0.0961327334022,1.33833591946,-0.603430158488,0.498799644998,0.256323232173,1.02775630638,-2.98169962052,0.139021123485,-2.01425995106,0.0430689793112
1.9,0.465706214163,0.853919766928,0.0595506330461,0.744906530078,-0.0961327334022,1.33833591946,-0.577354948518,0.498802425338,0.256324469502,1.02776213658,-2.98534689486,0.14314019699,-2.04026784873,0.0430681385948
1.92,0.465706214163,0.853919766928,0.0595506330461,0.744906530078,-0.0961327334022,1.33833591946,-0.577354948518,0.498802425338,0.256324469502,1.02776213658,-2.98534689486,0.14314019699,-2.04026784873,0.0430681385948
1.94,0.465723657868,0.853919766928,0.0595680892348,0.744923973783,-0.0961152813747,1.33833591946,-0.547439959598,0.498790966952,0.256339906156,1.02775622498,-2.98971224958,0.147733784403,-2.07011981072,0.0430689741326
1.96,0.465723657868,0.853919766928,0.0595680892348,0.744923973783,-0.0961152813747,1.33833591946,-0.547439959598,0.498790966952,0.256339906156,1.02775622498,-2.98971224958,0.147733784403,-2.07011981072,0.0430689741326
1.98,0.465706214163,0.853919766928,0.0595506330461,0.744906530078,-0.0961327334022,1.33833591946,-0.507890818988,0.498802425338,0.256324469502,1.02776213658,-2.995615499,0.153601369075,-2.10970325015,0.0430681385948
2.0,0.465706214163,0.853919766928,0.0595506330461,0.744906530078,-0.0961327334022,1.33833591946,-0.507890818988,0.498802425338,0.256324469502,1.02776213658,-2.995615499,0.153601369075,-2.10970325015,0.0430681385948
2.02,0.465706214163,0.853919766928,0.0595506330461,0.744906530078,-0.0961327334022,1.33833591946,-0.507890818988,0.498802425338,0.256324469502,1.02776213658,-2.995615499,0.153601369075,-2.10970325015,0.0430681385948
2.04,0.465706214163,0.853919766928,0.0595331810186,0.744923973783,-0.0961327334022,1.33833591946,-0.462320271153,0.49880244967,0.256317780147,1.02775624014,-3.00274668642,0.160048300366,-2.15538317123,0.0430689867981
2.06,0.465706214163,0.853919766928,0.0595331810186,0.744923973783,-0.0961327334022,1.33833591946,-0.462320271153,0.49880244967,0.256317780147,1.02775624014,-3.00274668642,0.160048300366,-2.15538317123,0.0430689867981
2.08,0.465706214163,0.853919766928,0.0595506330461,0.744923973783,-0.0961327334022,1.33833591946,-0.411339211958,0.498799644998,0.256323232173,1.02775630638,-3.01109326746,0.166901087655,-2.2065757452,0.0430689793112
2.1,0.465706214163,0.853919766928,0.0595506330461,0.744923973783,-0.0961327334022,1.33833591946,-0.411339211958,0.498799644998,0.256323232173,1.02775630638,-3.01109326746,0.166901087655,-2.2065757452,0.0430689793112
2.12,0.465706214163,0.853937210633,0.0595506330461,0.744941417488,-0.0961327334022,1.33835336317,-0.353289557309,0.498794696799,0.256320735059,1.02774009058,-3.02103397879,0.174123078452,-2.26501997967,0.0430702922903
2.14,0.465706214163,0.853937210633,0.0595506330461,0.744941417488,-0.0961327334022,1.33835336317,-0.353289557309,0.498794696799,0.256320735059,1.02774009058,-3.02103397879,0.174123078452,-2.26501997967,0.0430702922903
2.16,0.465706214163,0.853937210633,0.0595506330461,0.744941417488,-0.0961327334022,1.33835336317,-0.353289557309,0.498794696799,0.256320735059,1.02774009058,-3.02103397879,0.174123078452,-2.26501997967,0.0430702922903
2.18,0.465723657868,0.853937210633,0.0595506330461,0.744958861193,-0.0961327334022,1.33833591946,-0.294402138759,0.498789967212,0.256329636269,1.02773486411,-3.03153135399,0.180900384385,-2.32443126405,0.0430710620368
2.2,0.465723657868,0.853937210633,0.0595506330461,0.744958861193,-0.0961327334022,1.33833591946,-0.294402138759,0.498789967212,0.256329636269,1.02773486411,-3.03153135399,0.180900384385,-2.32443126405,0.0430710620368
2.22,0.465723657868,0.853954720917,0.0595506330461,0.744941417488,-0.0961327334022,1.33833591946,-0.233175982074,0.498793103508,0.256331052574,1.02773087473,-3.04287387199,0.187282380613,-2.3863718521,0.043070624217
2.24,0.465723657868,0.853954720917,0.0595506330461,0.744941417488,-0.0961327334022,1.33833591946,-0.233175982074,0.498793103508,0.256331052574,1.02773087473,-3.04287387199,0.187282380613,-2.3863718521,0.043070624217
2.26,0.465723657868,0.853954720917,0.0595680892348,0.744958861193,-0.0961327334022,1.33835336317,-0.175265960289,0.498784995032,0.25633383034,1.02772450761,-3.05398436652,0.192640620356,-2.44507971631,0.0430715283484
2.28,0.465723657868,0.853954720917,0.0595680892348,0.744958861193,-0.0961327334022,1.33835336317,-0.175265960289,0.498784995032,0.25633383034,1.02772450761,-3.05398436652,0.192640620356,-2.44507971631,0.0430715283484
2.3,0.465723657868,0.853954720917,0.0595680892348,0.744958861193,-0.0961327334022,1.33835336317,-0.175265960289,0.498784995032,0.25633383034,1.02772450761,-3.05398436652,0.192640620356,-2.44507971631,0.0430715283484
2.32,0.465706214163,0.853972164622,0.0595506330461,0.744958861193,-0.0961501854297,1.33837080687,-0.11953760007,0.498791504781,0.256315896427,1.02771420373,-3.06492742783,0.197174304542,-2.50171698211,0.0430720057735
2.34,0.465706214163,0.853972164622,0.0595506330461,0.744958861193,-0.0961501854297,1.33837080687,-0.11953760007,0.498791504781,0.256315896427,1.02771420373,-3.06492742783,0.197174304542,-2.50171698211,0.0430720057735
2.36,0.465723657868,0.853972164622,0.0595680892348,0.744958861193,-0.0961327334022,1.33835336317,-0.0628667596235,0.498785349137,0.256334008312,1.02771472562,-3.07637112463,0.201213559474,-2.55936230105,0.0430719296715
2.38,0.465723657868,0.853972164622,0.0595680892348,0.744958861193,-0.0961327334022,1.33835336317,-0.0628667596235,0.498785349137,0.256334008312,1.02771472562,-3.07637112463,0.201213559474,-2.55936230105,0.0430719296715
2.4,0.465741101574,0.853954720917,0.0595855412623,0.744976304898,-0.0961327334022,1.33835336317,-0.0173485730728,0.498774937739,0.256346745268,1.02771874414,-3.08571818648,0.203969608459,-2.60571870287,0.0430723615247
2.42,0.465741101574,0.853954720917,0.0595855412623,0.744976304898,-0.0961327334022,1.33835336317,-0.0173485730728,0.498774937739,0.256346745268,1.02771874414,-3.08571818648,0.203969608459,-2.60571870287,0.0430723615247
2.44,0.465741101574,0.853954720917,0.0595855412623,0.744976304898,-0.0961327334022,1.33835336317,-0.0173485730728,0.498774937739,0.256346745268,1.02771874414,-3.08571818648,0.203969608459,-2.60571870287,0.0430723615247
2.46,0.465671293464,0.853954720917,0.059515728991,0.744923973783,-0.0961850978071,1.33833591946,0.0279950807193,0.49881911875,0.256287705194,1.02773701627,-3.0950354033,0.20635822579,-2.6520668868,0.0430697915436
2.48,0.465671293464,0.853954720917,0.059515728991,0.744923973783,-0.0961850978071,1.33833591946,0.0279950807193,0.49881911875,0.256287705194,1.02773701627,-3.0950354033,0.20635822579,-2.6520668868,0.0430697915436
2.5,0.465618929059,0.853937210633,0.0594808207748,0.744923973783,-0.0962200018622,1.33833591946,0.0686438010123,0.498840592832,0.256245459458,1.02774700018,-3.10351258471,0.208096895206,-2.69362870207,0.0430693990188
2.52,0.465618929059,0.853937210633,0.0594808207748,0.744923973783,-0.0962200018622,1.33833591946,0.0686438010123,0.498840592832,0.256245459458,1.02774700018,-3.10351258471,0.208096895206,-2.69362870207,0.0430693990188
2.54,0.465653849758,0.853972164622,0.0594982728023,0.744958861193,-0.0962025498347,1.33833591946,0.107302838285,0.498822587923,0.256268733364,1.02771565627,-3.11172414118,0.209338689868,-2.73308080959,0.0430718794272
2.56,0.465653849758,0.853972164622,0.0594982728023,0.744958861193,-0.0962025498347,1.33833591946,0.107302838285,0.498822587923,0.256268733364,1.02771565627,-3.11172414118,0.209338689868,-2.73308080959,0.0430718794272
2.58,0.465653849758,0.853972164622,0.0594982728023,0.744958861193,-0.0962025498347,1.33833591946,0.107302838285,0.498822587923,0.256268733364,1.02771565627,-3.11172414118,0.209338689868,-2.73308080959,0.0430718794272
2.6,0.465688737169,0.853954720917,0.0595331810186,0.744958861193,-0.0961850978071,1.33837080687,0.139888145539,0.498801237703,0.256296507839,1.0277242154,-3.11870118864,0.210177128524,-2.76633796153,0.0430716073113
2.62,0.465688737169,0.853954720917,0.0595331810186,0.744958861193,-0.0961850978071,1.33837080687,0.139888145539,0.498801237703,0.256296507839,1.0277242154,-3.11870118864,0.210177128524,-2.76633796153,0.0430716073113
2.64,0.465706214163,0.853954720917,0.0595506330461,0.744976304898,-0.0961850978071,1.33837080687,0.165945911804,0.498791172949,0.256309439864,1.0277184517,-3.12427695469,0.210682366596,-2.79295068462,0.043072440492
2.66,0.465706214163,0.853954720917,0.0595506330461,0.744976304898,-0.0961850978071,1.33837080687,0.165945911804,0.498791172949,0.256309439864,1.0277184517,-3.12427695469,0.210682366596,-2.79295068462,0.043072440492
2.68,0.465741101574,0.853954720917,0.0595680892348,0.744976304898,-0.0961676457796,1.33838825058,0.187971968429,0.498775501564,0.256333376328,1.02771776673,-3.1290184866,0.210989762463,-2.81543388583,0.0430725062263
2.7,0.465741101574,0.853954720917,0.0595680892348,0.744976304898,-0.0961676457796,1.33838825058,0.187971968429,0.498775501564,0.256333376328,1.02771776673,-3.1290184866,0.210989762463,-2.81543388583,0.0430725062263
2.72,0.465741101574,0.853954720917,0.0595680892348,0.744976304898,-0.0961676457796,1.33838825058,0.187971968429,0.498775501564,0.256333376328,1.02771776673,-3.1290184866,0.210989762463,-2.81543388583,0.0430725062263
2.74,0.465688737169,0.853954720917,0.0595331810186,0.744976304898,-0.0961850978071,1.33838825058,0.202877065194,0.498795934561,0.256293832375,1.02771778225,-3.13216786914,0.211160824334,-2.83074194982,0.043072518892
2.76,0.465688737169,0.853954720917,0.0595331810186,0.744976304898,-0.0961850978071,1.33838825058,0.202877065194,0.498795934561,0.256293832375,1.02771778225,-3.13216786914,0.211160824334,-2.83074194982,0.043072518892
2.78,0.465706214163,0.853972164622,0.0595331810186,0.744976304898,-0.0961850978071,1.33838825058,0.214797673839,0.498791809243,0.256302727704,1.02770800041,-3.13472071234,0.211240739313,-2.84291497729,0.0430729202158
2.8,0.465706214163,0.853972164622,0.0595331810186,0.744976304898,-0.0961850978071,1.33838825058,0.214797673839,0.498791809243,0.256302727704,1.02770800041,-3.13472071234,0.211240739313,-2.84291497729,0.0430729202158
2.82,0.465723657868,0.853972164622,0.0595506330461,0.744958861193,-0.0961850978071,1.33838825058,0.223646492614,0.498787314469,0.256318118191,1.02771389627,-3.13663552851,0.211307870904,-2.85194030683,0.0430720720584
2.84,0.465723657868,0.853972164622,0.0595506330461,0.744958861193,-0.0961850978071,1.33838825058,0.223646492614,0.498787314469,0.256318118191,1.02771389627,-3.13663552851,0.211307870904,-2.85194030683,0.0430720720584
2.86,0.465723657868,0.853972164622,0.0595506330461,0.744958861193,-0.0961850978071,1.33838825058,0.223646492614,0.498787314469,0.256318118191,1.02771389627,-3.13663552851,0.211307870904,-2.85194030683,0.0430720720584
2.88,0.465688737169,0.853989608327,0.0595331810186,0.744993815182,-0.0961850978071,1.33838825058,0.229528250329,0.498793850739,0.25629294567,1.02769236668,-3.13787299395,0.211284476306,-2.85799554791,0.0430741653923
2.9,0.465688737169,0.853989608327,0.0595331810186,0.744993815182,-0.0961850978071,1.33838825058,0.229528250329,0.498793850739,0.25629294567,1.02769236668,-3.13787299395,0.211284476306,-2.85799554791,0.0430741653923
2.92,0.465723657868,0.853972164622,0.0595506330461,0.744993815182,-0.0961850978071,1.33838825058,0.231640103784,0.498781742031,0.256315638049,1.02770221461,-3.13834245889,0.211306591356,-2.86011249416,0.0430737565896
2.94,0.465723657868,0.853972164622,0.0595506330461,0.744993815182,-0.0961850978071,1.33838825058,0.231640103784,0.498781742031,0.256315638049,1.02770221461,-3.13834245889,0.211306591356,-2.86011249416,0.0430737565896
2.96,0.465723657868,0.853989608327,0.0595506330461,0.744993815182,-0.0961850978071,1.33838825058,0.232408042929,0.498782095789,0.256315815847,1.02769243281,-3.13850390653,0.211291878094,-2.86089721048,0.043074157905
2.98,0.465723657868,0.853989608327,0.0595506330461,0.744993815182,-0.0961850978071,1.33838825058,0.232408042929,0.498782095789,0.256315815847,1.02769243281,-3.13850390653,0.211291878094,-2.86089721048,0.043074157905
3.0,0.465723657868,0.853989608327,0.0595506330461,0.744993815182,-0.0961850978071,1.33838825058,0.232408042929,0.498782095789,0.256315815847,1.02769243281,-3.13850390653,0.211291878094,-2.86089721048,0.043074157905
3.02,0.465706214163,0.853972164622,0.0595331810186,0.744993815182,-0.0961850978071,1.33840569428,0.232408042929,0.498786495319,0.256300047304,1.02770154532,-3.13848995573,0.211294470027,-2.8609240881,0.0430738349768
3.04,0.465706214163,0.853972164622,0.0595331810186,0.744993815182,-0.0961850978071,1.33840569428,0.232408042929,0.498786495319,0.256300047304,1.02770154532,-3.13848995573,0.211294470027,-2.8609240881,0.0430738349768
3.06,0.465706214163,0.853989608327,0.0595331810186,0.744958861193,-0.0961850978071,1.33837080687,0.232373138874,0.49879746639,0.256305581198,1.0277046515,-3.13849513673,0.211345210445,-2.86089082706,0.0430724099441
3.08,0.465706214163,0.853989608327,0.0595331810186,0.744958861193,-0.0961850978071,1.33837080687,0.232373138874,0.49879746639,0.256305581198,1.0277046515,-3.13849513673,0.211345210445,-2.86089082706,0.0430724099441
3.1,0.465706214163,0.853989608327,0.0595331810186,0.744993815182,-0.0961850978071,1.33838825058,0.232373138874,0.498789371432,0.256301663048,1.02769236668,-3.13848319301,0.211294190337,-2.86088764805,0.0430741653923
3.12,0.465706214163,0.853989608327,0.0595331810186,0.744993815182,-0.0961850978071,1.33838825058,0.232373138874,0.498789371432,0.256301663048,1.02769236668,-3.13848319301,0.211294190337,-2.86088764805,0.0430741653923
3.14,0.465706214163,0.853989608327,0.0595331810186,0.744993815182,-0.0961850978071,1.33838825058,0.232373138874,0.498789371432,0.256301663048,1.02769236668,-3.13848319301,0.211294190337,-2.86088764805,0.0430741653923
3.16,0.465706214163,0.853954720917,0.0595506330461,0.744993815182,-0.0961850978071,1.33840569428,0.232373138874,0.498783336805,0.256305321571,1.02771139318,-3.13849897724,0.211309087515,-2.86088038664,0.0430734261635
3.18,0.465706214163,0.853954720917,0.0595506330461,0.744993815182,-0.0961850978071,1.33840569428,0.232373138874,0.498783336805,0.256305321571,1.02771139318,-3.13849897724,0.211309087515,-2.86088038664,0.0430734261635
3.2,0.465706214163,0.853972164622,0.0595331810186,0.744976304898,-0.0961850978071,1.33840569428,0.232373138874,0.498789286898,0.256301289758,1.0277073972,-3.13848644552,0.211311416684,-2.86089000974,0.0430729911157
3.22,0.465706214163,0.853972164622,0.0595331810186,0.744976304898,-0.0961850978071,1.33840569428,0.232373138874,0.498789286898,0.256301289758,1.0277073972,-3.13848644552,0.211311416684,-2.86089000974,0.0430729911157
3.24,0.465618929059,0.853954720917,0.0594808207748,0.744941417488,-0.0962200018622,1.33835336317,0.232355678524,0.498835645602,0.256242963232,1.02773074713,-3.1384314533,0.211428470684,-2.86098101643,0.0430707135213
3.26,0.465618929059,0.853954720917,0.0594808207748,0.744941417488,-0.0962200018622,1.33835336317,0.232355678524,0.498835645602,0.256242963232,1.02773074713,-3.1384314533,0.211428470684,-2.86098101643,0.0430707135213
3.28,0.465618929059,0.853954720917,0.0594808207748,0.744941417488,-0.0962200018622,1.33835336317,0.232355678524,0.498835645602,0.256242963232,1.02773074713,-3.1384314533,0.211428470684,-2.86098101643,0.0430707135213
3.3,0.465601485353,0.853954720917,0.0594633687473,0.744958861193,-0.0962549059172,1.33835336317,0.232320774469,0.498842939901,0.256222531491,1.02772514802,-3.13837199052,0.211421583786,-2.86096159004,0.0430715570566
3.32,0.465601485353,0.853954720917,0.0594633687473,0.744958861193,-0.0962549059172,1.33835336317,0.232320774469,0.498842939901,0.256222531491,1.02772514802,-3.13837199052,0.211421583786,-2.86096159004,0.0430715570566
3.34,0.465653849758,0.853972164622,0.059515728991,0.744958861193,-0.0962200018622,1.33837080687,0.232373138874,0.498816139293,0.256268791457,1.02771466354,-3.13845040876,0.21137257346,-2.8609443232,0.04307201149
3.36,0.465653849758,0.853972164622,0.059515728991,0.744958861193,-0.0962200018622,1.33837080687,0.232373138874,0.498816139293,0.256268791457,1.02771466354,-3.13845040876,0.21137257346,-2.8609443232,0.04307201149
3.38,0.465706214163,0.854007052032,0.0595680892348,0.745011258887,-0.0961327334022,1.33837080687,0.232425503279,0.498779651743,0.256320507412,1.02767704724,-3.13856982428,0.211260648909,-2.86093383459,0.0430753283881
3.4,0.465706214163,0.854007052032,0.0595680892348,0.745011258887,-0.0961327334022,1.33837080687,0.232425503279,0.498779651743,0.256320507412,1.02767704724,-3.13856982428,0.211260648909,-2.86093383459,0.0430753283881
3.42,0.465706214163,0.854007052032,0.0595680892348,0.745011258887,-0.0961327334022,1.33837080687,0.232425503279,0.498779651743,0.256320507412,1.02767704724,-3.13856982428,0.211260648909,-2.86093383459,0.0430753283881
3.44,0.465723657868,0.854007052032,0.0595680892348,0.744993815182,-0.0961501854297,1.33837080687,0.232442946984,0.498779363022,0.256327925912,1.02768302458,-3.13856013736,0.211281591389,-2.86093172171,0.0430744854356
3.46,0.465723657868,0.854007052032,0.0595680892348,0.744993815182,-0.0961501854297,1.33837080687,0.232442946984,0.498779363022,0.256327925912,1.02768302458,-3.13856013736,0.211281591389,-2.86093172171,0.0430744854356
3.48,0.465653849758,0.853989608327,0.059515728991,0.744993815182,-0.0962025498347,1.33837080687,0.232390582579,0.498809519563,0.256269009357,1.02769305182,-3.13846032261,0.211317538412,-2.86096236655,0.0430740996523
3.5,0.465653849758,0.853989608327,0.059515728991,0.744993815182,-0.0962025498347,1.33837080687,0.232390582579,0.498809519563,0.256269009357,1.02769305182,-3.13846032261,0.211317538412,-2.86096236655,0.0430740996523
3.52,0.465653849758,0.854007052032,0.0594982728023,0.744993815182,-0.0961850978071,1.33835336317,0.232442946984,0.498813799516,0.25626769115,1.02768365909,-3.13847644052,0.211316053248,-2.86102799649,0.0430744398325
3.54,0.465653849758,0.854007052032,0.0594982728023,0.744993815182,-0.0961850978071,1.33835336317,0.232442946984,0.498813799516,0.25626769115,1.02768365909,-3.13847644052,0.211316053248,-2.86102799649,0.0430744398325
3.56,0.465653849758,0.854007052032,0.0594982728023,0.744993815182,-0.0961850978071,1.33835336317,0.232442946984,0.498813799516,0.25626769115,1.02768365909,-3.13847644052,0.211316053248,-2.86102799649,0.0430744398325
3.58,0.465706214163,0.853989608327,0.0595506330461,0.744958861193,-0.0961327334022,1.33833591946,0.232512755094,0.498795502178,0.256321470077,1.02770548065,-3.13859851531,0.211365462242,-2.86103719699,0.043072267539
3.6,0.465706214163,0.853989608327,0.0595506330461,0.744958861193,-0.0961327334022,1.33833591946,0.232512755094,0.498795502178,0.256321470077,1.02770548065,-3.13859851531,0.211365462242,-2.86103719699,0.043072267539
3.62,0.465653849758,0.853972164622,0.0595331810186,0.744958861193,-0.0961327334022,1.33833591946,0.232565119499,0.498811374066,0.256289720473,1.02771519645,-3.13859981005,0.211385187022,-2.86115249752,0.0430718737133
3.64,0.465653849758,0.853972164622,0.0595331810186,0.744958861193,-0.0961327334022,1.33833591946,0.232565119499,0.498811374066,0.256289720473,1.02771519645,-3.13859981005,0.211385187022,-2.86115249752,0.0430718737133
3.66,0.465653849758,0.853954720917,0.059515728991,0.744923973783,-0.0961327334022,1.33833591946,0.232634944254,0.498819385662,0.256286565092,1.02773657236,-3.13861278733,0.211438942811,-2.86123652115,0.0430697984838
3.68,0.465653849758,0.853954720917,0.059515728991,0.744923973783,-0.0961327334022,1.33833591946,0.232634944254,0.498819385662,0.256286565092,1.02773657236,-3.13861278733,0.211438942811,-2.86123652115,0.0430697984838
3.7,0.465653849758,0.853954720917,0.059515728991,0.744923973783,-0.0961327334022,1.33833591946,0.232634944254,0.498819385662,0.256286565092,1.02773657236,-3.13861278733,0.211438942811,-2.86123652115,0.0430697984838
3.72,0.465706214163,0.853954720917,0.0595331810186,0.744941417488,-0.0961152813747,1.33833591946,0.232739656419,0.498798978336,0.256319419584,1.02773066068,-3.13866191104,0.211415934516,-2.86128507163,0.0430706340159
3.74,0.465706214163,0.853954720917,0.0595331810186,0.744941417488,-0.0961152813747,1.33833591946,0.232739656419,0.498798978336,0.256319419584,1.02773066068,-3.13866191104,0.211415934516,-2.86128507163,0.0430706340159
3.76,0.465653849758,0.853954720917,0.0595331810186,0.744941417488,-0.0961327334022,1.33833591946,0.233088713614,0.498813800684,0.256290779935,1.02773080848,-3.138719438,0.211420855612,-2.8616903171,0.0430706317037
3.78,0.465653849758,0.853954720917,0.0595331810186,0.744941417488,-0.0961327334022,1.33833591946,0.233088713614,0.498813800684,0.256290779935,1.02773080848,-3.138719438,0.211420855612,-2.8616903171,0.0430706317037
3.8,0.465653849758,0.853954720917,0.0595331810186,0.744941417488,-0.0961327334022,1.33833591946,0.236422292219,0.498813800684,0.256290779935,1.02773080848,-3.13943493134,0.211429241125,-2.86509980478,0.0430706317037
3.82,0.465653849758,0.853954720917,0.0595331810186,0.744941417488,-0.0961327334022,1.33833591946,0.236422292219,0.498813800684,0.256290779935,1.02773080848,-3.13943493134,0.211429241125,-2.86509980478,0.0430706317037
3.84,0.465653849758,0.853954720917,0.0595331810186,0.744941417488,-0.0961327334022,1.33833591946,0.236422292219,0.498813800684,0.256290779935,1.02773080848,-3.13943493134,0.211429241125,-2.86509980478,0.0430706317037
3.86,0.465688737169,0.853972164622,0.0595331810186,0.744958861193,-0.0961327334022,1.33831847576,0.244695169119,0.498804954815,0.256308560405,1.02771579991,-3.14120719299,0.211422626478,-2.87352381288,0.0430718027655
3.88,0.465688737169,0.853972164622,0.0595331810186,0.744958861193,-0.0961327334022,1.33831847576,0.244695169119,0.498804954815,0.256308560405,1.02771579991,-3.14120719299,0.211422626478,-2.87352381288,0.0430718027655
3.9,0.465636406053,0.853954720917,0.0594982728023,0.744941417488,-0.0961501854297,1.33833591946,0.258884691144,0.498825281285,0.256268652782,1.02773082415,3.13897256172,0.211433457637,-2.8881045529,0.0430706443596
3.92,0.465636406053,0.853954720917,0.0594982728023,0.744941417488,-0.0961501854297,1.33833591946,0.258884691144,0.498825281285,0.256268652782,1.02773082415,3.13897256172,0.211433457637,-2.8881045529,0.0430706443596
3.94,0.465653849758,0.853954720917,0.0595331810186,0.744958861193,-0.0961501854297,1.33833591946,0.276425252124,0.498812420963,0.256287022541,1.02772512634,3.13518682752,0.211331684024,-2.90600763848,0.0430714700773
3.96,0.465653849758,0.853954720917,0.0595331810186,0.744958861193,-0.0961501854297,1.33833591946,0.276425252124,0.498812420963,0.256287022541,1.02772512634,3.13518682752,0.211331684024,-2.90600763848,0.0430714700773
3.98,0.465706214163,0.853972164622,0.0595506330461,0.744958861193,-0.0961327334022,1.33835336317,0.301331084704,0.498812420963,0.256287022541,1.02772512634,3.13518682752,0.211331684024,-2.90600763848,0.0430714700773
4.0,0.465706214163,0.853972164622,0.0595506330461,0.744958861193,-0.0961327334022,1.33835336317,0.301331084704,0.498792625904,0.256319854263,1.02771465928,3.1298261798,0.21106368333,-2.93142033922,0.0430719371623
4.02,0.465706214163,0.853972164622,0.0595506330461,0.744958861193,-0.0961327334022,1.33835336317,0.301331084704,0.498792625904,0.256319854263,1.02771465928,3.1298261798,0.21106368333,-2.93142033922,0.0430719371623
4.04,0.465653849758,0.853954720917,0.0595331810186,0.744958861193,-0.0961327334022,1.33835336317,0.330931887194,0.498808497552,0.256288104759,1.02772437502,3.12349902427,0.210642052587,-2.96175035709,0.0430715433265
4.06,0.465653849758,0.853954720917,0.0595331810186,0.744958861193,-0.0961327334022,1.33835336317,0.330931887194,0.498808497552,0.256288104759,1.02772437502,3.12349902427,0.210642052587,-2.96175035709,0.0430715433265
4.08,0.465671293464,0.853954720917,0.0595331810186,0.744958861193,-0.0961327334022,1.33833591946,0.363272816129,0.498806549226,0.256298243594,1.02772497849,3.11659057189,0.209961565821,-2.99479518087,0.0430714723901
4.1,0.465671293464,0.853954720917,0.0595331810186,0.744958861193,-0.0961327334022,1.33833591946,0.363272816129,0.498806549226,0.256298243594,1.02772497849,3.11659057189,0.209961565821,-2.99479518087,0.0430714723901
4.12,0.465706214163,0.853972164622,0.0595506330461,0.744958861193,-0.0961327334022,1.33835336317,0.399697835754,0.498806549226,0.256298243594,1.02772497849,3.11659057189,0.209961565821,-2.99479518087,0.0430714723901
4.14,0.465706214163,0.853972164622,0.0595506330461,0.744958861193,-0.0961327334022,1.33835336317,0.399697835754,0.498792625904,0.256319854263,1.02771465928,3.10885120017,0.208872927639,-3.03197289916,0.0430719371623
4.16,0.465706214163,0.853972164622,0.0595506330461,0.744958861193,-0.0961327334022,1.33835336317,0.399697835754,0.498792625904,0.256319854263,1.02771465928,3.10885120017,0.208872927639,-3.03197289916,0.0430719371623
4.18,0.465671293464,0.853954720917,0.0595331810186,0.744958861193,-0.0961327334022,1.33835336317,0.441760301353,0.498804026862,0.256296805789,1.02772437502,3.09998007474,0.207330355626,-3.0749784716,0.0430715433265
4.2,0.465671293464,0.853954720917,0.0595331810186,0.744958861193,-0.0961327334022,1.33835336317,0.441760301353,0.498804026862,0.256296805789,1.02772437502,3.09998007474,0.207330355626,-3.0749784716,0.0430715433265
4.22,0.465671293464,0.853954720917,0.0595331810186,0.744958861193,-0.0961501854297,1.33835336317,0.485096823218,0.498805427934,0.256294285823,1.02772452288,3.09093331458,0.20533913096,-3.11920343754,0.0430715410139
4.24,0.465671293464,0.853954720917,0.0595331810186,0.744958861193,-0.0961501854297,1.33835336317,0.485096823218,0.498805427934,0.256294285823,1.02772452288,3.09093331458,0.20533913096,-3.11920343754,0.0430715410139
4.26,0.465688737169,0.853954720917,0.0595331810186,0.744941417488,-0.0961327334022,1.33835336317,0.529428168908,0.498805427934,0.256294285823,1.02772452288,3.09093331458,0.20533913096,-3.11920343754,0.0430715410139
4.28,0.465688737169,0.853954720917,0.0595331810186,0.744941417488,-0.0961327334022,1.33835336317,0.529428168908,0.498802336728,0.256306744258,1.02773020497,3.08174495287,0.202897281672,3.118790922,0.0430707026402
4.3,0.465688737169,0.853954720917,0.0595331810186,0.744941417488,-0.0961327334022,1.33835336317,0.529428168908,0.498802336728,0.256306744258,1.02773020497,3.08174495287,0.202897281672,3.118790922,0.0430707026402
4.32,0.465706214163,0.853954720917,0.0595506330461,0.744958861193,-0.0961152813747,1.33833591946,0.577965811093,0.498793392913,0.256323634108,1.02772489697,3.07183121445,0.199737704008,3.06938137787,0.0430714672155
4.34,0.465706214163,0.853954720917,0.0595506330461,0.744958861193,-0.0961152813747,1.33833591946,0.577965811093,0.498793392913,0.256323634108,1.02772489697,3.07183121445,0.199737704008,3.06938137787,0.0430714672155
4.36,0.465688737169,0.853954720917,0.0595331810186,0.744941417488,-0.0961327334022,1.33833591946,0.627969456878,0.498804859059,0.256308182101,1.02773080848,3.06184679457,0.196033706794,3.01849858432,0.0430706317037
4.38,0.465688737169,0.853954720917,0.0595331810186,0.744941417488,-0.0961327334022,1.33833591946,0.627969456878,0.498804859059,0.256308182101,1.02773080848,3.06184679457,0.196033706794,3.01849858432,0.0430706317037
4.4,0.465706214163,0.853954720917,0.0595680892348,0.744958861193,-0.0961327334022,1.33833591946,0.678339686788,0.498791988655,0.25632656758,1.02772511108,3.05197852614,0.191743490626,2.96738933223,0.0430714574121
4.42,0.465706214163,0.853954720917,0.0595680892348,0.744958861193,-0.0961327334022,1.33833591946,0.678339686788,0.498791988655,0.25632656758,1.02772511108,3.05197852614,0.191743490626,2.96738933223,0.0430714574121
4.44,0.465706214163,0.853954720917,0.0595680892348,0.744958861193,-0.0961327334022,1.33833591946,0.678339686788,0.498791988655,0.25632656758,1.02772511108,3.05197852614,0.191743490626,2.96738933223,0.0430714574121
4.46,0.465741101574,0.853954720917,0.0595680892348,0.744958861193,-0.0961152813747,1.33833591946,0.731345314333,0.49878164448,0.256346488816,1.02772496335,3.04185625681,0.186720097141,2.91369369674,0.0430714597245
4.48,0.465741101574,0.853954720917,0.0595680892348,0.744958861193,-0.0961152813747,1.33833591946,0.731345314333,0.49878164448,0.256346488816,1.02772496335,3.04185625681,0.186720097141,2.91369369674,0.0430714597245
4.5,0.465706214163,0.853972164622,0.0595680892348,0.744941417488,-0.0961327334022,1.33833591946,0.779272027363,0.498795123583,0.256327983083,1.02772115898,3.03298434436,0.181747018814,2.86517320447,0.0430710180475
4.52,0.465706214163,0.853972164622,0.0595680892348,0.744941417488,-0.0961327334022,1.33833591946,0.779272027363,0.498795123583,0.256327983083,1.02772115898,3.03298434436,0.181747018814,2.86517320447,0.0430710180475
4.54,0.465688737169,0.853937210633,0.0595331810186,0.744923973783,-0.0961327334022,1.33830103205,0.830043662228,0.498812328459,0.256312116402,1.02774766539,3.02381505831,0.176090556259,2.81386079839,0.0430692462274
4.56,0.465688737169,0.853937210633,0.0595331810186,0.744923973783,-0.0961327334022,1.33830103205,0.830043662228,0.498812328459,0.256312116402,1.02774766539,3.02381505831,0.176090556259,2.81386079839,0.0430692462274
4.58,0.465688737169,0.853937210633,0.0595331810186,0.744923973783,-0.0961327334022,1.33830103205,0.830043662228,0.498812328459,0.256312116402,1.02774766539,3.02381505831,0.176090556259,2.81386079839,0.0430692462274
4.6,0.465706214163,0.853972164622,0.0595331810186,0.744958861193,-0.0961327334022,1.33830103205,0.879506286838,0.498802997538,0.256318715871,1.02771640343,3.01528398879,0.170020983389,2.76404967399,0.0430717318056
4.62,0.465706214163,0.853972164622,0.0595331810186,0.744958861193,-0.0961327334022,1.33830103205,0.879506286838,0.498802997538,0.256318715871,1.02771640343,3.01528398879,0.170020983389,2.76404967399,0.0430717318056
4.64,0.465688737169,0.853919766928,0.0595331810186,0.744923973783,-0.0961327334022,1.33830103205,0.921813130757,0.498811973834,0.256311938184,1.02775744762,3.00812980063,0.164596108468,2.72147468765,0.0430688448858
4.66,0.465688737169,0.853919766928,0.0595331810186,0.744923973783,-0.0961327334022,1.33830103205,0.921813130757,0.498811973834,0.256311938184,1.02775744762,3.00812980063,0.164596108468,2.72147468765,0.0430688448858
4.68,0.465653849758,0.853972164622,0.059515728991,0.744941417488,-0.0961501854297,1.33826614464,0.963648661742,0.498828449717,0.256288736657,1.02772352247,3.00141232158,0.158891444124,2.67944611404,0.0430707543303
4.7,0.465653849758,0.853972164622,0.059515728991,0.744941417488,-0.0961501854297,1.33826614464,0.963648661742,0.498828449717,0.256288736657,1.02772352247,3.00141232158,0.158891444124,2.67944611404,0.0430707543303
4.72,0.465653849758,0.853972164622,0.059515728991,0.744941417488,-0.0961501854297,1.33826614464,0.963648661742,0.498828449717,0.256288736657,1.02772352247,3.00141232158,0.158891444124,2.67944611404,0.0430707543303
4.74,0.465688737169,0.853937210633,0.0595331810186,0.744923973783,-0.0961501854297,1.33821381352,1.00136521463,0.498826340821,0.256316785621,1.02775083259,2.99543632887,0.153557531004,2.64168861433,0.0430688889246
4.76,0.465688737169,0.853937210633,0.0595331810186,0.744923973783,-0.0961501854297,1.33821381352,1.00136521463,0.498826340821,0.256316785621,1.02775083259,2.99543632887,0.153557531004,2.64168861433,0.0430688889246
4.78,0.465653849758,0.853954720917,0.059515728991,0.744941417488,-0.0961501854297,1.33819623666,1.04093179894,0.498838203995,0.256294320514,1.02773572475,2.98951921976,0.147679947062,2.6020716709,0.0430700684038
4.8,0.465653849758,0.853954720917,0.059515728991,0.744941417488,-0.0961501854297,1.33819623666,1.04093179894,0.498838203995,0.256294320514,1.02773572475,2.98951921976,0.147679947062,2.6020716709,0.0430700684038
4.82,0.465653849758,0.853954720917,0.0594982728023,0.744923973783,-0.0961501854297,1.33814390555,1.07562899294,0.498851356427,0.256294417183,1.02774330132,2.98445677958,0.142381491573,2.5674071238,0.0430690220074
4.84,0.465653849758,0.853954720917,0.0594982728023,0.744923973783,-0.0961501854297,1.33814390555,1.07562899294,0.498851356427,0.256294417183,1.02774330132,2.98445677958,0.142381491573,2.5674071238,0.0430690220074
4.86,0.465653849758,0.853954720917,0.0594982728023,0.744923973783,-0.0961501854297,1.33814390555,1.07562899294,0.498851356427,0.256294417183,1.02774330132,2.98445677958,0.142381491573,2.5674071238,0.0430690220074
4.88,0.465653849758,0.853954720917,0.059515728991,0.744923973783,-0.0961501854297,1.33803924332,1.1163998587,0.498863684752,0.256308497146,1.02774699319,2.97871805007,0.135920597074,2.52676708314,0.0430685878507
4.9,0.465653849758,0.853954720917,0.059515728991,0.744923973783,-0.0961501854297,1.33803924332,1.1163998587,0.498863684752,0.256308497146,1.02774699319,2.97871805007,0.135920597074,2.52676708314,0.0430685878507
4.92,0.465653849758,0.853954720917,0.0594982728023,0.744923973783,-0.0961676457796,1.33749822214,1.16190056514,0.498946113158,0.256345110676,1.02776584653,2.97226275211,0.128647160578,2.48145013899,0.0430663805114
4.94,0.465653849758,0.853954720917,0.0594982728023,0.744923973783,-0.0961676457796,1.33749822214,1.16190056514,0.498946113158,0.256345110676,1.02776584653,2.97226275211,0.128647160578,2.48145013899,0.0430663805114
4.96,0.465653849758,0.853954720917,0.0594982728023,0.744923973783,-0.0961501854297,1.33714908172,1.21145054143,0.498995185881,0.256376404266,1.0277778382,2.9658219309,0.120250650777,2.43223165669,0.0430649488626
4.98,0.465653849758,0.853954720917,0.0594982728023,0.744923973783,-0.0961501854297,1.33714908172,1.21145054143,0.498995185881,0.256376404266,1.0277778382,2.9658219309,0.120250650777,2.43223165669,0.0430649488626
5.0,0.465653849758,0.853954720917,0.0594982728023,0.744923973783,-0.0961501854297,1.33714908172,1.21145054143,0.498995185881,0.256376404266,1.0277778382,2.9658219309,0.120250650777,2.43223165669,0.0430649488626
5.02,0.465653849758,0.853937210633,0.059515728991,0.744923973783,-0.0961501854297,1.33714908172,1.26885431294,0.498992023645,0.25638168018,1.02778772733,2.95926651068,0.110018654217,2.37537827398,0.0430645384808
5.04,0.465653849758,0.853937210633,0.059515728991,0.744923973783,-0.0961501854297,1.33714908172,1.26885431294,0.498992023645,0.25638168018,1.02778772733,2.95926651068,0.110018654217,2.37537827398,0.0430645384808
5.06,0.465688737169,0.853989608327,0.0595331810186,0.744958861193,-0.0961501854297,1.33714908172,1.32866678049,0.498975779112,0.256402603801,1.02774673276,2.95317966772,0.0989535974933,2.31632459534,0.0430674180353
5.08,0.465688737169,0.853989608327,0.0595331810186,0.744958861193,-0.0961501854297,1.33714908172,1.32866678049,0.498975779112,0.256402603801,1.02774673276,2.95317966772,0.0989535974933,2.31632459534,0.0430674180353
5.1,0.465706214163,0.853954720917,0.0595331810186,0.744958861193,-0.0961676457796,1.33718396913,1.39388972612,0.498966946763,0.256405572011,1.02776523791,2.94722491539,0.0865608470413,2.25203296447,0.0430667564965
5.12,0.465706214163,0.853954720917,0.0595331810186,0.744958861193,-0.0961676457796,1.33718396913,1.39388972612,0.498966946763,0.256405572011,1.02776523791,2.94722491539,0.0865608470413,2.25203296447,0.0430667564965
5.14,0.465706214163,0.853954720917,0.0595331810186,0.744958861193,-0.0961676457796,1.33718396913,1.39388972612,0.498966946763,0.256405572011,1.02776523791,2.94722491539,0.0865608470413,2.25203296447,0.0430667564965
5.16,0.465653849758,0.853989608327,0.0594982728023,0.744958861193,-0.0961850978071,1.33718396913,1.46026462207,0.498988093456,0.256366371865,1.02774568273,2.94204084433,0.0736042144273,2.18666097438,0.0430675718456
5.18,0.465653849758,0.853989608327,0.0594982728023,0.744958861193,-0.0961850978071,1.33718396913,1.46026462207,0.498988093456,0.256366371865,1.02774568273,2.94204084433,0.0736042144273,2.18666097438,0.0430675718456
5.2,0.465706214163,0.853954720917,0.0595331810186,0.744958861193,-0.0961850978071,1.33721885654,1.52093223065,0.498963304317,0.256400177325,1.02776417227,2.93801724778,0.061430180084,2.12715948943,0.043066897627
5.22,0.465706214163,0.853954720917,0.0595331810186,0.744958861193,-0.0961850978071,1.33721885654,1.52093223065,0.498963304317,0.256400177325,1.02776417227,2.93801724778,0.061430180084,2.12715948943,0.043066897627
5.24,0.465688737169,0.853989608327,0.0595331810186,0.745011258887,-0.0962025498347,1.33725387711,1.57959274788,0.498956480583,0.256382691213,1.02772601086,2.93495059754,0.0494926747549,2.06963079804,0.0430703671791
5.26,0.465688737169,0.853989608327,0.0595331810186,0.745011258887,-0.0962025498347,1.33725387711,1.57959274788,0.498956480583,0.256382691213,1.02772601086,2.93495059754,0.0494926747549,2.06963079804,0.0430703671791
5.28,0.465688737169,0.853989608327,0.0595331810186,0.745011258887,-0.0962025498347,1.33725387711,1.57959274788,0.498956480583,0.256382691213,1.02772601086,2.93495059754,0.0494926747549,2.06963079804,0.0430703671791
5.3,0.465671293464,0.853972164622,0.0595331810186,0.745011258887,-0.0962200018622,1.33727132081,1.62966630164,0.498959477484,0.256369852487,1.02773533751,2.93277574101,0.0391816658922,2.0205678623,0.0430700351815
5.32,0.465671293464,0.853972164622,0.0595331810186,0.745011258887,-0.0962200018622,1.33727132081,1.62966630164,0.498959477484,0.256369852487,1.02773533751,2.93277574101,0.0391816658922,2.0205678623,0.0430700351815
5.34,0.465723657868,0.853954720917,0.0595331810186,0.745011258887,-0.0961850978071,1.33728876452,1.67387544153,0.498940374351,0.256399402359,1.0277442201,2.93128287769,0.0299492102522,1.97735085014,0.0430697101408
5.36,0.465723657868,0.853954720917,0.0595331810186,0.745011258887,-0.0961850978071,1.33728876452,1.67387544153,0.498940374351,0.256399402359,1.0277442201,2.93128287769,0.0299492102522,1.97735085014,0.0430697101408
5.38,0.465706214163,0.853989608327,0.0595331810186,0.745011258887,-0.0961850978071,1.33732365193,1.7125345537,0.498940512081,0.256388179546,1.02772343781,2.93037251861,0.0218673388505,1.93951719556,0.0430706561702
5.4,0.465706214163,0.853989608327,0.0595331810186,0.745011258887,-0.0961850978071,1.33732365193,1.7125345537,0.498940512081,0.256388179546,1.02772343781,2.93037251861,0.0218673388505,1.93951719556,0.0430706561702
5.42,0.465706214163,0.853989608327,0.0595331810186,0.745011258887,-0.0961850978071,1.33732365193,1.7125345537,0.498940512081,0.256388179546,1.02772343781,2.93037251861,0.0218673388505,1.93951719556,0.0430706561702
5.44,0.465688737169,0.853972164622,0.0595331810186,0.745011258887,-0.0961850978071,1.33730620823,1.74875008241,0.498947160387,0.256380719235,1.02773382888,2.92969827999,0.014257198175,1.90408618949,0.0430701831677
5.46,0.465688737169,0.853972164622,0.0595331810186,0.745011258887,-0.0961850978071,1.33730620823,1.74875008241,0.498947160387,0.256380719235,1.02773382888,2.92969827999,0.014257198175,1.90408618949,0.0430701831677
5.48,0.465706214163,0.853989608327,0.0595331810186,0.744993815182,-0.0962025498347,1.33730620823,1.77758292911,0.498947215259,0.256388335438,1.02773002468,2.92937856429,0.00820486198725,1.87591458149,0.0430697415464
5.5,0.465706214163,0.853989608327,0.0595331810186,0.744993815182,-0.0962025498347,1.33730620823,1.77758292911,0.498947215259,0.256388335438,1.02773002468,2.92937856429,0.00820486198725,1.87591458149,0.0430697415464
5.52,0.465653849758,0.853989608327,0.0594982728023,0.745011258887,-0.0962200018622,1.33732365193,1.80297750169,0.498962349068,0.256346104971,1.02772360165,2.92926649255,0.00290482873795,1.85101484123,0.0430706664831
5.54,0.465653849758,0.853989608327,0.0594982728023,0.745011258887,-0.0962200018622,1.33732365193,1.80297750169,0.498962349068,0.256346104971,1.02772360165,2.92926649255,0.00290482873795,1.85101484123,0.0430706664831
5.56,0.465653849758,0.853989608327,0.0594982728023,0.745011258887,-0.0962200018622,1.33732365193,1.80297750169,0.498962349068,0.256346104971,1.02772360165,2.92926649255,0.00290482873795,1.85101484123,0.0430706664831
5.58,0.465671293464,0.853989608327,0.059515728991,0.745011258887,-0.0962200018622,1.33732365193,1.82399130743,0.498955071642,0.256360263697,1.02772366769,2.92925499915,-0.001536686422,1.83050188627,0.0430706590011
5.6,0.465671293464,0.853989608327,0.059515728991,0.745011258887,-0.0962200018622,1.33732365193,1.82399130743,0.498955071642,0.256360263697,1.02772366769,2.92925499915,-0.001536686422,1.83050188627,0.0430706590011
5.62,0.465688737169,0.853989608327,0.0595331810186,0.745011258887,-0.0962200018622,1.33732365193,1.84031009332,0.49894779448,0.256374420913,1.02772373379,2.92930983843,-0.00498829237314,1.81457833394,0.0430706515187
5.64,0.465688737169,0.853989608327,0.0595331810186,0.745011258887,-0.0962200018622,1.33732365193,1.84031009332,0.49894779448,0.256374420913,1.02772373379,2.92930983843,-0.00498829237314,1.81457833394,0.0430706515187
5.66,0.465636406053,0.854007052032,0.0594982728023,0.745028702593,-0.0962374538897,1.33739342675,1.85341750642,0.498955706982,0.256328071884,1.02770570854,2.92948136812,-0.00767925689832,1.80168650116,0.0430721926053
5.68,0.465636406053,0.854007052032,0.0594982728023,0.745028702593,-0.0962374538897,1.33739342675,1.85341750642,0.498955706982,0.256328071884,1.02770570854,2.92948136812,-0.00767925689832,1.80168650116,0.0430721926053
5.7,0.465636406053,0.854007052032,0.0594982728023,0.745028702593,-0.0962374538897,1.33739342675,1.85341750642,0.498955706982,0.256328071884,1.02770570854,2.92948136812,-0.00767925689832,1.80168650116,0.0430721926053
5.72,0.465671293464,0.853989608327,0.0594982728023,0.745011258887,-0.0962374538897,1.33742831416,1.86167290632,0.498944147161,0.25634366315,1.02772011372,2.92955012727,-0.00941621152639,1.79364807906,0.0430710937957
5.74,0.465671293464,0.853989608327,0.0594982728023,0.745011258887,-0.0962374538897,1.33742831416,1.86167290632,0.498944147161,0.25634366315,1.02772011372,2.92955012727,-0.00941621152639,1.79364807906,0.0430710937957
5.76,0.465671293464,0.854007052032,0.059515728991,0.745028702593,-0.0962374538897,1.33741087046,1.86582677183,0.498941436558,0.256349496244,1.0277051687,2.92961029148,-0.0102988831073,1.78959997109,0.0430722567106
5.78,0.465671293464,0.854007052032,0.059515728991,0.745028702593,-0.0962374538897,1.33741087046,1.86582677183,0.498941436558,0.256349496244,1.0277051687,2.92961029148,-0.0102988831073,1.78959997109,0.0430722567106
5.8,0.465653849758,0.853989608327,0.0594982728023,0.744993815182,-0.0962374538897,1.33741087046,1.86657725063,0.498953921229,0.25633763468,1.02772655202,2.92956433625,-0.0104581526858,1.78883633508,0.0430701815701
5.82,0.465653849758,0.853989608327,0.0594982728023,0.744993815182,-0.0962374538897,1.33741087046,1.86657725063,0.498953921229,0.25633763468,1.02772655202,2.92956433625,-0.0104581526858,1.78883633508,0.0430701815701
5.84,0.465653849758,0.853989608327,0.0594982728023,0.744993815182,-0.0962374538897,1.33741087046,1.86657725063,0.498953921229,0.25633763468,1.02772655202,2.92956433625,-0.0104581526858,1.78883633508,0.0430701815701
5.86,0.465653849758,0.853989608327,0.0594982728023,0.745011258887,-0.0962549059172,1.33741087046,1.86657725063,0.498952541207,0.256333877907,1.0277208678,2.92957609725,-0.0104364970422,1.78883747043,0.0430710198935
5.88,0.465653849758,0.853989608327,0.0594982728023,0.745011258887,-0.0962549059172,1.33741087046,1.86657725063,0.498952541207,0.256333877907,1.0277208678,2.92957609725,-0.0104364970422,1.78883747043,0.0430710198935
5.9,0.465653849758,0.854007052032,0.0594982728023,0.745011258887,-0.0962549059172,1.33741087046,1.86657725063,0.498952895269,0.256334055827,1.02771108321,2.92959300985,-0.01043222176,1.78883729396,0.0430714212329
5.92,0.465653849758,0.854007052032,0.0594982728023,0.745011258887,-0.0962549059172,1.33741087046,1.86657725063,0.498952895269,0.256334055827,1.02771108321,2.92959300985,-0.01043222176,1.78883729396,0.0430714212329
5.94,0.465671293464,0.853989608327,0.0594982728023,0.745011258887,-0.0962374538897,1.33741087046,1.86652491951,0.498946669003,0.256345100854,1.02772071961,2.92958051737,-0.0104422123948,1.7889055482,0.0430710222194
5.96,0.465671293464,0.853989608327,0.0594982728023,0.745011258887,-0.0962374538897,1.33741087046,1.86652491951,0.498946669003,0.256345100854,1.02772071961,2.92958051737,-0.0104422123948,1.7889055482,0.0430710222194
5.98,0.465671293464,0.853989608327,0.0594982728023,0.745011258887,-0.0962374538897,1.33741087046,1.86652491951,0.498946669003,0.256345100854,1.02772071961,2.92958051737,-0.0104422123948,1.7889055482,0.0430710222194
6.0,0.465671293464,0.854007052032,0.059515728991,0.745011258887,-0.0962374538897,1.33741087046,1.86643770099,0.49894421743,0.256350733697,1.027711001,2.92959976483,-0.0104323458193,1.78900207676,0.0430714160767
6.02,0.465671293464,0.854007052032,0.059515728991,0.745011258887,-0.0962374538897,1.33741087046,1.86643770099,0.49894421743,0.256350733697,1.027711001,2.92959976483,-0.0104323458193,1.78900207676,0.0430714160767
6.04,0.465688737169,0.854007052032,0.0595331810186,0.745028702593,-0.0962374538897,1.33742831416,1.8663329056,0.498931637852,0.256362215362,1.02770462896,2.92963533419,-0.0104131616391,1.78913294663,0.0430723208032
6.06,0.465688737169,0.854007052032,0.0595331810186,0.745028702593,-0.0962374538897,1.33742831416,1.8663329056,0.498931637852,0.256362215362,1.02770462896,2.92963533419,-0.0104131616391,1.78913294663,0.0430723208032
6.08,0.465671293464,0.854007052032,0.0594982728023,0.745028702593,-0.0962374538897,1.33741087046,1.86624568707,0.498944242208,0.256344041288,1.0277051027,2.92961130598,-0.0103742610741,1.78917897615,0.0430722641929
6.1,0.465671293464,0.854007052032,0.0594982728023,0.745028702593,-0.0962374538897,1.33741087046,1.86624568707,0.498944242208,0.256344041288,1.0277051027,2.92961130598,-0.0103742610741,1.78917897615,0.0430722641929
6.12,0.465671293464,0.854007052032,0.0594982728023,0.745028702593,-0.0962374538897,1.33741087046,1.86624568707,0.498944242208,0.256344041288,1.0277051027,2.92961130598,-0.0103742610741,1.78917897615,0.0430722641929
6.14,0.465671293464,0.854059383148,0.059515728991,0.745028702593,-0.0962374538897,1.33748077843,1.86612344798,0.498932390729,0.256344267424,1.02767338818,2.92973095695,-0.0103286082229,1.78930511536,0.0430737474391
6.16,0.465671293464,0.854059383148,0.059515728991,0.745028702593,-0.0962374538897,1.33748077843,1.86612344798,0.498932390729,0.256344267424,1.02767338818,2.92973095695,-0.0103286082229,1.78930511536,0.0430737474391
6.18,0.465706214163,0.854076893432,0.0595331810186,0.745046146298,-0.0962374538897,1.33748077843,1.86584421554,0.498918206854,0.256366084242,1.02765780069,2.92976506043,-0.0102734542469,1.78962490741,0.0430749834092
6.2,0.465706214163,0.854076893432,0.0595331810186,0.745046146298,-0.0962374538897,1.33748077843,1.86584421554,0.498918206854,0.256366084242,1.02765780069,2.92976506043,-0.0102734542469,1.78962490741,0.0430749834092
6.22,0.465706214163,0.854129224547,0.0595506330461,0.745081033708,-0.0962200018622,1.33758544067,1.8655824268,0.49889436427,0.256363485631,1.0276130729,2.92995499292,-0.0101955771776,1.78988607501,0.0430782922416
6.24,0.465706214163,0.854129224547,0.0595506330461,0.745081033708,-0.0962200018622,1.33758544067,1.8655824268,0.49889436427,0.256363485631,1.0276130729,2.92995499292,-0.0101955771776,1.78988607501,0.0430782922416
6.26,0.465706214163,0.854129224547,0.0595506330461,0.745081033708,-0.0962200018622,1.33758544067,1.8655824268,0.49889436427,0.256363485631,1.0276130729,2.92995499292,-0.0101955771776,1.78988607501,0.0430782922416
6.28,0.465723657868,0.854164111958,0.0595506330461,0.745063590003,-0.0962200018622,1.33772512346,1.86476217319,0.498873183662,0.256362265483,1.02759449518,2.93009777722,-0.00998010867576,1.79069605772,0.043078825937
6.3,0.465723657868,0.854164111958,0.0595506330461,0.745063590003,-0.0962200018622,1.33772512346,1.86476217319,0.498873183662,0.256362265483,1.02759449518,2.93009777722,-0.00998010867576,1.79069605772,0.043078825937
6.32,0.465723657868,0.854199065947,0.0595506330461,0.745063590003,-0.0962200018622,1.3379869122,1.86352300433,0.498836037757,0.256341038407,1.02756582802,2.93037056373,-0.00963764590381,1.79189149545,0.0430806994456
6.34,0.465723657868,0.854199065947,0.0595506330461,0.745063590003,-0.0962200018622,1.3379869122,1.86352300433,0.498836037757,0.256341038407,1.02756582802,2.93037056373,-0.00963764590381,1.79189149545,0.0430806994456
6.36,0.465688737169,0.854199065947,0.059515728991,0.745046146298,-0.0962549059172,1.33821381352,1.85744926599,0.498823373367,0.256290207213,1.02756397578,2.93050226963,-0.00824703008089,1.79775960847,0.0430807939647
6.38,0.465688737169,0.854199065947,0.059515728991,0.745046146298,-0.0962549059172,1.33821381352,1.85744926599,0.498823373367,0.256290207213,1.02756397578,2.93050226963,-0.00824703008089,1.79775960847,0.0430807939647
6.4,0.465688737169,0.854199065947,0.059515728991,0.745028702593,-0.0962374538897,1.33831847576,1.84779757073,0.498823373367,0.256290207213,1.02756397578,2.93050226963,-0.00824703008089,1.79775960847,0.0430807939647
6.42,0.465688737169,0.854199065947,0.059515728991,0.745028702593,-0.0962374538897,1.33831847576,1.84779757073,0.498809619983,0.256285337589,1.02756604031,2.93052253627,-0.00621785939602,1.80719005663,0.0430803815452
6.44,0.465688737169,0.854199065947,0.059515728991,0.745028702593,-0.0962374538897,1.33831847576,1.84779757073,0.498809619983,0.256285337589,1.02756604031,2.93052253627,-0.00621785939602,1.80719005663,0.0430803815452
6.46,0.465706214163,0.854233953357,0.0595331810186,0.745046146298,-0.0962374538897,1.33831847576,1.83467271393,0.498800256847,0.256298622486,1.02754071336,2.93051414527,-0.00346863608306,1.82005323383,0.0430820170469
6.48,0.465706214163,0.854233953357,0.0595331810186,0.745046146298,-0.0962374538897,1.33831847576,1.83467271393,0.498800256847,0.256298622486,1.02754071336,2.93051414527,-0.00346863608306,1.82005323383,0.0430820170469
6.5,0.465706214163,0.854251397062,0.0595331810186,0.745046146298,-0.0962374538897,1.33840569428,1.81788254852,0.498787995644,0.256291608639,1.02752791992,2.93058774269,7.37826548927e-05,1.83646624859,0.043082772778
6.52,0.465706214163,0.854251397062,0.0595331810186,0.745046146298,-0.0962374538897,1.33840569428,1.81788254852,0.498787995644,0.256291608639,1.02752791992,2.93058774269,7.37826548927e-05,1.83646624859,0.043082772778
6.54,0.465706214163,0.854303794757,0.0595331810186,0.745028702593,-0.0962200018622,1.33837080687,1.79610082028,0.498787995644,0.256291608639,1.02752791992,2.93058774269,7.37826548927e-05,1.83646624859,0.043082772778
6.56,0.465706214163,0.854303794757,0.0595331810186,0.745028702593,-0.0962200018622,1.33837080687,1.79610082028,0.498795476425,0.256298773159,1.0275054221,2.93064223791,0.004616343028,1.85776557837,0.0430829975946
6.58,0.465706214163,0.854303794757,0.0595331810186,0.745028702593,-0.0962200018622,1.33837080687,1.79610082028,0.498795476425,0.256298773159,1.0275054221,2.93064223791,0.004616343028,1.85776557837,0.0430829975946
6.6,0.465671293464,0.854286284473,0.059515728991,0.745046146298,-0.0962549059172,1.33840569428,1.77177097951,0.498801852605,0.256266570826,1.0275084387,2.9308378222,0.00976366439107,1.8815109221,0.0430835802254
6.62,0.465671293464,0.854286284473,0.059515728991,0.745046146298,-0.0962549059172,1.33840569428,1.77177097951,0.498801852605,0.256266570826,1.0275084387,2.9308378222,0.00976366439107,1.8815109221,0.0430835802254
6.64,0.465671293464,0.854303794757,0.059515728991,0.745168318813,-0.0962549059172,1.33840569428,1.74618452618,0.498782710868,0.256258070823,1.02745779961,2.93128676091,0.0151354890335,1.90654153219,0.0430898701159
6.66,0.465671293464,0.854303794757,0.059515728991,0.745168318813,-0.0962549059172,1.33840569428,1.74618452618,0.498782710868,0.256258070823,1.02745779961,2.93128676091,0.0151354890335,1.90654153219,0.0430898701159
6.68,0.465706214163,0.854338682167,0.0595331810186,0.745290491328,-0.0962374538897,1.33842313799,1.71806727086,0.498782710868,0.256258070823,1.02745779961,2.93128676091,0.0151354890335,1.90654153219,0.0430898701159
6.7,0.465706214163,0.854338682167,0.0595331810186,0.745290491328,-0.0962374538897,1.33842313799,1.71806727086,0.498748233759,0.256273693921,1.02739673686,2.93196031982,0.0209916849152,1.9340993804,0.0430966244727
6.72,0.465706214163,0.854338682167,0.0595331810186,0.745290491328,-0.0962374538897,1.33842313799,1.71806727086,0.498748233759,0.256273693921,1.02739673686,2.93196031982,0.0209916849152,1.9340993804,0.0430966244727
6.74,0.465706214163,0.854391013282,0.0595506330461,0.745709406567,-0.0962200018622,1.33852793338,1.6884489248,0.49866301648,0.256243764818,1.02722377881,2.93323298208,0.0271780060827,1.96311981904,0.043118425504
6.76,0.465706214163,0.854391013282,0.0595506330461,0.745709406567,-0.0962200018622,1.33852793338,1.6884489248,0.49866301648,0.256243764818,1.02722377881,2.93323298208,0.0271780060827,1.96311981904,0.043118425504
6.78,0.465688737169,0.854425967272,0.0595331810186,0.745988639007,-0.0962200018622,1.33845815855,1.65694572648,0.498636460923,0.256215825883,1.02711326241,2.93441441732,0.0337121805656,1.99395429026,0.0431323974516
6.8,0.465688737169,0.854425967272,0.0595331810186,0.745988639007,-0.0962200018622,1.33845815855,1.65694572648,0.498636460923,0.256215825883,1.02711326241,2.93441441732,0.0337121805656,1.99395429026,0.0431323974516
6.82,0.465671293464,0.854391013282,0.0594982728023,0.746040970123,-0.0962549059172,1.33849304597,1.62692617519,0.498635241982,0.25618422848,1.02711434877,2.93554584007,0.0399370889875,2.02331825064,0.0431342645604
6.84,0.465671293464,0.854391013282,0.0594982728023,0.746040970123,-0.0962549059172,1.33849304597,1.62692617519,0.498635241982,0.25618422848,1.02711434877,2.93554584007,0.0399370889875,2.02331825064,0.0431342645604
6.86,0.465671293464,0.854391013282,0.0594982728023,0.746040970123,-0.0962549059172,1.33849304597,1.62692617519,0.498635241982,0.25618422848,1.02711434877,2.93554584007,0.0399370889875,2.02331825064,0.0431342645604
6.88,0.465706214163,0.854460854682,0.0595331810186,0.746110811522,-0.0962374538897,1.33852793338,1.59786642717,0.498604447957,0.256207912859,1.0270506645,2.93694179133,0.045823256238,2.05185978048,0.0431393613716
6.9,0.465706214163,0.854460854682,0.0595331810186,0.746110811522,-0.0962374538897,1.33852793338,1.59786642717,0.498604447957,0.256207912859,1.0270506645,2.93694179133,0.045823256238,2.05185978048,0.0431393613716
6.92,0.465706214163,0.854495742092,0.0595331810186,0.746494772773,-0.0962374538897,1.33851048967,1.5682306374,0.498546238207,0.256182336319,1.02690351732,2.93876152989,0.0518222992096,2.08095490358,0.0431585691094
6.94,0.465706214163,0.854495742092,0.0595331810186,0.746494772773,-0.0962374538897,1.33851048967,1.5682306374,0.498546238207,0.256182336319,1.02690351732,2.93876152989,0.0518222992096,2.08095490358,0.0431585691094
6.96,0.465688737169,0.854495742092,0.0595331810186,0.747000906538,-0.0962374538897,1.33849304597,1.54287108539,0.498472210166,0.256138959319,1.02673517489,2.9406023832,0.056899466626,2.10586870495,0.0431828404005
6.98,0.465688737169,0.854495742092,0.0595331810186,0.747000906538,-0.0962374538897,1.33849304597,1.54287108539,0.498472210166,0.256138959319,1.02673517489,2.9406023832,0.056899466626,2.10586870495,0.0431828404005
7.0,0.465688737169,0.854495742092,0.0595331810186,0.747000906538,-0.0962374538897,1.33849304597,1.54287108539,0.498472210166,0.256138959319,1.02673517489,2.9406023832,0.056899466626,2.10586870495,0.0431828404005
7.02,0.465706214163,0.854495742092,0.0595331810186,0.748152856867,-0.0962549059172,1.33852793338,1.51929172342,0.498279393592,0.256059939909,1.02634980272,2.9431601867,0.0615453656776,2.12915816836,0.0432383261398
7.04,0.465706214163,0.854495742092,0.0595331810186,0.748152856867,-0.0962549059172,1.33852793338,1.51929172342,0.498279393592,0.256059939909,1.02634980272,2.9431601867,0.0615453656776,2.12915816836,0.0432383261398
7.06,0.465706214163,0.854565583492,0.0595331810186,0.749549085648,-0.0962374538897,1.33852793338,1.4983476925,0.498054919967,0.255963021216,1.02584502907,2.94593038977,0.0655321458326,2.14989345628,0.043306915742
7.08,0.465706214163,0.854565583492,0.0595331810186,0.749549085648,-0.0962374538897,1.33852793338,1.4983476925,0.498054919967,0.255963021216,1.02584502907,2.94593038977,0.0655321458326,2.14989345628,0.043306915742
7.1,0.465688737169,0.854565583492,0.0595331810186,0.750177391928,-0.0962374538897,1.33852793338,1.48071982977,0.497958227528,0.255909162945,1.02563566428,2.94772152974,0.0688918605279,2.16727998464,0.0433370198098
7.12,0.465688737169,0.854565583492,0.0595331810186,0.750177391928,-0.0962374538897,1.33852793338,1.48071982977,0.497958227528,0.255909162945,1.02563566428,2.94772152974,0.0688918605279,2.16727998464,0.0433370198098
7.14,0.465688737169,0.854565583492,0.0595331810186,0.750177391928,-0.0962374538897,1.33852793338,1.48071982977,0.497958227528,0.255909162945,1.02563566428,2.94772152974,0.0688918605279,2.16727998464,0.0433370198098
7.16,0.465706214163,0.854530629503,0.0595331810186,0.750177391928,-0.0962200018622,1.33849304597,1.46679216306,0.497956757713,0.255922941364,1.02565625741,2.94861179495,0.071559860588,2.1809953843,0.0433360758225
7.18,0.465706214163,0.854530629503,0.0595331810186,0.750177391928,-0.0962200018622,1.33849304597,1.46679216306,0.497956757713,0.255922941364,1.02565625741,2.94861179495,0.071559860588,2.1809953843,0.0433360758225
7.2,0.465706214163,0.854495742092,0.0595331810186,0.750125060813,-0.0962200018622,1.33845815855,1.45743714394,0.497969592692,0.255929260884,1.02569439827,2.94915688533,0.0733661599145,2.19019204074,0.0433326244958
7.22,0.465706214163,0.854495742092,0.0595331810186,0.750125060813,-0.0962200018622,1.33845815855,1.45743714394,0.497969592692,0.255929260884,1.02569439827,2.94915688533,0.0733661599145,2.19019204074,0.0433326244958
7.24,0.465706214163,0.854495742092,0.0595331810186,0.750107617107,-0.0962200018622,1.33844058169,1.45192200364,0.497974946481,0.255931966238,1.02570080165,2.94952280811,0.0744239821669,2.19561793122,0.0433317176596
7.26,0.465706214163,0.854495742092,0.0595331810186,0.750107617107,-0.0962200018622,1.33844058169,1.45192200364,0.497974946481,0.255931966238,1.02570080165,2.94952280811,0.0744239821669,2.19561793122,0.0433317176596
7.28,0.465706214163,0.854495742092,0.0595331810186,0.750107617107,-0.0962200018622,1.33844058169,1.45192200364,0.497974946481,0.255931966238,1.02570080165,2.94952280811,0.0744239821669,2.19561793122,0.0433317176596
7.3,0.465706214163,0.854495742092,0.0595331810186,0.750142504518,-0.0962200018622,1.33847560226,1.44888506789,0.497964258064,0.255926566456,1.02568799958,2.94981546485,0.0749949174783,2.19861240487,0.0433335307613
7.32,0.465706214163,0.854495742092,0.0595331810186,0.750142504518,-0.0962200018622,1.33847560226,1.44888506789,0.497964258064,0.255926566456,1.02568799958,2.94981546485,0.0749949174783,2.19861240487,0.0433335307613
7.34,0.465706214163,0.854495742092,0.0595331810186,0.750142504518,-0.0962200018622,1.33849304597,1.44637184277,0.497961733047,0.255925126266,1.02568741314,2.95001877369,0.075471593359,2.20108701197,0.043333601518
7.36,0.465706214163,0.854495742092,0.0595331810186,0.750142504518,-0.0962200018622,1.33849304597,1.44637184277,0.497961733047,0.255925126266,1.02568741314,2.95001877369,0.075471593359,2.20108701197,0.043333601518
7.38,0.465688737169,0.854495742092,0.0595331810186,0.750125060813,-0.0962549059172,1.33847560226,1.44464398385,0.497974345427,0.255914079162,1.02569410779,2.95011703185,0.075839450718,2.20276963517,0.0433326905877
7.4,0.465688737169,0.854495742092,0.0595331810186,0.750125060813,-0.0962549059172,1.33847560226,1.44464398385,0.497974345427,0.255914079162,1.02569410779,2.95011703185,0.075839450718,2.20276963517,0.0433326905877
7.42,0.465688737169,0.854495742092,0.0595331810186,0.750125060813,-0.0962549059172,1.33847560226,1.44464398385,0.497974345427,0.255914079162,1.02569410779,2.95011703185,0.075839450718,2.20276963517,0.0433326905877
7.44,0.465688737169,0.854495742092,0.059515728991,0.750142504518,-0.0962549059172,1.33849304597,1.44398072359,0.497971820928,0.255905921881,1.02568764273,2.95020341334,0.0759742508875,2.20341388403,0.0433336044105
7.46,0.465688737169,0.854495742092,0.059515728991,0.750142504518,-0.0962549059172,1.33849304597,1.44398072359,0.497971820928,0.255905921881,1.02568764273,2.95020341334,0.0759742508875,2.20341388403,0.0433336044105
7.48,0.465688737169,0.854495742092,0.0595331810186,0.750159948223,-0.0962723579447,1.33851048967,1.44331746332,0.497965078468,0.255906171093,1.02568145892,2.95028770151,0.076100315592,2.20408148197,0.0433345007249
7.5,0.465688737169,0.854495742092,0.0595331810186,0.750159948223,-0.0962723579447,1.33851048967,1.44331746332,0.497965078468,0.255906171093,1.02568145892,2.95028770151,0.076100315592,2.20408148197,0.0433345007249
7.52,0.465671293464,0.854478298387,0.059515728991,0.750125060813,-0.0963770784322,1.33851048967,1.43876212627,0.497986064366,0.255879250938,1.02570367249,2.95059479585,0.0770900390218,2.20853721345,0.0433324215862
7.54,0.465671293464,0.854478298387,0.059515728991,0.750125060813,-0.0963770784322,1.33851048967,1.43876212627,0.497986064366,0.255879250938,1.02570367249,2.95059479585,0.0770900390218,2.20853721345,0.0433324215862
7.56,0.465671293464,0.854478298387,0.059515728991,0.750125060813,-0.0963770784322,1.33851048967,1.43876212627,0.497986064366,0.255879250938,1.02570367249,2.95059479585,0.0770900390218,2.20853721345,0.0433324215862
7.58,0.465653849758,0.854478298387,0.0594982728023,0.750142504518,-0.0967086919222,1.33851048967,1.42877886745,0.498017175235,0.255815975143,1.02570062524,2.95142782361,0.079320104704,2.21835762285,0.0433332200781
7.6,0.465653849758,0.854478298387,0.0594982728023,0.750142504518,-0.0967086919222,1.33851048967,1.42877886745,0.498017175235,0.255815975143,1.02570062524,2.95142782361,0.079320104704,2.21835762285,0.0433332200781
7.62,0.465671293464,0.854460854682,0.0594982728023,0.750125060813,-0.0967785083547,1.33851048967,1.41324544776,0.498020809633,0.255815676048,1.0257168017,2.95263939719,0.082321966735,2.23367976756,0.0433319734825
7.64,0.465671293464,0.854460854682,0.0594982728023,0.750125060813,-0.0967785083547,1.33851048967,1.41324544776,0.498020809633,0.255815676048,1.0257168017,2.95263939719,0.082321966735,2.23367976756,0.0433319734825
7.66,0.465653849758,0.854460854682,0.0594982728023,0.750107617107,-0.0967785083547,1.33849304597,1.38947407187,0.498030606106,0.255809682977,1.02572320049,2.95458410134,0.0867702998948,2.25709583962,0.0433310672227
7.68,0.465653849758,0.854460854682,0.0594982728023,0.750107617107,-0.0967785083547,1.33849304597,1.38947407187,0.498030606106,0.255809682977,1.02572320049,2.95458410134,0.0867702998948,2.25709583962,0.0433310672227
7.7,0.465653849758,0.854460854682,0.0594982728023,0.750107617107,-0.0967785083547,1.33849304597,1.38947407187,0.498030606106,0.255809682977,1.02572320049,2.95458410134,0.0867702998948,2.25709583962,0.0433310672227
7.72,0.465653849758,0.854443410977,0.0594808207748,0.750090173402,-0.0968308644372,1.33849304597,1.36167093641,0.498040107917,0.255797753254,1.02573916317,2.95701188829,0.0919782186956,2.28451755098,0.043329830499
7.74,0.465653849758,0.854443410977,0.0594808207748,0.750090173402,-0.0968308644372,1.33849304597,1.36167093641,0.498040107917,0.255797753254,1.02573916317,2.95701188829,0.0919782186956,2.28451755098,0.043329830499
7.76,0.465653849758,0.854425967272,0.0594982728023,0.750090173402,-0.0969355849247,1.33849304597,1.32405911233,0.498045390405,0.255787937516,1.02574989431,2.96055626583,0.0989104560897,2.32168689719,0.0433294070924
7.78,0.465653849758,0.854425967272,0.0594982728023,0.750090173402,-0.0969355849247,1.33849304597,1.32405911233,0.498045390405,0.255787937516,1.02574989431,2.96055626583,0.0989104560897,2.32168689719,0.0433294070924
7.8,0.465653849758,0.854460854682,0.0594808207748,0.750090173402,-0.0970054013572,1.33849304597,1.28115891612,0.498054455459,0.255772720679,1.02573089823,2.96496632086,0.106612048518,2.36412330858,0.0433302086579
7.82,0.465653849758,0.854460854682,0.0594808207748,0.750090173402,-0.0970054013572,1.33849304597,1.28115891612,0.498054455459,0.255772720679,1.02573089823,2.96496632086,0.106612048518,2.36412330858,0.0433302086579
7.84,0.465653849758,0.854460854682,0.0594808207748,0.750090173402,-0.0970054013572,1.33849304597,1.28115891612,0.498054455459,0.255772720679,1.02573089823,2.96496632086,0.106612048518,2.36412330858,0.0433302086579
7.86,0.465618929059,0.854425967272,0.0594633687473,0.750072729697,-0.0971799299547,1.33847560226,1.23066658028,0.498084904739,0.255727039496,1.02575827194,2.97050667183,0.11554929915,2.41412138541,0.043328482899
7.88,0.465618929059,0.854425967272,0.0594633687473,0.750072729697,-0.0971799299547,1.33847560226,1.23066658028,0.498084904739,0.255727039496,1.02575827194,2.97050667183,0.11554929915,2.41412138541,0.043328482899
7.9,0.465618929059,0.854460854682,0.0594633687473,0.749880715783,-0.0973195628196,1.33845815855,1.17027820414,0.498130209047,0.255722445969,1.02580452021,2.97761574034,0.125813886096,2.47408355903,0.0433199981191
7.92,0.465618929059,0.854460854682,0.0594633687473,0.749880715783,-0.0973195628196,1.33845815855,1.17027820414,0.498130209047,0.255722445969,1.02580452021,2.97761574034,0.125813886096,2.47408355903,0.0433199981191
7.94,0.465653849758,0.854425967272,0.0594808207748,0.749863272077,-0.0984540195097,1.33851048967,1.10538682207,0.498204208779,0.255578155734,1.02583810872,2.98656231836,0.137145169492,2.53885050187,0.0433184092701
7.96,0.465653849758,0.854425967272,0.0594808207748,0.749863272077,-0.0984540195097,1.33851048967,1.10538682207,0.498204208779,0.255578155734,1.02583810872,2.98656231836,0.137145169492,2.53885050187,0.0433184092701
7.98,0.465653849758,0.854425967272,0.0594808207748,0.749863272077,-0.0984540195097,1.33851048967,1.10538682207,0.498204208779,0.255578155734,1.02583810872,2.98656231836,0.137145169492,2.53885050187,0.0433184092701
8.0,0.465618929059,0.854460854682,0.0594633687473,0.749775986973,-0.0995012243846,1.33845815855,1.03279857155,0.498322342082,0.255415061594,1.0258587295,2.99732399728,0.148952421455,2.61141447791,0.0433146814008
8.02,0.465618929059,0.854460854682,0.0594633687473,0.749775986973,-0.0995012243846,1.33845815855,1.03279857155,0.498322342082,0.255415061594,1.0258587295,2.99732399728,0.148952421455,2.61141447791,0.0433146814008
8.04,0.465618929059,0.854373569577,0.0594633687473,0.749671258163,-0.0996059365497,1.33845815855,0.960175433627,0.49834597339,0.255406647677,1.02594345645,3.00839512206,0.159194806468,2.68418487253,0.0433076384653
8.06,0.465618929059,0.854373569577,0.0594633687473,0.749671258163,-0.0996059365497,1.33845815855,0.960175433627,0.49834597339,0.255406647677,1.02594345645,3.00839512206,0.159194806468,2.68418487253,0.0433076384653
8.08,0.465636406053,0.854391013282,0.0594633687473,0.749793430678,-0.0996408489271,1.33847560226,0.880640793462,0.498322462767,0.255400269851,1.02589269819,3.02162142694,0.169173710565,2.76420615329,0.0433139604657
8.1,0.465636406053,0.854391013282,0.0594633687473,0.749793430678,-0.0996408489271,1.33847560226,0.880640793462,0.498322462767,0.255400269851,1.02589269819,3.02162142694,0.169173710565,2.76420615329,0.0433139604657
8.12,0.465636406053,0.854391013282,0.0594633687473,0.749793430678,-0.0996408489271,1.33847560226,0.880640793462,0.498322462767,0.255400269851,1.02589269819,3.02162142694,0.169173710565,2.76420615329,0.0433139604657
8.14,0.465618929059,0.854338682167,0.0594633687473,0.749636370753,-0.0996583009547,1.33844058169,0.803741550933,0.498357681232,0.255402718036,1.02597568742,3.03485589654,0.178053297931,2.84172657389,0.0433050845247
8.16,0.465618929059,0.854338682167,0.0594633687473,0.749636370753,-0.0996583009547,1.33844058169,0.803741550933,0.498357681232,0.255402718036,1.02597568742,3.03485589654,0.178053297931,2.84172657389,0.0433050845247
8.18,0.465444392139,0.854303794757,0.0594284605311,0.749514198238,-0.0996583009547,1.33840569428,0.727296177632,0.498431896421,0.255316116135,1.02603700817,3.04874266882,0.185829920767,2.91884693248,0.0432982991011
8.2,0.465444392139,0.854303794757,0.0594284605311,0.749514198238,-0.0996583009547,1.33840569428,0.727296177632,0.498431896421,0.255316116135,1.02603700817,3.04874266882,0.185829920767,2.91884693248,0.0432982991011
8.22,0.465461869133,0.854356125872,0.0594459125586,0.749706212152,-0.0996583009547,1.33845815855,0.649559171203,0.498387140857,0.255312677042,1.02594198939,3.06374761589,0.192221614695,2.99777463217,0.043308912091
8.24,0.465461869133,0.854356125872,0.0594459125586,0.749706212152,-0.0996583009547,1.33845815855,0.649559171203,0.498387140857,0.255312677042,1.02594198939,3.06374761589,0.192221614695,2.99777463217,0.043308912091
8.26,0.465461869133,0.854356125872,0.0594459125586,0.749706212152,-0.0996583009547,1.33845815855,0.649559171203,0.498387140857,0.255312677042,1.02594198939,3.06374761589,0.192221614695,2.99777463217,0.043308912091
8.28,0.465409504728,0.854233953357,0.0594284605311,0.749426913133,-0.0996583009547,1.33837080687,0.577023318383,0.498458569203,0.255307206263,1.02610639652,3.07777329271,0.197767374687,3.07140278724,0.0432923650289
8.3,0.465409504728,0.854233953357,0.0594284605311,0.749426913133,-0.0996583009547,1.33837080687,0.577023318383,0.498458569203,0.255307206263,1.02610639652,3.07777329271,0.197767374687,3.07140278724,0.0432923650289
8.32,0.465357140323,0.854286284473,0.0594633687473,0.749322184323,-0.0996233968996,1.33840569428,0.506337463703,0.498476305547,0.25530219423,1.02611062702,3.09200266209,0.201758677747,-3.13982786281,0.0432886811638
8.34,0.465357140323,0.854286284473,0.0594633687473,0.749322184323,-0.0996233968996,1.33840569428,0.506337463703,0.498476305547,0.25530219423,1.02611062702,3.09200266209,0.201758677747,-3.13982786281,0.0432886811638
8.36,0.465496756544,0.854268840767,0.0594982728023,0.749217455513,-0.0995710324947,1.33838825058,0.442109341904,0.498449871874,0.255399056183,1.02615554671,3.10509190219,0.204613480938,-3.07418133181,0.043283179534
8.38,0.465496756544,0.854268840767,0.0594982728023,0.749217455513,-0.0995710324947,1.33838825058,0.442109341904,0.498449871874,0.255399056183,1.02615554671,3.10509190219,0.204613480938,-3.07418133181,0.043283179534
8.4,0.465496756544,0.854268840767,0.0594982728023,0.749217455513,-0.0995710324947,1.33838825058,0.442109341904,0.498449871874,0.255399056183,1.02615554671,3.10509190219,0.204613480938,-3.07418133181,0.043283179534
8.42,0.465549120949,0.854251397062,0.0595506330461,0.749200011808,-0.0995012243846,1.33838825058,0.385874831274,0.498424954005,0.255452710878,1.02617067953,3.11669301485,0.206330297269,-3.01670526893,0.0432819284215
8.44,0.465549120949,0.854251397062,0.0595506330461,0.749200011808,-0.0995012243846,1.33838825058,0.385874831274,0.498424954005,0.255452710878,1.02617067953,3.11669301485,0.206330297269,-3.01670526893,0.0432819284215
8.46,0.465549120949,0.854251397062,0.0595506330461,0.749060395588,-0.0995012243846,1.33837080687,0.334492367124,0.498449909626,0.255464154545,1.02621782218,3.12742348948,0.207481414655,-2.96422949317,0.0432751625595
8.48,0.465549120949,0.854251397062,0.0595506330461,0.749060395588,-0.0995012243846,1.33837080687,0.334492367124,0.498449909626,0.255464154545,1.02621782218,3.12742348948,0.207481414655,-2.96422949317,0.0432751625595
8.5,0.465549120949,0.854251397062,0.0595506330461,0.749025508177,-0.0995012243846,1.33837080687,0.291696866434,0.498455514097,0.255466653428,1.02622945531,3.13643266577,0.207928322768,-2.92049964512,0.0432734894363
8.52,0.465549120949,0.854251397062,0.0595506330461,0.749025508177,-0.0995012243846,1.33837080687,0.291696866434,0.498455514097,0.255466653428,1.02622945531,3.13643266577,0.207928322768,-2.92049964512,0.0432734894363
8.54,0.465549120949,0.854251397062,0.0595506330461,0.749025508177,-0.0995012243846,1.33837080687,0.291696866434,0.498455514097,0.255466653428,1.02622945531,3.13643266577,0.207928322768,-2.92049964512,0.0432734894363
8.56,0.465566564654,0.854268840767,0.0595680892348,0.748938223073,-0.0995012243846,1.33838825058,0.251955728554,0.498460082383,0.255485789582,1.02624825963,-3.13839289972,0.208014744738,-2.87986486964,0.043269768129
8.58,0.465566564654,0.854268840767,0.0595680892348,0.748938223073,-0.0995012243846,1.33838825058,0.251955728554,0.498460082383,0.255485789582,1.02624825963,-3.13839289972,0.208014744738,-2.87986486964,0.043269768129
8.6,0.465549120949,0.854268840767,0.0595506330461,0.748920779368,-0.0995012243846,1.33840569428,0.220661971204,0.498467620643,0.255471437674,1.02625342618,-3.13177739914,0.207813563323,-2.84791084575,0.0432690098853
8.62,0.465549120949,0.854268840767,0.0595506330461,0.748920779368,-0.0995012243846,1.33840569428,0.220661971204,0.498467620643,0.255471437674,1.02625342618,-3.13177739914,0.207813563323,-2.84791084575,0.0432690098853
8.64,0.465549120949,0.854268840767,0.0595506330461,0.749095282998,-0.0994837640347,1.33840569428,0.192701809104,0.498438185742,0.255461459103,1.02619508134,-3.12587229414,0.207282139557,-2.81932890972,0.0432773814827
8.66,0.465549120949,0.854268840767,0.0595506330461,0.749095282998,-0.0994837640347,1.33840569428,0.192701809104,0.498438185742,0.255461459103,1.02619508134,-3.12587229414,0.207282139557,-2.81932890972,0.0432773814827
8.68,0.465549120949,0.854268840767,0.0595506330461,0.749095282998,-0.0994837640347,1.33840569428,0.192701809104,0.498438185742,0.255461459103,1.02619508134,-3.12587229414,0.207282139557,-2.81932890972,0.0432773814827
8.7,0.465549120949,0.854233953357,0.0595331810186,0.748833494263,-0.0995012243846,1.33831847576,0.170797924994,0.49849639439,0.255479096427,1.02630497087,-3.12130131704,0.207270553189,-2.79697458809,0.0432636727334
8.72,0.465549120949,0.854233953357,0.0595331810186,0.748833494263,-0.0995012243846,1.33831847576,0.170797924994,0.49849639439,0.255479096427,1.02630497087,-3.12130131704,0.207270553189,-2.79697458809,0.0432636727334
8.74,0.465549120949,0.854268840767,0.0595506330461,0.748816050558,-0.0995012243846,1.33831847576,0.15212289068,0.498497056887,0.255486142195,1.02629130599,-3.117391293,0.206836217445,-2.77788847852,0.0432636317247
8.76,0.465549120949,0.854268840767,0.0595506330461,0.748816050558,-0.0995012243846,1.33831847576,0.15212289068,0.498497056887,0.255486142195,1.02629130599,-3.117391293,0.206836217445,-2.77788847852,0.0432636317247
8.78,0.465514233538,0.854251397062,0.059515728991,0.748885891957,-0.0995186764121,1.33830103205,0.138456971092,0.498503951917,0.255451578932,1.02627841548,-3.11447745036,0.206455927254,-2.76397303501,0.0432665220411
8.8,0.465514233538,0.854251397062,0.059515728991,0.748885891957,-0.0995186764121,1.33830103205,0.138456971092,0.498503951917,0.255451578932,1.02627841548,-3.11447745036,0.206455927254,-2.76397303501,0.0432665220411
8.82,0.465514233538,0.854251397062,0.059515728991,0.748885891957,-0.0995186764121,1.33830103205,0.138456971092,0.498503951917,0.255451578932,1.02627841548,-3.11447745036,0.206455927254,-2.76397303501,0.0432665220411
8.84,0.465531677243,0.854216509652,0.0595331810186,0.748711321748,-0.0995361284397,1.33833591946,0.128316610735,0.498520414092,0.255472499224,1.0263552107,-3.1123709416,0.206344689521,-2.7536004221,0.0432574761328
8.86,0.465531677243,0.854216509652,0.0595331810186,0.748711321748,-0.0995361284397,1.33833591946,0.128316610735,0.498520414092,0.255472499224,1.0263552107,-3.1123709416,0.206344689521,-2.7536004221,0.0432574761328
8.88,0.465549120949,0.854199065947,0.0595331810186,0.748903335662,-0.0995186764121,1.33837080687,0.118577671977,0.498478346754,0.255466920137,1.0262996045,-3.11032890458,0.205840395005,-2.74363045573,0.0432664298266
8.9,0.465549120949,0.854199065947,0.0595331810186,0.748903335662,-0.0995186764121,1.33837080687,0.118577671977,0.498478346754,0.255466920137,1.0262996045,-3.11032890458,0.205840395005,-2.74363045573,0.0432664298266
8.92,0.465531677243,0.854199065947,0.0595331810186,0.748798606853,-0.0995361284397,1.33840569428,0.109554316282,0.498495974633,0.255460320679,1.02633350539,-3.10843627773,0.205621039254,-2.73443883649,0.0432615454974
8.94,0.465531677243,0.854199065947,0.0595331810186,0.748798606853,-0.0995361284397,1.33840569428,0.109554316282,0.498495974633,0.255460320679,1.02633350539,-3.10843627773,0.205621039254,-2.73443883649,0.0432615454974
8.96,0.465531677243,0.854199065947,0.0595331810186,0.748798606853,-0.0995361284397,1.33840569428,0.109554316282,0.498495974633,0.255460320679,1.02633350539,-3.10843627773,0.205621039254,-2.73443883649,0.0432615454974
8.98,0.465549120949,0.854199065947,0.0595506330461,0.748816050558,-0.0995361284397,1.33840569428,0.10035643199,0.498485915182,0.255473230908,1.02632774733,-3.10653235247,0.205289315805,-2.72502152433,0.0432623747395
9.0,0.465549120949,0.854199065947,0.0595506330461,0.748816050558,-0.0995361284397,1.33840569428,0.10035643199,0.498485915182,0.255473230908,1.02632774733,-3.10653235247,0.205289315805,-2.72502152433,0.0432623747395
9.02,0.465601485353,0.854233953357,0.0595855412623,0.748955666778,-0.0995186764121,1.33840569428,0.0872664625997,0.498443771652,0.255503116895,1.02626160941,-3.10384446796,0.204636453742,-2.71158596301,0.0432698623405
9.04,0.465601485353,0.854233953357,0.0595855412623,0.748955666778,-0.0995186764121,1.33840569428,0.0872664625997,0.498443771652,0.255503116895,1.02626160941,-3.10384446796,0.204636453742,-2.71158596301,0.0432698623405
9.06,0.465584041648,0.854199065947,0.0595855412623,0.748903335662,-0.0995361284397,1.33840569428,0.0702844081123,0.49845737155,0.255495317082,1.02629875804,-3.10031451756,0.204053815447,-2.69427315051,0.0432665465202
9.08,0.465584041648,0.854199065947,0.0595855412623,0.748903335662,-0.0995361284397,1.33840569428,0.0702844081123,0.49845737155,0.255495317082,1.02629875804,-3.10031451756,0.204053815447,-2.69427315051,0.0432665465202
9.1,0.465584041648,0.854199065947,0.0595855412623,0.748903335662,-0.0995361284397,1.33840569428,0.0702844081123,0.49845737155,0.255495317082,1.02629875804,-3.10031451756,0.204053815447,-2.69427315051,0.0432665465202
9.12,0.465549120949,0.854199065947,0.0595506330461,0.748903335662,-0.0995361284397,1.33842313799,0.0464606636561,0.498469375872,0.255465541052,1.02629804822,-3.09537446058,0.202994612967,-2.67002377509,0.0432666325049
9.14,0.465549120949,0.854199065947,0.0595506330461,0.748903335662,-0.0995361284397,1.33842313799,0.0464606636561,0.498469375872,0.255465541052,1.02629804822,-3.09537446058,0.202994612967,-2.67002377509,0.0432666325049
9.16,0.465584041648,0.854216509652,0.0595506330461,0.748903335662,-0.0995361284397,1.33840569428,0.0174183863843,0.498463309763,0.255484555849,1.02628886891,-3.08942584533,0.201566394184,-2.64037713052,0.0432669633341
9.18,0.465584041648,0.854216509652,0.0595506330461,0.748903335662,-0.0995361284397,1.33840569428,0.0174183863843,0.498463309763,0.255484555849,1.02628886891,-3.08942584533,0.201566394184,-2.64037713052,0.0432669633341
9.2,0.465566564654,0.854233953357,0.0595680892348,0.748920779368,-0.0995361284397,1.33842313799,-0.0204901658512,0.498459978331,0.255478785232,1.02627275023,-3.08174851177,0.199392604069,-2.6017635085,0.0432682650241
9.22,0.465566564654,0.854233953357,0.0595680892348,0.748920779368,-0.0995361284397,1.33842313799,-0.0204901658512,0.498459978331,0.255478785232,1.02627275023,-3.08174851177,0.199392604069,-2.6017635085,0.0432682650241
9.24,0.465566564654,0.854233953357,0.0595680892348,0.748920779368,-0.0995361284397,1.33842313799,-0.0204901658512,0.498459978331,0.255478785232,1.02627275023,-3.08174851177,0.199392604069,-2.6017635085,0.0432682650241
