GitHatake/ROS1EARs/catkin_ws/src/torobo_robot/torobo_EARs2021/scripts/arm/2021_kaiya_csv/test_manipulability_20220119_4_pvt_2.csv
time,joint_1,joint_2,joint_3,joint_4,joint_5,joint_6,joint_7,x,y,z,roll,pitch,yaw,manipulability
0.0,-0.142733034084,0.00561996013733,0.440346562289,1.62963141423,0.00305432613898,1.28602837302,-0.657098979723,0.323222158753,0.0993708040674,1.11996411182,-3.0096452476,0.177698715326,-2.17591355894,0.0331330055596
0.02,-0.142733034084,0.00561996013733,0.440346562289,1.62963141423,0.00305432613898,1.28602837302,-0.657098979723,0.323222158753,0.0993708040674,1.11996411182,-3.0096452476,0.177698715326,-2.17591355894,0.0331330055596
0.04,-0.142733034084,0.00561996013733,0.440346562289,1.62961397052,0.00305432613898,1.28602837302,-0.657098979723,0.323225248602,0.0993717370624,1.11996998386,-3.00963426881,0.177712408894,-2.17591165999,0.0331330753455
0.06,-0.142733034084,0.00561996013733,0.440346562289,1.62961397052,0.00305432613898,1.28602837302,-0.657098979723,0.323225248602,0.0993717370624,1.11996998386,-3.00963426881,0.177712408894,-2.17591165999,0.0331330753455
0.08,-0.142733034084,0.00561996013733,0.440346562289,1.62961397052,0.00305432613898,1.28601092931,-0.657098979723,0.323228016001,0.0993725815804,1.11997063352,-3.00962328739,0.17772610017,-2.17590981359,0.0331329061752
0.1,-0.142733034084,0.00561996013733,0.440346562289,1.62961397052,0.00305432613898,1.28601092931,-0.657098979723,0.323228016001,0.0993725815804,1.11997063352,-3.00962328739,0.17772610017,-2.17590981359,0.0331329061752
0.12,-0.142733034084,0.00561996013733,0.440346562289,1.62961397052,0.00305432613898,1.28601092931,-0.657098979723,0.323228016001,0.0993725815804,1.11997063352,-3.00962328739,0.17772610017,-2.17590981359,0.0331329061752
0.14,-0.142733034084,0.00561996013733,0.440346562289,1.62961397052,0.00305432613898,1.28602837302,-0.657098979723,0.323225248602,0.0993717370624,1.11996998386,-3.00963426881,0.177712408894,-2.17591165999,0.0331330753455
0.16,-0.142733034084,0.00561996013733,0.440346562289,1.62961397052,0.00305432613898,1.28602837302,-0.657098979723,0.323225248602,0.0993717370624,1.11996998386,-3.00963426881,0.177712408894,-2.17591165999,0.0331330753455
0.18,-0.142733034084,0.00561996013733,0.440346562289,1.62961397052,0.00305432613898,1.28601092931,-0.657098979723,0.323228016001,0.0993725815804,1.11997063352,-3.00962328739,0.17772610017,-2.17590981359,0.0331329061752
0.2,-0.142733034084,0.00561996013733,0.440346562289,1.62961397052,0.00305432613898,1.28601092931,-0.657098979723,0.323228016001,0.0993725815804,1.11997063352,-3.00962328739,0.17772610017,-2.17590981359,0.0331329061752
0.22,-0.142733034084,0.00561996013733,0.440346562289,1.62961397052,0.00305432613898,1.28602837302,-0.657081536018,0.323225248602,0.0993717370624,1.11996998386,-3.00963737461,0.177714704036,-2.17592922874,0.0331330753455
0.24,-0.142733034084,0.00561996013733,0.440346562289,1.62961397052,0.00305432613898,1.28602837302,-0.657081536018,0.323225248602,0.0993717370624,1.11996998386,-3.00963737461,0.177714704036,-2.17592922874,0.0331330753455
0.26,-0.142733034084,0.00561996013733,0.440346562289,1.62961397052,0.00305432613898,1.28602837302,-0.657081536018,0.323225248602,0.0993717370624,1.11996998386,-3.00963737461,0.177714704036,-2.17592922874,0.0331330753455
0.28,-0.142733034084,0.00561996013733,0.440346562289,1.62961397052,0.00305432613898,1.28601092931,-0.657098979723,0.323228016001,0.0993725815804,1.11997063352,-3.00962328739,0.17772610017,-2.17590981359,0.0331329061752
0.3,-0.142733034084,0.00561996013733,0.440346562289,1.62961397052,0.00305432613898,1.28601092931,-0.657098979723,0.323228016001,0.0993725815804,1.11997063352,-3.00962328739,0.17772610017,-2.17590981359,0.0331329061752
0.32,-0.142733034084,0.00561996013733,0.440346562289,1.62961397052,0.00305432613898,1.28601092931,-0.657081536018,0.323228016001,0.0993725815804,1.11997063352,-3.00962639343,0.177728395501,-2.17592738236,0.0331329061752
0.34,-0.142733034084,0.00561996013733,0.440346562289,1.62961397052,0.00305432613898,1.28601092931,-0.657081536018,0.323228016001,0.0993725815804,1.11997063352,-3.00962639343,0.177728395501,-2.17592738236,0.0331329061752
0.36,-0.142733034084,0.00561996013733,0.440346562289,1.62961397052,0.00305432613898,1.28602837302,-0.657098979723,0.323225248602,0.0993717370624,1.11996998386,-3.00963426881,0.177712408894,-2.17591165999,0.0331330753455
0.38,-0.142733034084,0.00561996013733,0.440346562289,1.62961397052,0.00305432613898,1.28602837302,-0.657098979723,0.323225248602,0.0993717370624,1.11996998386,-3.00963426881,0.177712408894,-2.17591165999,0.0331330753455
0.4,-0.142733034084,0.00561996013733,0.440346562289,1.62961397052,0.00305432613898,1.28602837302,-0.657098979723,0.323225248602,0.0993717370624,1.11996998386,-3.00963426881,0.177712408894,-2.17591165999,0.0331330753455
0.42,-0.142733034084,0.00561996013733,0.440346562289,1.62963141423,0.00307177946687,1.28602837302,-0.657081536018,0.323221324294,0.099373526586,1.11996412734,-3.00966224702,0.17771179771,-2.17593469857,0.0331330055595
0.44,-0.142733034084,0.00561996013733,0.440346562289,1.62963141423,0.00307177946687,1.28602837302,-0.657081536018,0.323221324294,0.099373526586,1.11996412734,-3.00966224702,0.17771179771,-2.17593469857,0.0331330055595
0.46,-0.142733034084,0.00561996013733,0.440346562289,1.62963141423,0.00305432613898,1.28602837302,-0.657098979723,0.323222158753,0.0993708040674,1.11996411182,-3.0096452476,0.177698715326,-2.17591355894,0.0331330055596
0.48,-0.142733034084,0.00561996013733,0.440346562289,1.62963141423,0.00305432613898,1.28602837302,-0.657098979723,0.323222158753,0.0993708040674,1.11996411182,-3.0096452476,0.177698715326,-2.17591355894,0.0331330055596
0.5,-0.142733034084,0.00561996013733,0.440346562289,1.62963141423,0.00305432613898,1.28602837302,-0.657081536018,0.323222158753,0.0993708040674,1.11996411182,-3.00964835316,0.177701010278,-2.17593112768,0.0331330055596
0.52,-0.142733034084,0.00561996013733,0.440346562289,1.62963141423,0.00305432613898,1.28602837302,-0.657081536018,0.323222158753,0.0993708040674,1.11996411182,-3.00964835316,0.177701010278,-2.17593112768,0.0331330055596
0.54,-0.142733034084,0.00561996013733,0.440346562289,1.62963141423,0.00305432613898,1.28602837302,-0.657081536018,0.323222158753,0.0993708040674,1.11996411182,-3.00964835316,0.177701010278,-2.17593112768,0.0331330055596
0.56,-0.142733034084,0.00561996013733,0.440346562289,1.62961397052,0.00305432613898,1.28602837302,-0.657081536018,0.323225248602,0.0993717370624,1.11996998386,-3.00963737461,0.177714704036,-2.17592922874,0.0331330753455
0.58,-0.142733034084,0.00561996013733,0.440346562289,1.62961397052,0.00305432613898,1.28602837302,-0.657081536018,0.323225248602,0.0993717370624,1.11996998386,-3.00963737461,0.177714704036,-2.17592922874,0.0331330753455
0.6,-0.142733034084,0.00561996013733,0.440346562289,1.62961397052,0.00305432613898,1.28601092931,-0.657081536018,0.323228016001,0.0993725815804,1.11997063352,-3.00962639343,0.177728395501,-2.17592738236,0.0331329061752
0.62,-0.142733034084,0.00561996013733,0.440346562289,1.62961397052,0.00305432613898,1.28601092931,-0.657081536018,0.323228016001,0.0993725815804,1.11997063352,-3.00962639343,0.177728395501,-2.17592738236,0.0331329061752
0.64,-0.142733034084,0.00561996013733,0.440346562289,1.62961397052,0.00305432613898,1.28601092931,-0.657081536018,0.323228016001,0.0993725815804,1.11997063352,-3.00962639343,0.177728395501,-2.17592738236,0.0331329061752
0.66,-0.142733034084,0.00561996013733,0.440346562289,1.62961397052,0.00305432613898,1.28601092931,-0.657081536018,0.323228016001,0.0993725815804,1.11997063352,-3.00962639343,0.177728395501,-2.17592738236,0.0331329061752
0.68,-0.142733034084,0.00561996013733,0.440346562289,1.62961397052,0.00305432613898,1.28601092931,-0.657081536018,0.323228016001,0.0993725815804,1.11997063352,-3.00962639343,0.177728395501,-2.17592738236,0.0331329061752
0.7,-0.142733034084,0.00561996013733,0.440346562289,1.62961397052,0.00305432613898,1.28602837302,-0.657081536018,0.323225248602,0.0993717370624,1.11996998386,-3.00963737461,0.177714704036,-2.17592922874,0.0331330753455
0.72,-0.142733034084,0.00561996013733,0.440346562289,1.62961397052,0.00305432613898,1.28602837302,-0.657081536018,0.323225248602,0.0993717370624,1.11996998386,-3.00963737461,0.177714704036,-2.17592922874,0.0331330753455
0.74,-0.142733034084,0.00561996013733,0.440346562289,1.62961397052,0.00305432613898,1.28602837302,-0.657081536018,0.323225248602,0.0993717370624,1.11996998386,-3.00963737461,0.177714704036,-2.17592922874,0.0331330753455
0.76,-0.142733034084,0.00561996013733,0.440346562289,1.62961397052,0.00305432613898,1.28602837302,-0.657081536018,0.323225248602,0.0993717370624,1.11996998386,-3.00963737461,0.177714704036,-2.17592922874,0.0331330753455
0.78,-0.142733034084,0.00561996013733,0.440346562289,1.62961397052,0.00305432613898,1.28602837302,-0.657081536018,0.323225248602,0.0993717370624,1.11996998386,-3.00963737461,0.177714704036,-2.17592922874,0.0331330753455
0.8,-0.142733034084,0.00561996013733,0.440346562289,1.62961397052,0.00305432613898,1.28602837302,-0.657081536018,0.323225248602,0.0993717370624,1.11996998386,-3.00963737461,0.177714704036,-2.17592922874,0.0331330753455
0.82,-0.142733034084,0.00561996013733,0.440346562289,1.62961397052,0.00305432613898,1.28602837302,-0.657081536018,0.323225248602,0.0993717370624,1.11996998386,-3.00963737461,0.177714704036,-2.17592922874,0.0331330753455
0.84,-0.142733034084,0.00561996013733,0.440346562289,1.62961397052,0.00305432613898,1.28602837302,-0.657081536018,0.323225248602,0.0993717370624,1.11996998386,-3.00963737461,0.177714704036,-2.17592922874,0.0331330753455
0.86,-0.142733034084,0.00561996013733,0.440346562289,1.62961397052,0.00305432613898,1.28602837302,-0.657081536018,0.323225248602,0.0993717370624,1.11996998386,-3.00963737461,0.177714704036,-2.17592922874,0.0331330753455
0.88,-0.142733034084,0.00561996013733,0.440346562289,1.62961397052,0.00305432613898,1.28602837302,-0.657098979723,0.323225248602,0.0993717370624,1.11996998386,-3.00963426881,0.177712408894,-2.17591165999,0.0331330753455
0.9,-0.142733034084,0.00561996013733,0.440346562289,1.62961397052,0.00305432613898,1.28602837302,-0.657098979723,0.323225248602,0.0993717370624,1.11996998386,-3.00963426881,0.177712408894,-2.17591165999,0.0331330753455
0.92,-0.142733034084,0.00561996013733,0.440346562289,1.62961397052,0.00305432613898,1.28601092931,-0.657081536018,0.323228016001,0.0993725815804,1.11997063352,-3.00962639343,0.177728395501,-2.17592738236,0.0331329061752
0.94,-0.142733034084,0.00561996013733,0.440346562289,1.62961397052,0.00305432613898,1.28601092931,-0.657081536018,0.323228016001,0.0993725815804,1.11997063352,-3.00962639343,0.177728395501,-2.17592738236,0.0331329061752
0.96,-0.142733034084,0.00561996013733,0.440346562289,1.62961397052,0.00305432613898,1.28601092931,-0.657081536018,0.323228016001,0.0993725815804,1.11997063352,-3.00962639343,0.177728395501,-2.17592738236,0.0331329061752
0.98,-0.142733034084,0.00561996013733,0.440346562289,1.62961397052,0.00305432613898,1.28602837302,-0.657081536018,0.323225248602,0.0993717370624,1.11996998386,-3.00963737461,0.177714704036,-2.17592922874,0.0331330753455
1.0,-0.142733034084,0.00561996013733,0.440346562289,1.62961397052,0.00305432613898,1.28602837302,-0.657081536018,0.323225248602,0.0993717370624,1.11996998386,-3.00963737461,0.177714704036,-2.17592922874,0.0331330753455
1.02,-0.142733034084,0.00561996013733,0.440346562289,1.62961397052,0.00305432613898,1.28601092931,-0.657081536018,0.323228016001,0.0993725815804,1.11997063352,-3.00962639343,0.177728395501,-2.17592738236,0.0331329061752
1.04,-0.142733034084,0.00561996013733,0.440346562289,1.62961397052,0.00305432613898,1.28601092931,-0.657081536018,0.323228016001,0.0993725815804,1.11997063352,-3.00962639343,0.177728395501,-2.17592738236,0.0331329061752
1.06,-0.142733034084,0.00561996013733,0.440346562289,1.62963141423,0.00305432613898,1.28602837302,-0.657098979723,0.323222158753,0.0993708040674,1.11996411182,-3.0096452476,0.177698715326,-2.17591355894,0.0331330055596
1.08,-0.142733034084,0.00561996013733,0.440346562289,1.62963141423,0.00305432613898,1.28602837302,-0.657098979723,0.323222158753,0.0993708040674,1.11996411182,-3.0096452476,0.177698715326,-2.17591355894,0.0331330055596
1.1,-0.142733034084,0.00561996013733,0.440346562289,1.62963141423,0.00305432613898,1.28602837302,-0.657098979723,0.323222158753,0.0993708040674,1.11996411182,-3.0096452476,0.177698715326,-2.17591355894,0.0331330055596
1.12,-0.142733034084,0.00561996013733,0.440346562289,1.62963141423,0.00305432613898,1.28602837302,-0.657081536018,0.323222158753,0.0993708040674,1.11996411182,-3.00964835316,0.177701010278,-2.17593112768,0.0331330055596
1.14,-0.142733034084,0.00561996013733,0.440346562289,1.62963141423,0.00305432613898,1.28602837302,-0.657081536018,0.323222158753,0.0993708040674,1.11996411182,-3.00964835316,0.177701010278,-2.17593112768,0.0331330055596
1.16,-0.142733034084,0.00561996013733,0.440346562289,1.62963141423,0.00305432613898,1.28601092931,-0.657098979723,0.323224926163,0.0993716485889,1.11996476143,-3.00963426623,0.177712406622,-2.1759117127,0.0331328363897
1.18,-0.142733034084,0.00561996013733,0.440346562289,1.62963141423,0.00305432613898,1.28601092931,-0.657098979723,0.323224926163,0.0993716485889,1.11996476143,-3.00963426623,0.177712406622,-2.1759117127,0.0331328363897
1.2,-0.142733034084,0.00561996013733,0.440346562289,1.62961397052,0.00305432613898,1.28601092931,-0.657098979723,0.323228016001,0.0993725815804,1.11997063352,-3.00962328739,0.17772610017,-2.17590981359,0.0331329061752
1.22,-0.142733034084,0.00561996013733,0.440346562289,1.62961397052,0.00305432613898,1.28601092931,-0.657098979723,0.323228016001,0.0993725815804,1.11997063352,-3.00962328739,0.17772610017,-2.17590981359,0.0331329061752
1.24,-0.142733034084,0.00565486679311,0.440346562289,1.62961397052,0.00305432613898,1.28602837302,-0.657081536018,0.323228016001,0.0993725815804,1.11997063352,-3.00962328739,0.17772610017,-2.17590981359,0.0331329061752
1.26,-0.142733034084,0.00565486679311,0.440346562289,1.62961397052,0.00305432613898,1.28602837302,-0.657081536018,0.323229220825,0.0993711662132,1.11995930923,-3.00966911535,0.177699132185,-2.17593483965,0.0331336858337
1.28,-0.142733034084,0.00565486679311,0.440346562289,1.62961397052,0.00305432613898,1.28602837302,-0.657081536018,0.323229220825,0.0993711662132,1.11995930923,-3.00966911535,0.177699132185,-2.17593483965,0.0331336858337
1.3,-0.142733034084,0.00584685313982,0.440329118584,1.62961397052,0.00305432613898,1.28602837302,-0.657081536018,0.323252796361,0.0993624004787,1.11990058166,-3.00984363976,0.177613392715,-2.17598312558,0.0331373160762
1.32,-0.142733034084,0.00584685313982,0.440329118584,1.62961397052,0.00305432613898,1.28602837302,-0.657081536018,0.323252796361,0.0993624004787,1.11990058166,-3.00984363976,0.177613392715,-2.17598312558,0.0331373160762
1.34,-0.142715573735,0.00619591865733,0.440311674878,1.62961397052,0.00305432613898,1.28602837302,-0.657098979723,0.323292477966,0.0993567156051,1.11979380386,-3.01015787348,0.177455267148,-2.17602158222,0.0331436988758
1.36,-0.142715573735,0.00619591865733,0.440311674878,1.62961397052,0.00305432613898,1.28602837302,-0.657098979723,0.323292477966,0.0993567156051,1.11979380386,-3.01015787348,0.177455267148,-2.17602158222,0.0331436988758
1.38,-0.142715573735,0.00619591865733,0.440311674878,1.62961397052,0.00305432613898,1.28602837302,-0.657098979723,0.323292477966,0.0993567156051,1.11979380386,-3.01015787348,0.177455267148,-2.17602158222,0.0331436988758
1.4,-0.142680669679,0.00659734441857,0.440206946069,1.62961397052,0.00307177946687,1.28601092931,-0.657081536018,0.323346947527,0.0993312335884,1.119671573,-3.01052854451,0.177302280131,-2.17617505974,0.0331521946657
1.42,-0.142680669679,0.00659734441857,0.440206946069,1.62961397052,0.00307177946687,1.28601092931,-0.657081536018,0.323346947527,0.0993312335884,1.119671573,-3.01052854451,0.177302280131,-2.17617505974,0.0331521946657
1.44,-0.142610844925,0.00691150380045,0.439910236634,1.62961397052,0.00305432613898,1.28602837302,-0.657098979723,0.32340321672,0.0992494085187,1.1195744953,-3.01080719762,0.177133456891,-2.17643280241,0.0331624906409
1.46,-0.142610844925,0.00691150380045,0.439910236634,1.62961397052,0.00305432613898,1.28602837302,-0.657098979723,0.32340321672,0.0992494085187,1.1195744953,-3.01080719762,0.177133456891,-2.17643280241,0.0331624906409
1.48,-0.142436324649,0.00736528928529,0.439334294758,1.62959652682,0.00305432613898,1.28601092931,-0.657098979723,0.323500398968,0.0991144310269,1.11944151955,-3.01119576498,0.176954351595,-2.17690280317,0.0331793113054
1.5,-0.142436324649,0.00736528928529,0.439334294758,1.62959652682,0.00305432613898,1.28601092931,-0.657098979723,0.323500398968,0.0991144310269,1.11944151955,-3.01119576498,0.176954351595,-2.17690280317,0.0331793113054
1.52,-0.142104711159,0.00815068773997,0.438897935814,1.62954406255,0.00305432613898,1.28601092931,-0.657098979723,0.323500398968,0.0991144310269,1.11944151955,-3.01119576498,0.176954351595,-2.17690280317,0.0331793113054
1.54,-0.142104711159,0.00815068773997,0.438897935814,1.62954406255,0.00305432613898,1.28601092931,-0.657098979723,0.323609051059,0.0990709889053,1.11921815818,-3.01187472338,0.176641068064,-2.17712712248,0.033200113383
1.56,-0.142104711159,0.00815068773997,0.438897935814,1.62954406255,0.00305432613898,1.28601092931,-0.657098979723,0.323609051059,0.0990709889053,1.11921815818,-3.01187472338,0.176641068064,-2.17712712248,0.033200113383
1.58,-0.141476388235,0.00890117901872,0.437937999399,1.62949173143,0.00303687281109,1.2859760419,-0.657098979723,0.323742487028,0.0989542291341,1.11900586208,-3.01248371974,0.176355083927,-2.17756489356,0.0332280959847
1.6,-0.141476388235,0.00890117901872,0.437937999399,1.62949173143,0.00303687281109,1.2859760419,-0.657098979723,0.323742487028,0.0989542291341,1.11900586208,-3.01248371974,0.176355083927,-2.17756489356,0.0332280959847
1.62,-0.14102260223,0.00944223140309,0.436908288163,1.62935218179,0.0030194194832,1.28590626708,-0.657081536018,0.32389740673,0.0987681730607,1.11888802333,-3.01282797475,0.176259464117,-2.17821804367,0.0332534660961
1.64,-0.14102260223,0.00944223140309,0.436908288163,1.62935218179,0.0030194194832,1.28590626708,-0.657081536018,0.32389740673,0.0987681730607,1.11888802333,-3.01282797475,0.176259464117,-2.17821804367,0.0332534660961
1.66,-0.1407782572,0.01045452182,0.435878543638,1.62874125263,0.00293215310382,1.28569680946,-0.657098979723,0.32389740673,0.0987681730607,1.11888802333,-3.01282797475,0.176259464117,-2.17821804367,0.0332534660961
1.68,-0.1407782572,0.01045452182,0.435878543638,1.62874125263,0.00293215310382,1.28569680946,-0.657098979723,0.324235608042,0.0985273733502,1.11878866838,-3.01315304055,0.176382799327,-2.179041586,0.0332877154554
1.7,-0.1407782572,0.01045452182,0.435878543638,1.62874125263,0.00293215310382,1.28569680946,-0.657098979723,0.324235608042,0.0985273733502,1.11878866838,-3.01315304055,0.176382799327,-2.179041586,0.0332877154554
1.72,-0.140481547765,0.0111177477596,0.434098287029,1.62811287978,0.00267035370562,1.28517323199,-0.657098979723,0.324664287613,0.0980548657679,1.11881211609,-3.01281254271,0.176809286998,-2.180454275,0.0333243002452
1.74,-0.140481547765,0.0111177477596,0.434098287029,1.62811287978,0.00267035370562,1.28517323199,-0.657098979723,0.324664287613,0.0980548657679,1.11881211609,-3.01281254271,0.176809286998,-2.180454275,0.0333243002452
1.76,-0.140132490569,0.012060224865,0.433225635718,1.62743230896,0.00226892794437,1.28482409157,-0.657098979723,0.325017970811,0.09786049128,1.11876157495,-3.01269445912,0.176934545211,-2.18093583556,0.0333537725593
1.78,-0.140132490569,0.012060224865,0.433225635718,1.62743230896,0.00226892794437,1.28482409157,-0.657098979723,0.325017970811,0.09786049128,1.11876157495,-3.01269445912,0.176934545211,-2.18093583556,0.0333537725593
1.8,-0.139155102127,0.0130376091462,0.431078861564,1.62669927387,0.00193731549468,1.2844401969,-0.657098979723,0.325450395196,0.0974723810222,1.11871641713,-3.0126002669,0.177139306158,-2.18207271803,0.0334031996261
1.82,-0.139155102127,0.0130376091462,0.431078861564,1.62669927387,0.00193731549468,1.2844401969,-0.657098979723,0.325450395196,0.0974723810222,1.11871641713,-3.0126002669,0.177139306158,-2.18207271803,0.0334031996261
1.84,-0.139155102127,0.0130376091462,0.431078861564,1.62669927387,0.00193731549468,1.2844401969,-0.657098979723,0.325450395196,0.0974723810222,1.11871641713,-3.0126002669,0.177139306158,-2.18207271803,0.0334031996261
1.86,-0.138753672205,0.0141022608471,0.429054293214,1.62502374607,0.00130899699101,1.28400383796,-0.657098979723,0.326127082873,0.0969389132103,1.11896218037,-3.01172158156,0.177900080735,-2.18351084229,0.0334553801534
1.88,-0.138753672205,0.0141022608471,0.429054293214,1.62502374607,0.00130899699101,1.28400383796,-0.657098979723,0.326127082873,0.0969389132103,1.11896218037,-3.01172158156,0.177900080735,-2.18351084229,0.0334553801534
1.9,-0.138544239552,0.0150621910203,0.428024548689,1.62406380965,0.000733038275955,1.28363725383,-0.657098979723,0.326571862251,0.0966342624041,1.11899850622,-3.01128891693,0.17813395319,-2.18422427408,0.0334883635202
1.92,-0.138544239552,0.0150621910203,0.428024548689,1.62406380965,0.000733038275955,1.28363725383,-0.657098979723,0.326571862251,0.0966342624041,1.11899850622,-3.01128891693,0.17813395319,-2.18422427408,0.0334883635202
1.94,-0.137601755165,0.0163537346834,0.425720714609,1.62285952821,0.000331612547216,1.28293923931,-0.657098979723,0.327194614985,0.096204477482,1.11902314611,-3.01092165238,0.178755427287,-2.18550603087,0.0335441944677
1.96,-0.137601755165,0.0163537346834,0.425720714609,1.62285952821,0.000331612547216,1.28293923931,-0.657098979723,0.327194614985,0.096204477482,1.11902314611,-3.01092165238,0.178755427287,-2.18550603087,0.0335441944677
1.98,-0.137601755165,0.0163537346834,0.425720714609,1.62285952821,0.000331612547216,1.28293923931,-0.657098979723,0.327194614985,0.096204477482,1.11902314611,-3.01092165238,0.178755427287,-2.18550603087,0.0335441944677
2.0,-0.136868720075,0.0175405588993,0.423905570589,1.62149812026,-0.000244346102821,1.28192683862,-0.657081536018,0.327864390872,0.0958611279977,1.11914487999,-3.01002829399,0.179692109519,-2.18642380561,0.0335880735824
2.02,-0.136868720075,0.0175405588993,0.423905570589,1.62149812026,-0.000244346102821,1.28192683862,-0.657081536018,0.327864390872,0.0958611279977,1.11914487999,-3.01002829399,0.179692109519,-2.18642380561,0.0335880735824
2.04,-0.13657201064,0.0187797423187,0.422055505869,1.6201018249,-0.000977384411285,1.28128115522,-0.657081536018,0.328539846171,0.0953212757869,1.11924720869,-3.00926023134,0.180240291334,-2.18780544553,0.0336370681165
2.06,-0.13657201064,0.0187797423187,0.422055505869,1.6201018249,-0.000977384411285,1.28128115522,-0.657081536018,0.328539846171,0.0953212757869,1.11924720869,-3.00926023134,0.180240291334,-2.18780544553,0.0336370681165
2.08,-0.135891331632,0.0201061921174,0.420083301924,1.61835652228,-0.00143117002617,1.28063533865,-0.657081536018,0.329249289184,0.0949258668179,1.11943888518,-3.00856961494,0.181188246142,-2.18896068795,0.0336905972
2.1,-0.135891331632,0.0201061921174,0.420083301924,1.61835652228,-0.00143117002617,1.28063533865,-0.657081536018,0.329249289184,0.0949258668179,1.11943888518,-3.00856961494,0.181188246142,-2.18896068795,0.0336905972
2.12,-0.135891331632,0.0201061921174,0.420083301924,1.61835652228,-0.00143117002617,1.28063533865,-0.657081536018,0.329249289184,0.0949258668179,1.11943888518,-3.00856961494,0.181188246142,-2.18896068795,0.0336905972
2.14,-0.134983767945,0.0214850021599,0.418250714198,1.61709990972,-0.00209439505558,1.27997207838,-0.657081536018,0.329854449003,0.0945928722576,1.11944912862,-3.00805495397,0.181610568456,-2.18976385688,0.0337409498375
2.16,-0.134983767945,0.0214850021599,0.418250714198,1.61709990972,-0.00209439505558,1.27997207838,-0.657081536018,0.329854449003,0.0945928722576,1.11944912862,-3.00805495397,0.181610568456,-2.18976385688,0.0337409498375
2.18,-0.134407809425,0.0228638122024,0.416103940044,1.61600029051,-0.00267035370562,1.27932639498,-0.657081536018,0.330485417701,0.0940518651445,1.11940367835,-3.00771388208,0.181939036902,-2.19124863165,0.0337954750603
2.2,-0.134407809425,0.0228638122024,0.416103940044,1.61600029051,-0.00267035370562,1.27932639498,-0.657081536018,0.330485417701,0.0940518651445,1.11940367835,-3.00771388208,0.181939036902,-2.19124863165,0.0337954750603
2.22,-0.133587497552,0.0245567816268,0.414096815399,1.61404553027,-0.00324631248569,1.2786282473,-0.657098979723,0.331276784147,0.0936751734022,1.11954874528,-3.00707818558,0.182827689144,-2.19228794327,0.0338560582628
2.24,-0.133587497552,0.0245567816268,0.414096815399,1.61404553027,-0.00324631248569,1.2786282473,-0.657098979723,0.331276784147,0.0936751734022,1.11954874528,-3.00707818558,0.182827689144,-2.19228794327,0.0338560582628
2.26,-0.133587497552,0.0245567816268,0.414096815399,1.61404553027,-0.00324631248569,1.2786282473,-0.657098979723,0.331276784147,0.0936751734022,1.11954874528,-3.00707818558,0.182827689144,-2.19228794327,0.0338560582628
2.28,-0.13280210638,0.0259181396418,0.411967518239,1.61235255876,-0.00401425735241,1.27779041682,-0.657081536018,0.332028835785,0.0932141160027,1.11971361147,-3.00607028577,0.183653693429,-2.19343683211,0.0339097618352
2.3,-0.13280210638,0.0259181396418,0.411967518239,1.61235255876,-0.00401425735241,1.27779041682,-0.657081536018,0.332028835785,0.0932141160027,1.11971361147,-3.00607028577,0.183653693429,-2.19343683211,0.0339097618352
2.32,-0.132278503942,0.0276111090662,0.409803300379,1.61106105879,-0.00466002892389,1.27735405787,-0.657081536018,0.33270422176,0.0926299528429,1.11962102713,-3.00595674063,0.183760412471,-2.19503027828,0.0339728157049
2.34,-0.132278503942,0.0276111090662,0.409803300379,1.61106105879,-0.00466002892389,1.27735405787,-0.657081536018,0.33270422176,0.0926299528429,1.11962102713,-3.00595674063,0.183760412471,-2.19503027828,0.0339728157049
2.36,-0.13131857585,0.0292168121111,0.407377293784,1.60924598135,-0.00534070741123,1.27665604335,-0.657081536018,0.333489927735,0.0921356320446,1.11974031226,-3.00523443479,0.184489646444,-2.19634351153,0.0340368996423
2.38,-0.13131857585,0.0292168121111,0.407377293784,1.60924598135,-0.00534070741123,1.27665604335,-0.657081536018,0.333489927735,0.0921356320446,1.11974031226,-3.00523443479,0.184489646444,-2.19634351153,0.0340368996423
2.4,-0.13131857585,0.0292168121111,0.407377293784,1.60924598135,-0.00534070741123,1.27665604335,-0.657081536018,0.333489927735,0.0921356320446,1.11974031226,-3.00523443479,0.184489646444,-2.19634351153,0.0340368996423
2.42,-0.13056808041,0.0308225151561,0.404916399778,1.60734355222,-0.00574213317248,1.27560875525,-0.657098979723,0.334356410135,0.0916215234076,1.1199012152,-3.00445109312,0.185723859083,-2.19789472227,0.0340979188835
2.44,-0.13056808041,0.0308225151561,0.404916399778,1.60734355222,-0.00574213317248,1.27560875525,-0.657098979723,0.334356410135,0.0916215234076,1.1199012152,-3.00445109312,0.185723859083,-2.19789472227,0.0340979188835
2.46,-0.129677960427,0.0326027509599,0.402507836889,1.60612182707,-0.00626573196889,1.27454415661,-0.657098979723,0.335110638902,0.091117308579,1.11977522078,-3.0041450763,0.186275764751,-2.19934340093,0.0341590279253
2.48,-0.129677960427,0.0326027509599,0.402507836889,1.60612182707,-0.00626573196889,1.27454415661,-0.657098979723,0.335110638902,0.091117308579,1.11977522078,-3.0041450763,0.186275764751,-2.19934340093,0.0341590279253
2.5,-0.128875108905,0.0343306265199,0.399942214073,1.60432406018,-0.00687659714467,1.27393322745,-0.657081536018,0.33591526322,0.0905235558571,1.1198404824,-3.00364157402,0.186884832476,-2.20101596423,0.0342276484116
2.52,-0.128875108905,0.0343306265199,0.399942214073,1.60432406018,-0.00687659714467,1.27393322745,-0.657081536018,0.33591526322,0.0905235558571,1.1198404824,-3.00364157402,0.186884832476,-2.20101596423,0.0342276484116
2.54,-0.128875108905,0.0343306265199,0.399942214073,1.60432406018,-0.00687659714467,1.27393322745,-0.657081536018,0.33591526322,0.0905235558571,1.1198404824,-3.00364157402,0.186884832476,-2.20101596423,0.0342276484116
2.56,-0.128211890247,0.0360235938637,0.397673267404,1.60252642644,-0.00748746232045,1.27302575531,-0.657098979723,0.336748002624,0.089993024281,1.11992809048,-3.00291377683,0.187740008782,-2.20245851929,0.0342880893557
2.58,-0.128211890247,0.0360235938637,0.397673267404,1.60252642644,-0.00748746232045,1.27302575531,-0.657098979723,0.336748002624,0.089993024281,1.11992809048,-3.00291377683,0.187740008782,-2.20245851929,0.0342880893557
2.6,-0.12719959775,0.0378736460999,0.394915663964,1.60119990591,-0.00834267356654,1.27224025595,-0.657098979723,0.337517060111,0.0893490140835,1.11979623954,-3.00249599081,0.187882456757,-2.20409217803,0.0343581947524
2.62,-0.12719959775,0.0378736460999,0.394915663964,1.60119990591,-0.00834267356654,1.27224025595,-0.657098979723,0.337517060111,0.0893490140835,1.11979623954,-3.00249599081,0.187882456757,-2.20409217803,0.0343581947524
2.64,-0.126571274825,0.0394269889011,0.392751446104,1.59975127943,-0.0091106189534,1.27133278381,-0.657098979723,0.338269990371,0.0888002412425,1.11980771288,-3.00173595292,0.18842637788,-2.20546116472,0.0344131129257
2.66,-0.126571274825,0.0394269889011,0.392751446104,1.59975127943,-0.0091106189534,1.27133278381,-0.657098979723,0.338269990371,0.0888002412425,1.11980771288,-3.00173595292,0.18842637788,-2.20546116472,0.0344131129257
2.68,-0.126571274825,0.0394269889011,0.392751446104,1.59975127943,-0.0091106189534,1.27133278381,-0.657098979723,0.338269990371,0.0888002412425,1.11980771288,-3.00173595292,0.18842637788,-2.20546116472,0.0344131129257
2.7,-0.125401905757,0.0414166615186,0.389784385044,1.59758719473,-0.00994837661153,1.27063463613,-0.657098979723,0.339193561663,0.0881698153251,1.11990563131,-3.00096755823,0.189075557168,-2.2070951138,0.0344916610143
2.72,-0.125401905757,0.0414166615186,0.389784385044,1.59758719473,-0.00994837661153,1.27063463613,-0.657098979723,0.339193561663,0.0881698153251,1.11990563131,-3.00096755823,0.189075557168,-2.2070951138,0.0344916610143
2.74,-0.124738678777,0.0430223645636,0.387567802779,1.59610354769,-0.0107337750662,1.26988415733,-0.657098979723,0.339934251691,0.0876033654621,1.11990208524,-3.00030750332,0.189471683674,-2.20849919222,0.0345497087021
2.76,-0.124738678777,0.0430223645636,0.387567802779,1.59610354769,-0.0107337750662,1.26988415733,-0.657098979723,0.339934251691,0.0876033654621,1.11990208524,-3.00030750332,0.189471683674,-2.20849919222,0.0345497087021
2.78,-0.123796202712,0.0449945893148,0.384740391229,1.59421869542,-0.0117111593475,1.26895910833,-0.657098979723,0.340853198403,0.0869148168783,1.11991636042,-2.99943735719,0.189989314008,-2.21018987326,0.0346223445196
2.8,-0.123796202712,0.0449945893148,0.384740391229,1.59421869542,-0.0117111593475,1.26895910833,-0.657098979723,0.340853198403,0.0869148168783,1.11991636042,-2.99943735719,0.189989314008,-2.21018987326,0.0346223445196
2.82,-0.123796202712,0.0449945893148,0.384740391229,1.59421869542,-0.0117111593475,1.26895910833,-0.657098979723,0.340853198403,0.0869148168783,1.11991636042,-2.99943735719,0.189989314008,-2.21018987326,0.0346223445196
2.84,-0.122975899162,0.0468446373898,0.381598793249,1.5921765835,-0.0124267444906,1.26765003149,-0.657081536018,0.341873475749,0.0861422495832,1.12003556321,-2.99831495422,0.191133771318,-2.2123074884,0.0346927605126
2.86,-0.122975899162,0.0468446373898,0.381598793249,1.5921765835,-0.0124267444906,1.26765003149,-0.657081536018,0.341873475749,0.0861422495832,1.12003556321,-2.99831495422,0.191133771318,-2.2123074884,0.0346927605126
2.88,-0.12217304764,0.0489390304949,0.379539304199,1.590483612,-0.0129503427668,1.26684722158,-0.657081536018,0.34267653661,0.0857161182217,1.11994010124,-2.99811963553,0.191638693046,-2.21352482004,0.0347578047614
2.9,-0.12217304764,0.0489390304949,0.379539304199,1.590483612,-0.0129503427668,1.26684722158,-0.657081536018,0.34267653661,0.0857161182217,1.11994010124,-2.99811963553,0.191638693046,-2.21352482004,0.0347578047614
2.92,-0.120968774517,0.0507890827311,0.375978824269,1.58889543588,-0.0136833809778,1.26592217258,-0.657098979723,0.343554965383,0.084891867692,1.11988268814,-2.99748398738,0.192073584799,-2.21572457098,0.0348363018549
2.94,-0.120968774517,0.0507890827311,0.375978824269,1.58889543588,-0.0136833809778,1.26592217258,-0.657098979723,0.343554965383,0.084891867692,1.11988268814,-2.99748398738,0.192073584799,-2.21572457098,0.0348363018549
2.96,-0.120968774517,0.0507890827311,0.375978824269,1.58889543588,-0.0136833809778,1.26592217258,-0.657098979723,0.343554965383,0.084891867692,1.11988268814,-2.99748398738,0.192073584799,-2.21572457098,0.0348363018549
2.98,-0.120305547537,0.0528136635648,0.373378280754,1.58643454187,-0.0143815130531,1.26508447526,-0.657098979723,0.344557609009,0.0842376289545,1.12006431357,-2.99655392199,0.193092080633,-2.21748576821,0.0349080862177
3.0,-0.120305547537,0.0528136635648,0.373378280754,1.58643454187,-0.0143815130531,1.26508447526,-0.657098979723,0.344557609009,0.0842376289545,1.12006431357,-2.99655392199,0.193092080633,-2.21748576821,0.0349080862177
3.02,-0.119083814065,0.0547160718836,0.370393775989,1.58488112001,-0.0153239911987,1.26426408848,-0.657098979723,0.345374157324,0.0835703975741,1.11997244401,-2.99589108632,0.193269664171,-2.21909000182,0.0349804228651
3.04,-0.119083814065,0.0547160718836,0.370393775989,1.58488112001,-0.0153239911987,1.26426408848,-0.657098979723,0.345374157324,0.0835703975741,1.11997244401,-2.99589108632,0.193269664171,-2.21909000182,0.0349804228651
3.06,-0.11847295149,0.0567930129611,0.367601251849,1.58280425383,-0.0163013754799,1.26337406005,-0.657098979723,0.346351018082,0.0827706194627,1.12000216075,-2.99497694486,0.193800926332,-2.22107356805,0.0350538543724
3.08,-0.11847295149,0.0567930129611,0.367601251849,1.58280425383,-0.0163013754799,1.26337406005,-0.657098979723,0.346351018082,0.0827706194627,1.12000216075,-2.99497694486,0.193800926332,-2.22107356805,0.0350538543724
3.1,-0.11847295149,0.0567930129611,0.367601251849,1.58280425383,-0.0163013754799,1.26337406005,-0.657098979723,0.346351018082,0.0827706194627,1.12000216075,-2.99497694486,0.193800926332,-2.22107356805,0.0350538543724
3.12,-0.11723376599,0.0585732487648,0.365000708334,1.58083191673,-0.0171042270024,1.26243156734,-0.657098979723,0.347207286952,0.0822810124023,1.12009700266,-2.99397390675,0.19455056046,-2.22222948757,0.0351176198026
3.14,-0.11723376599,0.0585732487648,0.365000708334,1.58083191673,-0.0171042270024,1.26243156734,-0.657098979723,0.347207286952,0.0822810124023,1.12009700266,-2.99397390675,0.19455056046,-2.22222948757,0.0351176198026
3.16,-0.116640355442,0.0606327378148,0.362435085519,1.57926118432,-0.0180467051481,1.26154140574,-0.657098979723,0.348069270258,0.0815342337794,1.11995754352,-2.99338797526,0.194709497949,-2.22405919072,0.0351863057189
3.18,-0.116640355442,0.0606327378148,0.362435085519,1.57926118432,-0.0180467051481,1.26154140574,-0.657098979723,0.348069270258,0.0815342337794,1.11995754352,-2.99338797526,0.194709497949,-2.22405919072,0.0351863057189
3.2,-0.115313901482,0.0624827858898,0.359380739354,1.57690495255,-0.0187622902912,1.26009277927,-0.657098979723,0.349108765424,0.0809644066414,1.12017338001,-2.99192478207,0.196133120084,-2.22550683487,0.0352517751256
3.22,-0.115313901482,0.0624827858898,0.359380739354,1.57690495255,-0.0187622902912,1.26009277927,-0.657098979723,0.349108765424,0.0809644066414,1.12017338001,-2.99192478207,0.196133120084,-2.22550683487,0.0352517751256
3.24,-0.115313901482,0.0624827858898,0.359380739354,1.57690495255,-0.0187622902912,1.26009277927,-0.657098979723,0.349108765424,0.0809644066414,1.12017338001,-2.99192478207,0.196133120084,-2.22550683487,0.0352517751256
3.26,-0.114528501987,0.0644375544523,0.356570771509,1.57545632607,-0.0196174999768,1.25937718788,-0.657098979723,0.34990699178,0.0802008354858,1.12001414721,-2.99148457694,0.196136204527,-2.22741895356,0.0353226367355
3.28,-0.114528501987,0.0644375544523,0.356570771509,1.57545632607,-0.0196174999768,1.25937718788,-0.657098979723,0.34990699178,0.0802008354858,1.12001414721,-2.99148457694,0.196136204527,-2.22741895356,0.0353226367355
3.3,-0.113236960405,0.0664795914748,0.353725882964,1.57376335457,-0.0206123383662,1.25874894818,-0.657098979723,0.350711670637,0.0795834716883,1.11990233673,-2.99090198727,0.196118836894,-2.22882806483,0.0353969385989
3.32,-0.113236960405,0.0664795914748,0.353725882964,1.57376335457,-0.0206123383662,1.25874894818,-0.657098979723,0.350711670637,0.0795834716883,1.11990233673,-2.99090198727,0.196118836894,-2.22882806483,0.0353969385989
3.34,-0.112591193775,0.068608892796,0.350409748064,1.57154680559,-0.0215199103762,1.25773668065,-0.657098979723,0.351766564396,0.0786225126187,1.11994910918,-2.98986464583,0.196782701789,-2.23128307989,0.0354751312717
3.36,-0.112591193775,0.068608892796,0.350409748064,1.57154680559,-0.0215199103762,1.25773668065,-0.657098979723,0.351766564396,0.0786225126187,1.11994910918,-2.98986464583,0.196782701789,-2.23128307989,0.0354751312717
3.38,-0.112591193775,0.068608892796,0.350409748064,1.57154680559,-0.0215199103762,1.25773668065,-0.657098979723,0.351766564396,0.0786225126187,1.11994910918,-2.98986464583,0.196782701789,-2.23128307989,0.0354751312717
3.4,-0.111369460302,0.0705636655197,0.347407799594,1.56971428444,-0.0219736943006,1.25649737864,-0.657116490007,0.352679007359,0.0780379782927,1.11993422754,-2.98913702492,0.197701656197,-2.23291301763,0.0355422080579
3.42,-0.111369460302,0.0705636655197,0.347407799594,1.56971428444,-0.0219736943006,1.25649737864,-0.657116490007,0.352679007359,0.0780379782927,1.11993422754,-2.98913702492,0.197701656197,-2.23291301763,0.0355422080579
3.44,-0.110549156752,0.0726929626798,0.344632719159,1.56774194734,-0.0228289060668,1.25541533629,-0.657098979723,0.35363897003,0.077321323305,1.11990028916,-2.98826067951,0.198275178383,-2.23469940786,0.0356118894224
3.46,-0.110549156752,0.0726929626798,0.344632719159,1.56774194734,-0.0228289060668,1.25541533629,-0.657098979723,0.35363897003,0.077321323305,1.11990028916,-2.98826067951,0.198275178383,-2.23469940786,0.0356118894224
3.48,-0.1095019602,0.0746826352973,0.341595849989,1.56571741228,-0.0236143055618,1.2545600621,-0.657098979723,0.354554897934,0.0765984235084,1.11991803216,-2.98740877339,0.198799904853,-2.23651305395,0.0356841048123
3.5,-0.1095019602,0.0746826352973,0.341595849989,1.56571741228,-0.0236143055618,1.2545600621,-0.657098979723,0.354554897934,0.0765984235084,1.11991803216,-2.98740877339,0.198799904853,-2.23651305395,0.0356841048123
3.52,-0.1095019602,0.0746826352973,0.341595849989,1.56571741228,-0.0236143055618,1.2545600621,-0.657098979723,0.354554897934,0.0765984235084,1.11991803216,-2.98740877339,0.198799904853,-2.23651305395,0.0356841048123
3.54,-0.108629292245,0.0769341132948,0.338995306474,1.56383242686,-0.0244695152474,1.25337335752,-0.657098979723,0.355509424803,0.0759557881383,1.11981338013,-2.98661672213,0.19931098216,-2.23807009437,0.0357524532675
3.56,-0.108629292245,0.0769341132948,0.338995306474,1.56383242686,-0.0244695152474,1.25337335752,-0.657098979723,0.355509424803,0.0759557881383,1.11981338013,-2.98661672213,0.19931098216,-2.23807009437,0.0357524532675
3.58,-0.107547191637,0.0787841613698,0.336272590444,1.56219191963,-0.0249756614962,1.25290211117,-0.657098979723,0.356238559555,0.0753686662864,1.11973020113,-2.98635414851,0.199484130501,-2.23966001879,0.0358213329865
3.6,-0.107547191637,0.0787841613698,0.336272590444,1.56219191963,-0.0249756614962,1.25290211117,-0.657098979723,0.356238559555,0.0753686662864,1.11973020113,-2.98635414851,0.199484130501,-2.23966001879,0.0358213329865
3.62,-0.106709427737,0.0810181873397,0.333218244279,1.55971344876,-0.0257261527749,1.2520991681,-0.657098979723,0.357268020556,0.0745745694085,1.11980920569,-2.98546292865,0.200182957634,-2.24170646593,0.0358992093716
3.64,-0.106709427737,0.0810181873397,0.333218244279,1.55971344876,-0.0257261527749,1.2520991681,-0.657098979723,0.357268020556,0.0745745694085,1.11980920569,-2.98546292865,0.200182957634,-2.24170646593,0.0358992093716
3.66,-0.106709427737,0.0810181873397,0.333218244279,1.55971344876,-0.0257261527749,1.2520991681,-0.657098979723,0.357268020556,0.0745745694085,1.11980920569,-2.98546292865,0.200182957634,-2.24170646593,0.0358992093716
3.68,-0.10554005867,0.0829729559022,0.330146487699,1.55824737858,-0.0264766440537,1.25122658337,-0.657098979723,0.358067903281,0.0738640130399,1.11963954699,-2.98492287812,0.200283297942,-2.24348148973,0.03596910598
3.7,-0.10554005867,0.0829729559022,0.330146487699,1.55824737858,-0.0264766440537,1.25122658337,-0.657098979723,0.358067903281,0.0738640130399,1.11963954699,-2.98492287812,0.200283297942,-2.24348148973,0.03596910598
3.72,-0.104772111202,0.0851197050898,0.327406327964,1.5558737031,-0.0273667619555,1.24995239394,-0.657098979723,0.359127425362,0.0731422666598,1.11973136461,-2.9836109411,0.201229601861,-2.24518853222,0.036035115381
3.74,-0.104772111202,0.0851197050898,0.327406327964,1.5558737031,-0.0273667619555,1.24995239394,-0.657098979723,0.359127425362,0.0731422666598,1.11973136461,-2.9836109411,0.201229601861,-2.24518853222,0.036035115381
3.76,-0.103550386052,0.0870744736523,0.323915656144,1.55414584419,-0.0282219737218,1.24907980921,-0.657098979723,0.360002466232,0.0722927686541,1.11964292418,-2.9827858248,0.201418797082,-2.24727067876,0.0361093560799
3.78,-0.103550386052,0.0870744736523,0.323915656144,1.55414584419,-0.0282219737218,1.24907980921,-0.657098979723,0.360002466232,0.0722927686541,1.11964292418,-2.9827858248,0.201418797082,-2.24727067876,0.0361093560799
3.8,-0.103550386052,0.0870744736523,0.323915656144,1.55414584419,-0.0282219737218,1.24907980921,-0.657098979723,0.360002466232,0.0722927686541,1.11964292418,-2.9827858248,0.201418797082,-2.24727067876,0.0361093560799
3.82,-0.102887159072,0.0891863271072,0.321367477034,1.55259255548,-0.0288851986212,1.24818964762,-0.657098979723,0.360829430271,0.0715926915571,1.11944711268,-2.98238626689,0.201578746243,-2.24906476364,0.0361757412669
3.84,-0.102887159072,0.0891863271072,0.321367477034,1.55259255548,-0.0288851986212,1.24818964762,-0.657098979723,0.360829430271,0.0715926915571,1.11944711268,-2.98238626689,0.201578746243,-2.24906476364,0.0361757412669
3.86,-0.101578165462,0.0911236436422,0.318260799754,1.55030609853,-0.0296007837643,1.24728204232,-0.657098979723,0.361767402348,0.0709454824858,1.11955691148,-2.98128209223,0.202335681362,-2.250644913,0.03624444386
3.88,-0.101578165462,0.0911236436422,0.318260799754,1.55030609853,-0.0296007837643,1.24728204232,-0.657098979723,0.361767402348,0.0709454824858,1.11955691148,-2.98128209223,0.202335681362,-2.250644913,0.03624444386
3.9,-0.101002206942,0.0930609518548,0.315538083724,1.54897971114,-0.0304734496386,1.24635712647,-0.657098979723,0.362561682957,0.0701128533228,1.11934051138,-2.9806667642,0.202279466905,-2.25263543371,0.0363078694964
3.92,-0.101002206942,0.0930609518548,0.315538083724,1.54897971114,-0.0304734496386,1.24635712647,-0.657098979723,0.362561682957,0.0701128533228,1.11934051138,-2.9806667642,0.202279466905,-2.25263543371,0.0363078694964
3.94,-0.101002206942,0.0930609518548,0.315538083724,1.54897971114,-0.0304734496386,1.24635712647,-0.657098979723,0.362561682957,0.0701128533228,1.11934051138,-2.9806667642,0.202279466905,-2.25263543371,0.0363078694964
3.96,-0.0998677419296,0.0948935479022,0.313216772649,1.54744386614,-0.0312239409174,1.24590332382,-0.657098979723,0.363233350093,0.0696322416139,1.11921456761,-2.98024074932,0.202175407976,-2.25372015425,0.0363700135127
3.98,-0.0998677419296,0.0948935479022,0.313216772649,1.54744386614,-0.0312239409174,1.24590332382,-0.657098979723,0.363233350093,0.0696322416139,1.11921456761,-2.98024074932,0.202175407976,-2.25372015425,0.0363700135127
4.0,-0.0992045149497,0.0969879493296,0.310546421024,1.54538431052,-0.0321838710905,1.24485603572,-0.657116490007,0.364188899763,0.0688566021677,1.11919565507,-2.97913058477,0.202630483104,-2.25546889873,0.036434785676
4.02,-0.0992045149497,0.0969879493296,0.310546421024,1.54538431052,-0.0321838710905,1.24485603572,-0.657116490007,0.364188899763,0.0688566021677,1.11919565507,-2.97913058477,0.202630483104,-2.25546889873,0.036434785676
4.04,-0.0982096744797,0.0987856329997,0.307893546394,1.54374367013,-0.0328820021255,1.2440008947,-0.657098979723,0.364969066769,0.0682320445733,1.11912854687,-2.97836767351,0.202934414513,-2.25697723531,0.0364945442502
4.06,-0.0982096744797,0.0987856329997,0.307893546394,1.54374367013,-0.0328820021255,1.2440008947,-0.657098979723,0.364969066769,0.0682320445733,1.11912854687,-2.97836767351,0.202934414513,-2.25697723531,0.0364945442502
4.08,-0.0982096744797,0.0987856329997,0.307893546394,1.54374367013,-0.0328820021255,1.2440008947,-0.657098979723,0.364969066769,0.0682320445733,1.11912854687,-2.97836767351,0.202934414513,-2.25697723531,0.0364945442502
4.1,-0.0972497463872,0.100792765967,0.304996293444,1.54203325492,-0.0337197618643,1.24270939473,-0.657116490007,0.365878388867,0.0674998326892,1.11902552403,-2.97732136755,0.203396135152,-2.25866314192,0.0365561821572
4.12,-0.0972497463872,0.100792765967,0.304996293444,1.54203325492,-0.0337197618643,1.24270939473,-0.657116490007,0.365878388867,0.0674998326892,1.11902552403,-2.97732136755,0.203396135152,-2.25866314192,0.0365561821572
4.14,-0.0964294428372,0.102677718097,0.302395749929,1.53988648076,-0.0344178928993,1.24188900795,-0.657116490007,0.366760853349,0.0668385854513,1.11909642635,-2.97631756489,0.20400388213,-2.26024219535,0.0366172673853
4.16,-0.0964294428372,0.102677718097,0.302395749929,1.53988648076,-0.0344178928993,1.24188900795,-0.657116490007,0.366760853349,0.0668385854513,1.11909642635,-2.97631756489,0.20400388213,-2.26024219535,0.0366172673853
4.18,-0.0953647942571,0.104423045685,0.299341403764,1.53831574835,-0.0351509300699,1.24108619804,-0.657098979723,0.367533483966,0.0660848050866,1.11901263733,-2.97551756433,0.204161420583,-2.26206593041,0.0366798183336
4.2,-0.0953647942571,0.104423045685,0.299341403764,1.53831574835,-0.0351509300699,1.24108619804,-0.657098979723,0.367533483966,0.0660848050866,1.11901263733,-2.97551756433,0.204161420583,-2.26206593041,0.0366798183336
4.22,-0.0953647942571,0.104423045685,0.299341403764,1.53831574835,-0.0351509300699,1.24108619804,-0.657098979723,0.367533483966,0.0660848050866,1.11901263733,-2.97551756433,0.204161420583,-2.26206593041,0.0366798183336
4.24,-0.0945793947622,0.106308006137,0.297037569684,1.53691945299,-0.0359188775374,1.24017859274,-0.657098979723,0.368274946889,0.0654844524596,1.11882966645,-2.97488756562,0.204218914177,-2.26343102647,0.0367362381416
4.26,-0.0945793947622,0.106308006137,0.297037569684,1.53691945299,-0.0359188775374,1.24017859274,-0.657098979723,0.368274946889,0.0654844524596,1.11882966645,-2.97488756562,0.204218914177,-2.26343102647,0.0367362381416
4.28,-0.0935496502372,0.108280226727,0.293896004994,1.53456335437,-0.0367042728711,1.23960268416,-0.657116490007,0.369186971881,0.0646863306756,1.11891946503,-2.97385346474,0.204620164023,-2.26531547191,0.0368069805544
4.3,-0.0935496502372,0.108280226727,0.293896004994,1.53456335437,-0.0367042728711,1.23960268416,-0.657116490007,0.369186971881,0.0646863306756,1.11891946503,-2.97385346474,0.204620164023,-2.26531547191,0.0368069805544
4.32,-0.0929387793397,0.109868477745,0.291731787134,1.53318450272,-0.0371231548211,1.23874740997,-0.657116490007,0.369871687879,0.0641244638627,1.11883341181,-2.97329264287,0.205006564722,-2.26675234142,0.0368552680627
4.34,-0.0929387793397,0.109868477745,0.291731787134,1.53318450272,-0.0371231548211,1.23874740997,-0.657116490007,0.369871687879,0.0641244638627,1.11883341181,-2.97329264287,0.205006564722,-2.26675234142,0.0368552680627
4.36,-0.0919613992197,0.111683621765,0.289043991804,1.53173587624,-0.0376991133411,1.23785738154,-0.657116490007,0.369871687879,0.0641244638627,1.11883341181,-2.97329264287,0.205006564722,-2.26675234142,0.0368552680627
4.38,-0.0919613992197,0.111683621765,0.289043991804,1.53173587624,-0.0376991133411,1.23785738154,-0.657116490007,0.370614827243,0.0634868229129,1.11868376941,-2.97269223335,0.205193889172,-2.2683257853,0.0369135264184
4.4,-0.0919613992197,0.111683621765,0.289043991804,1.53173587624,-0.0376991133411,1.23785738154,-0.657116490007,0.370614827243,0.0634868229129,1.11868376941,-2.97269223335,0.205193889172,-2.2683257853,0.0369135264184
4.42,-0.0912458161572,0.11328932481,0.287001946459,1.52965887691,-0.0382576156724,1.23687986826,-0.657098979723,0.371436807244,0.063004113521,1.11883576855,-2.97151153375,0.20612436452,-2.26943766928,0.0369587729665
4.44,-0.0912458161572,0.11328932481,0.287001946459,1.52965887691,-0.0382576156724,1.23687986826,-0.657098979723,0.371436807244,0.063004113521,1.11883576855,-2.97151153375,0.20612436452,-2.26943766928,0.0369587729665
4.46,-0.0903207921197,0.115139372885,0.284488654759,1.52822769414,-0.0388510303811,1.23583271332,-0.657116490007,0.372196574586,0.0624083461941,1.1186734599,-2.9708335846,0.206389201254,-2.27085300402,0.0370136966259
4.48,-0.0903207921197,0.115139372885,0.284488654759,1.52822769414,-0.0388510303811,1.23583271332,-0.657116490007,0.372196574586,0.0624083461941,1.1186734599,-2.9708335846,0.206389201254,-2.27085300402,0.0370136966259
4.5,-0.0896052007348,0.116675259497,0.282010317049,1.52714565179,-0.0396189736874,1.23511712193,-0.657098979723,0.372196574586,0.0624083461941,1.1186734599,-2.9708335846,0.206389201254,-2.27085300402,0.0370136966259
4.52,-0.0896052007348,0.116675259497,0.282010317049,1.52714565179,-0.0396189736874,1.23511712193,-0.657098979723,0.37281853699,0.0617026834026,1.11849007604,-2.97019336998,0.206197191689,-2.27246264678,0.037064948126
4.54,-0.0896052007348,0.116675259497,0.282010317049,1.52714565179,-0.0396189736874,1.23511712193,-0.657098979723,0.37281853699,0.0617026834026,1.11849007604,-2.97019336998,0.206197191689,-2.27246264678,0.037064948126
4.56,-0.0889245217273,0.118263510515,0.279863542894,1.52515600414,-0.0403345609111,1.23434919943,-0.657098979723,0.373599590995,0.0611323714576,1.11860467982,-2.96903759923,0.206777656741,-2.27368718637,0.03711275587
4.58,-0.0889245217273,0.118263510515,0.279863542894,1.52515600414,-0.0403345609111,1.23434919943,-0.657098979723,0.373599590995,0.0611323714576,1.11860467982,-2.96903759923,0.206777656741,-2.27368718637,0.03711275587
4.6,-0.0879820456622,0.119921569642,0.277193191269,1.5239866101,-0.0408407029986,1.23377329085,-0.657098979723,0.374216327793,0.0604783965896,1.11839547255,-2.9687136175,0.20660421427,-2.27532881978,0.0371700555386
4.62,-0.0879820456622,0.119921569642,0.277193191269,1.5239866101,-0.0408407029986,1.23377329085,-0.657098979723,0.374216327793,0.0604783965896,1.11839547255,-2.9687136175,0.20660421427,-2.27532881978,0.0371700555386
4.64,-0.0874584515472,0.121387648145,0.275465315709,1.52281721607,-0.0416784627374,1.23330204449,-0.657116490007,0.374216327793,0.0604783965896,1.11839547255,-2.9687136175,0.20660421427,-2.27532881978,0.0371700555386
4.66,-0.0874584515472,0.121387648145,0.275465315709,1.52281721607,-0.0416784627374,1.23330204449,-0.657116490007,0.374771116459,0.0599507927073,1.11826188579,-2.96809143307,0.206336544668,-2.27635308707,0.0372148631208
4.68,-0.0874584515472,0.121387648145,0.275465315709,1.52281721607,-0.0416784627374,1.23330204449,-0.657116490007,0.374771116459,0.0599507927073,1.11826188579,-2.96809143307,0.206336544668,-2.27635308707,0.0372148631208
4.7,-0.0865334275097,0.12299335119,0.272794964084,1.52164782204,-0.0425162224761,1.23249910142,-0.657116490007,0.375426995609,0.0592440918349,1.11808027618,-2.96730500821,0.206151326514,-2.27789100056,0.0372676887502
4.72,-0.0865334275097,0.12299335119,0.272794964084,1.52164782204,-0.0425162224761,1.23249910142,-0.657116490007,0.375426995609,0.0592440918349,1.11808027618,-2.96730500821,0.206151326514,-2.27789100056,0.0372676887502
4.74,-0.0859400086398,0.124546698152,0.270910011954,1.51981530089,-0.0431794452949,1.23171373522,-0.657098979723,0.37616194805,0.0587361162581,1.118153011,-2.96625546279,0.206683276434,-2.27897726138,0.0373112617892
4.76,-0.0859400086398,0.124546698152,0.270910011954,1.51981530089,-0.0431794452949,1.23171373522,-0.657098979723,0.37616194805,0.0587361162581,1.118153011,-2.96625546279,0.206683276434,-2.27897726138,0.0373112617892
4.78,-0.0853116940372,0.125995316305,0.268606177874,1.5189251393,-0.0435110587849,1.23110293922,-0.657116490007,0.376696169041,0.0581167511272,1.1179257652,-2.96605636465,0.206561651154,-2.28057760701,0.0373591590529
4.8,-0.0853116940372,0.125995316305,0.268606177874,1.5189251393,-0.0435110587849,1.23110293922,-0.657116490007,0.376696169041,0.0581167511272,1.1179257652,-2.96605636465,0.206561651154,-2.28057760701,0.0373591590529
4.82,-0.0853116940372,0.125995316305,0.268606177874,1.5189251393,-0.0435110587849,1.23110293922,-0.657116490007,0.376696169041,0.0581167511272,1.1179257652,-2.96605636465,0.206561651154,-2.28057760701,0.0373591590529
4.84,-0.0845088425147,0.127426490752,0.266983014479,1.51744162541,-0.0439299365736,1.23043967895,-0.657116490007,0.377297379349,0.0578083650245,1.11791866596,-2.96540993235,0.206965858623,-2.28126593284,0.0373989180042
4.86,-0.0845088425147,0.127426490752,0.266983014479,1.51744162541,-0.0439299365736,1.23043967895,-0.657116490007,0.377297379349,0.0578083650245,1.11791866596,-2.96540993235,0.206965858623,-2.28126593284,0.0373989180042
4.88,-0.0839852400773,0.12868312828,0.265150426754,1.51637702676,-0.0442790020911,1.2298287498,-0.657098979723,0.377819438854,0.0573206742434,1.11782635275,-2.9649614032,0.207127512265,-2.28248966572,0.0374373602615
4.9,-0.0839852400773,0.12868312828,0.265150426754,1.51637702676,-0.0442790020911,1.2298287498,-0.657098979723,0.377819438854,0.0573206742434,1.11782635275,-2.9649614032,0.207127512265,-2.28248966572,0.0374373602615
4.92,-0.0835838184772,0.130027025945,0.263352726439,1.51492840029,-0.0447676963123,1.22900849618,-0.657116490007,0.37846377362,0.0567902471306,1.11784342939,-2.96408570778,0.207605948025,-2.28367973307,0.0374743700381
4.94,-0.0835838184772,0.130027025945,0.263352726439,1.51492840029,-0.0447676963123,1.22900849618,-0.657116490007,0.37846377362,0.0567902471306,1.11784342939,-2.96408570778,0.207605948025,-2.28367973307,0.0374743700381
4.96,-0.0835838184772,0.130027025945,0.263352726439,1.51492840029,-0.0447676963123,1.22900849618,-0.657116490007,0.37846377362,0.0567902471306,1.11784342939,-2.96408570778,0.207605948025,-2.28367973307,0.0374743700381
4.98,-0.0829904079297,0.13131857585,0.262218269749,1.51363676716,-0.0450644015861,1.2284325876,-0.657098979723,0.378978943209,0.0565911608322,1.11782130276,-2.9636327866,0.207995512865,-2.28415128365,0.0375072650673
5.0,-0.0829904079297,0.13131857585,0.262218269749,1.51363676716,-0.0450644015861,1.2284325876,-0.657098979723,0.378978943209,0.0565911608322,1.11782130276,-2.9636327866,0.207995512865,-2.28415128365,0.0375072650673
5.02,-0.0820304715148,0.132365772402,0.260280953214,1.51281651354,-0.0455705478348,1.22820568627,-0.657098979723,0.379354843342,0.0561899743862,1.11770235477,-2.96326886577,0.207669186515,-2.28502675475,0.0375463991344
5.04,-0.0820304715148,0.132365772402,0.260280953214,1.51281651354,-0.0455705478348,1.22820568627,-0.657098979723,0.379354843342,0.0561899743862,1.11770235477,-2.96326886577,0.207669186515,-2.28502675475,0.0375463991344
5.06,-0.0817512224297,0.13344787301,0.258710154224,1.51192635195,-0.0461290501661,1.22764708823,-0.657098979723,0.379819130703,0.0556653166475,1.11761349517,-2.96266147972,0.207638438463,-2.2861638601,0.037578658743
5.08,-0.0817512224297,0.13344787301,0.258710154224,1.51192635195,-0.0461290501661,1.22764708823,-0.657098979723,0.379819130703,0.0556653166475,1.11761349517,-2.96266147972,0.207638438463,-2.2861638601,0.037578658743
5.1,-0.0817512224297,0.13344787301,0.258710154224,1.51192635195,-0.0461290501661,1.22764708823,-0.657098979723,0.379819130703,0.0556653166475,1.11761349517,-2.96266147972,0.207638438463,-2.2861638601,0.037578658743
5.12,-0.0814894253722,0.13468705851,0.257296431804,1.51124564798,-0.0465653841436,1.22743776377,-0.657098979723,0.380194178368,0.0551935280044,1.11737865679,-2.96264912464,0.207170536446,-2.28729052812,0.0376180681273
5.14,-0.0814894253722,0.13468705851,0.257296431804,1.51124564798,-0.0465653841436,1.22743776377,-0.657098979723,0.380194178368,0.0551935280044,1.11737865679,-2.96264912464,0.207170536446,-2.28729052812,0.0376180681273
5.16,-0.0809134668522,0.135559726465,0.255865265679,1.51023338045,-0.0470191701486,1.22726319356,-0.657116490007,0.380567148323,0.0548408894848,1.11739316674,-2.96212348496,0.207132260157,-2.28800811108,0.0376485588209
5.18,-0.0809134668522,0.135559726465,0.255865265679,1.51023338045,-0.0470191701486,1.22726319356,-0.657116490007,0.380567148323,0.0548408894848,1.11739316674,-2.96212348496,0.207132260157,-2.28800811108,0.0376485588209
5.2,-0.0801629714123,0.136554558612,0.254259562634,1.50868009174,-0.0473856876936,1.22687916573,-0.657116490007,0.381084344695,0.0545207934653,1.11755557573,-2.96127275694,0.2076412561,-2.28869577643,0.0376800151397
5.22,-0.0801629714123,0.136554558612,0.254259562634,1.50868009174,-0.0473856876936,1.22687916573,-0.657116490007,0.381084344695,0.0545207934653,1.11755557573,-2.96127275694,0.2076412561,-2.28869577643,0.0376800151397
5.24,-0.0801629714123,0.136554558612,0.254259562634,1.50868009174,-0.0473856876936,1.22687916573,-0.657116490007,0.381084344695,0.0545207934653,1.11755557573,-2.96127275694,0.2076412561,-2.28869577643,0.0376800151397
5.26,-0.0799186263822,0.137217785592,0.253090201889,1.50813907056,-0.0478220216711,1.22590178561,-0.657116490007,0.381478838876,0.0541545568257,1.11752551686,-2.9603994287,0.208025970468,-2.28940466921,0.0376932002614
5.28,-0.0799186263822,0.137217785592,0.253090201889,1.50813907056,-0.0478220216711,1.22590178561,-0.657116490007,0.381478838876,0.0541545568257,1.11752551686,-2.9603994287,0.208025970468,-2.28940466921,0.0376932002614
5.3,-0.0796568293247,0.138369702632,0.251798651984,1.5075106977,-0.0481536351611,1.22534332073,-0.657098979723,0.381879097265,0.0537519744433,1.11732063554,-2.96021435765,0.207914472789,-2.29039146073,0.0377247439789
5.32,-0.0796568293247,0.138369702632,0.251798651984,1.5075106977,-0.0481536351611,1.22534332073,-0.657098979723,0.381879097265,0.0537519744433,1.11732063554,-2.96021435765,0.207914472789,-2.29039146073,0.0377247439789
5.34,-0.0794822924048,0.138823488637,0.250960888084,1.50698712023,-0.0484677924624,1.22522108164,-0.657116490007,0.382090739428,0.0534748123126,1.11732714196,-2.95984751288,0.207852191681,-2.29094819922,0.0377408336086
5.36,-0.0794822924048,0.138823488637,0.250960888084,1.50698712023,-0.0484677924624,1.22522108164,-0.657116490007,0.382090739428,0.0534748123126,1.11732714196,-2.95984751288,0.207852191681,-2.29094819922,0.0377408336086
5.38,-0.0794822924048,0.138823488637,0.250960888084,1.50698712023,-0.0484677924624,1.22522108164,-0.657116490007,0.382090739428,0.0534748123126,1.11732714196,-2.95984751288,0.207852191681,-2.29094819922,0.0377408336086
5.4,-0.0792379473748,0.139678704564,0.250297661104,1.50662053611,-0.0488168579799,1.22501175718,-0.657098979723,0.382320028701,0.0532779568922,1.11713420819,-2.95984845374,0.207499014246,-2.29136264292,0.0377644764566
5.42,-0.0792379473748,0.139678704564,0.250297661104,1.50662053611,-0.0488168579799,1.22501175718,-0.657098979723,0.382320028701,0.0532779568922,1.11713420819,-2.95984845374,0.207499014246,-2.29136264292,0.0377644764566
5.44,-0.0784699999073,0.140307010845,0.249180664764,1.50613184605,-0.0489390304949,1.22485463067,-0.657116490007,0.382528279551,0.0531551860286,1.1170605335,-2.95975171498,0.207419957765,-2.29166990219,0.0377868547176
5.46,-0.0784699999073,0.140307010845,0.249180664764,1.50613184605,-0.0489390304949,1.22485463067,-0.657116490007,0.382528279551,0.0531551860286,1.1170605335,-2.95975171498,0.207419957765,-2.29166990219,0.0377868547176
5.48,-0.0781558467672,0.140638624335,0.247749481994,1.50609695864,-0.0491659234974,1.22462772935,-0.657116490007,0.382674624325,0.0527240676,1.11694186981,-2.95955226977,0.207122355529,-2.29271349789,0.0378043026639
5.5,-0.0781558467672,0.140638624335,0.247749481994,1.50609695864,-0.0491659234974,1.22462772935,-0.657116490007,0.382674624325,0.0527240676,1.11694186981,-2.95955226977,0.207122355529,-2.29271349789,0.0378043026639
5.52,-0.0781558467672,0.140638624335,0.247749481994,1.50609695864,-0.0491659234974,1.22462772935,-0.657116490007,0.382674624325,0.0527240676,1.11694186981,-2.95955226977,0.207122355529,-2.29271349789,0.0378043026639
5.54,-0.0779813098473,0.14142402383,0.246684833414,1.50550360635,-0.0493055522011,1.22443571543,-0.657116490007,0.382953896029,0.0523919290108,1.11684698176,-2.95948648632,0.207053490767,-2.29358708839,0.0378294338451
5.56,-0.0779813098473,0.14142402383,0.246684833414,1.50550360635,-0.0493055522011,1.22443571543,-0.657116490007,0.382953896029,0.0523919290108,1.11684698176,-2.95948648632,0.207053490767,-2.29358708839,0.0378294338451
5.58,-0.0778416853047,0.142069807104,0.246056510489,1.50436909973,-0.0494102726886,1.22424370152,-0.657098979723,0.38329485451,0.0522216867812,1.11699637101,-2.95902665385,0.207561760609,-2.29402045016,0.0378464814514
5.6,-0.0778416853047,0.142069807104,0.246056510489,1.50436909973,-0.0494102726886,1.22424370152,-0.657098979723,0.38329485451,0.0522216867812,1.11699637101,-2.95902665385,0.207561760609,-2.29402045016,0.0378464814514
5.62,-0.0778067812497,0.14233159584,0.245881990214,1.50370583946,-0.0494626329323,1.2241913704,-0.657116490007,0.383463517351,0.0521749644454,1.11712689504,-2.95871956539,0.207903959576,-2.29409651222,0.0378526823683
5.64,-0.0778067812497,0.14233159584,0.245881990214,1.50370583946,-0.0494626329323,1.2241913704,-0.657116490007,0.383463517351,0.0521749644454,1.11712689504,-2.95871956539,0.207903959576,-2.29409651222,0.0378526823683
5.66,-0.0778067812497,0.14233159584,0.245881990214,1.50370583946,-0.0494626329323,1.2241913704,-0.657116490007,0.383463517351,0.0521749644454,1.11712689504,-2.95871956539,0.207903959576,-2.29409651222,0.0378526823683
5.68,-0.0777718688723,0.14248867241,0.245864529864,1.50363606464,-0.0495149890149,1.22413903929,-0.657116490007,0.383502865169,0.0521751635551,1.11709391356,-2.95872628382,0.207869556673,-2.29407819055,0.0378559507698
5.7,-0.0777718688723,0.14248867241,0.245864529864,1.50363606464,-0.0495149890149,1.22413903929,-0.657116490007,0.383502865169,0.0521751635551,1.11709391356,-2.95872628382,0.207869556673,-2.29407819055,0.0378559507698
5.72,-0.0777369648172,0.142610844925,0.245864529864,1.50358373352,-0.0495673492586,1.22410415188,-0.657116490007,0.383531364084,0.0521811977328,1.11706750278,-2.95872844059,0.207831011494,-2.2940413046,0.0378584577144
5.74,-0.0777369648172,0.142610844925,0.245864529864,1.50358373352,-0.0495673492586,1.22410415188,-0.657116490007,0.383531364084,0.0521811977328,1.11706750278,-2.95872844059,0.207831011494,-2.2940413046,0.0378584577144
5.76,-0.0777544168448,0.142715573735,0.245829625809,1.50356628981,-0.0496197095024,1.22405182076,-0.657116490007,0.383558874584,0.052154447827,1.11703604202,-2.95872457657,0.207785504787,-2.29408861193,0.0378606568203
5.78,-0.0777544168448,0.142715573735,0.245829625809,1.50356628981,-0.0496197095024,1.22405182076,-0.657116490007,0.383558874584,0.052154447827,1.11703604202,-2.95872457657,0.207785504787,-2.29408861193,0.0378606568203
5.8,-0.0777544168448,0.142715573735,0.245829625809,1.50356628981,-0.0496197095024,1.22405182076,-0.657116490007,0.383558874584,0.052154447827,1.11703604202,-2.95872457657,0.207785504787,-2.29408861193,0.0378606568203
5.82,-0.0777369648172,0.142733034084,0.245829625809,1.50356628981,-0.0496371656911,1.22405182076,-0.657116490007,0.383560384537,0.0521582390239,1.11702947742,-2.95872498625,0.207764060316,-2.2940700023,0.0378610926672
5.84,-0.0777369648172,0.142733034084,0.245829625809,1.50356628981,-0.0496371656911,1.22405182076,-0.657116490007,0.383560384537,0.0521582390239,1.11702947742,-2.95872498625,0.207764060316,-2.2940700023,0.0378610926672
5.86,-0.0777195127897,0.142785381845,0.245829625809,1.50356628981,-0.0496546177186,1.22403437706,-0.657116490007,0.383568601247,0.0521622200313,1.11701051944,-2.95874269422,0.207735210153,-2.29405470058,0.0378621732129
5.88,-0.0777195127897,0.142785381845,0.245829625809,1.50356628981,-0.0496546177186,1.22403437706,-0.657116490007,0.383568601247,0.0521622200313,1.11701051944,-2.95874269422,0.207735210153,-2.29405470058,0.0378621732129
5.9,-0.0777195127897,0.14290755436,0.245829625809,1.50354884611,-0.0496720697461,1.22403437706,-0.657116490007,0.383585925738,0.0521587334182,1.1169703574,-2.95881735732,0.207664305476,-2.29406945745,0.037865194675
5.92,-0.0777195127897,0.14290755436,0.245829625809,1.50354884611,-0.0496720697461,1.22403437706,-0.657116490007,0.383585925738,0.0521587334182,1.1169703574,-2.95881735732,0.207664305476,-2.29406945745,0.037865194675
5.94,-0.0777195127897,0.14290755436,0.245829625809,1.50354884611,-0.0496720697461,1.22403437706,-0.657116490007,0.383585925738,0.0521587334182,1.1169703574,-2.95881735732,0.207664305476,-2.29406945745,0.037865194675
5.96,-0.0777020607622,0.14292501471,0.245829625809,1.50356628981,-0.0496720697461,1.22403437706,-0.657116490007,0.383583750318,0.0521649502215,1.11695772822,-2.95884283795,0.207640264946,-2.29405665396,0.0378656606173
5.98,-0.0777020607622,0.14292501471,0.245829625809,1.50356628981,-0.0496720697461,1.22403437706,-0.657116490007,0.383583750318,0.0521649502215,1.11695772822,-2.95884283795,0.207640264946,-2.29405665396,0.0378656606173
6.0,-0.0777020607622,0.142942458415,0.245829625809,1.50354884611,-0.0496720697461,1.22403437706,-0.657116490007,0.383588911602,0.052165124409,1.11695715039,-2.95884584955,0.207643305693,-2.29405787951,0.0378660665562
6.02,-0.0777020607622,0.142942458415,0.245829625809,1.50354884611,-0.0496720697461,1.22403437706,-0.657116490007,0.383588911602,0.052165124409,1.11695715039,-2.95884584955,0.207643305693,-2.29405787951,0.0378660665562
6.04,-0.0777020607622,0.142977379114,0.245829625809,1.50354884611,-0.0496720697461,1.22401680019,-0.657116490007,0.383595641601,0.0521653172506,1.11694474918,-2.9588630858,0.207635980655,-2.29406117149,0.0378667105483
6.06,-0.0777020607622,0.142977379114,0.245829625809,1.50354884611,-0.0496720697461,1.22401680019,-0.657116490007,0.383595641601,0.0521653172506,1.11694474918,-2.9588630858,0.207635980655,-2.29406117149,0.0378667105483
6.08,-0.0777020607622,0.142977379114,0.245829625809,1.50354884611,-0.0496720697461,1.22401680019,-0.657116490007,0.383595641601,0.0521653172506,1.11694474918,-2.9588630858,0.207635980655,-2.29406117149,0.0378667105483
6.1,-0.0777020607622,0.143029726875,0.245812165459,1.50354884611,-0.0496720697461,1.22401680019,-0.657116490007,0.383602406544,0.0521585107027,1.11692473767,-2.9589042864,0.207602497577,-2.29408694633,0.0378681653609
6.12,-0.0777020607622,0.143029726875,0.245812165459,1.50354884611,-0.0496720697461,1.22401680019,-0.657116490007,0.383602406544,0.0521585107027,1.11692473767,-2.9589042864,0.207602497577,-2.29408694633,0.0378681653609
6.14,-0.0776846087347,0.143116995335,0.245829625809,1.50354884611,-0.0496720697461,1.22401680019,-0.657116490007,0.383610309641,0.0521707991151,1.11689191885,-2.95897705174,0.207551979517,-2.29406720854,0.0378701985734
6.16,-0.0776846087347,0.143116995335,0.245829625809,1.50354884611,-0.0496720697461,1.22401680019,-0.657116490007,0.383610309641,0.0521707991151,1.11689191885,-2.95897705174,0.207551979517,-2.29406720854,0.0378701985734
6.18,-0.0776846087347,0.143186820089,0.245812165459,1.50354884611,-0.0496895217736,1.22401680019,-0.657116490007,0.383619491142,0.0521610911161,1.11686533417,-2.95901867477,0.207497041851,-2.29409181749,0.0378720900916
6.2,-0.0776846087347,0.143186820089,0.245812165459,1.50354884611,-0.0496895217736,1.22401680019,-0.657116490007,0.383619491142,0.0521610911161,1.11686533417,-2.95901867477,0.207497041851,-2.29409181749,0.0378720900916
6.22,-0.0776846087347,0.143186820089,0.245812165459,1.50354884611,-0.0496895217736,1.22401680019,-0.657116490007,0.383619491142,0.0521610911161,1.11686533417,-2.95901867477,0.207497041851,-2.29409181749,0.0378720900916
6.24,-0.0776671483848,0.143308992604,0.245812165459,1.50354884611,-0.0496895217736,1.22401680019,-0.657116490007,0.383632203186,0.0521667290579,1.11681910148,-2.95911839545,0.207423531298,-2.29409489714,0.0378751430319
6.26,-0.0776671483848,0.143308992604,0.245812165459,1.50354884611,-0.0496895217736,1.22401680019,-0.657116490007,0.383632203186,0.0521667290579,1.11681910148,-2.95911839545,0.207423531298,-2.29409489714,0.0378751430319
6.28,-0.0776671483848,0.143378800714,0.245812165459,1.50354884611,-0.0497069779623,1.22401680019,-0.657116490007,0.383640454781,0.052163372776,1.11679272514,-2.95916153031,0.207370589189,-2.29410252691,0.0378768874532
6.3,-0.0776671483848,0.143378800714,0.245812165459,1.50354884611,-0.0497069779623,1.22401680019,-0.657116490007,0.383640454781,0.052163372776,1.11679272514,-2.95916153031,0.207370589189,-2.29410252691,0.0378768874532
6.32,-0.0776671483848,0.14357078134,0.245812165459,1.50354884611,-0.0496895217736,1.22401680019,-0.657116490007,0.383661374993,0.0521644588001,1.11672002943,-2.95933206446,0.20726600766,-2.29413888353,0.0378816862801
6.34,-0.0776671483848,0.14357078134,0.245812165459,1.50354884611,-0.0496895217736,1.22401680019,-0.657116490007,0.383661374993,0.0521644588001,1.11672002943,-2.95933206446,0.20726600766,-2.29413888353,0.0378816862801
6.36,-0.0776671483848,0.14357078134,0.245812165459,1.50354884611,-0.0496895217736,1.22401680019,-0.657116490007,0.383661374993,0.0521644588001,1.11672002943,-2.95933206446,0.20726600766,-2.29413888353,0.0378816862801
6.38,-0.0776671483848,0.144094375455,0.245812165459,1.50354884611,-0.0496895217736,1.22401680019,-0.657116490007,0.383719642879,0.052159924178,1.11652185605,-2.95975937362,0.206950922797,-2.29422675155,0.0378947791993
6.4,-0.0776671483848,0.144094375455,0.245812165459,1.50354884611,-0.0496895217736,1.22401680019,-0.657116490007,0.383719642879,0.052159924178,1.11652185605,-2.95975937362,0.206950922797,-2.29422675155,0.0378947791993
6.42,-0.0776671483848,0.14463542992,0.245812165459,1.50354884611,-0.0496895217736,1.22401680019,-0.657116490007,0.38377974514,0.0521552467981,1.11631704205,-2.96020087291,0.206625292195,-2.29431739908,0.0379083171239
6.44,-0.0776671483848,0.14463542992,0.245812165459,1.50354884611,-0.0496895217736,1.22401680019,-0.657116490007,0.38377974514,0.0521552467981,1.11631704205,-2.96020087291,0.206625292195,-2.29431739908,0.0379083171239
6.46,-0.0776671483848,0.145420829415,0.245812165459,1.50351382554,-0.0496895217736,1.22399935649,-0.657116490007,0.383876088951,0.0521496166218,1.11603254907,-2.96080795075,0.2061933016,-2.29444279849,0.0379276996229
6.48,-0.0776671483848,0.145420829415,0.245812165459,1.50351382554,-0.0496895217736,1.22399935649,-0.657116490007,0.383876088951,0.0521496166218,1.11603254907,-2.96080795075,0.2061933016,-2.29444279849,0.0379276996229
6.5,-0.0776671483848,0.145420829415,0.245812165459,1.50351382554,-0.0496895217736,1.22399935649,-0.657116490007,0.383876088951,0.0521496166218,1.11603254907,-2.96080795075,0.2061933016,-2.29444279849,0.0379276996229
6.52,-0.0776671483848,0.14711380092,0.245812165459,1.50354884611,-0.0497069779623,1.22398191278,-0.657116490007,0.384059737686,0.0521321653978,1.11538007717,-2.9621862729,0.205149452645,-2.29472149653,0.0379699842926
6.54,-0.0776671483848,0.14711380092,0.245812165459,1.50354884611,-0.0497069779623,1.22398191278,-0.657116490007,0.384059737686,0.0521321653978,1.11538007717,-2.9621862729,0.205149452645,-2.29472149653,0.0379699842926
6.56,-0.0776671483848,0.149295462485,0.245812165459,1.50354884611,-0.0496895217736,1.22398191278,-0.657116490007,0.384298454236,0.0521163016723,1.11455323998,-2.96397864564,0.203846252714,-2.29508681805,0.0380248138918
6.58,-0.0776671483848,0.149295462485,0.245812165459,1.50354884611,-0.0496895217736,1.22398191278,-0.657116490007,0.384298454236,0.0521163016723,1.11455323998,-2.96397864564,0.203846252714,-2.29508681805,0.0380248138918
6.6,-0.0776496963573,0.152838482065,0.245812165459,1.50356628981,-0.0497069779623,1.22396446908,-0.657116490007,0.384682167071,0.0520905037951,1.11320423239,-2.96685113927,0.201699923846,-2.29564560094,0.0381139422573
6.62,-0.0776496963573,0.152838482065,0.245812165459,1.50356628981,-0.0497069779623,1.22396446908,-0.657116490007,0.384682167071,0.0520905037951,1.11320423239,-2.96685113927,0.201699923846,-2.29564560094,0.0381139422573
6.64,-0.0776496963573,0.152838482065,0.245812165459,1.50356628981,-0.0497069779623,1.22396446908,-0.657116490007,0.384682167071,0.0520905037951,1.11320423239,-2.96685113927,0.201699923846,-2.29564560094,0.0381139422573
6.66,-0.0776496963573,0.158685335724,0.245812165459,1.50335683219,-0.0497069779623,1.22394702537,-0.657116490007,0.385348986155,0.0520462467912,1.11105609353,-2.97146338953,0.198348710057,-2.29656972822,0.0382616089538
6.68,-0.0776496963573,0.158685335724,0.245812165459,1.50335683219,-0.0497069779623,1.22394702537,-0.657116490007,0.385348986155,0.0520462467912,1.11105609353,-2.97146338953,0.198348710057,-2.29656972822,0.0382616089538
6.7,-0.0775973402747,0.169192221949,0.245794721754,1.50351382554,-0.0497069779623,1.22389469426,-0.657116490007,0.386415366377,0.0519739732475,1.10700463708,-2.98006164147,0.191915266233,-2.29819502118,0.0385298539199
6.72,-0.0775973402747,0.169192221949,0.245794721754,1.50351382554,-0.0497069779623,1.22389469426,-0.657116490007,0.386415366377,0.0519739732475,1.10700463708,-2.98006164147,0.191915266233,-2.29819502118,0.0385298539199
6.74,-0.0776147923022,0.17739525745,0.245759817699,1.50335683219,-0.0497069779623,1.22378989887,-0.657116490007,0.387287342807,0.0518963841477,1.10393101265,-2.98653840239,0.187147362332,-2.2994728768,0.0387402737432
6.76,-0.0776147923022,0.17739525745,0.245759817699,1.50335683219,-0.0497069779623,1.22378989887,-0.657116490007,0.387287342807,0.0518963841477,1.10393101265,-2.98653840239,0.187147362332,-2.2994728768,0.0387402737432
6.78,-0.0776147923022,0.17739525745,0.245759817699,1.50335683219,-0.0497069779623,1.22378989887,-0.657116490007,0.387287342807,0.0518963841477,1.10393101265,-2.98653840239,0.187147362332,-2.2994728768,0.0387402737432
6.8,-0.0775624278973,0.185720482109,0.245794721754,1.50342660702,-0.0497069779623,1.22375501146,-0.657116490007,0.388082550512,0.0518663265195,1.10072494775,-2.99329823756,0.18207600508,-2.30062380215,0.0389560425745
6.82,-0.0775624278973,0.185720482109,0.245794721754,1.50342660702,-0.0497069779623,1.22375501146,-0.657116490007,0.388082550512,0.0518663265195,1.10072494775,-2.99329823756,0.18207600508,-2.30062380215,0.0389560425745
6.84,-0.0775275238423,0.195529237299,0.245794721754,1.50358373352,-0.0497069779623,1.22365034923,-0.657116490007,0.3889838259,0.0518087987968,1.09691594718,-3.00124951972,0.176076281611,-2.30199761491,0.0392117892198
6.86,-0.0775275238423,0.195529237299,0.245794721754,1.50358373352,-0.0497069779623,1.22365034923,-0.657116490007,0.3889838259,0.0518087987968,1.09691594718,-3.00124951972,0.176076281611,-2.30199761491,0.0392117892198
6.88,-0.0775973402747,0.203418119659,0.245777261404,1.50342660702,-0.0497244299898,1.2232663214,-0.657116490007,0.389794835992,0.0517307124525,1.09395156636,-3.00724799386,0.171685849586,-2.30312728618,0.0394151231755
6.9,-0.0775973402747,0.203418119659,0.245777261404,1.50342660702,-0.0497244299898,1.2232663214,-0.657116490007,0.389794835992,0.0517307124525,1.09395156636,-3.00724799386,0.171685849586,-2.30312728618,0.0394151231755
6.92,-0.0775973402747,0.203418119659,0.245777261404,1.50342660702,-0.0497244299898,1.2232663214,-0.657116490007,0.389794835992,0.0517307124525,1.09395156636,-3.00724799386,0.171685849586,-2.30312728618,0.0394151231755
6.94,-0.0774926197872,0.212563647869,0.245794721754,1.50363606464,-0.0497069779623,1.22101488501,-0.657116490007,0.390908550801,0.0517784909375,1.09044086533,-3.01333856461,0.167730520038,-2.3040282162,0.0396287668161
6.96,-0.0774926197872,0.212563647869,0.245794721754,1.50363606464,-0.0497069779623,1.22101488501,-0.657116490007,0.390908550801,0.0517784909375,1.09044086533,-3.01333856461,0.167730520038,-2.3040282162,0.0396287668161
6.98,-0.0774926197872,0.219440246054,0.245794721754,1.50332194478,-0.0497069779623,1.21691335062,-0.657116490007,0.39222389522,0.0518537616062,1.08803323652,-3.01609166968,0.167002532425,-2.30451541016,0.039759017248
7.0,-0.0774926197872,0.219440246054,0.245794721754,1.50332194478,-0.0497069779623,1.21691335062,-0.657116490007,0.39222389522,0.0518537616062,1.08803323652,-3.01609166968,0.167002532425,-2.30451541016,0.039759017248
7.02,-0.0774402553823,0.230313649824,0.245777261404,1.5033742759,-0.0497244299898,1.20687776068,-0.657133933713,0.394736078802,0.0520764976764,1.08414631714,-3.01854478109,0.168194079465,-2.30491825401,0.0399182275927
7.04,-0.0774402553823,0.230313649824,0.245777261404,1.5033742759,-0.0497244299898,1.20687776068,-0.657133933713,0.394736078802,0.0520764976764,1.08414631714,-3.01854478109,0.168194079465,-2.30491825401,0.0399182275927
7.06,-0.0774402553823,0.230313649824,0.245777261404,1.5033742759,-0.0497244299898,1.20687776068,-0.657133933713,0.394736078802,0.0520764976764,1.08414631714,-3.01854478109,0.168194079465,-2.30491825401,0.0399182275927
7.08,-0.0769864693773,0.242408778744,0.245794721754,1.50328705737,-0.0497069779623,1.18677156024,-0.657133933713,0.398954221225,0.0527548456426,1.08015865077,-3.0156047722,0.176689430617,-2.30411048376,0.0399683366629
7.1,-0.0769864693773,0.242408778744,0.245794721754,1.50328705737,-0.0497069779623,1.18677156024,-0.657133933713,0.398954221225,0.0527548456426,1.08015865077,-3.0156047722,0.176689430617,-2.30411048376,0.0399683366629
7.12,-0.0766548642097,0.249774066989,0.245759817699,1.50326948051,-0.0497069779623,1.1747461895,-0.657133933713,0.401452670256,0.053166820775,1.07769863302,-3.01395486269,0.181646985055,-2.30364394853,0.0399968831652
7.14,-0.0766548642097,0.249774066989,0.245759817699,1.50326948051,-0.0497069779623,1.1747461895,-0.657133933713,0.401452670256,0.053166820775,1.07769863302,-3.01395486269,0.181646985055,-2.30364394853,0.0399968831652
7.16,-0.0765501437222,0.254887885559,0.245812165459,1.5032171494,-0.0493753644723,1.16645590218,-0.657133933713,0.403168477217,0.0534816859063,1.0759989797,-3.01309222859,0.185289791713,-2.30349243062,0.0400147141621
7.18,-0.0765501437222,0.254887885559,0.245812165459,1.5032171494,-0.0493753644723,1.16645590218,-0.657133933713,0.403168477217,0.0534816859063,1.0759989797,-3.01309222859,0.185289791713,-2.30349243062,0.0400147141621
7.2,-0.0765501437222,0.254887885559,0.245812165459,1.5032171494,-0.0493753644723,1.16645590218,-0.657133933713,0.403168477217,0.0534816859063,1.0759989797,-3.01309222859,0.185289791713,-2.30349243062,0.0400147141621
7.22,-0.0762708863148,0.262392806669,0.246335776219,1.5033917196,-0.0462163186261,1.15690900231,-0.657133933713,0.405084316403,0.0544957031652,1.07332996261,-3.01581271862,0.190092585372,-2.30392616406,0.0400739442717
7.24,-0.0762708863148,0.262392806669,0.246335776219,1.5033917196,-0.0462163186261,1.15690900231,-0.657133933713,0.405084316403,0.0544957031652,1.07332996261,-3.01581271862,0.190092585372,-2.30392616406,0.0400739442717
7.26,-0.0760789056897,0.267279723914,0.248430169324,1.5032171494,-0.0426732990461,1.15296446126,-0.657133933713,0.405877434355,0.0559849427816,1.0716416789,-3.02029548059,0.192919832166,-2.30332455176,0.0401334929966
7.28,-0.0760789056897,0.267279723914,0.248430169324,1.5032171494,-0.0426732990461,1.15296446126,-0.657133933713,0.405877434355,0.0559849427816,1.0716416789,-3.02029548059,0.192919832166,-2.30332455176,0.0401334929966
7.3,-0.0755902073073,0.274243590559,0.254713348639,1.5032171494,-0.0409105194311,1.15087015138,-0.657151377418,0.406241903765,0.0588257284265,1.06908637411,-3.02703829007,0.192721178615,-2.2984512426,0.0402467178072
7.32,-0.0755902073073,0.274243590559,0.254713348639,1.5032171494,-0.0409105194311,1.15087015138,-0.657151377418,0.406241903765,0.0588257284265,1.06908637411,-3.02703829007,0.192721178615,-2.2984512426,0.0402467178072
7.34,-0.0755902073073,0.274243590559,0.254713348639,1.5032171494,-0.0409105194311,1.15087015138,-0.657151377418,0.406241903765,0.0588257284265,1.06908637411,-3.02703829007,0.192721178615,-2.2984512426,0.0402467178072
7.36,-0.0741939452373,0.281207440559,0.263789068739,1.5032345931,-0.0408232509711,1.15087015138,-0.657151377418,0.406044422484,0.0627621377328,1.06651875913,-3.03430294119,0.190537646981,-2.28972677451,0.0403697015193
7.38,-0.0741939452373,0.281207440559,0.263789068739,1.5032345931,-0.0408232509711,1.15087015138,-0.657151377418,0.406044422484,0.0627621377328,1.06651875913,-3.03430294119,0.190537646981,-2.28972677451,0.0403697015193
7.4,-0.0740368686672,0.284750476784,0.268449084659,1.50311248716,-0.0408581591873,1.15083526397,-0.657151377418,0.405993431172,0.0645455856001,1.06526382448,-3.0378584386,0.189557066755,-2.28576968502,0.0404312196942
7.42,-0.0740368686672,0.284750476784,0.268449084659,1.50311248716,-0.0408581591873,1.15083526397,-0.657151377418,0.405993431172,0.0645455856001,1.06526382448,-3.0378584386,0.189557066755,-2.28576968502,0.0404312196942
7.44,-0.0741939452373,0.288171307204,0.271485970474,1.50307759975,-0.0410850521898,1.15083526397,-0.657151377418,0.406028524239,0.0655645280757,1.06398689361,-3.0409728067,0.188095156093,-2.28355391698,0.0405027619597
7.46,-0.0741939452373,0.288171307204,0.271485970474,1.50307759975,-0.0410850521898,1.15083526397,-0.657151377418,0.406028524239,0.0655645280757,1.06398689361,-3.0409728067,0.188095156093,-2.28355391698,0.0405027619597
7.48,-0.0741939452373,0.288171307204,0.271485970474,1.50307759975,-0.0410850521898,1.15083526397,-0.657151377418,0.406028524239,0.0655645280757,1.06398689361,-3.0409728067,0.188095156093,-2.28355391698,0.0405027619597
7.5,-0.0740543206948,0.291731787134,0.273667632039,1.50312993087,-0.0411374124336,1.15083526397,-0.657168821123,0.406075201686,0.0664095753403,1.06260489145,-3.04425061653,0.186402490926,-2.28190180794,0.0405851476847
7.52,-0.0740543206948,0.291731787134,0.273667632039,1.50312993087,-0.0411374124336,1.15083526397,-0.657168821123,0.406075201686,0.0664095753403,1.06260489145,-3.04425061653,0.186402490926,-2.28190180794,0.0405851476847
7.54,-0.0736528907723,0.294890828819,0.275360603544,1.50316481828,-0.0411025042174,1.15083526397,-0.657168821123,0.406108479902,0.0671943041714,1.06137718444,-3.04718103093,0.184911899619,-2.28042534066,0.0406603573342
7.56,-0.0736528907723,0.294890828819,0.275360603544,1.50316481828,-0.0411025042174,1.15083526397,-0.657168821123,0.406108479902,0.0671943041714,1.06137718444,-3.04718103093,0.184911899619,-2.28042534066,0.0406603573342
7.58,-0.0730769322523,0.299742842009,0.277228095324,1.50307759975,-0.0410675960011,1.15085270767,-0.657186264828,0.406231138376,0.0681098678741,1.05951703592,-3.05146327087,0.18254569602,-2.27884292951,0.0407827242421
7.6,-0.0730769322523,0.299742842009,0.277228095324,1.50307759975,-0.0410675960011,1.15085270767,-0.657186264828,0.406231138376,0.0681098678741,1.05951703592,-3.05146327087,0.18254569602,-2.27884292951,0.0407827242421
7.62,-0.0730769322523,0.299742842009,0.277228095324,1.50307759975,-0.0410675960011,1.15085270767,-0.657186264828,0.406231138376,0.0681098678741,1.05951703592,-3.05146327087,0.18254569602,-2.27884292951,0.0407827242421
7.64,-0.0728151351948,0.306060925379,0.277454996649,1.50316481828,-0.0412072247049,1.15083526397,-0.657186264828,0.40652051746,0.0682538820866,1.05696571675,-3.05660752333,0.178713934772,-2.2792513726,0.0409596644851
7.66,-0.0728151351948,0.306060925379,0.277454996649,1.50316481828,-0.0412072247049,1.15083526397,-0.657186264828,0.40652051746,0.0682538820866,1.05696571675,-3.05660752333,0.178713934772,-2.2792513726,0.0409596644851
7.68,-0.0727976831673,0.310214824179,0.277454996649,1.50302513548,-0.0419926200386,1.1508176871,-0.657186264828,0.406791467934,0.0681293257373,1.05534210988,-3.05928582687,0.175906934455,-2.27954074635,0.0410777982282
7.7,-0.0727976831673,0.310214824179,0.277454996649,1.50302513548,-0.0419926200386,1.1508176871,-0.657186264828,0.406791467934,0.0681293257373,1.05534210988,-3.05928582687,0.175906934455,-2.27954074635,0.0410777982282
7.72,-0.0727278667348,0.315363546804,0.277489900704,1.50307759975,-0.0429351002649,1.1508176871,-0.657186264828,0.407054408151,0.0680081084591,1.0532558374,-3.06278923198,0.172260898456,-2.27982253107,0.041223877967
7.74,-0.0727278667348,0.315363546804,0.277489900704,1.50307759975,-0.0429351002649,1.1508176871,-0.657186264828,0.407054408151,0.0680081084591,1.0532558374,-3.06278923198,0.172260898456,-2.27982253107,0.041223877967
7.76,-0.0727278667348,0.315363546804,0.277489900704,1.50307759975,-0.0429351002649,1.1508176871,-0.657186264828,0.407054408151,0.0680081084591,1.0532558374,-3.06278923198,0.172260898456,-2.27982253107,0.041223877967
7.78,-0.0725533381372,0.321978339609,0.277699341679,1.5032171494,-0.0431270850511,1.15085270767,-0.657186264828,0.407305087226,0.0681017277267,1.05056143544,-3.06818432689,0.168131884722,-2.28030399,0.0414108392572
7.8,-0.0725533381372,0.321978339609,0.277699341679,1.5032171494,-0.0431270850511,1.15085270767,-0.657186264828,0.407305087226,0.0681017277267,1.05056143544,-3.06818432689,0.168131884722,-2.28030399,0.0414108392572
7.82,-0.0725707901648,0.328069554944,0.277873861954,1.50316481828,-0.0431096330236,1.15085270767,-0.657186264828,0.407576347075,0.068143551831,1.04813849631,-3.07316295847,0.164603373198,-2.28098934132,0.0415834586941
7.84,-0.0725707901648,0.328069554944,0.277873861954,1.50316481828,-0.0431096330236,1.15085270767,-0.657186264828,0.407576347075,0.068143551831,1.04813849631,-3.07316295847,0.164603373198,-2.28098934132,0.0415834586941
7.86,-0.0725882421923,0.336237669744,0.277961130414,1.50306015605,-0.0431270850511,1.1508002434,-0.657186264828,0.407944702219,0.06814522907,1.04489434847,-3.07971652978,0.159873644327,-2.28199041165,0.0418158246732
7.88,-0.0725882421923,0.336237669744,0.277961130414,1.50306015605,-0.0431270850511,1.1508002434,-0.657186264828,0.407944702219,0.06814522907,1.04489434847,-3.07971652978,0.159873644327,-2.28199041165,0.0418158246732
7.9,-0.0725707901648,0.345994060529,0.278118223629,1.50309504346,-0.0431270850511,1.1508176871,-0.657203708533,0.407944702219,0.06814522907,1.04489434847,-3.07971652978,0.159873644327,-2.28199041165,0.0418158246732
7.92,-0.0725707901648,0.345994060529,0.278118223629,1.50309504346,-0.0431270850511,1.1508176871,-0.657203708533,0.408290896188,0.0681827643571,1.04096492334,-3.08770609348,0.154053958583,-2.28305257607,0.0420940609657
7.94,-0.0725707901648,0.345994060529,0.278118223629,1.50309504346,-0.0431270850511,1.1508176871,-0.657203708533,0.408290896188,0.0681827643571,1.04096492334,-3.08770609348,0.154053958583,-2.28305257607,0.0420940609657
7.96,-0.0726056942198,0.350950802529,0.278380012364,1.50297280437,-0.0431619932673,1.1508002434,-0.657221152238,0.408483595036,0.0682507148813,1.03901773319,-3.09166603886,0.151254285687,-2.28342952961,0.0422342217766
7.98,-0.0726056942198,0.350950802529,0.278380012364,1.50297280437,-0.0431619932673,1.1508002434,-0.657221152238,0.408483595036,0.0682507148813,1.03901773319,-3.09166603886,0.151254285687,-2.28342952961,0.0422342217766
8.0,-0.0725707901648,0.354423997354,0.279025795639,1.50295536066,-0.0431619932673,1.1508002434,-0.657238662522,0.408559055927,0.0684970472178,1.03764709032,-3.09460496439,0.149371993051,-2.28321305383,0.042328739042
8.02,-0.0725707901648,0.354423997354,0.279025795639,1.50295536066,-0.0431619932673,1.1508002434,-0.657238662522,0.408559055927,0.0684970472178,1.03764709032,-3.09460496439,0.149371993051,-2.28321305383,0.042328739042
8.04,-0.0725533381372,0.358647704264,0.279217776264,1.50297280437,-0.0431794452949,1.14914229246,-0.657221152238,0.408559055927,0.0684970472178,1.03764709032,-3.09460496439,0.149371993051,-2.28321305383,0.042328739042
8.06,-0.0725533381372,0.358647704264,0.279217776264,1.50297280437,-0.0431794452949,1.14914229246,-0.657221152238,0.408949233637,0.0686165387857,1.03598801414,-3.09704912465,0.14819173315,-2.28347964619,0.0424236676153
8.08,-0.0725533381372,0.358647704264,0.279217776264,1.50297280437,-0.0431794452949,1.14914229246,-0.657221152238,0.408949233637,0.0686165387857,1.03598801414,-3.09704912465,0.14819173315,-2.28347964619,0.0424236676153
8.1,-0.0726056942198,0.361108631559,0.279287601019,1.50265868451,-0.0432143535111,1.14352222361,-0.657238662522,0.410031265289,0.068797432085,1.03523425971,-3.09537030534,0.151410787467,-2.28353254472,0.0424107129236
8.12,-0.0726056942198,0.361108631559,0.279287601019,1.50265868451,-0.0432143535111,1.14352222361,-0.657238662522,0.410031265289,0.068797432085,1.03523425971,-3.09537030534,0.151410787467,-2.28353254472,0.0424107129236
8.14,-0.0725882421923,0.366030452859,0.279374852834,1.50255388913,-0.0433016178099,1.13481302106,-0.657238662522,0.411634549165,0.069095882458,1.03349821718,-3.09387885401,0.155414597756,-2.28368485684,0.0424193034442
8.16,-0.0725882421923,0.366030452859,0.279374852834,1.50255388913,-0.0433016178099,1.13481302106,-0.657238662522,0.411634549165,0.069095882458,1.03349821718,-3.09387885401,0.155414597756,-2.28368485684,0.0424193034442
8.18,-0.0725882421923,0.372453265039,0.279549389754,1.50257146599,-0.0433190739986,1.12578969865,-0.657238662522,0.411634549165,0.069095882458,1.03349821718,-3.09387885401,0.155414597756,-2.28368485684,0.0424193034442
8.2,-0.0725882421923,0.372453265039,0.279549389754,1.50257146599,-0.0433190739986,1.12578969865,-0.657238662522,0.413282214467,0.0694352770647,1.03112317005,-3.09356172189,0.158738811721,-2.28399050277,0.0424629132231
8.22,-0.0725882421923,0.372453265039,0.279549389754,1.50257146599,-0.0433190739986,1.12578969865,-0.657238662522,0.413282214467,0.0694352770647,1.03112317005,-3.09356172189,0.158738811721,-2.28399050277,0.0424629132231
8.24,-0.0726580586247,0.374198600949,0.279601754159,1.50241433948,-0.0433888862698,1.12435851588,-0.657238662522,0.413606848716,0.0694607845942,1.03050001014,-3.09395475771,0.158925407012,-2.28415435742,0.0424911059508
8.26,-0.0726580586247,0.374198600949,0.279601754159,1.50241433948,-0.0433888862698,1.12435851588,-0.657238662522,0.413606848716,0.0694607845942,1.03050001014,-3.09395475771,0.158925407012,-2.28415435742,0.0424911059508
8.28,-0.0726056942198,0.374949079744,0.279723926674,1.50223976928,-0.0434063382974,1.12420152254,-0.657221152238,0.413685309846,0.0695322726007,1.03025698029,-3.09437440569,0.158763905577,-2.28409391218,0.0425101225151
8.3,-0.0726056942198,0.374949079744,0.279723926674,1.50223976928,-0.0434063382974,1.12420152254,-0.657221152238,0.413685309846,0.0695322726007,1.03025698029,-3.09437440569,0.158763905577,-2.28409391218,0.0425101225151
8.32,-0.0726231462473,0.375402882394,0.279846099189,1.50216999445,-0.0434063382974,1.12420152254,-0.657221152238,0.413707794653,0.0695712849316,1.03009821876,-3.09472635183,0.158583002523,-2.28406036068,0.0425101225151
8.34,-0.0726231462473,0.375402882394,0.279846099189,1.50216999445,-0.0434063382974,1.12420152254,-0.657221152238,0.413707794653,0.0695712849316,1.03009821876,-3.09472635183,0.158583002523,-2.28406036068,0.0425225940276
8.36,-0.0726231462473,0.375402882394,0.279846099189,1.50216999445,-0.0434063382974,1.12420152254,-0.657221152238,0.413707794653,0.0695712849316,1.03009821876,-3.09472635183,0.158583002523,-2.28406036068,0.0425225940276
8.38,-0.0726755106523,0.375455213509,0.279880986599,1.50187331831,-0.0434412465136,1.12418407883,-0.657238662522,0.413790372573,0.0695628760577,1.03017073175,-3.09455047275,0.158786578099,-2.28405625544,0.0425248155996
8.4,-0.0726755106523,0.375455213509,0.279880986599,1.50187331831,-0.0434412465136,1.12418407883,-0.657238662522,0.413790372573,0.0695628760577,1.03017073175,-3.09455047275,0.158786578099,-2.28405625544,0.0425248155996
8.42,-0.0726580586247,0.375490134209,0.279968271704,1.50187331831,-0.0434237903249,1.12416663513,-0.657221152238,0.413786668078,0.0696060084116,1.03016029511,-3.0946038395,0.158815950904,-2.28398937259,0.042524876599
8.44,-0.0726580586247,0.375490134209,0.279968271704,1.50187331831,-0.0434237903249,1.12416663513,-0.657221152238,0.413786668078,0.0696060084116,1.03016029511,-3.0946038395,0.158815950904,-2.28398937259,0.042524876599
8.46,-0.0726755106523,0.375472690504,0.280003159114,1.50182085404,-0.0434412465136,1.12416663513,-0.657238662522,0.413799127191,0.0696101799867,1.0301848668,-3.09454823824,0.158866794734,-2.28394860029,0.0425243218518
8.48,-0.0726755106523,0.375472690504,0.280003159114,1.50182085404,-0.0434412465136,1.12416663513,-0.657238662522,0.413799127191,0.0696101799867,1.0301848668,-3.09454823824,0.158866794734,-2.28394860029,0.0425243218518
8.5,-0.0726755106523,0.375472690504,0.280003159114,1.50182085404,-0.0434412465136,1.12416663513,-0.657238662522,0.413799127191,0.0696101799867,1.0301848668,-3.09454823824,0.158866794734,-2.28394860029,0.0425243218518
8.52,-0.0727627791122,0.375577386024,0.279985715409,1.50052935407,-0.0434412465136,1.12418407883,-0.657221152238,0.414136491456,0.0695880658262,1.03054372822,-3.09383596892,0.15979410083,-2.28408621398,0.0425331490128
8.54,-0.0727627791122,0.375577386024,0.279985715409,1.50052935407,-0.0434412465136,1.12418407883,-0.657221152238,0.414136491456,0.0695880658262,1.03054372822,-3.09383596892,0.15979410083,-2.28408621398,0.0425331490128
8.56,-0.0727453270847,0.375472690504,0.280055523519,1.49525842564,-0.0434412465136,1.12416663513,-0.657238662522,0.415473923003,0.0697078549585,1.03223721727,-3.09045791218,0.164003892405,-2.28397736505,0.0425499887031
8.58,-0.0727453270847,0.375472690504,0.280055523519,1.49525842564,-0.0434412465136,1.12416663513,-0.657238662522,0.415473923003,0.0697078549585,1.03223721727,-3.09045791218,0.164003892405,-2.28397736505,0.0425499887031
8.6,-0.0727627791122,0.375769399939,0.280073000514,1.49073810916,-0.0434586985411,1.12416663513,-0.657238662522,0.41662800601,0.0697754583701,1.03353459005,-3.08786192057,0.16734963963,-2.28400393272,0.0425746059771
8.62,-0.0727627791122,0.375769399939,0.280073000514,1.49073810916,-0.0434586985411,1.12416663513,-0.657238662522,0.41662800601,0.0697754583701,1.03353459005,-3.08786192057,0.16734963963,-2.28400393272,0.0425746059771
8.64,-0.0727627791122,0.375769399939,0.280073000514,1.49073810916,-0.0434586985411,1.12416663513,-0.657238662522,0.41662800601,0.0697754583701,1.03353459005,-3.08786192057,0.16734963963,-2.28400393272,0.0425746059771
8.66,-0.0727802311397,0.375734479239,0.280090444219,1.48527516682,-0.0434586985411,1.12416663513,-0.657238662522,0.418002984516,0.0698589127341,1.03527053049,-3.08441807647,0.171639157851,-2.28397841684,0.0425908858069
8.68,-0.0727802311397,0.375734479239,0.280090444219,1.48527516682,-0.0434586985411,1.12416663513,-0.657238662522,0.418002984516,0.0698589127341,1.03527053049,-3.08441807647,0.171639157851,-2.28397841684,0.0425908858069
8.7,-0.0727627791122,0.375839208049,0.280107887924,1.47932366757,-0.0434761505686,1.12411417085,-0.657238662522,0.419501645409,0.0699603564513,1.0371125948,-3.08073291468,0.176257812072,-2.28390920693,0.042609462021
8.72,-0.0727627791122,0.375839208049,0.280107887924,1.47932366757,-0.0434761505686,1.12411417085,-0.657238662522,0.419501645409,0.0699603564513,1.0371125948,-3.08073291468,0.176257812072,-2.28390920693,0.042609462021
8.74,-0.0727976831673,0.375943936859,0.280107887924,1.4745414292,-0.0434936067573,1.12413161456,-0.657238662522,0.420693579288,0.0700113908707,1.0385880342,-3.07781728185,0.179903399417,-2.2839073256,0.0426241434715
8.76,-0.0727976831673,0.375943936859,0.280107887924,1.4745414292,-0.0434936067573,1.12413161456,-0.657238662522,0.420693579288,0.0700113908707,1.0385880342,-3.07781728185,0.179903399417,-2.2839073256,0.0426241434715
8.78,-0.0727976831673,0.375943936859,0.280107887924,1.4745414292,-0.0434936067573,1.12413161456,-0.657238662522,0.420693579288,0.0700113908707,1.0385880342,-3.07781728185,0.179903399417,-2.2839073256,0.0426241434715
8.8,-0.0728151351948,0.377252913824,0.280142808624,1.46693184586,-0.0435110587849,1.12411417085,-0.657238662522,0.422619066724,0.0701177557028,1.04047392662,-3.0740933442,0.185073449454,-2.28398673782,0.0426771050518
8.82,-0.0728151351948,0.377252913824,0.280142808624,1.46693184586,-0.0435110587849,1.12411417085,-0.657238662522,0.422619066724,0.0701177557028,1.04047392662,-3.0740933442,0.185073449454,-2.28398673782,0.0426771050518
8.84,-0.0728151351948,0.383745534114,0.280317345544,1.45567439762,-0.0436332312999,1.12406183974,-0.657238662522,0.425611784985,0.0702971388789,1.0413749474,-3.07223301192,0.18999920488,-2.2846063974,0.0428841856147
8.86,-0.0728151351948,0.383745534114,0.280317345544,1.45567439762,-0.0436332312999,1.12406183974,-0.657238662522,0.425611784985,0.0702971388789,1.0413749474,-3.07223301192,0.18999920488,-2.2846063974,0.0428841856147
8.88,-0.0729547597373,0.392070775419,0.280404597359,1.44623215997,-0.0437379517873,1.12404439603,-0.657238662522,0.428228222886,0.0703467611027,1.04090784019,-3.07302300951,0.192364290089,-2.28577851262,0.0431414902601
8.9,-0.0729547597373,0.392070775419,0.280404597359,1.44623215997,-0.0437379517873,1.12404439603,-0.657238662522,0.428228222886,0.0703467611027,1.04090784019,-3.07302300951,0.192364290089,-2.28577851262,0.0431414902601
8.92,-0.0729547597373,0.392070775419,0.280404597359,1.44623215997,-0.0437379517873,1.12404439603,-0.657238662522,0.428228222886,0.0703467611027,1.04090784019,-3.07302300951,0.192364290089,-2.28577851262,0.0431414902601
8.94,-0.0730071241422,0.400832309089,0.280439518059,1.43811644286,-0.0438077640586,1.12404439603,-0.657221152238,0.430522878172,0.0703938739704,1.03980799075,-3.07502993036,0.193417415666,-2.28705043183,0.0434097648108
8.96,-0.0730071241422,0.400832309089,0.280439518059,1.43811644286,-0.0438077640586,1.12404439603,-0.657221152238,0.430522878172,0.0703938739704,1.03980799075,-3.07502993036,0.193417415666,-2.28705043183,0.0434097648108
8.98,-0.0729896721147,0.412037326349,0.280491849174,1.426649537,-0.0438950325186,1.12402695233,-0.657238662522,0.433708865205,0.0704948081095,1.0387203729,-3.07689507011,0.195615870877,-2.28856250695,0.0437493420349
9.0,-0.0729896721147,0.412037326349,0.280491849174,1.426649537,-0.0438950325186,1.12402695233,-0.657238662522,0.433708865205,0.0704948081095,1.0387203729,-3.07689507011,0.195615870877,-2.28856250695,0.0437493420349
9.02,-0.0731467486848,0.421217775258,0.280474405469,1.41561912324,-0.0440172050336,1.12421896624,-0.657221152238,0.436692942497,0.0704692879089,1.03831879174,-3.07747358181,0.198473168834,-2.29005789441,0.0440260238137
9.04,-0.0731467486848,0.421217775258,0.280474405469,1.41561912324,-0.0440172050336,1.12421896624,-0.657221152238,0.436692942497,0.0704692879089,1.03831879174,-3.07747358181,0.198473168834,-2.29005789441,0.0440260238137
9.06,-0.0731467486848,0.421217775258,0.280474405469,1.41561912324,-0.0440172050336,1.12421896624,-0.657221152238,0.436692942497,0.0704692879089,1.03831879174,-3.07747358181,0.198473168834,-2.29005789441,0.0440260238137
9.08,-0.0731467486848,0.431899181759,0.280509326169,1.40029516117,-0.0442790020911,1.12551046621,-0.657238662522,0.440569845863,0.0704914264287,1.03858998943,-3.07715558088,0.202830805963,-2.2915437546,0.0443524625909
9.1,-0.0731467486848,0.431899181759,0.280509326169,1.40029516117,-0.0442790020911,1.12551046621,-0.657238662522,0.440569845863,0.0704914264287,1.03858998943,-3.07715558088,0.202830805963,-2.2915437546,0.0443524625909
9.12,-0.0731642007123,0.439997488449,0.280561690574,1.38444748847,-0.0454309191311,1.12873928272,-0.657221152238,0.444174925946,0.0703078175595,1.04005697326,-3.07490876125,0.207106946407,-2.29241414934,0.0446134203852
9.14,-0.0731642007123,0.439997488449,0.280561690574,1.38444748847,-0.0454309191311,1.12873928272,-0.657221152238,0.444174925946,0.0703078175595,1.04005697326,-3.07490876125,0.207106946407,-2.29241414934,0.0446134203852
