GitHatake/ROS1EARs/catkin_ws/src/torobo_robot/torobo_EARs2021/scripts/arm/2021_kaiya_csv/test_manipulability_20220119_2_pvt_2.csv
time,joint_1,joint_2,joint_3,joint_4,joint_5,joint_6,joint_7,x,y,z,roll,pitch,yaw,manipulability
0.0,0.679858088083,0.460819280274,0.00664970466232,1.18984325024,-0.0421147967148,1.29220690675,-0.657011761198,0.36515937319,0.289627508281,1.08324571999,-2.98830764542,0.132721957801,-1.78130882045,0.0460635893293
0.02,0.679858088083,0.460819280274,0.00664970466232,1.18984325024,-0.0421147967148,1.29220690675,-0.657011761198,0.36515937319,0.289627508281,1.08324571999,-2.98830764542,0.132721957801,-1.78130882045,0.0460635893293
0.04,0.679858088083,0.460819280274,0.00664970466232,1.18984325024,-0.0421147967148,1.29220690675,-0.657011761198,0.36515937319,0.289627508281,1.08324571999,-2.98830764542,0.132721957801,-1.78130882045,0.0460635893293
0.06,0.679858088083,0.460819280274,0.00664970466232,1.18984325024,-0.0421147967148,1.29220690675,-0.657011761198,0.36515937319,0.289627508281,1.08324571999,-2.98830764542,0.132721957801,-1.78130882045,0.0460635893293
0.08,0.679858088083,0.460819280274,0.00663225107435,1.18984325024,-0.0421147967148,1.29220690675,-0.657029204903,0.365163519098,0.289622271985,1.08324575368,-2.98829925753,0.132714411502,-1.7813062559,0.0460635920909
0.1,0.679858088083,0.460819280274,0.00663225107435,1.18984325024,-0.0421147967148,1.29220690675,-0.657029204903,0.365163519098,0.289622271985,1.08324575368,-2.98829925753,0.132714411502,-1.7813062559,0.0460635920909
0.12,0.679858088083,0.460819280274,0.00664970466232,1.18986082711,-0.0421147967148,1.29218946304,-0.657029204903,0.365159000764,0.289627267986,1.08324045847,-2.98830548234,0.132719216583,-1.78129071412,0.0460637751494
0.14,0.679858088083,0.460819280274,0.00664970466232,1.18986082711,-0.0421147967148,1.29218946304,-0.657029204903,0.365159000764,0.289627267986,1.08324045847,-2.98830548234,0.132719216583,-1.78129071412,0.0460637751494
0.16,0.679858088083,0.460819280274,0.00664970466232,1.18986082711,-0.0421147967148,1.29220690675,-0.657011761198,0.365156771667,0.289625401733,1.08323987367,-2.9883187192,0.132708229651,-1.78131023382,0.0460639219816
0.18,0.679858088083,0.460819280274,0.00664970466232,1.18986082711,-0.0421147967148,1.29220690675,-0.657011761198,0.365156771667,0.289625401733,1.08323987367,-2.9883187192,0.132708229651,-1.78131023382,0.0460639219816
0.2,0.679858088083,0.460819280274,0.00664970466232,1.18984325024,-0.0420973405261,1.29220690675,-0.657011761198,0.36515756026,0.289629708573,1.08324560871,-2.98832135913,0.132732820919,-1.78131202781,0.0460635902546
0.22,0.679858088083,0.460819280274,0.00664970466232,1.18984325024,-0.0420973405261,1.29220690675,-0.657011761198,0.36515756026,0.289629708573,1.08324560871,-2.98832135913,0.132732820919,-1.78131202781,0.0460635902546
0.24,0.679858088083,0.460819280274,0.00664970466232,1.18984325024,-0.0421147967148,1.29220690675,-0.657011761198,0.36515937319,0.289627508281,1.08324571999,-2.98830764542,0.132721957801,-1.78130882045,0.0460635893293
0.26,0.679858088083,0.460819280274,0.00664970466232,1.18984325024,-0.0421147967148,1.29220690675,-0.657011761198,0.36515937319,0.289627508281,1.08324571999,-2.98830764542,0.132721957801,-1.78130882045,0.0460635893293
0.28,0.679858088083,0.460819280274,0.00664970466232,1.18986082711,-0.0420973405261,1.29220690675,-0.657011761198,0.365154958736,0.289627602024,1.08323976238,-2.98833243288,0.132719092733,-1.7813134413,0.0460639229069
0.3,0.679858088083,0.460819280274,0.00664970466232,1.18986082711,-0.0420973405261,1.29220690675,-0.657011761198,0.365154958736,0.289627602024,1.08323976238,-2.98833243288,0.132719092733,-1.7813134413,0.0460639229069
0.32,0.679858088083,0.460819280274,0.00664970466232,1.18984325024,-0.0421147967148,1.29220690675,-0.657011761198,0.36515937319,0.289627508281,1.08324571999,-2.98830764542,0.132721957801,-1.78130882045,0.0460635893293
0.34,0.679858088083,0.460819280274,0.00664970466232,1.18984325024,-0.0421147967148,1.29220690675,-0.657011761198,0.36515937319,0.289627508281,1.08324571999,-2.98830764542,0.132721957801,-1.78130882045,0.0460635893293
0.36,0.679858088083,0.460819280274,0.00664970466232,1.18986082711,-0.0421147967148,1.29220690675,-0.657011761198,0.365156771667,0.289625401733,1.08323987367,-2.9883187192,0.132708229651,-1.78131023382,0.0460639219816
0.38,0.679858088083,0.460819280274,0.00664970466232,1.18986082711,-0.0421147967148,1.29220690675,-0.657011761198,0.365156771667,0.289625401733,1.08323987367,-2.9883187192,0.132708229651,-1.78131023382,0.0460639219816
0.4,0.679858088083,0.460819280274,0.00664970466232,1.18984325024,-0.0421147967148,1.29218946304,-0.657011761198,0.365161602279,0.289629374528,1.08324630485,-2.98829671004,0.132735608127,-1.78130669272,0.0460634424982
0.42,0.679858088083,0.460819280274,0.00664970466232,1.18984325024,-0.0421147967148,1.29218946304,-0.657011761198,0.365161602279,0.289629374528,1.08324630485,-2.98829671004,0.132735608127,-1.78130669272,0.0460634424982
0.44,0.679858088083,0.460819280274,0.00664970466232,1.18984325024,-0.0421147967148,1.29220690675,-0.657011761198,0.36515937319,0.289627508281,1.08324571999,-2.98830764542,0.132721957801,-1.78130882045,0.0460635893293
0.46,0.679858088083,0.460819280274,0.00664970466232,1.18984325024,-0.0421147967148,1.29220690675,-0.657011761198,0.36515937319,0.289627508281,1.08324571999,-2.98830764542,0.132721957801,-1.78130882045,0.0460635893293
0.48,0.679875531788,0.460819280274,0.00664970466232,1.18986082711,-0.0421322487424,1.29220690675,-0.657011761198,0.365153532011,0.289629571645,1.08323998497,-2.98830500885,0.132697369114,-1.78128958355,0.0460639210561
0.5,0.679875531788,0.460819280274,0.00664970466232,1.18986082711,-0.0421322487424,1.29220690675,-0.657011761198,0.365153532011,0.289629571645,1.08323998497,-2.98830500885,0.132697369114,-1.78128958355,0.0460639210561
0.52,0.679858088083,0.460819280274,0.00664970466232,1.18984325024,-0.0421147967148,1.29220690675,-0.657011761198,0.36515937319,0.289627508281,1.08324571999,-2.98830764542,0.132721957801,-1.78130882045,0.0460635893293
0.54,0.679858088083,0.460819280274,0.00664970466232,1.18984325024,-0.0421147967148,1.29220690675,-0.657011761198,0.36515937319,0.289627508281,1.08324571999,-2.98830764542,0.132721957801,-1.78130882045,0.0460635893293
0.56,0.679858088083,0.460819280274,0.00664970466232,1.18984325024,-0.0421147967148,1.29220690675,-0.657011761198,0.36515937319,0.289627508281,1.08324571999,-2.98830764542,0.132721957801,-1.78130882045,0.0460635893293
0.58,0.679858088083,0.460819280274,0.00664970466232,1.18984325024,-0.0421147967148,1.29220690675,-0.657011761198,0.36515937319,0.289627508281,1.08324571999,-2.98830764542,0.132721957801,-1.78130882045,0.0460635893293
0.6,0.679858088083,0.460819280274,0.00664970466232,1.18984325024,-0.0421147967148,1.29220690675,-0.657011761198,0.36515937319,0.289627508281,1.08324571999,-2.98830764542,0.132721957801,-1.78130882045,0.0460635893293
0.62,0.679858088083,0.460819280274,0.00664970466232,1.18984325024,-0.0421147967148,1.29220690675,-0.657011761198,0.36515937319,0.289627508281,1.08324571999,-2.98830764542,0.132721957801,-1.78130882045,0.0460635893293
0.64,0.679858088083,0.460819280274,0.00664970466232,1.18986082711,-0.0421147967148,1.29220690675,-0.657029204903,0.365156771667,0.289625401733,1.08323987367,-2.98831641791,0.132705566422,-1.7812928417,0.0460639219816
0.66,0.679858088083,0.460819280274,0.00664970466232,1.18986082711,-0.0421147967148,1.29220690675,-0.657029204903,0.365156771667,0.289625401733,1.08323987367,-2.98831641791,0.132705566422,-1.7812928417,0.0460639219816
0.68,0.679858088083,0.460819280274,0.00664970466232,1.18984325024,-0.0421147967148,1.29220690675,-0.657029204903,0.36515937319,0.289627508281,1.08324571999,-2.9883053439,0.132719294381,-1.78129142832,0.0460635893293
0.7,0.679858088083,0.460819280274,0.00664970466232,1.18984325024,-0.0421147967148,1.29220690675,-0.657029204903,0.36515937319,0.289627508281,1.08324571999,-2.9883053439,0.132719294381,-1.78129142832,0.0460635893293
0.72,0.679858088083,0.460819280274,0.00664970466232,1.18984325024,-0.0421147967148,1.29220690675,-0.657011761198,0.36515937319,0.289627508281,1.08324571999,-2.98830764542,0.132721957801,-1.78130882045,0.0460635893293
0.74,0.679858088083,0.460819280274,0.00664970466232,1.18984325024,-0.0421147967148,1.29220690675,-0.657011761198,0.36515937319,0.289627508281,1.08324571999,-2.98830764542,0.132721957801,-1.78130882045,0.0460635893293
0.76,0.679858088083,0.460819280274,0.00664970466232,1.18986082711,-0.0421147967148,1.29220690675,-0.657029204903,0.365156771667,0.289625401733,1.08323987367,-2.98831641791,0.132705566422,-1.7812928417,0.0460639219816
0.78,0.679858088083,0.460819280274,0.00664970466232,1.18986082711,-0.0421147967148,1.29220690675,-0.657029204903,0.365156771667,0.289625401733,1.08323987367,-2.98831641791,0.132705566422,-1.7812928417,0.0460639219816
0.8,0.679858088083,0.460819280274,0.00664970466232,1.18984325024,-0.0421147967148,1.29220690675,-0.657029204903,0.36515937319,0.289627508281,1.08324571999,-2.9883053439,0.132719294381,-1.78129142832,0.0460635893293
0.82,0.679858088083,0.460819280274,0.00664970466232,1.18984325024,-0.0421147967148,1.29220690675,-0.657029204903,0.36515937319,0.289627508281,1.08324571999,-2.9883053439,0.132719294381,-1.78129142832,0.0460635893293
0.84,0.679858088083,0.460819280274,0.00663225107435,1.18984325024,-0.0421147967148,1.29220690675,-0.657011761198,0.365163519098,0.289622271985,1.08324575368,-2.98830155897,0.132717075027,-1.781323648,0.0460635920909
0.86,0.679858088083,0.460819280274,0.00663225107435,1.18984325024,-0.0421147967148,1.29220690675,-0.657011761198,0.365163519098,0.289622271985,1.08324575368,-2.98830155897,0.132717075027,-1.781323648,0.0460635920909
0.88,0.679858088083,0.460819280274,0.00663225107435,1.18986082711,-0.0421322487424,1.29220690675,-0.657011761198,0.365162730036,0.289617965652,1.08324001868,-2.98829892242,0.132692486329,-1.78132185497,0.0460639238178
0.9,0.679858088083,0.460819280274,0.00663225107435,1.18986082711,-0.0421322487424,1.29220690675,-0.657011761198,0.365162730036,0.289617965652,1.08324001868,-2.98829892242,0.132692486329,-1.78132185497,0.0460639238178
0.92,0.679858088083,0.460819280274,0.00664970466232,1.18986082711,-0.0421147967148,1.29220690675,-0.657011761198,0.365156771667,0.289625401733,1.08323987367,-2.9883187192,0.132708229651,-1.78131023382,0.0460639219816
0.94,0.679858088083,0.460819280274,0.00664970466232,1.18986082711,-0.0421147967148,1.29220690675,-0.657011761198,0.365156771667,0.289625401733,1.08323987367,-2.9883187192,0.132708229651,-1.78131023382,0.0460639219816
0.96,0.679858088083,0.460819280274,0.00664970466232,1.18986082711,-0.0421147967148,1.29220690675,-0.657011761198,0.365156771667,0.289625401733,1.08323987367,-2.9883187192,0.132708229651,-1.78131023382,0.0460639219816
0.98,0.679858088083,0.460819280274,0.00664970466232,1.18984325024,-0.0421147967148,1.29220690675,-0.657011761198,0.365156771667,0.289625401733,1.08323987367,-2.9883187192,0.132708229651,-1.78131023382,0.0460639219816
1.0,0.679858088083,0.460819280274,0.00664970466232,1.18984325024,-0.0421147967148,1.29220690675,-0.657011761198,0.36515937319,0.289627508281,1.08324571999,-2.98830764542,0.132721957801,-1.78130882045,0.0460635893293
1.02,0.679875531788,0.460819280274,0.00664970466232,1.18986082711,-0.0421147967148,1.29220690675,-0.657011761198,0.36515937319,0.289627508281,1.08324571999,-2.98830764542,0.132721957801,-1.78130882045,0.0460635893293
1.04,0.679875531788,0.460819280274,0.00664970466232,1.18986082711,-0.0421147967148,1.29220690675,-0.657011761198,0.365151719471,0.289631771376,1.08323987367,-2.9883187192,0.132708229651,-1.78129279011,0.0460639219816
1.06,0.679858088083,0.460819280274,0.00664970466232,1.18984325024,-0.0421147967148,1.29220690675,-0.657011761198,0.365151719471,0.289631771376,1.08323987367,-2.9883187192,0.132708229651,-1.78129279011,0.0460639219816
1.08,0.679858088083,0.460819280274,0.00664970466232,1.18984325024,-0.0421147967148,1.29220690675,-0.657011761198,0.36515937319,0.289627508281,1.08324571999,-2.98830764542,0.132721957801,-1.78130882045,0.0460635893293
1.1,0.679858088083,0.460819280274,0.00664970466232,1.18984325024,-0.0421147967148,1.29220690675,-0.657011761198,0.36515937319,0.289627508281,1.08324571999,-2.98830764542,0.132721957801,-1.78130882045,0.0460635893293
1.12,0.679858088083,0.460819280274,0.00664970466232,1.18986082711,-0.0421147967148,1.29220690675,-0.657011761198,0.365156771667,0.289625401733,1.08323987367,-2.9883187192,0.132708229651,-1.78131023382,0.0460639219816
1.14,0.679858088083,0.460819280274,0.00664970466232,1.18984325024,-0.0421147967148,1.29220690675,-0.657011761198,0.365156771667,0.289625401733,1.08323987367,-2.9883187192,0.132708229651,-1.78131023382,0.0460639219816
1.16,0.679858088083,0.460819280274,0.00664970466232,1.18984325024,-0.0421147967148,1.29220690675,-0.657011761198,0.36515937319,0.289627508281,1.08324571999,-2.98830764542,0.132721957801,-1.78130882045,0.0460635893293
1.18,0.679858088083,0.460819280274,0.00664970466232,1.18986082711,-0.0421322487424,1.29220690675,-0.657011761198,0.36515937319,0.289627508281,1.08324571999,-2.98830764542,0.132721957801,-1.78130882045,0.0460635893293
1.2,0.679858088083,0.460819280274,0.00664970466232,1.18986082711,-0.0421322487424,1.29220690675,-0.657011761198,0.365158584168,0.28962320197,1.08323998497,-2.98830500885,0.132697369114,-1.78130702726,0.0460639210561
1.22,0.679858088083,0.460836723979,0.00664970466232,1.18984325024,-0.0421147967148,1.29220690675,-0.657011761198,0.365160434562,0.289628366322,1.08323759027,-2.98831871703,0.132708398715,-1.78131028551,0.0460641643613
1.24,0.679858088083,0.460836723979,0.00664970466232,1.18984325024,-0.0421147967148,1.29220690675,-0.657011761198,0.365160434562,0.289628366322,1.08323759027,-2.98831871703,0.132708398715,-1.78131028551,0.0460641643613
1.26,0.679858088083,0.460819280274,0.00664970466232,1.18986082711,-0.0421147967148,1.29220690675,-0.657011761198,0.365156771667,0.289625401733,1.08323987367,-2.9883187192,0.132708229651,-1.78131023382,0.0460639219816
1.28,0.679858088083,0.460819280274,0.00664970466232,1.18986082711,-0.0421147967148,1.29220690675,-0.657011761198,0.365156771667,0.289625401733,1.08323987367,-2.9883187192,0.132708229651,-1.78131023382,0.0460639219816
1.3,0.679858088083,0.460819280274,0.00664970466232,1.18986082711,-0.0421147967148,1.29218946304,-0.657011761198,0.365159000764,0.289627267986,1.08324045847,-2.98830778387,0.13272188,-1.78130810625,0.0460637751494
1.32,0.679858088083,0.460819280274,0.00664970466232,1.18986082711,-0.0421147967148,1.29218946304,-0.657011761198,0.365159000764,0.289627267986,1.08324045847,-2.98830778387,0.13272188,-1.78130810625,0.0460637751494
1.34,0.679858088083,0.460819280274,0.00664970466232,1.18986082711,-0.0421147967148,1.29220690675,-0.657029204903,0.365156771667,0.289625401733,1.08323987367,-2.98831641791,0.132705566422,-1.7812928417,0.0460639219816
1.36,0.679858088083,0.460819280274,0.00664970466232,1.18986082711,-0.0421147967148,1.29220690675,-0.657029204903,0.365156771667,0.289625401733,1.08323987367,-2.98831641791,0.132705566422,-1.7812928417,0.0460639219816
1.38,0.679858088083,0.460819280274,0.00664970466232,1.18984325024,-0.0421147967148,1.29220690675,-0.657011761198,0.36515937319,0.289627508281,1.08324571999,-2.98830764542,0.132721957801,-1.78130882045,0.0460635893293
1.4,0.679858088083,0.460819280274,0.00664970466232,1.18984325024,-0.0421147967148,1.29220690675,-0.657011761198,0.36515937319,0.289627508281,1.08324571999,-2.98830764542,0.132721957801,-1.78130882045,0.0460635893293
1.42,0.679858088083,0.460819280274,0.00664970466232,1.18986082711,-0.0421147967148,1.29220690675,-0.657011761198,0.365156771667,0.289625401733,1.08323987367,-2.9883187192,0.132708229651,-1.78131023382,0.0460639219816
1.44,0.679858088083,0.460819280274,0.00664970466232,1.18986082711,-0.0421147967148,1.29220690675,-0.657011761198,0.365156771667,0.289625401733,1.08323987367,-2.9883187192,0.132708229651,-1.78131023382,0.0460639219816
1.46,0.679858088083,0.460819280274,0.00664970466232,1.18986082711,-0.0421147967148,1.29220690675,-0.657011761198,0.365156771667,0.289625401733,1.08323987367,-2.9883187192,0.132708229651,-1.78131023382,0.0460639219816
1.48,0.679858088083,0.460819280274,0.00664970466232,1.18986082711,-0.0421147967148,1.29220690675,-0.657011761198,0.365156771667,0.289625401733,1.08323987367,-2.9883187192,0.132708229651,-1.78131023382,0.0460639219816
1.5,0.679858088083,0.460819280274,0.00664970466232,1.18984325024,-0.0421147967148,1.29220690675,-0.657011761198,0.365156771667,0.289625401733,1.08323987367,-2.9883187192,0.132708229651,-1.78131023382,0.0460639219816
1.52,0.679858088083,0.460819280274,0.00664970466232,1.18984325024,-0.0421147967148,1.29220690675,-0.657011761198,0.36515937319,0.289627508281,1.08324571999,-2.98830764542,0.132721957801,-1.78130882045,0.0460635893293
1.54,0.679858088083,0.460819280274,0.00664970466232,1.18984325024,-0.0421147967148,1.29220690675,-0.657011761198,0.36515937319,0.289627508281,1.08324571999,-2.98830764542,0.132721957801,-1.78130882045,0.0460635893293
1.56,0.679858088083,0.460819280274,0.00664970466232,1.18984325024,-0.0421147967148,1.29220690675,-0.657011761198,0.36515937319,0.289627508281,1.08324571999,-2.98830764542,0.132721957801,-1.78130882045,0.0460635893293
1.58,0.679858088083,0.460819280274,0.00664970466232,1.18986082711,-0.0421147967148,1.29218946304,-0.657011761198,0.365159000764,0.289627267986,1.08324045847,-2.98830778387,0.13272188,-1.78130810625,0.0460637751494
1.6,0.679858088083,0.460819280274,0.00664970466232,1.18986082711,-0.0421147967148,1.29218946304,-0.657011761198,0.365159000764,0.289627267986,1.08324045847,-2.98830778387,0.13272188,-1.78130810625,0.0460637751494
1.62,0.679858088083,0.460819280274,0.00664970466232,1.18984325024,-0.0421147967148,1.29220690675,-0.657029204903,0.36515937319,0.289627508281,1.08324571999,-2.9883053439,0.132719294381,-1.78129142832,0.0460635893293
1.64,0.679858088083,0.460819280274,0.00664970466232,1.18984325024,-0.0421147967148,1.29220690675,-0.657029204903,0.36515937319,0.289627508281,1.08324571999,-2.9883053439,0.132719294381,-1.78129142832,0.0460635893293
1.66,0.679858088083,0.460819280274,0.00664970466232,1.18986082711,-0.0420973405261,1.29220690675,-0.657011761198,0.365154958736,0.289627602024,1.08323976238,-2.98833243288,0.132719092733,-1.7813134413,0.0460639229069
1.68,0.679858088083,0.460819280274,0.00664970466232,1.18986082711,-0.0420973405261,1.29220690675,-0.657011761198,0.365154958736,0.289627602024,1.08323976238,-2.98833243288,0.132719092733,-1.7813134413,0.0460639229069
1.7,0.679858088083,0.460819280274,0.00664970466232,1.18984325024,-0.0421147967148,1.29220690675,-0.657011761198,0.36515937319,0.289627508281,1.08324571999,-2.98830764542,0.132721957801,-1.78130882045,0.0460635893293
1.72,0.679858088083,0.460819280274,0.00664970466232,1.18984325024,-0.0421147967148,1.29220690675,-0.657011761198,0.36515937319,0.289627508281,1.08324571999,-2.98830764542,0.132721957801,-1.78130882045,0.0460635893293
1.74,0.679858088083,0.460819280274,0.00664970466232,1.18984325024,-0.0421147967148,1.29220690675,-0.657029204903,0.36515937319,0.289627508281,1.08324571999,-2.9883053439,0.132719294381,-1.78129142832,0.0460635893293
1.76,0.679858088083,0.460819280274,0.00664970466232,1.18984325024,-0.0421147967148,1.29220690675,-0.657029204903,0.36515937319,0.289627508281,1.08324571999,-2.9883053439,0.132719294381,-1.78129142832,0.0460635893293
1.78,0.679858088083,0.460819280274,0.00664970466232,1.18984325024,-0.0421147967148,1.29220690675,-0.657011761198,0.36515937319,0.289627508281,1.08324571999,-2.98830764542,0.132721957801,-1.78130882045,0.0460635893293
1.8,0.679858088083,0.460819280274,0.00664970466232,1.18984325024,-0.0421147967148,1.29220690675,-0.657011761198,0.36515937319,0.289627508281,1.08324571999,-2.98830764542,0.132721957801,-1.78130882045,0.0460635893293
1.82,0.679858088083,0.460819280274,0.00664970466232,1.18986082711,-0.0421147967148,1.29220690675,-0.657011761198,0.365156771667,0.289625401733,1.08323987367,-2.9883187192,0.132708229651,-1.78131023382,0.0460639219816
1.84,0.679858088083,0.460819280274,0.00664970466232,1.18986082711,-0.0421147967148,1.29220690675,-0.657011761198,0.365156771667,0.289625401733,1.08323987367,-2.9883187192,0.132708229651,-1.78131023382,0.0460639219816
1.86,0.679840644378,0.460819280274,0.00664970466232,1.18984325024,-0.0421147967148,1.29220690675,-0.657029204903,0.365156771667,0.289625401733,1.08323987367,-2.9883187192,0.132708229651,-1.78131023382,0.0460639219816
1.88,0.679840644378,0.460819280274,0.00664970466232,1.18984325024,-0.0421147967148,1.29220690675,-0.657029204903,0.365164425311,0.289621138504,1.08324571999,-2.9883053439,0.132719294381,-1.78130887203,0.0460635893293
1.9,0.679858088083,0.460819280274,0.00664970466232,1.18986082711,-0.0420973405261,1.29220690675,-0.657011761198,0.365164425311,0.289621138504,1.08324571999,-2.9883053439,0.132719294381,-1.78130887203,0.0460635893293
1.92,0.679858088083,0.460819280274,0.00664970466232,1.18986082711,-0.0420973405261,1.29220690675,-0.657011761198,0.365154958736,0.289627602024,1.08323976238,-2.98833243288,0.132719092733,-1.7813134413,0.0460639229069
1.94,0.679858088083,0.460819280274,0.00664970466232,1.18984325024,-0.0421147967148,1.29220690675,-0.657011761198,0.365154958736,0.289627602024,1.08323976238,-2.98833243288,0.132719092733,-1.7813134413,0.0460639229069
1.96,0.679858088083,0.460819280274,0.00664970466232,1.18984325024,-0.0421147967148,1.29220690675,-0.657011761198,0.36515937319,0.289627508281,1.08324571999,-2.98830764542,0.132721957801,-1.78130882045,0.0460635893293
1.98,0.679858088083,0.460819280274,0.00664970466232,1.18984325024,-0.0421147967148,1.29220690675,-0.657011761198,0.36515937319,0.289627508281,1.08324571999,-2.98830764542,0.132721957801,-1.78130882045,0.0460635893293
2.0,0.679858088083,0.460819280274,0.00664970466232,1.18984325024,-0.0421147967148,1.29220690675,-0.657011761198,0.36515937319,0.289627508281,1.08324571999,-2.98830764542,0.132721957801,-1.78130882045,0.0460635893293
2.02,0.679858088083,0.460819280274,0.00664970466232,1.18984325024,-0.0421147967148,1.29220690675,-0.657011761198,0.36515937319,0.289627508281,1.08324571999,-2.98830764542,0.132721957801,-1.78130882045,0.0460635893293
2.04,0.679858088083,0.460819280274,0.00664970466232,1.18984325024,-0.0421147967148,1.29220690675,-0.657011761198,0.36515937319,0.289627508281,1.08324571999,-2.98830764542,0.132721957801,-1.78130882045,0.0460635893293
2.06,0.679858088083,0.460819280274,0.00664970466232,1.18986082711,-0.0421147967148,1.29220690675,-0.657011761198,0.365156771667,0.289625401733,1.08323987367,-2.9883187192,0.132708229651,-1.78131023382,0.0460639219816
2.08,0.679858088083,0.460819280274,0.00664970466232,1.18986082711,-0.0421147967148,1.29220690675,-0.657011761198,0.365156771667,0.289625401733,1.08323987367,-2.9883187192,0.132708229651,-1.78131023382,0.0460639219816
2.1,0.679858088083,0.460819280274,0.00664970466232,1.18984325024,-0.0421147967148,1.29220690675,-0.657011761198,0.36515937319,0.289627508281,1.08324571999,-2.98830764542,0.132721957801,-1.78130882045,0.0460635893293
2.12,0.679858088083,0.460819280274,0.00664970466232,1.18984325024,-0.0421147967148,1.29220690675,-0.657011761198,0.36515937319,0.289627508281,1.08324571999,-2.98830764542,0.132721957801,-1.78130882045,0.0460635893293
2.14,0.679858088083,0.460819280274,0.00664970466232,1.18986082711,-0.0421147967148,1.29220690675,-0.657011761198,0.365156771667,0.289625401733,1.08323987367,-2.9883187192,0.132708229651,-1.78131023382,0.0460639219816
2.16,0.679858088083,0.460819280274,0.00664970466232,1.18986082711,-0.0421147967148,1.29220690675,-0.657011761198,0.365156771667,0.289625401733,1.08323987367,-2.9883187192,0.132708229651,-1.78131023382,0.0460639219816
2.18,0.679858088083,0.460819280274,0.00664970466232,1.18986082711,-0.0421147967148,1.29220690675,-0.657011761198,0.365156771667,0.289625401733,1.08323987367,-2.9883187192,0.132708229651,-1.78131023382,0.0460639219816
2.2,0.679858088083,0.460819280274,0.00664970466232,1.18986082711,-0.0421147967148,1.29220690675,-0.657011761198,0.365156771667,0.289625401733,1.08323987367,-2.9883187192,0.132708229651,-1.78131023382,0.0460639219816
2.22,0.679858088083,0.460819280274,0.00664970466232,1.18984325024,-0.0421147967148,1.29220690675,-0.657011761198,0.36515937319,0.289627508281,1.08324571999,-2.98830764542,0.132721957801,-1.78130882045,0.0460635893293
2.24,0.679858088083,0.460819280274,0.00664970466232,1.18984325024,-0.0421147967148,1.29220690675,-0.657011761198,0.36515937319,0.289627508281,1.08324571999,-2.98830764542,0.132721957801,-1.78130882045,0.0460635893293
2.26,0.679858088083,0.460819280274,0.00664970466232,1.18986082711,-0.0421322487424,1.29220690675,-0.657029204903,0.365158584168,0.28962320197,1.08323998497,-2.98830270776,0.132694705649,-1.7812896352,0.0460639210561
2.28,0.679858088083,0.460819280274,0.00664970466232,1.18984325024,-0.0421147967148,1.29220690675,-0.657011761198,0.365158584168,0.28962320197,1.08323998497,-2.98830270776,0.132694705649,-1.7812896352,0.0460639210561
2.3,0.679858088083,0.460819280274,0.00664970466232,1.18984325024,-0.0421147967148,1.29220690675,-0.657011761198,0.36515937319,0.289627508281,1.08324571999,-2.98830764542,0.132721957801,-1.78130882045,0.0460635893293
2.32,0.679858088083,0.460819280274,0.00664970466232,1.18986082711,-0.0421147967148,1.29220690675,-0.657011761198,0.36515937319,0.289627508281,1.08324571999,-2.98830764542,0.132721957801,-1.78130882045,0.0460635893293
2.34,0.679858088083,0.460819280274,0.00664970466232,1.18986082711,-0.0421147967148,1.29220690675,-0.657011761198,0.365156771667,0.289625401733,1.08323987367,-2.9883187192,0.132708229651,-1.78131023382,0.0460639219816
2.36,0.679858088083,0.460819280274,0.00664970466232,1.18986082711,-0.0421147967148,1.29220690675,-0.657011761198,0.365156771667,0.289625401733,1.08323987367,-2.9883187192,0.132708229651,-1.78131023382,0.0460639219816
2.38,0.679858088083,0.460819280274,0.00664970466232,1.18986082711,-0.0421147967148,1.29220690675,-0.657011761198,0.365156771667,0.289625401733,1.08323987367,-2.9883187192,0.132708229651,-1.78131023382,0.0460639219816
2.4,0.679858088083,0.460819280274,0.00664970466232,1.18986082711,-0.0421147967148,1.29220690675,-0.657011761198,0.365156771667,0.289625401733,1.08323987367,-2.9883187192,0.132708229651,-1.78131023382,0.0460639219816
2.42,0.679858088083,0.460819280274,0.00664970466232,1.18986082711,-0.0421147967148,1.29220690675,-0.657011761198,0.365156771667,0.289625401733,1.08323987367,-2.9883187192,0.132708229651,-1.78131023382,0.0460639219816
2.44,0.679858088083,0.460819280274,0.00664970466232,1.18986082711,-0.0421147967148,1.29220690675,-0.657011761198,0.365156771667,0.289625401733,1.08323987367,-2.9883187192,0.132708229651,-1.78131023382,0.0460639219816
2.46,0.679858088083,0.460819280274,0.00664970466232,1.18986082711,-0.0420973405261,1.29220690675,-0.657029204903,0.365154958736,0.289627602024,1.08323976238,-2.9883301314,0.132716429741,-1.78129604911,0.0460639229069
2.48,0.679858088083,0.460819280274,0.00664970466232,1.18986082711,-0.0420973405261,1.29220690675,-0.657029204903,0.365154958736,0.289627602024,1.08323976238,-2.9883301314,0.132716429741,-1.78129604911,0.0460639229069
2.5,0.679858088083,0.460819280274,0.00664970466232,1.18986082711,-0.0421147967148,1.29220690675,-0.657011761198,0.365156771667,0.289625401733,1.08323987367,-2.9883187192,0.132708229651,-1.78131023382,0.0460639219816
2.52,0.679858088083,0.460819280274,0.00664970466232,1.18986082711,-0.0421147967148,1.29220690675,-0.657011761198,0.365156771667,0.289625401733,1.08323987367,-2.9883187192,0.132708229651,-1.78131023382,0.0460639219816
2.54,0.679858088083,0.460819280274,0.00664970466232,1.18986082711,-0.0421147967148,1.29220690675,-0.657011761198,0.365156771667,0.289625401733,1.08323987367,-2.9883187192,0.132708229651,-1.78131023382,0.0460639219816
2.56,0.679858088083,0.460819280274,0.00664970466232,1.18986082711,-0.0421147967148,1.29220690675,-0.657011761198,0.365156771667,0.289625401733,1.08323987367,-2.9883187192,0.132708229651,-1.78131023382,0.0460639219816
2.58,0.679858088083,0.460819280274,0.00664970466232,1.18984325024,-0.0421147967148,1.29220690675,-0.657011761198,0.36515937319,0.289627508281,1.08324571999,-2.98830764542,0.132721957801,-1.78130882045,0.0460635893293
2.6,0.679858088083,0.460819280274,0.00664970466232,1.18984325024,-0.0421147967148,1.29220690675,-0.657011761198,0.36515937319,0.289627508281,1.08324571999,-2.98830764542,0.132721957801,-1.78130882045,0.0460635893293
2.62,0.679858088083,0.460819280274,0.00664970466232,1.18984325024,-0.0421147967148,1.29220690675,-0.657011761198,0.36515937319,0.289627508281,1.08324571999,-2.98830764542,0.132721957801,-1.78130882045,0.0460635893293
2.64,0.679858088083,0.460819280274,0.00664970466232,1.18984325024,-0.0421147967148,1.29220690675,-0.657011761198,0.36515937319,0.289627508281,1.08324571999,-2.98830764542,0.132721957801,-1.78130882045,0.0460635893293
2.66,0.679858088083,0.460819280274,0.00664970466232,1.18984325024,-0.0421147967148,1.29220690675,-0.657011761198,0.36515937319,0.289627508281,1.08324571999,-2.98830764542,0.132721957801,-1.78130882045,0.0460635893293
2.68,0.679858088083,0.460819280274,0.00664970466232,1.18984325024,-0.0421147967148,1.29220690675,-0.657011761198,0.36515937319,0.289627508281,1.08324571999,-2.98830764542,0.132721957801,-1.78130882045,0.0460635893293
2.7,0.679858088083,0.460819280274,0.00664970466232,1.18984325024,-0.0421147967148,1.29220690675,-0.657011761198,0.36515937319,0.289627508281,1.08324571999,-2.98830764542,0.132721957801,-1.78130882045,0.0460635893293
2.72,0.679858088083,0.460819280274,0.00664970466232,1.18984325024,-0.0421147967148,1.29220690675,-0.657011761198,0.36515937319,0.289627508281,1.08324571999,-2.98830764542,0.132721957801,-1.78130882045,0.0460635893293
2.74,0.679858088083,0.460819280274,0.00664970466232,1.18984325024,-0.0421147967148,1.29220690675,-0.657011761198,0.36515937319,0.289627508281,1.08324571999,-2.98830764542,0.132721957801,-1.78130882045,0.0460635893293
2.76,0.679858088083,0.460819280274,0.00664970466232,1.18984325024,-0.0421147967148,1.29220690675,-0.657011761198,0.36515937319,0.289627508281,1.08324571999,-2.98830764542,0.132721957801,-1.78130882045,0.0460635893293
2.78,0.679858088083,0.460819280274,0.00664970466232,1.18986082711,-0.0421147967148,1.29220690675,-0.657011761198,0.365156771667,0.289625401733,1.08323987367,-2.9883187192,0.132708229651,-1.78131023382,0.0460639219816
2.8,0.679858088083,0.460819280274,0.00664970466232,1.18986082711,-0.0421147967148,1.29220690675,-0.657011761198,0.365156771667,0.289625401733,1.08323987367,-2.9883187192,0.132708229651,-1.78131023382,0.0460639219816
2.82,0.679858088083,0.460819280274,0.00664970466232,1.18986082711,-0.0421147967148,1.29220690675,-0.657011761198,0.365156771667,0.289625401733,1.08323987367,-2.9883187192,0.132708229651,-1.78131023382,0.0460639219816
2.84,0.679858088083,0.460819280274,0.00664970466232,1.18986082711,-0.0421147967148,1.29220690675,-0.657011761198,0.365156771667,0.289625401733,1.08323987367,-2.9883187192,0.132708229651,-1.78131023382,0.0460639219816
2.86,0.679858088083,0.460819280274,0.00664970466232,1.18986082711,-0.0421322487424,1.29220690675,-0.657011761198,0.365158584168,0.28962320197,1.08323998497,-2.98830500885,0.132697369114,-1.78130702726,0.0460639210561
2.88,0.679858088083,0.460819280274,0.00664970466232,1.18986082711,-0.0421322487424,1.29220690675,-0.657011761198,0.365158584168,0.28962320197,1.08323998497,-2.98830500885,0.132697369114,-1.78130702726,0.0460639210561
2.9,0.679858088083,0.460819280274,0.00664970466232,1.18986082711,-0.0421147967148,1.29218946304,-0.657011761198,0.365159000764,0.289627267986,1.08324045847,-2.98830778387,0.13272188,-1.78130810625,0.0460637751494
2.92,0.679858088083,0.460819280274,0.00664970466232,1.18986082711,-0.0421147967148,1.29218946304,-0.657011761198,0.365159000764,0.289627267986,1.08324045847,-2.98830778387,0.13272188,-1.78130810625,0.0460637751494
2.94,0.679858088083,0.460819280274,0.00664970466232,1.18984325024,-0.0421322487424,1.29220690675,-0.657011761198,0.365161185689,0.289625308517,1.0832458313,-2.98829393504,0.132711097229,-1.781305614,0.0460635884039
2.96,0.679858088083,0.460819280274,0.00664970466232,1.18984325024,-0.0421322487424,1.29220690675,-0.657011761198,0.365161185689,0.289625308517,1.0832458313,-2.98829393504,0.132711097229,-1.781305614,0.0460635884039
2.98,0.679858088083,0.460819280274,0.00664970466232,1.18984325024,-0.0421147967148,1.29220690675,-0.657011761198,0.36515937319,0.289627508281,1.08324571999,-2.98830764542,0.132721957801,-1.78130882045,0.0460635893293
3.0,0.679858088083,0.460819280274,0.00664970466232,1.18984325024,-0.0421147967148,1.29220690675,-0.657011761198,0.36515937319,0.289627508281,1.08324571999,-2.98830764542,0.132721957801,-1.78130882045,0.0460635893293
3.02,0.679858088083,0.460819280274,0.00664970466232,1.18986082711,-0.0421147967148,1.29220690675,-0.657029204903,0.365156771667,0.289625401733,1.08323987367,-2.98831641791,0.132705566422,-1.7812928417,0.0460639219816
3.04,0.679858088083,0.460819280274,0.00664970466232,1.18986082711,-0.0421147967148,1.29220690675,-0.657029204903,0.365156771667,0.289625401733,1.08323987367,-2.98831641791,0.132705566422,-1.7812928417,0.0460639219816
3.06,0.679858088083,0.460836723979,0.00664970466232,1.18986082711,-0.0421147967148,1.29220690675,-0.657029204903,0.36515783296,0.28962625971,1.083231744,-2.98832748971,0.132692007511,-1.7812943066,0.0460644970087
3.08,0.679858088083,0.460836723979,0.00664970466232,1.18986082711,-0.0421147967148,1.29220690675,-0.657029204903,0.36515783296,0.28962625971,1.083231744,-2.98832748971,0.132692007511,-1.7812943066,0.0460644970087
3.1,0.679858088083,0.460819280274,0.00664970466232,1.18986082711,-0.0421147967148,1.29220690675,-0.657011761198,0.365156771667,0.289625401733,1.08323987367,-2.9883187192,0.132708229651,-1.78131023382,0.0460639219816
3.12,0.679858088083,0.460819280274,0.00664970466232,1.18986082711,-0.0421147967148,1.29220690675,-0.657011761198,0.365156771667,0.289625401733,1.08323987367,-2.9883187192,0.132708229651,-1.78131023382,0.0460639219816
3.14,0.679858088083,0.460819280274,0.00664970466232,1.18984325024,-0.0421147967148,1.29220690675,-0.657011761198,0.36515937319,0.289627508281,1.08324571999,-2.98830764542,0.132721957801,-1.78130882045,0.0460635893293
3.16,0.679858088083,0.460819280274,0.00664970466232,1.18984325024,-0.0421147967148,1.29220690675,-0.657011761198,0.36515937319,0.289627508281,1.08324571999,-2.98830764542,0.132721957801,-1.78130882045,0.0460635893293
3.18,0.679858088083,0.460819280274,0.00664970466232,1.18984325024,-0.0421147967148,1.29220690675,-0.657029204903,0.36515937319,0.289627508281,1.08324571999,-2.9883053439,0.132719294381,-1.78129142832,0.0460635893293
3.2,0.679858088083,0.460819280274,0.00664970466232,1.18984325024,-0.0421147967148,1.29220690675,-0.657029204903,0.36515937319,0.289627508281,1.08324571999,-2.9883053439,0.132719294381,-1.78129142832,0.0460635893293
3.22,0.679858088083,0.460819280274,0.00664970466232,1.18986082711,-0.0421322487424,1.29220690675,-0.657011761198,0.365158584168,0.28962320197,1.08323998497,-2.98830500885,0.132697369114,-1.78130702726,0.0460639210561
3.24,0.679875531788,0.460819280274,0.00664970466232,1.18984325024,-0.0421147967148,1.29220690675,-0.657011761198,0.365158584168,0.28962320197,1.08323998497,-2.98830500885,0.132697369114,-1.78130702726,0.0460639210561
3.26,0.679875531788,0.460819280274,0.00664970466232,1.18984325024,-0.0421147967148,1.29220690675,-0.657011761198,0.365154320957,0.289633877969,1.08324571999,-2.98830764542,0.132721957801,-1.78129137674,0.0460635893293
3.28,0.679858088083,0.460819280274,0.00664970466232,1.18986082711,-0.0421147967148,1.29220690675,-0.657029204903,0.365154320957,0.289633877969,1.08324571999,-2.98830764542,0.132721957801,-1.78129137674,0.0460635893293
3.3,0.679858088083,0.460819280274,0.00664970466232,1.18986082711,-0.0421147967148,1.29220690675,-0.657029204903,0.365156771667,0.289625401733,1.08323987367,-2.98831641791,0.132705566422,-1.7812928417,0.0460639219816
3.32,0.679858088083,0.460819280274,0.00664970466232,1.18984325024,-0.0421147967148,1.29220690675,-0.657011761198,0.365156771667,0.289625401733,1.08323987367,-2.98831641791,0.132705566422,-1.7812928417,0.0460639219816
3.34,0.679858088083,0.460819280274,0.00664970466232,1.18984325024,-0.0421147967148,1.29220690675,-0.657011761198,0.36515937319,0.289627508281,1.08324571999,-2.98830764542,0.132721957801,-1.78130882045,0.0460635893293
3.36,0.679858088083,0.460819280274,0.00664970466232,1.18984325024,-0.0421147967148,1.29220690675,-0.657011761198,0.36515937319,0.289627508281,1.08324571999,-2.98830764542,0.132721957801,-1.78130882045,0.0460635893293
3.38,0.679858088083,0.460819280274,0.00664970466232,1.18984325024,-0.0421147967148,1.29220690675,-0.657011761198,0.36515937319,0.289627508281,1.08324571999,-2.98830764542,0.132721957801,-1.78130882045,0.0460635893293
3.4,0.679858088083,0.460819280274,0.00664970466232,1.18984325024,-0.0421147967148,1.29220690675,-0.657029204903,0.36515937319,0.289627508281,1.08324571999,-2.9883053439,0.132719294381,-1.78129142832,0.0460635893293
3.42,0.679858088083,0.460819280274,0.00664970466232,1.18984325024,-0.0421147967148,1.29220690675,-0.657029204903,0.36515937319,0.289627508281,1.08324571999,-2.9883053439,0.132719294381,-1.78129142832,0.0460635893293
3.44,0.679858088083,0.460819280274,0.00664970466232,1.18984325024,-0.0421147967148,1.29220690675,-0.657029204903,0.36515937319,0.289627508281,1.08324571999,-2.9883053439,0.132719294381,-1.78129142832,0.0460635893293
3.46,0.679858088083,0.460819280274,0.00664970466232,1.18984325024,-0.0421147967148,1.29220690675,-0.657029204903,0.36515937319,0.289627508281,1.08324571999,-2.9883053439,0.132719294381,-1.78129142832,0.0460635893293
3.48,0.679858088083,0.460819280274,0.00664970466232,1.18986082711,-0.0421147967148,1.29220690675,-0.657011761198,0.365156771667,0.289625401733,1.08323987367,-2.9883187192,0.132708229651,-1.78131023382,0.0460639219816
3.5,0.679858088083,0.460819280274,0.00664970466232,1.18986082711,-0.0421147967148,1.29220690675,-0.657011761198,0.365156771667,0.289625401733,1.08323987367,-2.9883187192,0.132708229651,-1.78131023382,0.0460639219816
3.52,0.679875531788,0.460819280274,0.00663225107435,1.18984325024,-0.0421147967148,1.29220690675,-0.657011761198,0.365158466957,0.289628641746,1.08324575368,-2.98830155897,0.132717075027,-1.7813062043,0.0460635920909
3.54,0.679875531788,0.460819280274,0.00663225107435,1.18984325024,-0.0421147967148,1.29220690675,-0.657011761198,0.365158466957,0.289628641746,1.08324575368,-2.98830155897,0.132717075027,-1.7813062043,0.0460635920909
3.56,0.679858088083,0.460819280274,0.00664970466232,1.18984325024,-0.0421147967148,1.29220690675,-0.657011761198,0.36515937319,0.289627508281,1.08324571999,-2.98830764542,0.132721957801,-1.78130882045,0.0460635893293
3.58,0.679858088083,0.460819280274,0.00664970466232,1.18984325024,-0.0421147967148,1.29220690675,-0.657011761198,0.36515937319,0.289627508281,1.08324571999,-2.98830764542,0.132721957801,-1.78130882045,0.0460635893293
3.6,0.679858088083,0.460819280274,0.00663225107435,1.18984325024,-0.0421147967148,1.29220690675,-0.657011761198,0.365163519098,0.289622271985,1.08324575368,-2.98830155897,0.132717075027,-1.781323648,0.0460635920909
3.62,0.679858088083,0.460819280274,0.00663225107435,1.18984325024,-0.0421147967148,1.29220690675,-0.657011761198,0.365163519098,0.289622271985,1.08324575368,-2.98830155897,0.132717075027,-1.781323648,0.0460635920909
3.64,0.679858088083,0.460819280274,0.00663225107435,1.18984325024,-0.0421322487424,1.29220690675,-0.657011761198,0.365165331562,0.289620072194,1.08324586501,-2.98828784861,0.132706214436,-1.78132044163,0.0460635911655
3.66,0.679858088083,0.460819280274,0.00663225107435,1.18984325024,-0.0421322487424,1.29220690675,-0.657011761198,0.365165331562,0.289620072194,1.08324586501,-2.98828784861,0.132706214436,-1.78132044163,0.0460635911655
3.68,0.679858088083,0.460819280274,0.00664970466232,1.18984325024,-0.0421147967148,1.29220690675,-0.657029204903,0.36515937319,0.289627508281,1.08324571999,-2.9883053439,0.132719294381,-1.78129142832,0.0460635893293
3.7,0.679858088083,0.460819280274,0.00664970466232,1.18984325024,-0.0421147967148,1.29220690675,-0.657029204903,0.36515937319,0.289627508281,1.08324571999,-2.9883053439,0.132719294381,-1.78129142832,0.0460635893293
3.72,0.679875531788,0.460819280274,0.00664970466232,1.18984325024,-0.0421147967148,1.29220690675,-0.657029204903,0.365154320957,0.289633877969,1.08324571999,-2.9883053439,0.132719294381,-1.78127398462,0.0460635893293
3.74,0.679875531788,0.460819280274,0.00664970466232,1.18984325024,-0.0421147967148,1.29220690675,-0.657029204903,0.365154320957,0.289633877969,1.08324571999,-2.9883053439,0.132719294381,-1.78127398462,0.0460635893293
3.76,0.679858088083,0.460819280274,0.00664970466232,1.18986082711,-0.0421147967148,1.29220690675,-0.657011761198,0.365156771667,0.289625401733,1.08323987367,-2.9883187192,0.132708229651,-1.78131023382,0.0460639219816
3.78,0.679858088083,0.460819280274,0.00664970466232,1.18986082711,-0.0421147967148,1.29220690675,-0.657011761198,0.365156771667,0.289625401733,1.08323987367,-2.9883187192,0.132708229651,-1.78131023382,0.0460639219816
3.8,0.679858088083,0.460819280274,0.00664970466232,1.18986082711,-0.0421147967148,1.29220690675,-0.657029204903,0.365156771667,0.289625401733,1.08323987367,-2.98831641791,0.132705566422,-1.7812928417,0.0460639219816
3.82,0.679858088083,0.460819280274,0.00664970466232,1.18986082711,-0.0421147967148,1.29220690675,-0.657029204903,0.365156771667,0.289625401733,1.08323987367,-2.98831641791,0.132705566422,-1.7812928417,0.0460639219816
3.84,0.679858088083,0.460819280274,0.00664970466232,1.18986082711,-0.0421147967148,1.29220690675,-0.657029204903,0.365156771667,0.289625401733,1.08323987367,-2.98831641791,0.132705566422,-1.7812928417,0.0460639219816
3.86,0.679858088083,0.460819280274,0.00664970466232,1.18986082711,-0.0421147967148,1.29220690675,-0.657029204903,0.365156771667,0.289625401733,1.08323987367,-2.98831641791,0.132705566422,-1.7812928417,0.0460639219816
3.88,0.679858088083,0.460819280274,0.00664970466232,1.18986082711,-0.0421147967148,1.29220690675,-0.657011761198,0.365156771667,0.289625401733,1.08323987367,-2.9883187192,0.132708229651,-1.78131023382,0.0460639219816
3.9,0.679858088083,0.460819280274,0.00664970466232,1.18986082711,-0.0421147967148,1.29220690675,-0.657011761198,0.365156771667,0.289625401733,1.08323987367,-2.9883187192,0.132708229651,-1.78131023382,0.0460639219816
3.92,0.679858088083,0.460819280274,0.00664970466232,1.18986082711,-0.0421147967148,1.29220690675,-0.657029204903,0.365156771667,0.289625401733,1.08323987367,-2.98831641791,0.132705566422,-1.7812928417,0.0460639219816
3.94,0.679858088083,0.460819280274,0.00664970466232,1.18986082711,-0.0421147967148,1.29220690675,-0.657029204903,0.365156771667,0.289625401733,1.08323987367,-2.98831641791,0.132705566422,-1.7812928417,0.0460639219816
3.96,0.679858088083,0.460819280274,0.00663225107435,1.18986082711,-0.0421147967148,1.29220690675,-0.657029204903,0.36516091757,0.289620165442,1.08323990735,-2.98831033155,0.132700683551,-1.78130766936,0.0460639247432
3.98,0.679858088083,0.460819280274,0.00663225107435,1.18986082711,-0.0421147967148,1.29220690675,-0.657029204903,0.36516091757,0.289620165442,1.08323990735,-2.98831033155,0.132700683551,-1.78130766936,0.0460639247432
4.0,0.679858088083,0.460819280274,0.00664970466232,1.18984325024,-0.0421147967148,1.29220690675,-0.657011761198,0.36515937319,0.289627508281,1.08324571999,-2.98830764542,0.132721957801,-1.78130882045,0.0460635893293
4.02,0.679858088083,0.460819280274,0.00664970466232,1.18984325024,-0.0421147967148,1.29220690675,-0.657011761198,0.36515937319,0.289627508281,1.08324571999,-2.98830764542,0.132721957801,-1.78130882045,0.0460635893293
4.04,0.679858088083,0.460819280274,0.00664970466232,1.18984325024,-0.0421147967148,1.29220690675,-0.657011761198,0.36515937319,0.289627508281,1.08324571999,-2.98830764542,0.132721957801,-1.78130882045,0.0460635893293
4.06,0.679858088083,0.460819280274,0.00664970466232,1.18984325024,-0.0421147967148,1.29220690675,-0.657011761198,0.36515937319,0.289627508281,1.08324571999,-2.98830764542,0.132721957801,-1.78130882045,0.0460635893293
4.08,0.679858088083,0.460819280274,0.00664970466232,1.18986082711,-0.0421322487424,1.29220690675,-0.657029204903,0.365158584168,0.28962320197,1.08323998497,-2.98830270776,0.132694705649,-1.7812896352,0.0460639210561
4.1,0.679858088083,0.460819280274,0.00664970466232,1.18986082711,-0.0421322487424,1.29220690675,-0.657029204903,0.365158584168,0.28962320197,1.08323998497,-2.98830270776,0.132694705649,-1.7812896352,0.0460639210561
4.12,0.679858088083,0.460819280274,0.00664970466232,1.18986082711,-0.0421147967148,1.29220690675,-0.657029204903,0.365156771667,0.289625401733,1.08323987367,-2.98831641791,0.132705566422,-1.7812928417,0.0460639219816
4.14,0.679858088083,0.460819280274,0.00664970466232,1.18986082711,-0.0421147967148,1.29220690675,-0.657029204903,0.365156771667,0.289625401733,1.08323987367,-2.98831641791,0.132705566422,-1.7812928417,0.0460639219816
4.16,0.679858088083,0.460819280274,0.00664970466232,1.18986082711,-0.0421147967148,1.29220690675,-0.657011761198,0.365156771667,0.289625401733,1.08323987367,-2.9883187192,0.132708229651,-1.78131023382,0.0460639219816
4.18,0.679858088083,0.460819280274,0.00664970466232,1.18986082711,-0.0421147967148,1.29218946304,-0.657011761198,0.365156771667,0.289625401733,1.08323987367,-2.9883187192,0.132708229651,-1.78131023382,0.0460639219816
4.2,0.679858088083,0.460819280274,0.00664970466232,1.18986082711,-0.0421147967148,1.29218946304,-0.657011761198,0.365159000764,0.289627267986,1.08324045847,-2.98830778387,0.13272188,-1.78130810625,0.0460637751494
4.22,0.679858088083,0.460819280274,0.00664970466232,1.18986082711,-0.0421147967148,1.29220690675,-0.657011761198,0.365159000764,0.289627267986,1.08324045847,-2.98830778387,0.13272188,-1.78130810625,0.0460637751494
4.24,0.679858088083,0.460819280274,0.00664970466232,1.18986082711,-0.0421147967148,1.29220690675,-0.657011761198,0.365156771667,0.289625401733,1.08323987367,-2.9883187192,0.132708229651,-1.78131023382,0.0460639219816
4.26,0.679858088083,0.460819280274,0.00664970466232,1.18986082711,-0.0421322487424,1.29220690675,-0.657029204903,0.365158584168,0.28962320197,1.08323998497,-2.98830270776,0.132694705649,-1.7812896352,0.0460639210561
4.28,0.679858088083,0.460819280274,0.00664970466232,1.18986082711,-0.0421322487424,1.29220690675,-0.657029204903,0.365158584168,0.28962320197,1.08323998497,-2.98830270776,0.132694705649,-1.7812896352,0.0460639210561
4.3,0.679858088083,0.460819280274,0.00664970466232,1.18984325024,-0.0421322487424,1.29220690675,-0.657029204903,0.365161185689,0.289625308517,1.0832458313,-2.98829163371,0.132708433573,-1.78128822194,0.0460635884039
4.32,0.679858088083,0.460819280274,0.00664970466232,1.18984325024,-0.0421322487424,1.29220690675,-0.657029204903,0.365161185689,0.289625308517,1.0832458313,-2.98829163371,0.132708433573,-1.78128822194,0.0460635884039
4.34,0.679858088083,0.460819280274,0.00664970466232,1.18986082711,-0.0421147967148,1.29220690675,-0.657011761198,0.365156771667,0.289625401733,1.08323987367,-2.9883187192,0.132708229651,-1.78131023382,0.0460639219816
4.36,0.679858088083,0.460819280274,0.00664970466232,1.18986082711,-0.0421147967148,1.29220690675,-0.657011761198,0.365156771667,0.289625401733,1.08323987367,-2.9883187192,0.132708229651,-1.78131023382,0.0460639219816
4.38,0.679858088083,0.460819280274,0.00664970466232,1.18984325024,-0.0421147967148,1.29220690675,-0.657011761198,0.36515937319,0.289627508281,1.08324571999,-2.98830764542,0.132721957801,-1.78130882045,0.0460635893293
4.4,0.679858088083,0.460819280274,0.00664970466232,1.18984325024,-0.0421147967148,1.29220690675,-0.657011761198,0.36515937319,0.289627508281,1.08324571999,-2.98830764542,0.132721957801,-1.78130882045,0.0460635893293
4.42,0.679858088083,0.460819280274,0.00664970466232,1.18984325024,-0.0421147967148,1.29220690675,-0.657011761198,0.36515937319,0.289627508281,1.08324571999,-2.98830764542,0.132721957801,-1.78130882045,0.0460635893293
4.44,0.679858088083,0.460819280274,0.00664970466232,1.18984325024,-0.0421147967148,1.29220690675,-0.657011761198,0.36515937319,0.289627508281,1.08324571999,-2.98830764542,0.132721957801,-1.78130882045,0.0460635893293
4.46,0.679858088083,0.460819280274,0.00664970466232,1.18984325024,-0.0421147967148,1.29220690675,-0.657011761198,0.36515937319,0.289627508281,1.08324571999,-2.98830764542,0.132721957801,-1.78130882045,0.0460635893293
4.48,0.679858088083,0.460819280274,0.00664970466232,1.18984325024,-0.0421147967148,1.29220690675,-0.657011761198,0.36515937319,0.289627508281,1.08324571999,-2.98830764542,0.132721957801,-1.78130882045,0.0460635893293
4.5,0.679858088083,0.460819280274,0.00664970466232,1.18984325024,-0.0421147967148,1.29220690675,-0.657011761198,0.36515937319,0.289627508281,1.08324571999,-2.98830764542,0.132721957801,-1.78130882045,0.0460635893293
4.52,0.679858088083,0.460819280274,0.00664970466232,1.18984325024,-0.0421147967148,1.29220690675,-0.657011761198,0.36515937319,0.289627508281,1.08324571999,-2.98830764542,0.132721957801,-1.78130882045,0.0460635893293
4.54,0.679858088083,0.460819280274,0.00664970466232,1.18984325024,-0.0421147967148,1.29220690675,-0.657011761198,0.36515937319,0.289627508281,1.08324571999,-2.98830764542,0.132721957801,-1.78130882045,0.0460635893293
4.56,0.679858088083,0.460819280274,0.00664970466232,1.18984325024,-0.0421147967148,1.29220690675,-0.657011761198,0.36515937319,0.289627508281,1.08324571999,-2.98830764542,0.132721957801,-1.78130882045,0.0460635893293
4.58,0.679858088083,0.460819280274,0.00664970466232,1.18986082711,-0.0421147967148,1.29220690675,-0.657011761198,0.365156771667,0.289625401733,1.08323987367,-2.9883187192,0.132708229651,-1.78131023382,0.0460639219816
4.6,0.679858088083,0.460819280274,0.00664970466232,1.18986082711,-0.0421147967148,1.29220690675,-0.657011761198,0.365156771667,0.289625401733,1.08323987367,-2.9883187192,0.132708229651,-1.78131023382,0.0460639219816
4.62,0.679858088083,0.460819280274,0.00664970466232,1.18986082711,-0.0421147967148,1.29220690675,-0.657029204903,0.365156771667,0.289625401733,1.08323987367,-2.98831641791,0.132705566422,-1.7812928417,0.0460639219816
4.64,0.679858088083,0.460819280274,0.00664970466232,1.18986082711,-0.0421147967148,1.29220690675,-0.657029204903,0.365156771667,0.289625401733,1.08323987367,-2.98831641791,0.132705566422,-1.7812928417,0.0460639219816
4.66,0.679858088083,0.460819280274,0.00664970466232,1.18984325024,-0.0421147967148,1.29220690675,-0.657011761198,0.365156771667,0.289625401733,1.08323987367,-2.98831641791,0.132705566422,-1.7812928417,0.0460639219816
4.68,0.679858088083,0.460819280274,0.00664970466232,1.18984325024,-0.0421147967148,1.29220690675,-0.657011761198,0.36515937319,0.289627508281,1.08324571999,-2.98830764542,0.132721957801,-1.78130882045,0.0460635893293
4.7,0.679858088083,0.460819280274,0.00664970466232,1.18984325024,-0.0421147967148,1.29220690675,-0.657011761198,0.36515937319,0.289627508281,1.08324571999,-2.98830764542,0.132721957801,-1.78130882045,0.0460635893293
4.72,0.679858088083,0.460819280274,0.00664970466232,1.18984325024,-0.0421147967148,1.29220690675,-0.657011761198,0.36515937319,0.289627508281,1.08324571999,-2.98830764542,0.132721957801,-1.78130882045,0.0460635893293
4.74,0.679875531788,0.460819280274,0.00664970466232,1.18986082711,-0.0421147967148,1.29220690675,-0.657011761198,0.365151719471,0.289631771376,1.08323987367,-2.9883187192,0.132708229651,-1.78129279011,0.0460639219816
4.76,0.679875531788,0.460819280274,0.00664970466232,1.18986082711,-0.0421147967148,1.29220690675,-0.657011761198,0.365151719471,0.289631771376,1.08323987367,-2.9883187192,0.132708229651,-1.78129279011,0.0460639219816
4.78,0.679858088083,0.460819280274,0.00664970466232,1.18986082711,-0.0421147967148,1.29220690675,-0.657011761198,0.365156771667,0.289625401733,1.08323987367,-2.9883187192,0.132708229651,-1.78131023382,0.0460639219816
4.8,0.679858088083,0.460819280274,0.00664970466232,1.18986082711,-0.0421147967148,1.29220690675,-0.657011761198,0.365156771667,0.289625401733,1.08323987367,-2.9883187192,0.132708229651,-1.78131023382,0.0460639219816
4.82,0.679858088083,0.460819280274,0.00664970466232,1.18986082711,-0.0421147967148,1.29220690675,-0.657011761198,0.365156771667,0.289625401733,1.08323987367,-2.9883187192,0.132708229651,-1.78131023382,0.0460639219816
4.84,0.679858088083,0.460819280274,0.00664970466232,1.18986082711,-0.0421147967148,1.29220690675,-0.657011761198,0.365156771667,0.289625401733,1.08323987367,-2.9883187192,0.132708229651,-1.78131023382,0.0460639219816
4.86,0.679858088083,0.460819280274,0.00664970466232,1.18986082711,-0.0421322487424,1.29220690675,-0.657011761198,0.365158584168,0.28962320197,1.08323998497,-2.98830500885,0.132697369114,-1.78130702726,0.0460639210561
4.88,0.679858088083,0.460819280274,0.00664970466232,1.18986082711,-0.0421322487424,1.29220690675,-0.657011761198,0.365158584168,0.28962320197,1.08323998497,-2.98830500885,0.132697369114,-1.78130702726,0.0460639210561
4.9,0.679858088083,0.460819280274,0.00664970466232,1.18986082711,-0.0421147967148,1.29220690675,-0.657011761198,0.365156771667,0.289625401733,1.08323987367,-2.9883187192,0.132708229651,-1.78131023382,0.0460639219816
4.92,0.679858088083,0.460819280274,0.00664970466232,1.18986082711,-0.0421147967148,1.29220690675,-0.657011761198,0.365156771667,0.289625401733,1.08323987367,-2.9883187192,0.132708229651,-1.78131023382,0.0460639219816
4.94,0.679858088083,0.460819280274,0.00664970466232,1.18986082711,-0.0421147967148,1.29220690675,-0.657029204903,0.365156771667,0.289625401733,1.08323987367,-2.98831641791,0.132705566422,-1.7812928417,0.0460639219816
4.96,0.679858088083,0.460819280274,0.00664970466232,1.18986082711,-0.0421147967148,1.29220690675,-0.657029204903,0.365156771667,0.289625401733,1.08323987367,-2.98831641791,0.132705566422,-1.7812928417,0.0460639219816
4.98,0.679875531788,0.460819280274,0.00664970466232,1.18986082711,-0.0421147967148,1.29220690675,-0.657029204903,0.365151719471,0.289631771376,1.08323987367,-2.98831641791,0.132705566422,-1.78127539799,0.0460639219816
5.0,0.679875531788,0.460819280274,0.00664970466232,1.18986082711,-0.0421147967148,1.29220690675,-0.657029204903,0.365151719471,0.289631771376,1.08323987367,-2.98831641791,0.132705566422,-1.78127539799,0.0460639219816
5.02,0.679858088083,0.460819280274,0.00664970466232,1.18984325024,-0.0421147967148,1.29220690675,-0.657011761198,0.36515937319,0.289627508281,1.08324571999,-2.98830764542,0.132721957801,-1.78130882045,0.0460635893293
5.04,0.679858088083,0.460819280274,0.00664970466232,1.18984325024,-0.0421147967148,1.29220690675,-0.657011761198,0.36515937319,0.289627508281,1.08324571999,-2.98830764542,0.132721957801,-1.78130882045,0.0460635893293
5.06,0.679858088083,0.460819280274,0.00664970466232,1.18984325024,-0.0421147967148,1.29220690675,-0.657029204903,0.36515937319,0.289627508281,1.08324571999,-2.9883053439,0.132719294381,-1.78129142832,0.0460635893293
5.08,0.679858088083,0.460819280274,0.00664970466232,1.18984325024,-0.0421147967148,1.29220690675,-0.657029204903,0.36515937319,0.289627508281,1.08324571999,-2.9883053439,0.132719294381,-1.78129142832,0.0460635893293
5.1,0.679858088083,0.460819280274,0.00664970466232,1.18986082711,-0.0421147967148,1.29220690675,-0.657011761198,0.365156771667,0.289625401733,1.08323987367,-2.9883187192,0.132708229651,-1.78131023382,0.0460639219816
5.12,0.679858088083,0.460819280274,0.00664970466232,1.18986082711,-0.0421147967148,1.29220690675,-0.657011761198,0.365156771667,0.289625401733,1.08323987367,-2.9883187192,0.132708229651,-1.78131023382,0.0460639219816
5.14,0.679858088083,0.460819280274,0.00664970466232,1.18986082711,-0.0421322487424,1.29220690675,-0.657011761198,0.365158584168,0.28962320197,1.08323998497,-2.98830500885,0.132697369114,-1.78130702726,0.0460639210561
5.16,0.679858088083,0.460819280274,0.00664970466232,1.18986082711,-0.0421322487424,1.29220690675,-0.657011761198,0.365158584168,0.28962320197,1.08323998497,-2.98830500885,0.132697369114,-1.78130702726,0.0460639210561
5.18,0.679858088083,0.460819280274,0.00664970466232,1.18986082711,-0.0421147967148,1.29220690675,-0.657029204903,0.365156771667,0.289625401733,1.08323987367,-2.98831641791,0.132705566422,-1.7812928417,0.0460639219816
5.2,0.679858088083,0.460819280274,0.00664970466232,1.18986082711,-0.0421147967148,1.29220690675,-0.657029204903,0.365156771667,0.289625401733,1.08323987367,-2.98831641791,0.132705566422,-1.7812928417,0.0460639219816
5.22,0.679858088083,0.460819280274,0.00664970466232,1.18984325024,-0.0421147967148,1.29220690675,-0.657029204903,0.36515937319,0.289627508281,1.08324571999,-2.9883053439,0.132719294381,-1.78129142832,0.0460635893293
5.24,0.679858088083,0.460819280274,0.00664970466232,1.18984325024,-0.0421147967148,1.29220690675,-0.657029204903,0.36515937319,0.289627508281,1.08324571999,-2.9883053439,0.132719294381,-1.78129142832,0.0460635893293
5.26,0.679858088083,0.460819280274,0.00664970466232,1.18986082711,-0.0421147967148,1.29220690675,-0.657011761198,0.365156771667,0.289625401733,1.08323987367,-2.9883187192,0.132708229651,-1.78131023382,0.0460639219816
5.28,0.679858088083,0.460819280274,0.00664970466232,1.18986082711,-0.0421147967148,1.29220690675,-0.657029204903,0.365156771667,0.289625401733,1.08323987367,-2.9883187192,0.132708229651,-1.78131023382,0.0460639219816
5.3,0.679858088083,0.460819280274,0.00664970466232,1.18986082711,-0.0421147967148,1.29220690675,-0.657029204903,0.365156771667,0.289625401733,1.08323987367,-2.98831641791,0.132705566422,-1.7812928417,0.0460639219816
5.32,0.679858088083,0.460819280274,0.00664970466232,1.18986082711,-0.0421147967148,1.29220690675,-0.657011761198,0.365156771667,0.289625401733,1.08323987367,-2.98831641791,0.132705566422,-1.7812928417,0.0460639219816
5.34,0.679858088083,0.460819280274,0.00664970466232,1.18986082711,-0.0421147967148,1.29220690675,-0.657011761198,0.365156771667,0.289625401733,1.08323987367,-2.9883187192,0.132708229651,-1.78131023382,0.0460639219816
5.36,0.679858088083,0.460819280274,0.00664970466232,1.18984325024,-0.0421147967148,1.29220690675,-0.657011761198,0.365156771667,0.289625401733,1.08323987367,-2.9883187192,0.132708229651,-1.78131023382,0.0460639219816
5.38,0.679858088083,0.460819280274,0.00664970466232,1.18984325024,-0.0421147967148,1.29220690675,-0.657011761198,0.36515937319,0.289627508281,1.08324571999,-2.98830764542,0.132721957801,-1.78130882045,0.0460635893293
5.4,0.679858088083,0.460819280274,0.00664970466232,1.18984325024,-0.0421147967148,1.29218946304,-0.657011761198,0.36515937319,0.289627508281,1.08324571999,-2.98830764542,0.132721957801,-1.78130882045,0.0460635893293
5.42,0.679858088083,0.460819280274,0.00664970466232,1.18984325024,-0.0421147967148,1.29218946304,-0.657011761198,0.365161602279,0.289629374528,1.08324630485,-2.98829671004,0.132735608127,-1.78130669272,0.0460634424982
5.44,0.679858088083,0.460819280274,0.00664970466232,1.18986082711,-0.0421147967148,1.29220690675,-0.657011761198,0.365156771667,0.289625401733,1.08323987367,-2.9883187192,0.132708229651,-1.78131023382,0.0460639219816
5.46,0.679858088083,0.460819280274,0.00664970466232,1.18986082711,-0.0421147967148,1.29220690675,-0.657011761198,0.365156771667,0.289625401733,1.08323987367,-2.9883187192,0.132708229651,-1.78131023382,0.0460639219816
5.48,0.679858088083,0.460836723979,0.00664970466232,1.18984325024,-0.0421147967148,1.29220690675,-0.657029204903,0.365160434562,0.289628366322,1.08323759027,-2.98831641574,0.132705735486,-1.78129289338,0.0460641643613
5.5,0.679858088083,0.460836723979,0.00664970466232,1.18984325024,-0.0421147967148,1.29220690675,-0.657029204903,0.365160434562,0.289628366322,1.08323759027,-2.98831641574,0.132705735486,-1.78129289338,0.0460641643613
5.52,0.679858088083,0.460819280274,0.00664970466232,1.18986082711,-0.0421147967148,1.29220690675,-0.657011761198,0.365156771667,0.289625401733,1.08323987367,-2.9883187192,0.132708229651,-1.78131023382,0.0460639219816
5.54,0.679858088083,0.460819280274,0.00664970466232,1.18986082711,-0.0421147967148,1.29220690675,-0.657011761198,0.365156771667,0.289625401733,1.08323987367,-2.9883187192,0.132708229651,-1.78131023382,0.0460639219816
5.56,0.679858088083,0.460819280274,0.00664970466232,1.18984325024,-0.0421147967148,1.29220690675,-0.657011761198,0.36515937319,0.289627508281,1.08324571999,-2.98830764542,0.132721957801,-1.78130882045,0.0460635893293
5.58,0.679858088083,0.460819280274,0.00664970466232,1.18984325024,-0.0421147967148,1.29220690675,-0.657011761198,0.36515937319,0.289627508281,1.08324571999,-2.98830764542,0.132721957801,-1.78130882045,0.0460635893293
5.6,0.679858088083,0.460819280274,0.00664970466232,1.18984325024,-0.0421147967148,1.29220690675,-0.657029204903,0.36515937319,0.289627508281,1.08324571999,-2.9883053439,0.132719294381,-1.78129142832,0.0460635893293
5.62,0.679858088083,0.460819280274,0.00664970466232,1.18984325024,-0.0421147967148,1.29220690675,-0.657029204903,0.36515937319,0.289627508281,1.08324571999,-2.9883053439,0.132719294381,-1.78129142832,0.0460635893293
5.64,0.679858088083,0.460819280274,0.00664970466232,1.18984325024,-0.0421147967148,1.29220690675,-0.657011761198,0.36515937319,0.289627508281,1.08324571999,-2.98830764542,0.132721957801,-1.78130882045,0.0460635893293
5.66,0.679858088083,0.460819280274,0.00664970466232,1.18984325024,-0.0421147967148,1.29220690675,-0.657011761198,0.36515937319,0.289627508281,1.08324571999,-2.98830764542,0.132721957801,-1.78130882045,0.0460635893293
5.68,0.679858088083,0.460819280274,0.00664970466232,1.18986082711,-0.0421147967148,1.29220690675,-0.657011761198,0.365156771667,0.289625401733,1.08323987367,-2.9883187192,0.132708229651,-1.78131023382,0.0460639219816
5.7,0.679858088083,0.460819280274,0.00664970466232,1.18986082711,-0.0421147967148,1.29220690675,-0.657011761198,0.365156771667,0.289625401733,1.08323987367,-2.9883187192,0.132708229651,-1.78131023382,0.0460639219816
5.72,0.679858088083,0.460819280274,0.00664970466232,1.18984325024,-0.0421147967148,1.29220690675,-0.657029204903,0.36515937319,0.289627508281,1.08324571999,-2.9883053439,0.132719294381,-1.78129142832,0.0460635893293
5.74,0.679858088083,0.460819280274,0.00664970466232,1.18984325024,-0.0421147967148,1.29220690675,-0.657029204903,0.36515937319,0.289627508281,1.08324571999,-2.9883053439,0.132719294381,-1.78129142832,0.0460635893293
5.76,0.679858088083,0.460819280274,0.00664970466232,1.18986082711,-0.0421147967148,1.29220690675,-0.657011761198,0.365156771667,0.289625401733,1.08323987367,-2.9883187192,0.132708229651,-1.78131023382,0.0460639219816
5.78,0.679858088083,0.460819280274,0.00664970466232,1.18986082711,-0.0421147967148,1.29220690675,-0.657011761198,0.365156771667,0.289625401733,1.08323987367,-2.9883187192,0.132708229651,-1.78131023382,0.0460639219816
5.8,0.679858088083,0.460819280274,0.00664970466232,1.18984325024,-0.0421147967148,1.29220690675,-0.657029204903,0.36515937319,0.289627508281,1.08324571999,-2.9883053439,0.132719294381,-1.78129142832,0.0460635893293
5.82,0.679858088083,0.460819280274,0.00664970466232,1.18984325024,-0.0421147967148,1.29220690675,-0.657029204903,0.36515937319,0.289627508281,1.08324571999,-2.9883053439,0.132719294381,-1.78129142832,0.0460635893293
5.84,0.679858088083,0.460819280274,0.00664970466232,1.18984325024,-0.0421147967148,1.29220690675,-0.657011761198,0.36515937319,0.289627508281,1.08324571999,-2.98830764542,0.132721957801,-1.78130882045,0.0460635893293
5.86,0.679858088083,0.460819280274,0.00664970466232,1.18984325024,-0.0421147967148,1.29220690675,-0.657011761198,0.36515937319,0.289627508281,1.08324571999,-2.98830764542,0.132721957801,-1.78130882045,0.0460635893293
5.88,0.679875531788,0.460819280274,0.00664970466232,1.18984325024,-0.0421147967148,1.29218946304,-0.657029204903,0.365156550014,0.289635744255,1.08324630485,-2.98829440828,0.132732944519,-1.78127185689,0.0460634424982
5.9,0.679875531788,0.460819280274,0.00664970466232,1.18984325024,-0.0421147967148,1.29218946304,-0.657029204903,0.365156550014,0.289635744255,1.08324630485,-2.98829440828,0.132732944519,-1.78127185689,0.0460634424982
5.92,0.679858088083,0.460819280274,0.00664970466232,1.18986082711,-0.0421147967148,1.29220690675,-0.657029204903,0.365156771667,0.289625401733,1.08323987367,-2.98831641791,0.132705566422,-1.7812928417,0.0460639219816
5.94,0.679858088083,0.460819280274,0.00664970466232,1.18986082711,-0.0421147967148,1.29220690675,-0.657029204903,0.365156771667,0.289625401733,1.08323987367,-2.98831641791,0.132705566422,-1.7812928417,0.0460639219816
5.96,0.679858088083,0.460819280274,0.00664970466232,1.18986082711,-0.0421322487424,1.29220690675,-0.657011761198,0.365158584168,0.28962320197,1.08323998497,-2.98830500885,0.132697369114,-1.78130702726,0.0460639210561
5.98,0.679858088083,0.460819280274,0.00664970466232,1.18986082711,-0.0421322487424,1.29220690675,-0.657011761198,0.365158584168,0.28962320197,1.08323998497,-2.98830500885,0.132697369114,-1.78130702726,0.0460639210561
6.0,0.679858088083,0.460819280274,0.00664970466232,1.18986082711,-0.0421147967148,1.29220690675,-0.657011761198,0.365156771667,0.289625401733,1.08323987367,-2.9883187192,0.132708229651,-1.78131023382,0.0460639219816
6.02,0.679858088083,0.460819280274,0.00664970466232,1.18986082711,-0.0421147967148,1.29220690675,-0.657011761198,0.365156771667,0.289625401733,1.08323987367,-2.9883187192,0.132708229651,-1.78131023382,0.0460639219816
6.04,0.679858088083,0.460819280274,0.00664970466232,1.18986082711,-0.0421147967148,1.29220690675,-0.657011761198,0.365156771667,0.289625401733,1.08323987367,-2.9883187192,0.132708229651,-1.78131023382,0.0460639219816
6.06,0.679858088083,0.460819280274,0.00664970466232,1.18986082711,-0.0421147967148,1.29220690675,-0.657011761198,0.365156771667,0.289625401733,1.08323987367,-2.9883187192,0.132708229651,-1.78131023382,0.0460639219816
6.08,0.679858088083,0.460819280274,0.00664970466232,1.18986082711,-0.0421147967148,1.29220690675,-0.657011761198,0.365156771667,0.289625401733,1.08323987367,-2.9883187192,0.132708229651,-1.78131023382,0.0460639219816
6.1,0.679858088083,0.460819280274,0.00664970466232,1.18986082711,-0.0421147967148,1.29220690675,-0.657011761198,0.365156771667,0.289625401733,1.08323987367,-2.9883187192,0.132708229651,-1.78131023382,0.0460639219816
6.12,0.679875531788,0.460819280274,0.00664970466232,1.18986082711,-0.0421147967148,1.29220690675,-0.657029204903,0.365151719471,0.289631771376,1.08323987367,-2.98831641791,0.132705566422,-1.78127539799,0.0460639219816
6.14,0.679875531788,0.460819280274,0.00664970466232,1.18986082711,-0.0421147967148,1.29220690675,-0.657029204903,0.365151719471,0.289631771376,1.08323987367,-2.98831641791,0.132705566422,-1.78127539799,0.0460639219816
6.16,0.679858088083,0.460819280274,0.00664970466232,1.18986082711,-0.0421147967148,1.29220690675,-0.657029204903,0.365156771667,0.289625401733,1.08323987367,-2.98831641791,0.132705566422,-1.7812928417,0.0460639219816
6.18,0.679858088083,0.460819280274,0.00664970466232,1.18986082711,-0.0421147967148,1.29220690675,-0.657029204903,0.365156771667,0.289625401733,1.08323987367,-2.98831641791,0.132705566422,-1.7812928417,0.0460639219816
6.2,0.679858088083,0.460819280274,0.00664970466232,1.18984325024,-0.0421147967148,1.29218946304,-0.657029204903,0.365161602279,0.289629374528,1.08324630485,-2.98829440828,0.132732944519,-1.78128930059,0.0460634424982
6.22,0.679858088083,0.460819280274,0.00664970466232,1.18984325024,-0.0421147967148,1.29218946304,-0.657029204903,0.365161602279,0.289629374528,1.08324630485,-2.98829440828,0.132732944519,-1.78128930059,0.0460634424982
6.24,0.679858088083,0.460819280274,0.00664970466232,1.18984325024,-0.0421147967148,1.29220690675,-0.657029204903,0.36515937319,0.289627508281,1.08324571999,-2.9883053439,0.132719294381,-1.78129142832,0.0460635893293
6.26,0.679858088083,0.460819280274,0.00664970466232,1.18984325024,-0.0421147967148,1.29220690675,-0.657029204903,0.36515937319,0.289627508281,1.08324571999,-2.9883053439,0.132719294381,-1.78129142832,0.0460635893293
6.28,0.679858088083,0.460819280274,0.00664970466232,1.18984325024,-0.0421147967148,1.29218946304,-0.657011761198,0.365161602279,0.289629374528,1.08324630485,-2.98829671004,0.132735608127,-1.78130669272,0.0460634424982
6.3,0.679858088083,0.460819280274,0.00664970466232,1.18984325024,-0.0421147967148,1.29218946304,-0.657011761198,0.365161602279,0.289629374528,1.08324630485,-2.98829671004,0.132735608127,-1.78130669272,0.0460634424982
6.32,0.679858088083,0.460819280274,0.00664970466232,1.18986082711,-0.0421147967148,1.29220690675,-0.657011761198,0.365156771667,0.289625401733,1.08323987367,-2.9883187192,0.132708229651,-1.78131023382,0.0460639219816
6.34,0.679858088083,0.460819280274,0.00664970466232,1.18986082711,-0.0421147967148,1.29220690675,-0.657011761198,0.365156771667,0.289625401733,1.08323987367,-2.9883187192,0.132708229651,-1.78131023382,0.0460639219816
6.36,0.679858088083,0.460819280274,0.00664970466232,1.18986082711,-0.0421147967148,1.29220690675,-0.657029204903,0.365156771667,0.289625401733,1.08323987367,-2.98831641791,0.132705566422,-1.7812928417,0.0460639219816
6.38,0.679858088083,0.460819280274,0.00664970466232,1.18986082711,-0.0421147967148,1.29220690675,-0.657029204903,0.365156771667,0.289625401733,1.08323987367,-2.98831641791,0.132705566422,-1.7812928417,0.0460639219816
6.4,0.679858088083,0.460819280274,0.00664970466232,1.18984325024,-0.0421147967148,1.29220690675,-0.657011761198,0.36515937319,0.289627508281,1.08324571999,-2.98830764542,0.132721957801,-1.78130882045,0.0460635893293
6.42,0.679858088083,0.460819280274,0.00664970466232,1.18984325024,-0.0421147967148,1.29220690675,-0.657011761198,0.36515937319,0.289627508281,1.08324571999,-2.98830764542,0.132721957801,-1.78130882045,0.0460635893293
6.44,0.679858088083,0.460836723979,0.00664970466232,1.18984325024,-0.0421147967148,1.29220690675,-0.657029204903,0.365160434562,0.289628366322,1.08323759027,-2.98831641574,0.132705735486,-1.78129289338,0.0460641643613
6.46,0.679858088083,0.460836723979,0.00664970466232,1.18984325024,-0.0421147967148,1.29220690675,-0.657029204903,0.365160434562,0.289628366322,1.08323759027,-2.98831641574,0.132705735486,-1.78129289338,0.0460641643613
6.48,0.679858088083,0.460819280274,0.00663225107435,1.18986082711,-0.0421147967148,1.29220690675,-0.657029204903,0.36516091757,0.289620165442,1.08323990735,-2.98831033155,0.132700683551,-1.78130766936,0.0460639247432
6.5,0.679858088083,0.460819280274,0.00663225107435,1.18986082711,-0.0421147967148,1.29220690675,-0.657029204903,0.36516091757,0.289620165442,1.08323990735,-2.98831033155,0.132700683551,-1.78130766936,0.0460639247432
6.52,0.679858088083,0.460819280274,0.00664970466232,1.18984325024,-0.0421147967148,1.29220690675,-0.657029204903,0.36515937319,0.289627508281,1.08324571999,-2.9883053439,0.132719294381,-1.78129142832,0.0460635893293
6.54,0.679858088083,0.460819280274,0.00664970466232,1.18984325024,-0.0421147967148,1.29220690675,-0.657029204903,0.36515937319,0.289627508281,1.08324571999,-2.9883053439,0.132719294381,-1.78129142832,0.0460635893293
6.56,0.679858088083,0.460819280274,0.00664970466232,1.18986082711,-0.0421147967148,1.29220690675,-0.657029204903,0.365156771667,0.289625401733,1.08323987367,-2.98831641791,0.132705566422,-1.7812928417,0.0460639219816
6.58,0.679858088083,0.460819280274,0.00664970466232,1.18986082711,-0.0421147967148,1.29220690675,-0.657029204903,0.365156771667,0.289625401733,1.08323987367,-2.98831641791,0.132705566422,-1.7812928417,0.0460639219816
6.6,0.679858088083,0.460819280274,0.00664970466232,1.18984325024,-0.0421147967148,1.29218946304,-0.657029204903,0.365161602279,0.289629374528,1.08324630485,-2.98829440828,0.132732944519,-1.78128930059,0.0460634424982
6.62,0.679858088083,0.460819280274,0.00664970466232,1.18984325024,-0.0421147967148,1.29218946304,-0.657029204903,0.365161602279,0.289629374528,1.08324630485,-2.98829440828,0.132732944519,-1.78128930059,0.0460634424982
6.64,0.679858088083,0.460819280274,0.00664970466232,1.18984325024,-0.0421147967148,1.29220690675,-0.657029204903,0.36515937319,0.289627508281,1.08324571999,-2.9883053439,0.132719294381,-1.78129142832,0.0460635893293
6.66,0.679858088083,0.460819280274,0.00664970466232,1.18984325024,-0.0421147967148,1.29220690675,-0.657029204903,0.36515937319,0.289627508281,1.08324571999,-2.9883053439,0.132719294381,-1.78129142832,0.0460635893293
6.68,0.679858088083,0.460819280274,0.00664970466232,1.18986082711,-0.0421147967148,1.29220690675,-0.657029204903,0.365156771667,0.289625401733,1.08323987367,-2.98831641791,0.132705566422,-1.7812928417,0.0460639219816
6.7,0.679858088083,0.460819280274,0.00664970466232,1.18986082711,-0.0421147967148,1.29220690675,-0.657029204903,0.365156771667,0.289625401733,1.08323987367,-2.98831641791,0.132705566422,-1.7812928417,0.0460639219816
6.72,0.679858088083,0.460819280274,0.00664970466232,1.18984325024,-0.0421147967148,1.29220690675,-0.657029204903,0.36515937319,0.289627508281,1.08324571999,-2.9883053439,0.132719294381,-1.78129142832,0.0460635893293
6.74,0.679858088083,0.460819280274,0.00664970466232,1.18984325024,-0.0421147967148,1.29220690675,-0.657029204903,0.36515937319,0.289627508281,1.08324571999,-2.9883053439,0.132719294381,-1.78129142832,0.0460635893293
6.76,0.679858088083,0.460819280274,0.00664970466232,1.18986082711,-0.0421147967148,1.29220690675,-0.657029204903,0.365156771667,0.289625401733,1.08323987367,-2.98831641791,0.132705566422,-1.7812928417,0.0460639219816
6.78,0.679858088083,0.460819280274,0.00664970466232,1.18986082711,-0.0421147967148,1.29220690675,-0.657029204903,0.365156771667,0.289625401733,1.08323987367,-2.98831641791,0.132705566422,-1.7812928417,0.0460639219816
6.8,0.679858088083,0.460819280274,0.00664970466232,1.18984325024,-0.0421147967148,1.29220690675,-0.657011761198,0.36515937319,0.289627508281,1.08324571999,-2.98830764542,0.132721957801,-1.78130882045,0.0460635893293
6.82,0.679858088083,0.460819280274,0.00664970466232,1.18984325024,-0.0421147967148,1.29220690675,-0.657011761198,0.36515937319,0.289627508281,1.08324571999,-2.98830764542,0.132721957801,-1.78130882045,0.0460635893293
6.84,0.679858088083,0.460819280274,0.00664970466232,1.18986082711,-0.0421147967148,1.29220690675,-0.657029204903,0.365156771667,0.289625401733,1.08323987367,-2.98831641791,0.132705566422,-1.7812928417,0.0460639219816
6.86,0.679858088083,0.460819280274,0.00664970466232,1.18986082711,-0.0421147967148,1.29220690675,-0.657029204903,0.365156771667,0.289625401733,1.08323987367,-2.98831641791,0.132705566422,-1.7812928417,0.0460639219816
6.88,0.679875531788,0.460819280274,0.00664970466232,1.18984325024,-0.0420973405261,1.29220690675,-0.657029204903,0.365152507989,0.28963607823,1.08324560871,-2.98831905741,0.132730157735,-1.78127719192,0.0460635902546
6.9,0.679875531788,0.460819280274,0.00664970466232,1.18984325024,-0.0420973405261,1.29220690675,-0.657029204903,0.365152507989,0.28963607823,1.08324560871,-2.98831905741,0.132730157735,-1.78127719192,0.0460635902546
6.92,0.679858088083,0.460819280274,0.00664970466232,1.18986082711,-0.0421322487424,1.29220690675,-0.657011761198,0.365158584168,0.28962320197,1.08323998497,-2.98830500885,0.132697369114,-1.78130702726,0.0460639210561
6.94,0.679858088083,0.460819280274,0.00664970466232,1.18986082711,-0.0421322487424,1.29220690675,-0.657011761198,0.365158584168,0.28962320197,1.08323998497,-2.98830500885,0.132697369114,-1.78130702726,0.0460639210561
6.96,0.679858088083,0.460819280274,0.00663225107435,1.18984325024,-0.0421147967148,1.29220690675,-0.657029204903,0.365163519098,0.289622271985,1.08324575368,-2.98829925753,0.132714411502,-1.7813062559,0.0460635920909
6.98,0.679858088083,0.460819280274,0.00663225107435,1.18984325024,-0.0421147967148,1.29220690675,-0.657029204903,0.365163519098,0.289622271985,1.08324575368,-2.98829925753,0.132714411502,-1.7813062559,0.0460635920909
7.0,0.679858088083,0.460819280274,0.00664970466232,1.18986082711,-0.0421147967148,1.29220690675,-0.657029204903,0.365156771667,0.289625401733,1.08323987367,-2.98831641791,0.132705566422,-1.7812928417,0.0460639219816
7.02,0.679858088083,0.460819280274,0.00664970466232,1.18986082711,-0.0421147967148,1.29220690675,-0.657029204903,0.365156771667,0.289625401733,1.08323987367,-2.98831641791,0.132705566422,-1.7812928417,0.0460639219816
7.04,0.679858088083,0.460819280274,0.00664970466232,1.18984325024,-0.0421147967148,1.29220690675,-0.657029204903,0.36515937319,0.289627508281,1.08324571999,-2.9883053439,0.132719294381,-1.78129142832,0.0460635893293
7.06,0.679858088083,0.460819280274,0.00664970466232,1.18984325024,-0.0421147967148,1.29220690675,-0.657029204903,0.36515937319,0.289627508281,1.08324571999,-2.9883053439,0.132719294381,-1.78129142832,0.0460635893293
7.08,0.679858088083,0.460819280274,0.00664970466232,1.18984325024,-0.0421147967148,1.29218946304,-0.657029204903,0.365161602279,0.289629374528,1.08324630485,-2.98829440828,0.132732944519,-1.78128930059,0.0460634424982
7.1,0.679858088083,0.460819280274,0.00664970466232,1.18984325024,-0.0421147967148,1.29218946304,-0.657029204903,0.365161602279,0.289629374528,1.08324630485,-2.98829440828,0.132732944519,-1.78128930059,0.0460634424982
7.12,0.679858088083,0.460819280274,0.00664970466232,1.18986082711,-0.0421147967148,1.29220690675,-0.657029204903,0.365156771667,0.289625401733,1.08323987367,-2.98831641791,0.132705566422,-1.7812928417,0.0460639219816
7.14,0.679858088083,0.460819280274,0.00664970466232,1.18986082711,-0.0421147967148,1.29220690675,-0.657029204903,0.365156771667,0.289625401733,1.08323987367,-2.98831641791,0.132705566422,-1.7812928417,0.0460639219816
7.16,0.679858088083,0.460819280274,0.00664970466232,1.18984325024,-0.0421147967148,1.29220690675,-0.657011761198,0.36515937319,0.289627508281,1.08324571999,-2.98830764542,0.132721957801,-1.78130882045,0.0460635893293
7.18,0.679858088083,0.460819280274,0.00664970466232,1.18984325024,-0.0421147967148,1.29220690675,-0.657011761198,0.36515937319,0.289627508281,1.08324571999,-2.98830764542,0.132721957801,-1.78130882045,0.0460635893293
7.2,0.679858088083,0.460819280274,0.00664970466232,1.18984325024,-0.0421147967148,1.29220690675,-0.657029204903,0.36515937319,0.289627508281,1.08324571999,-2.9883053439,0.132719294381,-1.78129142832,0.0460635893293
7.22,0.679858088083,0.460819280274,0.00664970466232,1.18984325024,-0.0421147967148,1.29220690675,-0.657011761198,0.36515937319,0.289627508281,1.08324571999,-2.9883053439,0.132719294381,-1.78129142832,0.0460635893293
7.24,0.679858088083,0.460819280274,0.00664970466232,1.18984325024,-0.0421147967148,1.29220690675,-0.657011761198,0.36515937319,0.289627508281,1.08324571999,-2.98830764542,0.132721957801,-1.78130882045,0.0460635893293
7.26,0.679858088083,0.460819280274,0.00664970466232,1.18984325024,-0.0421322487424,1.29220690675,-0.657011761198,0.36515937319,0.289627508281,1.08324571999,-2.98830764542,0.132721957801,-1.78130882045,0.0460635893293
7.28,0.679858088083,0.460819280274,0.00664970466232,1.18984325024,-0.0421322487424,1.29220690675,-0.657011761198,0.365161185689,0.289625308517,1.0832458313,-2.98829393504,0.132711097229,-1.781305614,0.0460635884039
7.3,0.679858088083,0.460819280274,0.00664970466232,1.18984325024,-0.0421322487424,1.29220690675,-0.657011761198,0.365161185689,0.289625308517,1.0832458313,-2.98829393504,0.132711097229,-1.781305614,0.0460635884039
7.32,0.679858088083,0.460819280274,0.00664970466232,1.18986082711,-0.0421147967148,1.29220690675,-0.657029204903,0.365156771667,0.289625401733,1.08323987367,-2.98831641791,0.132705566422,-1.7812928417,0.0460639219816
7.34,0.679858088083,0.460819280274,0.00664970466232,1.18986082711,-0.0421147967148,1.29220690675,-0.657029204903,0.365156771667,0.289625401733,1.08323987367,-2.98831641791,0.132705566422,-1.7812928417,0.0460639219816
7.36,0.679858088083,0.460819280274,0.00664970466232,1.18984325024,-0.0421147967148,1.29220690675,-0.657029204903,0.36515937319,0.289627508281,1.08324571999,-2.9883053439,0.132719294381,-1.78129142832,0.0460635893293
7.38,0.679858088083,0.460819280274,0.00664970466232,1.18984325024,-0.0421147967148,1.29220690675,-0.657029204903,0.36515937319,0.289627508281,1.08324571999,-2.9883053439,0.132719294381,-1.78129142832,0.0460635893293
7.4,0.679858088083,0.460819280274,0.00664970466232,1.18986082711,-0.0421147967148,1.29220690675,-0.657029204903,0.365156771667,0.289625401733,1.08323987367,-2.98831641791,0.132705566422,-1.7812928417,0.0460639219816
7.42,0.679858088083,0.460819280274,0.00664970466232,1.18986082711,-0.0421147967148,1.29220690675,-0.657029204903,0.365156771667,0.289625401733,1.08323987367,-2.98831641791,0.132705566422,-1.7812928417,0.0460639219816
7.44,0.679858088083,0.460819280274,0.00664970466232,1.18984325024,-0.0421147967148,1.29220690675,-0.657029204903,0.36515937319,0.289627508281,1.08324571999,-2.9883053439,0.132719294381,-1.78129142832,0.0460635893293
7.46,0.679858088083,0.460819280274,0.00664970466232,1.18984325024,-0.0421147967148,1.29220690675,-0.657029204903,0.36515937319,0.289627508281,1.08324571999,-2.9883053439,0.132719294381,-1.78129142832,0.0460635893293
7.48,0.679858088083,0.460836723979,0.00664970466232,1.18984325024,-0.0421322487424,1.29220690675,-0.657011761198,0.365162247063,0.28962616656,1.08323770157,-2.98830500667,0.132697538178,-1.78130707895,0.0460641634358
7.5,0.679858088083,0.460836723979,0.00664970466232,1.18984325024,-0.0421322487424,1.29220690675,-0.657011761198,0.365162247063,0.28962616656,1.08323770157,-2.98830500667,0.132697538178,-1.78130707895,0.0460641634358
7.52,0.679858088083,0.460819280274,0.00664970466232,1.18986082711,-0.0421147967148,1.29220690675,-0.657011761198,0.365156771667,0.289625401733,1.08323987367,-2.9883187192,0.132708229651,-1.78131023382,0.0460639219816
7.54,0.679858088083,0.460819280274,0.00664970466232,1.18986082711,-0.0421147967148,1.29220690675,-0.657011761198,0.365156771667,0.289625401733,1.08323987367,-2.9883187192,0.132708229651,-1.78131023382,0.0460639219816
7.56,0.679858088083,0.460819280274,0.00664970466232,1.18984325024,-0.0421147967148,1.29220690675,-0.657029204903,0.36515937319,0.289627508281,1.08324571999,-2.9883053439,0.132719294381,-1.78129142832,0.0460635893293
7.58,0.679858088083,0.460819280274,0.00664970466232,1.18986082711,-0.0421147967148,1.29220690675,-0.657029204903,0.36515937319,0.289627508281,1.08324571999,-2.9883053439,0.132719294381,-1.78129142832,0.0460635893293
7.6,0.679858088083,0.460819280274,0.00664970466232,1.18986082711,-0.0421147967148,1.29220690675,-0.657029204903,0.365156771667,0.289625401733,1.08323987367,-2.98831641791,0.132705566422,-1.7812928417,0.0460639219816
7.62,0.679858088083,0.460819280274,0.00664970466232,1.18984325024,-0.0421147967148,1.29220690675,-0.657029204903,0.36515937319,0.289627508281,1.08324571999,-2.9883053439,0.132719294381,-1.78129142832,0.0460635893293
7.64,0.679858088083,0.460819280274,0.00664970466232,1.18984325024,-0.0421147967148,1.29220690675,-0.657029204903,0.36515937319,0.289627508281,1.08324571999,-2.9883053439,0.132719294381,-1.78129142832,0.0460635893293
7.66,0.679858088083,0.460819280274,0.00664970466232,1.18984325024,-0.0421147967148,1.29218946304,-0.657029204903,0.365161602279,0.289629374528,1.08324630485,-2.98829440828,0.132732944519,-1.78128930059,0.0460634424982
7.68,0.679858088083,0.460819280274,0.00664970466232,1.18984325024,-0.0421147967148,1.29218946304,-0.657029204903,0.365161602279,0.289629374528,1.08324630485,-2.98829440828,0.132732944519,-1.78128930059,0.0460634424982
7.7,0.679858088083,0.460819280274,0.00664970466232,1.18986082711,-0.0421147967148,1.29220690675,-0.657029204903,0.365156771667,0.289625401733,1.08323987367,-2.98831641791,0.132705566422,-1.7812928417,0.0460639219816
7.72,0.679858088083,0.460819280274,0.00664970466232,1.18986082711,-0.0421147967148,1.29220690675,-0.657029204903,0.365156771667,0.289625401733,1.08323987367,-2.98831641791,0.132705566422,-1.7812928417,0.0460639219816
7.74,0.679858088083,0.460819280274,0.00664970466232,1.18984325024,-0.0421147967148,1.29220690675,-0.657011761198,0.36515937319,0.289627508281,1.08324571999,-2.98830764542,0.132721957801,-1.78130882045,0.0460635893293
7.76,0.679858088083,0.460819280274,0.00664970466232,1.18984325024,-0.0421147967148,1.29220690675,-0.657011761198,0.36515937319,0.289627508281,1.08324571999,-2.98830764542,0.132721957801,-1.78130882045,0.0460635893293
7.78,0.679858088083,0.460819280274,0.00664970466232,1.18986082711,-0.0421147967148,1.29218946304,-0.657029204903,0.365159000764,0.289627267986,1.08324045847,-2.98830548234,0.132719216583,-1.78129071412,0.0460637751494
7.8,0.679858088083,0.460819280274,0.00664970466232,1.18986082711,-0.0421147967148,1.29218946304,-0.657029204903,0.365159000764,0.289627267986,1.08324045847,-2.98830548234,0.132719216583,-1.78129071412,0.0460637751494
7.82,0.679858088083,0.460819280274,0.00664970466232,1.18986082711,-0.0421147967148,1.29220690675,-0.657029204903,0.365156771667,0.289625401733,1.08323987367,-2.98831641791,0.132705566422,-1.7812928417,0.0460639219816
7.84,0.679858088083,0.460819280274,0.00664970466232,1.18986082711,-0.0421147967148,1.29220690675,-0.657029204903,0.365156771667,0.289625401733,1.08323987367,-2.98831641791,0.132705566422,-1.7812928417,0.0460639219816
7.86,0.679858088083,0.460819280274,0.00664970466232,1.18986082711,-0.0421147967148,1.29220690675,-0.657011761198,0.365156771667,0.289625401733,1.08323987367,-2.9883187192,0.132708229651,-1.78131023382,0.0460639219816
7.88,0.679858088083,0.460819280274,0.00664970466232,1.18986082711,-0.0421147967148,1.29220690675,-0.657011761198,0.365156771667,0.289625401733,1.08323987367,-2.9883187192,0.132708229651,-1.78131023382,0.0460639219816
7.9,0.679858088083,0.460819280274,0.00663225107435,1.18984325024,-0.0421322487424,1.29220690675,-0.657011761198,0.365165331562,0.289620072194,1.08324586501,-2.98828784861,0.132706214436,-1.78132044163,0.0460635911655
7.92,0.679858088083,0.460819280274,0.00663225107435,1.18984325024,-0.0421322487424,1.29220690675,-0.657011761198,0.365165331562,0.289620072194,1.08324586501,-2.98828784861,0.132706214436,-1.78132044163,0.0460635911655
7.94,0.679875531788,0.460819280274,0.00664970466232,1.18986082711,-0.0420973405261,1.29220690675,-0.657029204903,0.365149906502,0.289633971635,1.08323976238,-2.9883301314,0.132716429741,-1.78127860541,0.0460639229069
7.96,0.679875531788,0.460819280274,0.00664970466232,1.18986082711,-0.0420973405261,1.29220690675,-0.657029204903,0.365149906502,0.289633971635,1.08323976238,-2.9883301314,0.132716429741,-1.78127860541,0.0460639229069
7.98,0.679875531788,0.460836723979,0.00664970466232,1.18986082711,-0.0421147967148,1.29220690675,-0.657029204903,0.365149906502,0.289633971635,1.08323976238,-2.9883301314,0.132716429741,-1.78127860541,0.0460639229069
8.0,0.679875531788,0.460836723979,0.00664970466232,1.18986082711,-0.0421147967148,1.29220690675,-0.657029204903,0.365152780749,0.289632629371,1.083231744,-2.98832748971,0.132692007511,-1.7812768629,0.0460644970087
8.02,0.679875531788,0.460836723979,0.00664970466232,1.18984325024,-0.0421147967148,1.29220690675,-0.657029204903,0.365152780749,0.289632629371,1.083231744,-2.98832748971,0.132692007511,-1.7812768629,0.0460644970087
8.04,0.679875531788,0.460836723979,0.00664970466232,1.18984325024,-0.0421147967148,1.29220690675,-0.657029204903,0.365155382314,0.289634736029,1.08323759027,-2.98831641574,0.132705735486,-1.78127544968,0.0460641643613
8.06,0.679858088083,0.460819280274,0.00664970466232,1.18986082711,-0.0421147967148,1.29220690675,-0.657029204903,0.365155382314,0.289634736029,1.08323759027,-2.98831641574,0.132705735486,-1.78127544968,0.0460641643613
8.08,0.679858088083,0.460819280274,0.00664970466232,1.18986082711,-0.0421147967148,1.29220690675,-0.657029204903,0.365156771667,0.289625401733,1.08323987367,-2.98831641791,0.132705566422,-1.7812928417,0.0460639219816
8.1,0.679858088083,0.460819280274,0.00664970466232,1.18984325024,-0.0421147967148,1.29220690675,-0.657029204903,0.365156771667,0.289625401733,1.08323987367,-2.98831641791,0.132705566422,-1.7812928417,0.0460639219816
8.12,0.679858088083,0.460819280274,0.00664970466232,1.18984325024,-0.0421147967148,1.29220690675,-0.657029204903,0.36515937319,0.289627508281,1.08324571999,-2.9883053439,0.132719294381,-1.78129142832,0.0460635893293
8.14,0.679858088083,0.460819280274,0.00664970466232,1.18984325024,-0.0421147967148,1.29220690675,-0.657029204903,0.36515937319,0.289627508281,1.08324571999,-2.9883053439,0.132719294381,-1.78129142832,0.0460635893293
8.16,0.679858088083,0.460819280274,0.00664970466232,1.18986082711,-0.0421147967148,1.29220690675,-0.657029204903,0.365156771667,0.289625401733,1.08323987367,-2.98831641791,0.132705566422,-1.7812928417,0.0460639219816
8.18,0.679858088083,0.460819280274,0.00664970466232,1.18986082711,-0.0421147967148,1.29220690675,-0.657029204903,0.365156771667,0.289625401733,1.08323987367,-2.98831641791,0.132705566422,-1.7812928417,0.0460639219816
8.2,0.679858088083,0.460819280274,0.00664970466232,1.18984325024,-0.0421147967148,1.29220690675,-0.657011761198,0.36515937319,0.289627508281,1.08324571999,-2.98830764542,0.132721957801,-1.78130882045,0.0460635893293
8.22,0.679858088083,0.460819280274,0.00664970466232,1.18984325024,-0.0421147967148,1.29220690675,-0.657011761198,0.36515937319,0.289627508281,1.08324571999,-2.98830764542,0.132721957801,-1.78130882045,0.0460635893293
8.24,0.679858088083,0.460819280274,0.00664970466232,1.18986082711,-0.0421147967148,1.29220690675,-0.657011761198,0.365156771667,0.289625401733,1.08323987367,-2.9883187192,0.132708229651,-1.78131023382,0.0460639219816
8.26,0.679858088083,0.460819280274,0.00664970466232,1.18986082711,-0.0421147967148,1.29220690675,-0.657011761198,0.365156771667,0.289625401733,1.08323987367,-2.9883187192,0.132708229651,-1.78131023382,0.0460639219816
8.28,0.679858088083,0.460819280274,0.00664970466232,1.18986082711,-0.0420973405261,1.29220690675,-0.657029204903,0.365154958736,0.289627602024,1.08323976238,-2.9883301314,0.132716429741,-1.78129604911,0.0460639229069
8.3,0.679858088083,0.460819280274,0.00664970466232,1.18986082711,-0.0421147967148,1.29220690675,-0.657029204903,0.365154958736,0.289627602024,1.08323976238,-2.9883301314,0.132716429741,-1.78129604911,0.0460639229069
8.32,0.679858088083,0.460819280274,0.00664970466232,1.18986082711,-0.0421147967148,1.29220690675,-0.657029204903,0.365156771667,0.289625401733,1.08323987367,-2.98831641791,0.132705566422,-1.7812928417,0.0460639219816
8.34,0.679858088083,0.460819280274,0.00664970466232,1.18986082711,-0.0421147967148,1.29220690675,-0.657029204903,0.365156771667,0.289625401733,1.08323987367,-2.98831641791,0.132705566422,-1.7812928417,0.0460639219816
8.36,0.679858088083,0.460819280274,0.00664970466232,1.18986082711,-0.0421147967148,1.29220690675,-0.657029204903,0.365156771667,0.289625401733,1.08323987367,-2.98831641791,0.132705566422,-1.7812928417,0.0460639219816
8.38,0.679858088083,0.460819280274,0.00664970466232,1.18986082711,-0.0421147967148,1.29220690675,-0.657029204903,0.365156771667,0.289625401733,1.08323987367,-2.98831641791,0.132705566422,-1.7812928417,0.0460639219816
8.4,0.679858088083,0.460819280274,0.00664970466232,1.18984325024,-0.0421147967148,1.29220690675,-0.657029204903,0.36515937319,0.289627508281,1.08324571999,-2.9883053439,0.132719294381,-1.78129142832,0.0460635893293
8.42,0.679858088083,0.460819280274,0.00664970466232,1.18984325024,-0.0421147967148,1.29220690675,-0.657029204903,0.36515937319,0.289627508281,1.08324571999,-2.9883053439,0.132719294381,-1.78129142832,0.0460635893293
8.44,0.679858088083,0.460819280274,0.00664970466232,1.18984325024,-0.0421147967148,1.29220690675,-0.657029204903,0.36515937319,0.289627508281,1.08324571999,-2.9883053439,0.132719294381,-1.78129142832,0.0460635893293
8.46,0.679858088083,0.460819280274,0.00664970466232,1.18984325024,-0.0421147967148,1.29220690675,-0.657029204903,0.36515937319,0.289627508281,1.08324571999,-2.9883053439,0.132719294381,-1.78129142832,0.0460635893293
8.48,0.679875531788,0.460819280274,0.00663225107435,1.18984325024,-0.0420973405261,1.29220690675,-0.657029204903,0.365156654023,0.289630842034,1.08324564237,-2.98831297102,0.132725274876,-1.78129201943,0.0460635930162
8.5,0.679875531788,0.460819280274,0.00663225107435,1.18984325024,-0.0420973405261,1.29220690675,-0.657029204903,0.365156654023,0.289630842034,1.08324564237,-2.98831297102,0.132725274876,-1.78129201943,0.0460635930162
8.52,0.679858088083,0.460819280274,0.00664970466232,1.18984325024,-0.0421147967148,1.29220690675,-0.657029204903,0.36515937319,0.289627508281,1.08324571999,-2.9883053439,0.132719294381,-1.78129142832,0.0460635893293
8.54,0.679858088083,0.460819280274,0.00664970466232,1.18984325024,-0.0421147967148,1.29218946304,-0.657011761198,0.36515937319,0.289627508281,1.08324571999,-2.9883053439,0.132719294381,-1.78129142832,0.0460635893293
8.56,0.679858088083,0.460819280274,0.00664970466232,1.18984325024,-0.0421147967148,1.29218946304,-0.657011761198,0.365161602279,0.289629374528,1.08324630485,-2.98829671004,0.132735608127,-1.78130669272,0.0460634424982
8.58,0.679858088083,0.460819280274,0.00664970466232,1.18986082711,-0.0420973405261,1.29218946304,-0.657011761198,0.365161602279,0.289629374528,1.08324630485,-2.98829671004,0.132735608127,-1.78130669272,0.0460634424982
8.6,0.679858088083,0.460819280274,0.00664970466232,1.18986082711,-0.0420973405261,1.29218946304,-0.657011761198,0.365157187842,0.289629468266,1.08324034719,-2.98832149755,0.132732743112,-1.78131131392,0.0460637760748
8.62,0.679858088083,0.460819280274,0.00664970466232,1.18986082711,-0.0421147967148,1.29220690675,-0.657029204903,0.365157187842,0.289629468266,1.08324034719,-2.98832149755,0.132732743112,-1.78131131392,0.0460637760748
8.64,0.679858088083,0.460819280274,0.00664970466232,1.18986082711,-0.0421147967148,1.29220690675,-0.657029204903,0.365156771667,0.289625401733,1.08323987367,-2.98831641791,0.132705566422,-1.7812928417,0.0460639219816
8.66,0.679858088083,0.460819280274,0.00664970466232,1.18984325024,-0.0421147967148,1.29220690675,-0.657029204903,0.365156771667,0.289625401733,1.08323987367,-2.98831641791,0.132705566422,-1.7812928417,0.0460639219816
8.68,0.679858088083,0.460819280274,0.00664970466232,1.18984325024,-0.0421147967148,1.29220690675,-0.657029204903,0.36515937319,0.289627508281,1.08324571999,-2.9883053439,0.132719294381,-1.78129142832,0.0460635893293
8.7,0.679858088083,0.460836723979,0.00664970466232,1.18986082711,-0.0421322487424,1.29220690675,-0.657011761198,0.365159645462,0.289624059949,1.08323185531,-2.98831608044,0.132683810047,-1.78130849205,0.0460644960832
8.72,0.679858088083,0.460836723979,0.00664970466232,1.18986082711,-0.0421322487424,1.29220690675,-0.657011761198,0.365159645462,0.289624059949,1.08323185531,-2.98831608044,0.132683810047,-1.78130849205,0.0460644960832
8.74,0.679858088083,0.460836723979,0.00663225107435,1.18986082711,-0.0421147967148,1.29220690675,-0.657029204903,0.365161978863,0.28962102342,1.08323177769,-2.98832140314,0.132687124478,-1.78130913419,0.0460644997702
8.76,0.679858088083,0.460836723979,0.00663225107435,1.18986082711,-0.0421147967148,1.29220690675,-0.657029204903,0.365161978863,0.28962102342,1.08323177769,-2.98832140314,0.132687124478,-1.78130913419,0.0460644997702
8.78,0.679858088083,0.460819280274,0.00664970466232,1.18984325024,-0.0421147967148,1.29220690675,-0.657029204903,0.36515937319,0.289627508281,1.08324571999,-2.9883053439,0.132719294381,-1.78129142832,0.0460635893293
8.8,0.679858088083,0.460819280274,0.00664970466232,1.18984325024,-0.0421147967148,1.29220690675,-0.657029204903,0.36515937319,0.289627508281,1.08324571999,-2.9883053439,0.132719294381,-1.78129142832,0.0460635893293
8.82,0.679858088083,0.460819280274,0.00664970466232,1.18984325024,-0.0421147967148,1.29220690675,-0.657029204903,0.36515937319,0.289627508281,1.08324571999,-2.9883053439,0.132719294381,-1.78129142832,0.0460635893293
8.84,0.679858088083,0.460819280274,0.00664970466232,1.18984325024,-0.0421147967148,1.29220690675,-0.657029204903,0.36515937319,0.289627508281,1.08324571999,-2.9883053439,0.132719294381,-1.78129142832,0.0460635893293
8.86,0.679858088083,0.460819280274,0.00664970466232,1.18986082711,-0.0421147967148,1.29220690675,-0.657011761198,0.365156771667,0.289625401733,1.08323987367,-2.9883187192,0.132708229651,-1.78131023382,0.0460639219816
8.88,0.679858088083,0.460819280274,0.00664970466232,1.18986082711,-0.0421147967148,1.29220690675,-0.657011761198,0.365156771667,0.289625401733,1.08323987367,-2.9883187192,0.132708229651,-1.78131023382,0.0460639219816
8.9,0.679858088083,0.460819280274,0.00664970466232,1.18984325024,-0.0421147967148,1.29220690675,-0.657029204903,0.36515937319,0.289627508281,1.08324571999,-2.9883053439,0.132719294381,-1.78129142832,0.0460635893293
8.92,0.679858088083,0.460819280274,0.00664970466232,1.18984325024,-0.0421147967148,1.29220690675,-0.657029204903,0.36515937319,0.289627508281,1.08324571999,-2.9883053439,0.132719294381,-1.78129142832,0.0460635893293
8.94,0.679858088083,0.460819280274,0.00664970466232,1.18986082711,-0.0421147967148,1.29220690675,-0.657011761198,0.365156771667,0.289625401733,1.08323987367,-2.9883187192,0.132708229651,-1.78131023382,0.0460639219816
8.96,0.679858088083,0.460819280274,0.00664970466232,1.18986082711,-0.0421147967148,1.29220690675,-0.657011761198,0.365156771667,0.289625401733,1.08323987367,-2.9883187192,0.132708229651,-1.78131023382,0.0460639219816
8.98,0.679858088083,0.460819280274,0.00664970466232,1.18986082711,-0.0420973405261,1.29220690675,-0.657029204903,0.365154958736,0.289627602024,1.08323976238,-2.9883301314,0.132716429741,-1.78129604911,0.0460639229069
9.0,0.679858088083,0.460819280274,0.00664970466232,1.18986082711,-0.0420973405261,1.29220690675,-0.657029204903,0.365154958736,0.289627602024,1.08323976238,-2.9883301314,0.132716429741,-1.78129604911,0.0460639229069
9.02,0.679858088083,0.460819280274,0.00664970466232,1.18986082711,-0.0420973405261,1.29220690675,-0.657029204903,0.365154958736,0.289627602024,1.08323976238,-2.9883301314,0.132716429741,-1.78129604911,0.0460639229069
9.04,0.679858088083,0.460819280274,0.00664970466232,1.18986082711,-0.0420973405261,1.29220690675,-0.657029204903,0.365154958736,0.289627602024,1.08323976238,-2.9883301314,0.132716429741,-1.78129604911,0.0460639229069
9.06,0.679858088083,0.460819280274,0.00664970466232,1.18986082711,-0.0421147967148,1.29220690675,-0.657029204903,0.365156771667,0.289625401733,1.08323987367,-2.98831641791,0.132705566422,-1.7812928417,0.0460639219816
9.08,0.679858088083,0.460819280274,0.00664970466232,1.18986082711,-0.0421147967148,1.29220690675,-0.657029204903,0.365156771667,0.289625401733,1.08323987367,-2.98831641791,0.132705566422,-1.7812928417,0.0460639219816
9.1,0.679858088083,0.460819280274,0.00664970466232,1.18984325024,-0.0421147967148,1.29220690675,-0.657029204903,0.36515937319,0.289627508281,1.08324571999,-2.9883053439,0.132719294381,-1.78129142832,0.0460635893293
9.12,0.679858088083,0.460819280274,0.00664970466232,1.18984325024,-0.0421147967148,1.29220690675,-0.657029204903,0.36515937319,0.289627508281,1.08324571999,-2.9883053439,0.132719294381,-1.78129142832,0.0460635893293
9.14,0.679858088083,0.460819280274,0.00664970466232,1.18984325024,-0.0421147967148,1.29220690675,-0.657011761198,0.36515937319,0.289627508281,1.08324571999,-2.9883053439,0.132719294381,-1.78129142832,0.0460635893293
9.16,0.679858088083,0.460819280274,0.00664970466232,1.18984325024,-0.0421147967148,1.29220690675,-0.657011761198,0.36515937319,0.289627508281,1.08324571999,-2.98830764542,0.132721957801,-1.78130882045,0.0460635893293
9.18,0.679858088083,0.460819280274,0.00664970466232,1.18986082711,-0.0421147967148,1.29220690675,-0.657029204903,0.365156771667,0.289625401733,1.08323987367,-2.98831641791,0.132705566422,-1.7812928417,0.0460639219816
9.2,0.679858088083,0.460819280274,0.00664970466232,1.18986082711,-0.0421147967148,1.29220690675,-0.657029204903,0.365156771667,0.289625401733,1.08323987367,-2.98831641791,0.132705566422,-1.7812928417,0.0460639219816
