GitHatake/ROS1EARs/catkin_ws/src/torobo_robot/torobo_EARs2021/scripts/arm/2021_kaiya_csv/test_manipulability_20220119_6.csv
time,joint_1,joint_2,joint_3,joint_4,joint_5,joint_6,joint_7,x,y,z,roll,pitch,yaw,manipulability
0.0,-0.101560705112,0.877551526597,-0.0222354955193,0.408983013474,-0.0384670566474,1.69262036717,-5.2359878015e-05,0.541967007601,-0.0676941468855,1.11336481136,-3.08683756885,0.162700841064,3.02394525641,0.0245563108627
0.02,-0.101578165462,0.877534082892,-0.0222529475468,0.408948092774,-0.0384670566474,1.6925679029,-5.2359878015e-05,0.541974994133,-0.0677091984048,1.11338696164,-3.08682384364,0.162805799634,3.02392229808,0.0245542398371
0.04,-0.101578165462,0.877534082892,-0.0222529475468,0.408948092774,-0.0384670566474,1.6925679029,-5.2359878015e-05,0.541974994133,-0.0677091984048,1.11338696164,-3.08682384364,0.162805799634,3.02392229808,0.0245542398371
0.06,-0.101578165462,0.877516639187,-0.0222529475468,0.408930649069,-0.0384670566474,1.69253301549,-6.98131733957e-05,0.541980381687,-0.0677097686753,1.11340295007,-3.0868209817,0.162874561856,3.02394214141,0.0245531125117
0.08,-0.101578165462,0.877516639187,-0.0222529475468,0.408930649069,-0.0384670566474,1.69253301549,-6.98131733957e-05,0.541980381687,-0.0677097686753,1.11340295007,-3.0868209817,0.162874561856,3.02394214141,0.0245531125117
0.1,-0.101578165462,0.877516639187,-0.0222354955193,0.408913205363,-0.0384670566474,1.69251557178,-5.2359878015e-05,0.541985351759,-0.0677055899423,1.11340876641,-3.08683732232,0.162910160074,3.02393468832,0.0245521717872
0.12,-0.101578165462,0.877516639187,-0.0222354955193,0.408913205363,-0.0384670566474,1.69251557178,-5.2359878015e-05,0.541985351759,-0.0677055899423,1.11340876641,-3.08683732232,0.162910160074,3.02393468832,0.0245521717872
0.14,-0.101578165462,0.877516639187,-0.0222529475468,0.408930649069,-0.0384845086749,1.69249812808,-6.98131733957e-05,0.541985822207,-0.0677133730869,1.11340407099,-3.08680369017,0.162909511747,3.02394193294,0.0245532875341
0.16,-0.101578165462,0.877516639187,-0.0222529475468,0.408930649069,-0.0384845086749,1.69249812808,-6.98131733957e-05,0.541985822207,-0.0677133730869,1.11340407099,-3.08680369017,0.162909511747,3.02394193294,0.0245532875341
0.18,-0.101578165462,0.877551526597,-0.0222529475468,0.408948092774,-0.0384845086749,1.69251557178,-6.98131733957e-05,0.541985221534,-0.0677133382255,1.11337903769,-3.0868032474,0.162839770193,3.02394076378,0.0245547755085
0.2,-0.101578165462,0.877551526597,-0.0222529475468,0.408948092774,-0.0384845086749,1.69251557178,-6.98131733957e-05,0.541985221534,-0.0677133382255,1.11337903769,-3.0868032474,0.162839770193,3.02394076378,0.0245547755085
0.22,-0.101560705112,0.877516639187,-0.0222354955193,0.408948092774,-0.0384845086749,1.69251557178,-5.2359878015e-05,0.541983249384,-0.0676988944355,1.11339792169,-3.08682028106,0.162875392907,3.02394941852,0.0245542300692
0.24,-0.101560705112,0.877516639187,-0.0222354955193,0.408948092774,-0.0384845086749,1.69251557178,-5.2359878015e-05,0.541983249384,-0.0676988944355,1.11339792169,-3.08682028106,0.162875392907,3.02394941852,0.0245542300692
0.26,-0.101578165462,0.877534082892,-0.0222529475468,0.408948092774,-0.0384670566474,1.69251557178,-5.2359878015e-05,0.541983711981,-0.0677102294536,1.11338840387,-3.08682337027,0.162858052281,3.02392520117,0.0245545021774
0.28,-0.101578165462,0.877534082892,-0.0222529475468,0.408948092774,-0.0384670566474,1.69251557178,-5.2359878015e-05,0.541983711981,-0.0677102294536,1.11338840387,-3.08682337027,0.162858052281,3.02392520117,0.0245545021774
0.3,-0.101578165462,0.877534082892,-0.0222354955193,0.408948092774,-0.0384670566474,1.69253301549,-5.2359878015e-05,0.541981413627,-0.0677052886579,1.11338775663,-3.08683712978,0.162840418814,3.02393318105,0.0245544156426
0.32,-0.101578165462,0.877534082892,-0.0222354955193,0.408948092774,-0.0384670566474,1.69253301549,-5.2359878015e-05,0.541981413627,-0.0677052886579,1.11338775663,-3.08683712978,0.162840418814,3.02393318105,0.0245544156426
0.34,-0.101560705112,0.877534082892,-0.0222354955193,0.408948092774,-0.0384670566474,1.69251557178,-5.2359878015e-05,0.541985501653,-0.0676961690649,1.11338823742,-3.08683697201,0.162857836376,3.02395160887,0.0245545030821
0.36,-0.101560705112,0.877534082892,-0.0222354955193,0.408948092774,-0.0384670566474,1.69251557178,-5.2359878015e-05,0.541985501653,-0.0676961690649,1.11338823742,-3.08683697201,0.162857836376,3.02395160887,0.0245545030821
0.38,-0.101578165462,0.877534082892,-0.0222354955193,0.408948092774,-0.0384670566474,1.6925504592,-5.2359878015e-05,0.541978507674,-0.0677049450009,1.11338727589,-3.08683728753,0.162823001252,3.02393221359,0.0245543281958
0.4,-0.101578165462,0.877534082892,-0.0222354955193,0.408948092774,-0.0384670566474,1.6925504592,-5.2359878015e-05,0.541978507674,-0.0677049450009,1.11338727589,-3.08683728753,0.162823001252,3.02393221359,0.0245543281958
0.42,-0.101578165462,0.877534082892,-0.0222354955193,0.408965536479,-0.0384670566474,1.6925679029,-5.2359878015e-05,0.541974144842,-0.0677045266263,1.11338129353,-3.08683741217,0.162788142566,3.02393095319,0.0245552697859
0.44,-0.101578165462,0.877534082892,-0.0222354955193,0.408965536479,-0.0384670566474,1.6925679029,-5.2359878015e-05,0.541974144842,-0.0677045266263,1.11338129353,-3.08683741217,0.162788142566,3.02393095319,0.0245552697859
0.46,-0.101560705112,0.877534082892,-0.0222354955193,0.408965536479,-0.0384670566474,1.6925679029,-5.2359878015e-05,0.541975326904,-0.0676950635578,1.11338129353,-3.08683741217,0.162788142566,3.02394841354,0.0245552697859
0.48,-0.101560705112,0.877534082892,-0.0222354955193,0.408965536479,-0.0384670566474,1.6925679029,-5.2359878015e-05,0.541975326904,-0.0676950635578,1.11338129353,-3.08683741217,0.162788142566,3.02394841354,0.0245552697859
0.5,-0.101578165462,0.877534082892,-0.0222529475468,0.408948092774,-0.0384670566474,1.6925679029,-6.98131733957e-05,0.541974994133,-0.0677091984048,1.11338696164,-3.08682098108,0.16280484419,3.02393995874,0.0245542398371
0.52,-0.101578165462,0.877534082892,-0.0222529475468,0.408948092774,-0.0384670566474,1.6925679029,-6.98131733957e-05,0.541974994133,-0.0677091984048,1.11338696164,-3.08682098108,0.16280484419,3.02393995874,0.0245542398371
0.54,-0.101578165462,0.877551526597,-0.0222529475468,0.408965536479,-0.0384670566474,1.6925679029,-6.98131733957e-05,0.541975418001,-0.0677093154507,1.1133719349,-3.08682066419,0.162769961619,3.02393971155,0.0245555420538
0.56,-0.101578165462,0.877551526597,-0.0222529475468,0.408965536479,-0.0384670566474,1.6925679029,-6.98131733957e-05,0.541975418001,-0.0677093154507,1.1133719349,-3.08682066419,0.162769961619,3.02393971155,0.0245555420538
0.58,-0.101543253085,0.877534082892,-0.0222354955193,0.408965536479,-0.0384496046199,1.6925679029,-5.2359878015e-05,0.541976879401,-0.0676826879172,1.11338113455,-3.0868543873,0.162788027471,3.02396801072,0.0245552696233
0.6,-0.101543253085,0.877534082892,-0.0222354955193,0.408965536479,-0.0384496046199,1.6925679029,-5.2359878015e-05,0.541976879401,-0.0676826879172,1.11338113455,-3.0868543873,0.162788027471,3.02396801072,0.0245552696233
0.62,-0.101578165462,0.877551526597,-0.0222354955193,0.408965536479,-0.0384670566474,1.6925679029,-5.2359878015e-05,0.541976025585,-0.0677047183286,1.11337176845,-3.08683712787,0.162770701117,3.02393099927,0.0245555429586
0.64,-0.101578165462,0.877551526597,-0.0222354955193,0.408965536479,-0.0384670566474,1.6925679029,-5.2359878015e-05,0.541976025585,-0.0677047183286,1.11337176845,-3.08683712787,0.162770701117,3.02393099927,0.0245555429586
0.66,-0.101560705112,0.877534082892,-0.0222354955193,0.408983013474,-0.0384670566474,1.6925679029,-5.2359878015e-05,0.541973867155,-0.0676949887153,1.1133757814,-3.08683737901,0.162770668158,3.02394812004,0.0245563007878
0.68,-0.101560705112,0.877534082892,-0.0222354955193,0.408983013474,-0.0384670566474,1.6925679029,-5.2359878015e-05,0.541973867155,-0.0676949887153,1.1133757814,-3.08683737901,0.162770668158,3.02394812004,0.0245563007878
0.7,-0.101560705112,0.877551526597,-0.0222354955193,0.408965536479,-0.0384496046199,1.6925679029,-5.2359878015e-05,0.541977578863,-0.0676923381715,1.11337160946,-3.08685410304,0.162770586022,3.02395060476,0.0245555427959
0.72,-0.101560705112,0.877551526597,-0.0222354955193,0.408965536479,-0.0384496046199,1.6925679029,-5.2359878015e-05,0.541977578863,-0.0676923381715,1.11337160946,-3.08685410304,0.162770586022,3.02395060476,0.0245555427959
0.74,-0.101578165462,0.877551526597,-0.0222529475468,0.408965536479,-0.0384670566474,1.6925679029,-5.2359878015e-05,0.541977578863,-0.0676923381715,1.11337160946,-3.08685410304,0.162770586022,3.02395060476,0.0245555427959
0.76,-0.101578165462,0.877551526597,-0.0222529475468,0.408965536479,-0.0384670566474,1.6925679029,-5.2359878015e-05,0.541975418001,-0.0677093154507,1.1133719349,-3.08682352613,0.162770917068,3.02392205099,0.0245555420538
0.78,-0.101578165462,0.877551526597,-0.0222529475468,0.408965536479,-0.0384670566474,1.6925679029,-5.2359878015e-05,0.541975418001,-0.0677093154507,1.1133719349,-3.08682352613,0.162770917068,3.02392205099,0.0245555420538
0.8,-0.101578165462,0.877534082892,-0.0222354955193,0.408948092774,-0.0384670566474,1.69253301549,-5.2359878015e-05,0.541981413627,-0.0677052886579,1.11338775663,-3.08683712978,0.162840418814,3.02393318105,0.0245544156426
0.82,-0.101578165462,0.877534082892,-0.0222354955193,0.408948092774,-0.0384670566474,1.69253301549,-5.2359878015e-05,0.541981413627,-0.0677052886579,1.11338775663,-3.08683712978,0.162840418814,3.02393318105,0.0245544156426
0.84,-0.101560705112,0.877551526597,-0.0222529475468,0.408948092774,-0.0384670566474,1.69253301549,-5.2359878015e-05,0.541983869057,-0.0677006142708,1.11337839787,-3.08682324366,0.162823193285,3.02394173993,0.0245546879052
0.86,-0.101560705112,0.877551526597,-0.0222529475468,0.408948092774,-0.0384670566474,1.69253301549,-5.2359878015e-05,0.541983869057,-0.0677006142708,1.11337839787,-3.08682324366,0.162823193285,3.02394173993,0.0245546879052
0.88,-0.101578165462,0.877534082892,-0.0222354955193,0.408948092774,-0.0384670566474,1.69253301549,-6.98131733957e-05,0.541981413627,-0.0677052886579,1.11338775663,-3.08683426659,0.162839463602,3.02395084183,0.0245544156426
0.9,-0.101578165462,0.877534082892,-0.0222354955193,0.408948092774,-0.0384670566474,1.69253301549,-6.98131733957e-05,0.541981413627,-0.0677052886579,1.11338775663,-3.08683426659,0.162839463602,3.02395084183,0.0245544156426
0.92,-0.101560705112,0.877534082892,-0.0222354955193,0.408948092774,-0.0384670566474,1.69251557178,-5.2359878015e-05,0.541985501653,-0.0676961690649,1.11338823742,-3.08683697201,0.162857836376,3.02395160887,0.0245545030821
0.94,-0.101560705112,0.877534082892,-0.0222354955193,0.408948092774,-0.0384670566474,1.69251557178,-5.2359878015e-05,0.541985501653,-0.0676961690649,1.11338823742,-3.08683697201,0.162857836376,3.02395160887,0.0245545030821
0.96,-0.101560705112,0.877534082892,-0.0222529475468,0.408948092774,-0.0384670566474,1.69251557178,-6.98131733957e-05,0.541984894143,-0.067700766218,1.11338840387,-3.08682050677,0.16285709683,3.02396032233,0.0245545021774
0.98,-0.101560705112,0.877534082892,-0.0222529475468,0.408948092774,-0.0384670566474,1.69251557178,-6.98131733957e-05,0.541984894143,-0.067700766218,1.11338840387,-3.08682050677,0.16285709683,3.02396032233,0.0245545021774
1.0,-0.101578165462,0.877516639187,-0.0222354955193,0.408948092774,-0.0384670566474,1.69251557178,-6.98131733957e-05,0.541982438542,-0.0677054405797,1.11339776265,-3.08683439245,0.162874322617,3.0239517633,0.0245542299066
1.02,-0.101578165462,0.877516639187,-0.0222354955193,0.408948092774,-0.0384670566474,1.69251557178,-6.98131733957e-05,0.541982438542,-0.0677054405797,1.11339776265,-3.08683439245,0.162874322617,3.0239517633,0.0245542299066
1.04,-0.101560705112,0.877516639187,-0.0222354955193,0.408948092774,-0.0384670566474,1.6925504592,-5.2359878015e-05,0.541977808728,-0.0676952901594,1.11339680101,-3.08683757181,0.162840442701,3.02394962786,0.0245540550228
1.06,-0.101560705112,0.877516639187,-0.0222354955193,0.408948092774,-0.0384670566474,1.6925504592,-5.2359878015e-05,0.541977808728,-0.0676952901594,1.11339680101,-3.08683757181,0.162840442701,3.02394962786,0.0245540550228
1.08,-0.101560705112,0.877516639187,-0.0222354955193,0.408948092774,-0.0384670566474,1.6925504592,-6.98131733957e-05,0.541977808728,-0.0676952901594,1.11339680101,-3.08683470863,0.162839487497,3.02396728863,0.0245540550228
1.1,-0.101560705112,0.877516639187,-0.0222354955193,0.408948092774,-0.0384670566474,1.6925504592,-6.98131733957e-05,0.541977808728,-0.0676952901594,1.11339680101,-3.08683470863,0.162839487497,3.02396728863,0.0245540550228
1.12,-0.101560705112,0.877516639187,-0.0222354955193,0.408948092774,-0.0384670566474,1.6925504592,-6.98131733957e-05,0.541977808728,-0.0676952901594,1.11339680101,-3.08683470863,0.162839487497,3.02396728863,0.0245540550228
1.14,-0.101560705112,0.877499195482,-0.0222354955193,0.408913205363,-0.0384670566474,1.69253301549,-6.98131733957e-05,0.541977808728,-0.0676952901594,1.11339680101,-3.08683470863,0.162839487497,3.02396728863,0.0245540550228
1.16,-0.101560705112,0.877499195482,-0.0222354955193,0.408913205363,-0.0384670566474,1.69253301549,-6.98131733957e-05,0.541981746534,-0.0676955913462,1.11341781065,-3.08683489997,0.16290922876,3.02396879608,0.0245518111926
1.18,-0.101560705112,0.877516639187,-0.0222354955193,0.408930649069,-0.0384845086749,1.69253301549,-6.98131733957e-05,0.541981746534,-0.0676955913462,1.11341781065,-3.08683489997,0.16290922876,3.02396879608,0.0245518111926
1.2,-0.101560705112,0.877516639187,-0.0222354955193,0.408930649069,-0.0384845086749,1.69253301549,-6.98131733957e-05,0.541981800107,-0.067698625491,1.11340294266,-3.08681760817,0.162874460983,3.02396640456,0.024553113579
1.22,-0.101560705112,0.877516639187,-0.0222354955193,0.408948092774,-0.0384670566474,1.6925679029,-6.98131733957e-05,0.541974902769,-0.0676949465502,1.11339632027,-3.08683486669,0.162822069937,3.02396632113,0.02455396757
1.24,-0.101560705112,0.877516639187,-0.0222354955193,0.408948092774,-0.0384670566474,1.6925679029,-6.98131733957e-05,0.541974902769,-0.0676949465502,1.11339632027,-3.08683486669,0.162822069937,3.02396632113,0.02455396757
1.26,-0.101543253085,0.877551526597,-0.0222354955193,0.408983013474,-0.0384670566474,1.69260279031,-6.98131733957e-05,0.541971117123,-0.06768503465,1.11336529542,-3.08683454901,0.162717436378,3.02398134367,0.024556399017
1.28,-0.101543253085,0.877551526597,-0.0222354955193,0.408983013474,-0.0384670566474,1.69260279031,-6.98131733957e-05,0.541971117123,-0.06768503465,1.11336529542,-3.08683454901,0.162717436378,3.02398134367,0.024556399017
1.3,-0.101525801057,0.877534082892,-0.0222180414112,0.408948092774,-0.0384321484311,1.69263781088,-8.72664606492e-05,0.541971117123,-0.06768503465,1.11336529542,-3.08683454901,0.162717436378,3.02398134367,0.024556399017
1.32,-0.101525801057,0.877534082892,-0.0222180414112,0.408948092774,-0.0384321484311,1.69263781088,-8.72664606492e-05,0.541968849686,-0.0676644119746,1.11338438499,-3.08687991155,0.162733425543,3.02402829774,0.0245538907642
1.34,-0.101578165462,0.877534082892,-0.0222180414112,0.408965536479,-0.0384321484311,1.69260279031,-8.72664606492e-05,0.541968849686,-0.0676644119746,1.11338438499,-3.08687991155,0.162733425543,3.02402829774,0.0245538907642
1.36,-0.101578165462,0.877534082892,-0.0222180414112,0.408965536479,-0.0384321484311,1.69260279031,-8.72664606492e-05,0.541969683021,-0.0676934068773,1.11337984812,-3.08687956156,0.162750952579,3.02397758129,0.0245550954255
1.38,-0.101578165462,0.877534082892,-0.0222180414112,0.408948092774,-0.0384321484311,1.69262036717,-8.72664606492e-05,0.541968211734,-0.0676931353956,1.11338486547,-3.0868797534,0.162750843146,3.02397690003,0.0245539782473
1.4,-0.101578165462,0.877534082892,-0.0222180414112,0.408948092774,-0.0384321484311,1.69262036717,-8.72664606492e-05,0.541968211734,-0.0676931353956,1.11338486547,-3.0868797534,0.162750843146,3.02397690003,0.0245539782473
1.42,-0.101473444975,0.877516639187,-0.0220260545443,0.408948092774,-0.0383274321049,1.69262036717,-8.72664606492e-05,0.54198231367,-0.0675681124297,1.11339161528,-3.08713151669,0.162765239451,3.0241928967,0.0245537140031
1.44,-0.101473444975,0.877516639187,-0.0220260545443,0.408948092774,-0.0383274321049,1.69262036717,-8.72664606492e-05,0.54198231367,-0.0675681124297,1.11339161528,-3.08713151669,0.162765239451,3.0241928967,0.0245537140031
1.46,-0.101490897002,0.877481751777,-0.0215548165118,0.408913205363,-0.0382750718611,1.69263781088,-0.00010471975603,0.541994839508,-0.0674441099845,1.11341627476,-3.08754762392,0.162810576232,3.02444070562,0.0245510455858
1.48,-0.101490897002,0.877481751777,-0.0215548165118,0.408913205363,-0.0382750718611,1.69263781088,-0.00010471975603,0.541994839508,-0.0674441099845,1.11341627476,-3.08754762392,0.162810576232,3.02444070562,0.0245510455858
1.5,-0.101490897002,0.877446797788,-0.0216071767555,0.408895728369,-0.0383274321049,1.69267269829,-8.72664606492e-05,0.541994839508,-0.0674441099845,1.11341627476,-3.08754762392,0.162810576232,3.02444070562,0.0245510455858
1.52,-0.101490897002,0.877446797788,-0.0216071767555,0.408895728369,-0.0383274321049,1.69267269829,-8.72664606492e-05,0.541983791558,-0.0674656635259,1.11344087386,-3.08745965528,0.1628300785,3.02438803763,0.0245492901274
1.54,-0.101490897002,0.877446797788,-0.0215897226474,0.408895728369,-0.0382052554287,1.6927075857,-8.72664606492e-05,0.541983791558,-0.0674656635259,1.11344087386,-3.08745965528,0.1628300785,3.02438803763,0.0245492901274
1.56,-0.101490897002,0.877446797788,-0.0215897226474,0.408895728369,-0.0382052554287,1.6927075857,-8.72664606492e-05,0.54198117242,-0.0674399577295,1.11343864972,-3.08759240369,0.162794239042,3.0244101108,0.0245491148954
1.58,-0.101490897002,0.877464308072,-0.0215897226474,0.408913205363,-0.0382052554287,1.69274247311,-8.72664606492e-05,0.54198117242,-0.0674399577295,1.11343864972,-3.08759240369,0.162794239042,3.0244101108,0.0245491148954
1.6,-0.101490897002,0.877464308072,-0.0215897226474,0.408913205363,-0.0382052554287,1.69274247311,-8.72664606492e-05,0.541975790228,-0.0674393885444,1.1134226157,-3.08759240397,0.162724419804,3.02440796294,0.0245502450457
1.62,-0.101560705112,0.877464308072,-0.0216071767555,0.408913205363,-0.0382576156724,1.6928647122,-6.98131733957e-05,0.541975790228,-0.0674393885444,1.1134226157,-3.08759240397,0.162724419804,3.02440796294,0.0245502450457
1.64,-0.101560705112,0.877464308072,-0.0216071767555,0.408913205363,-0.0382576156724,1.6928647122,-6.98131733957e-05,0.541949000954,-0.0674881717442,1.11341988457,-3.0875318282,0.162603852647,3.02429840346,0.0245496311939
1.66,-0.101560705112,0.877464308072,-0.0216071767555,0.408913205363,-0.0382576156724,1.6928647122,-6.98131733957e-05,0.541949000954,-0.0674881717442,1.11341988457,-3.0875318282,0.162603852647,3.02429840346,0.0245496311939
1.68,-0.10150834903,0.877586480587,-0.0216071767555,0.408983013474,-0.0382227116174,1.69448777573,-6.98131733957e-05,0.541690163239,-0.0674231125682,1.11328645386,-3.0875780935,0.160790973974,3.02426544225,0.0245474801071
1.7,-0.10150834903,0.877586480587,-0.0216071767555,0.408983013474,-0.0382227116174,1.69448777573,-6.98131733957e-05,0.541690163239,-0.0674231125682,1.11328645386,-3.0875780935,0.160790973974,3.02426544225,0.0245474801071
1.72,-0.101490897002,0.877638811702,-0.0216071767555,0.408965536479,-0.0382052554287,1.70197525313,-6.98131733957e-05,0.54045027951,-0.0672639076093,1.113064197,-3.08765872939,0.153279431827,3.02387658832,0.0245087133297
1.74,-0.101490897002,0.877638811702,-0.0216071767555,0.408965536479,-0.0382052554287,1.70197525313,-6.98131733957e-05,0.54045027951,-0.0672639076093,1.113064197,-3.08765872939,0.153279431827,3.02387658832,0.0245087133297
1.76,-0.101578165462,0.877691142818,-0.0216420828912,0.408983013474,-0.0381528993461,1.71426241261,-6.98131733957e-05,0.538396639317,-0.0670682895224,1.11272396333,-3.08778036595,0.140940362223,3.02310922736,0.0244443929163
1.78,-0.101578165462,0.877691142818,-0.0216420828912,0.408983013474,-0.0381528993461,1.71426241261,-6.98131733957e-05,0.538396639317,-0.0670682895224,1.11272396333,-3.08778036595,0.140940362223,3.02310922736,0.0244443929163
1.8,-0.101543253085,0.877656255407,-0.0216420828912,0.408913205363,-0.0382750718611,1.72538017806,-6.98131733957e-05,0.536539051044,-0.0668477684255,1.11251043336,-3.08774515377,0.129944348151,3.02252320174,0.0243768204851
1.82,-0.101543253085,0.877656255407,-0.0216420828912,0.408913205363,-0.0382750718611,1.72538017806,-6.98131733957e-05,0.536539051044,-0.0668477684255,1.11251043336,-3.08774515377,0.129944348151,3.02252320174,0.0243768204851
1.84,-0.101490897002,0.877708653102,-0.0216246287831,0.408948092774,-0.0381878034011,1.73052886739,-6.98131733957e-05,0.535685616206,-0.0666977710118,1.11235924242,-3.08787786001,0.124714865979,3.02231926917,0.0243495318453
1.86,-0.101490897002,0.877708653102,-0.0216246287831,0.408948092774,-0.0381878034011,1.73052886739,-6.98131733957e-05,0.535685616206,-0.0666977710118,1.11235924242,-3.08787786001,0.124714865979,3.02231926917,0.0243495318453
1.88,-0.101525801057,0.877865713027,-0.0216420828912,0.408983013474,-0.0382052554287,1.73183781107,-6.98131733957e-05,0.535476896633,-0.0666991486075,1.11223651243,-3.08785333742,0.123216248284,3.02220103236,0.0243462385069
1.9,-0.101525801057,0.877865713027,-0.0216420828912,0.408983013474,-0.0382052554287,1.73183781107,-6.98131733957e-05,0.535476896633,-0.0666991486075,1.11223651243,-3.08785333742,0.123216248284,3.02220103236,0.0243462385069
1.92,-0.101525801057,0.878825649442,-0.0216420828912,0.409157550393,-0.0382052554287,1.73183781107,-5.2359878015e-05,0.535564246208,-0.0667087442763,1.11166472223,-3.08783748466,0.122082891565,3.02218276751,0.0243712806689
1.94,-0.101525801057,0.878825649442,-0.0216420828912,0.409157550393,-0.0382052554287,1.73183781107,-5.2359878015e-05,0.535564246208,-0.0667087442763,1.11166472223,-3.08783748466,0.122082891565,3.02218276751,0.0243712806689
1.96,-0.10150834903,0.882019578537,-0.0216420828912,0.409576399054,-0.0381528993461,1.73189027534,-6.98131733957e-05,0.53585790789,-0.0667218872283,1.10981015578,-3.08782716762,0.118416911364,3.0222234959,0.0244447322104
1.98,-0.10150834903,0.882019578537,-0.0216420828912,0.409576399054,-0.0381528993461,1.73189027534,-6.98131733957e-05,0.53585790789,-0.0667218872283,1.10981015578,-3.08782716762,0.118416911364,3.0222234959,0.0244447322104
2.0,-0.10150834903,0.889524499647,-0.0216420828912,0.409541511644,-0.0381179911299,1.73183781107,-6.98131733957e-05,0.536637931407,-0.0667954818163,1.10576703874,-3.08772596619,0.111000157435,3.02224796442,0.0245579713007
2.02,-0.10150834903,0.889524499647,-0.0216420828912,0.409541511644,-0.0381179911299,1.73183781107,-6.98131733957e-05,0.536637931407,-0.0667954818163,1.10576703874,-3.08772596619,0.111000157435,3.02224796442,0.0245579713007
2.04,-0.101525801057,0.899420539942,-0.0216420828912,0.409576399054,-0.0382401636449,1.73176803625,-6.98131733957e-05,0.537608453647,-0.0669247618162,1.10040355112,-3.08742941476,0.101141530941,3.02223285047,0.0247100568692
2.06,-0.101525801057,0.899420539942,-0.0216420828912,0.409576399054,-0.0382401636449,1.73176803625,-6.98131733957e-05,0.537608453647,-0.0669247618162,1.10040355112,-3.08742941476,0.101141530941,3.02223285047,0.0247100568692
2.08,-0.101490897002,0.912126548082,-0.0216420828912,0.409332054024,-0.0382401636449,1.73155857863,-6.98131733957e-05,0.538831690664,-0.0670299967246,1.09359200973,-3.08720203575,0.0888909954199,3.02230479887,0.0248856461192
2.1,-0.101490897002,0.912126548082,-0.0216420828912,0.409332054024,-0.0382401636449,1.73155857863,-6.98131733957e-05,0.538831690664,-0.0670299967246,1.09359200973,-3.08720203575,0.0888909954199,3.02230479887,0.0248856461192
2.12,-0.101455992947,0.924099454552,-0.0216071767555,0.409401895423,-0.0381878034011,1.7314713601,-6.98131733957e-05,0.539860586396,-0.067098225121,1.08706537583,-3.0870666113,0.0769362933556,3.02238826816,0.0250646924407
2.14,-0.101455992947,0.924099454552,-0.0216071767555,0.409401895423,-0.0381878034011,1.7314713601,-6.98131733957e-05,0.539860586396,-0.067098225121,1.08706537583,-3.0870666113,0.0769362933556,3.02238826816,0.0250646924407
2.16,-0.101455992947,0.936159712707,-0.0216071767555,0.409035377878,-0.0381354431574,1.7314539164,-6.98131733957e-05,0.540847386455,-0.0671884618473,1.0806111254,-3.08690500823,0.065261353772,3.02241906153,0.0252151387493
2.18,-0.101455992947,0.936159712707,-0.0216071767555,0.409035377878,-0.0381354431574,1.7314539164,-6.98131733957e-05,0.540847386455,-0.0671884618473,1.0806111254,-3.08690500823,0.065261353772,3.02241906153,0.0252151387493
2.2,-0.101438532597,0.945392492732,-0.0216071767555,0.409174994099,-0.0381005391024,1.73138400842,-6.98131733957e-05,0.541517776617,-0.0672420278232,1.07553542176,-3.08677439545,0.0559599283579,3.0224534657,0.025353374613
2.22,-0.101438532597,0.945392492732,-0.0216071767555,0.409174994099,-0.0381005391024,1.73138400842,-6.98131733957e-05,0.541517776617,-0.0672420278232,1.07553542176,-3.08677439545,0.0559599283579,3.0224534657,0.025353374613
2.24,-0.10142108057,0.953420991312,-0.0215897226474,0.408895728369,-0.0381703513736,1.7313316773,-6.98131733957e-05,0.542102845435,-0.0672982020963,1.07123841935,-3.08657930731,0.0482645144591,3.02248429395,0.0254478371936
2.26,-0.10142108057,0.953420991312,-0.0215897226474,0.408895728369,-0.0381703513736,1.7313316773,-6.98131733957e-05,0.542102845435,-0.0672982020963,1.07123841935,-3.08657930731,0.0482645144591,3.02248429395,0.0254478371936
2.28,-0.101455992947,0.959983419712,-0.0216071767555,0.409157550393,-0.0379609103986,1.73141902899,-6.98131733957e-05,0.542481518256,-0.0673260287798,1.06757192713,-3.08665301139,0.0413525404702,3.02246927168,0.025552527306
2.3,-0.101455992947,0.959983419712,-0.0216071767555,0.409157550393,-0.0379609103986,1.73141902899,-6.98131733957e-05,0.542481518256,-0.0673260287798,1.06757192713,-3.08665301139,0.0413525404702,3.02246927168,0.025552527306
2.32,-0.101455992947,0.964416584242,-0.0216071767555,0.409105185989,-0.0380307226699,1.73143647269,-6.98131733957e-05,0.54275358652,-0.0673652209668,1.06516480979,-3.08650645558,0.0369556153911,3.02246114004,0.0256091335176
2.34,-0.101455992947,0.964416584242,-0.0216071767555,0.409105185989,-0.0380307226699,1.73143647269,-6.98131733957e-05,0.54275358652,-0.0673652209668,1.06516480979,-3.08650645558,0.0369556153911,3.02246114004,0.0256091335176
2.36,-0.10142108057,0.968448277237,-0.0216071767555,0.409140073399,-0.0378561899111,1.73157602233,-6.98131733957e-05,0.542968913707,-0.0673382738518,1.06294700314,-3.08660659916,0.0327488073568,3.02251814457,0.0256643884844
2.38,-0.10142108057,0.968448277237,-0.0216071767555,0.409140073399,-0.0378561899111,1.73157602233,-6.98131733957e-05,0.542968913707,-0.0673382738518,1.06294700314,-3.08660659916,0.0327488073568,3.02251814457,0.0256643884844
2.4,-0.10142108057,0.971869107657,-0.0216071767555,0.409157550393,-0.0377689256124,1.73176803625,-6.98131733957e-05,0.54313032562,-0.0673394953002,1.06106849285,-3.08663214293,0.0291185499659,3.02252311306,0.025709761805
2.42,-0.10142108057,0.971869107657,-0.0216071767555,0.409157550393,-0.0377689256124,1.73176803625,-6.98131733957e-05,0.54313032562,-0.0673394953002,1.06106849285,-3.08663214293,0.0291185499659,3.02252311306,0.025709761805
2.44,-0.10142108057,0.975726297022,-0.0216071767555,0.409192437804,-0.0374722203386,1.7331294442,-6.98131733957e-05,0.543113692493,-0.0672838632674,1.05893874894,-3.0868574533,0.0238651226482,3.02249734125,0.0257541798178
2.46,-0.10142108057,0.975726297022,-0.0216071767555,0.409192437804,-0.0374722203386,1.7331294442,-6.98131733957e-05,0.543113692493,-0.0672838632674,1.05893874894,-3.0868574533,0.0238651226482,3.02249734125,0.0257541798178
2.48,-0.101438532597,0.978483933752,-0.0216071767555,0.409192437804,-0.0365122880849,1.73897628121,-8.72664606492e-05,0.542290971133,-0.0670303848242,1.05740293252,-3.08775861078,0.0152602555646,3.02233869518,0.0257524749824
2.5,-0.101438532597,0.978483933752,-0.0216071767555,0.409192437804,-0.0365122880849,1.73897628121,-8.72664606492e-05,0.542290971133,-0.0670303848242,1.05740293252,-3.08775861078,0.0152602555646,3.02233869518,0.0257524749824
2.52,-0.10142108057,0.979862718827,-0.0216071767555,0.409140073399,-0.0360759541074,1.74646375862,-6.98131733957e-05,0.541114563922,-0.0668044176592,1.05664833433,-3.08816835118,0.00645430394119,3.02201309154,0.0257174737733
2.54,-0.10142108057,0.979862718827,-0.0216071767555,0.409140073399,-0.0360759541074,1.74646375862,-6.98131733957e-05,0.541114563922,-0.0668044176592,1.05664833433,-3.08816835118,0.00645430394119,3.02201309154,0.0257174737733
2.56,-0.101438532597,0.980107063857,-0.0216246287831,0.409192437804,-0.0359537815924,1.75332286316,-6.98131733957e-05,0.539964078308,-0.0666595683513,1.05649552845,-3.08827073965,-0.000692579065948,3.02164084851,0.0256769157997
2.58,-0.101438532597,0.980107063857,-0.0216246287831,0.409192437804,-0.0359537815924,1.75332286316,-6.98131733957e-05,0.539964078308,-0.0666595683513,1.05649552845,-3.08827073965,-0.000692579065948,3.02164084851,0.0256769157997
2.6,-0.101473444975,0.980124574141,-0.0216420828912,0.409192437804,-0.0359886898086,1.75704036973,-6.98131733957e-05,0.539333961414,-0.0666130401705,1.05648810291,-3.08822133909,-0.00442169559193,3.02139156351,0.0256512376751
2.62,-0.101473444975,0.980124574141,-0.0216420828912,0.409192437804,-0.0359886898086,1.75704036973,-6.98131733957e-05,0.539333961414,-0.0666130401705,1.05648810291,-3.08822133909,-0.00442169559193,3.02139156351,0.0256512376751
2.64,-0.10142108057,0.980473581402,-0.0216246287831,0.409297166614,-0.0359014213487,1.75859379159,-6.98131733957e-05,0.539083320249,-0.0665351617662,1.05626822018,-3.08831408045,-0.00642769556739,3.02138520883,0.025651126886
2.66,-0.10142108057,0.980473581402,-0.0216246287831,0.409297166614,-0.0359014213487,1.75859379159,-6.98131733957e-05,0.539083320249,-0.0665351617662,1.05626822018,-3.08831408045,-0.00642769556739,3.02138520883,0.025651126886
2.68,-0.101455992947,0.981590644322,-0.0216420828912,0.409454226539,-0.0355523558311,1.75866356641,-6.98131733957e-05,0.53911402405,-0.066503783882,1.05561259448,-3.08862092929,-0.00777443432206,3.02139889299,0.0256745242874
2.7,-0.101455992947,0.981590644322,-0.0216420828912,0.409454226539,-0.0355523558311,1.75866356641,-6.98131733957e-05,0.53911402405,-0.066503783882,1.05561259448,-3.08862092929,-0.00777443432206,3.02139889299,0.0256745242874
2.72,-0.10150834903,0.983388344636,-0.0216769890268,0.409419339129,-0.0355174517761,1.75868101012,-6.98131733957e-05,0.53920086477,-0.0665442793909,1.05464651852,-3.08859277304,-0.00955415568984,3.02133283918,0.0256954991626
2.74,-0.10150834903,0.983388344636,-0.0216769890268,0.409419339129,-0.0355174517761,1.75868101012,-6.98131733957e-05,0.53920086477,-0.0665442793909,1.05464651852,-3.08859277304,-0.00955415568984,3.02133283918,0.0256954991626
2.76,-0.101455992947,0.985866682347,-0.0216420828912,0.409436782834,-0.0354999955874,1.75864612271,-6.98131733957e-05,0.539330424847,-0.0665170265255,1.0532945352,-3.08859248974,-0.0120153767105,3.02140910528,0.0257286492647
2.78,-0.101455992947,0.985866682347,-0.0216420828912,0.409436782834,-0.0354999955874,1.75864612271,-6.98131733957e-05,0.539330424847,-0.0665170265255,1.0532945352,-3.08859248974,-0.0120153767105,3.02140910528,0.0257286492647
2.8,-0.101438532597,0.988589365087,-0.0216420828912,0.409471703534,-0.0354301833161,1.75868101012,-6.98131733957e-05,0.53945177269,-0.0665081664366,1.05180438184,-3.08861001126,-0.0148080207219,3.02143642167,0.025765325031
2.82,-0.101438532597,0.988589365087,-0.0216420828912,0.409471703534,-0.0354301833161,1.75868101012,-6.98131733957e-05,0.53945177269,-0.0665081664366,1.05180438184,-3.08861001126,-0.0148080207219,3.02143642167,0.025765325031
2.84,-0.101473444975,0.990980484272,-0.0216420828912,0.409436782834,-0.0353778230724,1.75869845382,-8.72664606492e-05,0.539561489144,-0.0665294396056,1.05051468884,-3.08861738187,-0.0171826647972,3.0214277047,0.0257935256254
2.86,-0.101473444975,0.990980484272,-0.0216420828912,0.409436782834,-0.0353778230724,1.75869845382,-8.72664606492e-05,0.539561489144,-0.0665294396056,1.05051468884,-3.08861738187,-0.0171826647972,3.0214277047,0.0257935256254
2.88,-0.101455992947,0.993371603457,-0.0216246287831,0.409471703534,-0.0354476353437,1.75871589753,-6.98131733957e-05,0.539661442767,-0.0665373059286,1.049205225,-3.08851786916,-0.0196243615642,3.02142212886,0.0258257999365
2.9,-0.101455992947,0.993371603457,-0.0216246287831,0.409471703534,-0.0354476353437,1.75871589753,-6.98131733957e-05,0.539661442767,-0.0665373059286,1.049205225,-3.08851786916,-0.0196243615642,3.02142212886,0.0258257999365
2.92,-0.101455992947,0.995500867327,-0.0216246287831,0.409489147239,-0.0352381985299,1.75876822865,-6.98131733957e-05,0.539747080658,-0.0665108214162,1.04804084979,-3.08868443648,-0.0218250096738,3.02145729824,0.0258533326434
2.94,-0.101455992947,0.995500867327,-0.0216246287831,0.409489147239,-0.0352381985299,1.75876822865,-6.98131733957e-05,0.539747080658,-0.0665108214162,1.04804084979,-3.08868443648,-0.0218250096738,3.02145729824,0.0258533326434
2.96,-0.101490897002,0.997036778907,-0.0216420828912,0.409925472894,-0.0352207423412,1.75885558033,-6.98131733957e-05,0.539742285144,-0.0665324635442,1.04707873707,-3.08865517129,-0.0238840232196,3.02140256288,0.0258983686609
2.98,-0.101490897002,0.997036778907,-0.0216420828912,0.409925472894,-0.0352207423412,1.75885558033,-6.98131733957e-05,0.539742285144,-0.0665324635442,1.04707873707,-3.08865517129,-0.0238840232196,3.02140256288,0.0258983686609
3.0,-0.101490897002,0.999410454386,-0.0216071767555,0.410012757999,-0.0352207423412,1.75911736906,-6.98131733957e-05,0.53978649855,-0.0665273528448,1.04576343373,-3.08863917984,-0.0266065227838,3.02140563478,0.025931506645
3.02,-0.101490897002,0.999410454386,-0.0216071767555,0.410012757999,-0.0352207423412,1.75911736906,-6.98131733957e-05,0.53978649855,-0.0665273528448,1.04576343373,-3.08863917984,-0.0266065227838,3.02140563478,0.025931506645
3.04,-0.101490897002,1.00293601362,-0.0216071767555,0.410117453519,-0.0351509300699,1.76021685512,-6.98131733957e-05,0.539729193449,-0.0665066967904,1.04382082999,-3.08863975591,-0.0313347737039,3.02135667204,0.0259738391664
3.06,-0.101490897002,1.00293601362,-0.0216071767555,0.410117453519,-0.0351509300699,1.76021685512,-6.98131733957e-05,0.539729193449,-0.0665066967904,1.04382082999,-3.08863975591,-0.0313347737039,3.02135667204,0.0259738391664
3.08,-0.101525801057,1.00656630166,-0.0216071767555,0.410082566109,-0.0352381985299,1.76292222731,-6.98131733957e-05,0.539409819779,-0.0664989894052,1.04187441032,-3.0884806148,-0.0376302353147,3.02116003002,0.0259969782427
3.1,-0.101525801057,1.00656630166,-0.0216071767555,0.410082566109,-0.0352381985299,1.76292222731,-6.98131733957e-05,0.539409819779,-0.0664989894052,1.04187441032,-3.0884806148,-0.0376302353147,3.02116003002,0.0259969782427
3.12,-0.101490897002,1.00989984697,-0.0216071767555,0.410274546734,-0.0352032903136,1.76412650876,-6.98131733957e-05,0.539305149355,-0.0664602571546,1.0400155094,-3.08844806573,-0.0423580610215,3.02113152204,0.0260406686258
3.14,-0.101490897002,1.00989984697,-0.0216071767555,0.410274546734,-0.0352032903136,1.76412650876,-6.98131733957e-05,0.539305149355,-0.0664602571546,1.0400155094,-3.08844806573,-0.0423580610215,3.02113152204,0.0260406686258
3.16,-0.101525801057,1.01276221251,-0.0216071767555,0.410222182329,-0.0352905587736,1.76435327693,-6.98131733957e-05,0.539366942727,-0.0664992834493,1.03847799826,-3.08830717754,-0.0453931173601,3.02106636584,0.0260707155606
3.18,-0.101525801057,1.01276221251,-0.0216071767555,0.410222182329,-0.0352905587736,1.76435327693,-6.98131733957e-05,0.539366942727,-0.0664992834493,1.03847799826,-3.08830717754,-0.0453931173601,3.02106636584,0.0260707155606
3.2,-0.101525801057,1.01459480024,-0.0216071767555,0.410204738624,-0.0352556505574,1.76435327693,-6.98131733957e-05,0.539429950451,-0.0664997901312,1.03748696948,-3.08830702643,-0.0472082893536,3.02107179124,0.0260918822186
3.22,-0.101525801057,1.01459480024,-0.0216071767555,0.410204738624,-0.0352556505574,1.76435327693,-6.98131733957e-05,0.539429950451,-0.0664997901312,1.03748696948,-3.08830702643,-0.0472082893536,3.02107179124,0.0260918822186
3.24,-0.101490897002,1.01518821911,-0.0215548165118,0.410239626034,-0.0351683862586,1.7644231849,-6.98131733957e-05,0.539438576756,-0.0664532541355,1.03715372083,-3.08842626811,-0.0479080219599,3.02114831538,0.0261006607924
3.26,-0.101490897002,1.01518821911,-0.0215548165118,0.410239626034,-0.0351683862586,1.7644231849,-6.98131733957e-05,0.539438576756,-0.0664532541355,1.03715372083,-3.08842626811,-0.0479080219599,3.02114831538,0.0261006607924
3.28,-0.10150834903,1.01499620519,-0.0214850021599,0.410169817924,-0.0351509300699,1.76456273454,-8.72664606492e-05,0.53941912788,-0.0664389647657,1.03727850551,-3.08850758303,-0.0477878270431,3.02118539748,0.0260930827837
3.3,-0.10150834903,1.01499620519,-0.0214850021599,0.410169817924,-0.0351509300699,1.76456273454,-8.72664606492e-05,0.53941912788,-0.0664389647657,1.03727850551,-3.08850758303,-0.0477878270431,3.02118539748,0.0260930827837
3.32,-0.101525801057,1.01490898667,-0.0213628296449,0.410134930514,-0.0351334780424,1.76510388888,-8.72664606492e-05,0.539332617755,-0.0664030391129,1.03733903548,-3.08862933235,-0.0482082729328,3.02121277229,0.0260859272325
3.34,-0.101525801057,1.01490898667,-0.0213628296449,0.410134930514,-0.0351334780424,1.76510388888,-8.72664606492e-05,0.539332617755,-0.0664030391129,1.03733903548,-3.08862933235,-0.0482082729328,3.02121277229,0.0260859272325
3.36,-0.101490897002,1.01478681415,-0.0211708448587,0.410187294918,-0.0350985698262,1.76571468487,-8.72664606492e-05,0.539228318763,-0.0663157230881,1.03739316751,-3.08882753419,-0.0487518404754,3.02133049034,0.0260831151815
3.38,-0.101490897002,1.01478681415,-0.0211708448587,0.410187294918,-0.0350985698262,1.76571468487,-8.72664606492e-05,0.539228318763,-0.0663157230881,1.03739316751,-3.08882753419,-0.0487518404754,3.02133049034,0.0260831151815
3.4,-0.101490897002,1.01443774031,-0.0211010305068,0.410187294918,-0.0350113055274,1.76588925508,-8.72664606492e-05,0.539191564906,-0.0662786249875,1.0375827742,-3.08897943752,-0.0485791504925,3.02137825644,0.0260776019618
3.42,-0.101490897002,1.01443774031,-0.0211010305068,0.410187294918,-0.0350113055274,1.76588925508,-8.72664606492e-05,0.539191564906,-0.0662786249875,1.0375827742,-3.08897943752,-0.0485791504925,3.02137825644,0.0260776019618
3.44,-0.101525801057,1.01400138137,-0.0211184846149,0.410239626034,-0.0350636657711,1.76597647361,-8.72664606492e-05,0.53915219048,-0.0663068982189,1.03780601613,-3.08892031782,-0.0482814796522,3.02131810719,0.0260748424186
3.46,-0.101525801057,1.01400138137,-0.0211184846149,0.410239626034,-0.0350636657711,1.76597647361,-8.72664606492e-05,0.53915219048,-0.0663068982189,1.03780601613,-3.08892031782,-0.0482814796522,3.02131810719,0.0260748424186
3.48,-0.101525801057,1.01305888866,-0.0211359366424,0.410222182329,-0.0350985698262,1.76606382529,-6.98131733957e-05,0.539107405328,-0.0663123769957,1.03832407676,-3.08888771922,-0.0474073919605,3.02128051027,0.0260617127631
3.5,-0.101525801057,1.01305888866,-0.0211359366424,0.410222182329,-0.0350985698262,1.76606382529,-6.98131733957e-05,0.539107405328,-0.0663123769957,1.03832407676,-3.08888771922,-0.0474073919605,3.02128051027,0.0260617127631
3.52,-0.101543253085,1.01126125492,-0.0211184846149,0.410291990439,-0.0350985698262,1.76632561403,-6.98131733957e-05,0.538993490216,-0.0663051720411,1.0392819412,-3.08893518482,-0.0459415739641,3.02125950161,0.0260421448895
3.54,-0.101543253085,1.01126125492,-0.0211184846149,0.410291990439,-0.0350985698262,1.76632561403,-6.98131733957e-05,0.538993490216,-0.0663051720411,1.0392819412,-3.08893518482,-0.0459415739641,3.02125950161,0.0260421448895
3.56,-0.101560705112,1.00897486455,-0.0211359366424,0.410309467433,-0.0351334780424,1.76999078948,-6.98131733957e-05,0.538291605147,-0.066241752175,1.04054698107,-3.08892020269,-0.0473325219478,3.02103378658,0.0259880260891
3.58,-0.101560705112,1.00897486455,-0.0211359366424,0.410309467433,-0.0351334780424,1.76999078948,-6.98131733957e-05,0.538291605147,-0.066241752175,1.04054698107,-3.08892020269,-0.0473325219478,3.02103378658,0.0259880260891
3.6,-0.101578165462,1.00548419273,-0.0211533907506,0.410780680499,-0.0351334780424,1.77849053441,-6.98131733957e-05,0.536672360911,-0.0660645341134,1.04237372499,-3.0889470707,-0.0528012976847,3.02055307494,0.0259091501418
3.62,-0.101578165462,1.00548419273,-0.0211533907506,0.410780680499,-0.0351334780424,1.77849053441,-6.98131733957e-05,0.536672360911,-0.0660645341134,1.04237372499,-3.0889470707,-0.0528012976847,3.02055307494,0.0259091501418
3.64,-0.101613069517,1.00169684476,-0.0211708448587,0.412072247049,-0.0351509300699,1.78838657471,-6.98131733957e-05,0.534699072428,-0.0658611116844,1.04414249858,-3.08895035331,-0.0601878506878,3.01996328653,0.0258625281237
3.66,-0.101613069517,1.00169684476,-0.0211708448587,0.412072247049,-0.0351509300699,1.78838657471,-6.98131733957e-05,0.534699072428,-0.0658611116844,1.04414249858,-3.08895035331,-0.0601878506878,3.01996328653,0.0258625281237
3.68,-0.101613069517,0.997281123937,-0.0211708448587,0.416295920669,-0.0351858382861,1.79774146067,-6.98131733957e-05,0.532431658734,-0.065618835331,1.04541454375,-3.08893689714,-0.0693373993239,3.01939043119,0.0259835033609
3.7,-0.101613069517,0.997281123937,-0.0211708448587,0.416295920669,-0.0351858382861,1.79774146067,-6.98131733957e-05,0.532431658734,-0.065618835331,1.04541454375,-3.08893689714,-0.0693373993239,3.01939043119,0.0259835033609
3.72,-0.101613069517,0.993999909737,-0.0211708448587,0.421357391479,-0.0352032903136,1.80343130434,-6.98131733957e-05,0.53072132298,-0.0654455820415,1.04580580981,-3.08891943814,-0.0767990957168,3.01899778611,0.0261942629009
3.74,-0.101613069517,0.993999909737,-0.0211708448587,0.421357391479,-0.0352032903136,1.80343130434,-6.98131733957e-05,0.53072132298,-0.0654455820415,1.04580580981,-3.08891943814,-0.0767990957168,3.01899778611,0.0261942629009
3.76,-0.101613069517,0.991765917056,-0.0211708448587,0.426191960963,-0.0352207423412,1.80515916325,-6.98131733957e-05,0.529744931826,-0.0653601513035,1.04565458942,-3.0888961878,-0.0811244400366,3.01881683146,0.026435960148
3.78,-0.101613069517,0.991765917056,-0.0211708448587,0.426191960963,-0.0352207423412,1.80515916325,-6.98131733957e-05,0.529744931826,-0.0653601513035,1.04565458942,-3.0888961878,-0.0811244400366,3.01881683146,0.026435960148
3.8,-0.101647973572,0.990910709451,-0.0211882968862,0.430066594033,-0.0352381985299,1.80500203675,-6.98131733957e-05,0.529254050467,-0.0653506934733,1.04501452588,-3.08884576274,-0.0839858405352,3.01870517105,0.0266540119723
3.82,-0.101630521545,0.990980484272,-0.0211708448587,0.432370428113,-0.0352381985299,1.80491481822,-6.98131733957e-05,0.529254050467,-0.0653506934733,1.04501452588,-3.08884576274,-0.0839858405352,3.01870517105,0.0266540119723
3.84,-0.101630521545,0.990980484272,-0.0211708448587,0.432370428113,-0.0352381985299,1.80491481822,-6.98131733957e-05,0.528986142836,-0.0653180156792,1.04432594358,-3.0888370063,-0.0862721779561,3.01869520762,0.0267908048839
3.86,-0.101647973572,0.990788536936,-0.0211708448587,0.435110587849,-0.0352556505574,1.80479257913,-6.98131733957e-05,0.528986142836,-0.0653180156792,1.04432594358,-3.0888370063,-0.0862721779561,3.01869520762,0.0267908048839
3.88,-0.101647973572,0.990788536936,-0.0211708448587,0.435110587849,-0.0352556505574,1.80479257913,-6.98131733957e-05,0.528654480276,-0.0653066122046,1.04365426592,-3.08879768753,-0.0886975943564,3.01862967754,0.0269499171256
3.9,-0.101647973572,0.990788536936,-0.0211708448587,0.435110587849,-0.0352556505574,1.80479257913,-6.98131733957e-05,0.528654480276,-0.0653066122046,1.04365426592,-3.08879768753,-0.0886975943564,3.01862967754,0.0269499171256
3.92,-0.10183996252,0.990858311757,-0.0212057509943,0.436908288163,-0.0352556505574,1.80477513542,-6.98131733957e-05,0.528420069207,-0.0654009798891,1.04311100714,-3.08874940622,-0.0905466437089,3.01838329682,0.0270561559708
3.94,-0.101787598115,0.990666364421,-0.0211708448587,0.439037585323,-0.0363203032986,1.8047053606,-6.98131733957e-05,0.528420069207,-0.0654009798891,1.04311100714,-3.08874940622,-0.0905466437089,3.01838329682,0.0270561559708
3.96,-0.101787598115,0.990666364421,-0.0211708448587,0.439037585323,-0.0363203032986,1.8047053606,-6.98131733957e-05,0.528139147794,-0.0655196251479,1.04262205408,-3.08770380475,-0.0924014592268,3.01817442953,0.0271787589935
3.98,-0.101805058465,0.990596523022,-0.0211708448587,0.441760301353,-0.0365646483286,1.80475769172,-6.98131733957e-05,0.528139147794,-0.0655196251479,1.04262205408,-3.08770380475,-0.0924014592268,3.01817442953,0.0271787589935
4.0,-0.101805058465,0.990596523022,-0.0211708448587,0.441760301353,-0.0365646483286,1.80475769172,-6.98131733957e-05,0.527775904014,-0.0655417904015,1.04189700636,-3.0874344963,-0.0951029980835,3.01804667784,0.0273363093661
4.02,-0.101770146087,0.990387065402,-0.0211533907506,0.444762249824,-0.0365646483286,1.80474024801,-6.98131733957e-05,0.527775904014,-0.0655417904015,1.04189700636,-3.0874344963,-0.0951029980835,3.01804667784,0.0273363093661
4.04,-0.101770146087,0.990387065402,-0.0211533907506,0.444762249824,-0.0365646483286,1.80474024801,-6.98131733957e-05,0.527390374503,-0.0654897530028,1.04116525631,-3.08742319388,-0.0978778130841,3.01803788721,0.0275086703335
4.06,-0.101770146087,0.989688984301,-0.0211708448587,0.448305286048,-0.0365471963011,1.80475769172,-6.98131733957e-05,0.527390374503,-0.0654897530028,1.04116525631,-3.08742319388,-0.0978778130841,3.01803788721,0.0275086703335
4.08,-0.101770146087,0.989688984301,-0.0211708448587,0.448305286048,-0.0365471963011,1.80475769172,-6.98131733957e-05,0.526906663736,-0.0654543147687,1.0405430748,-3.08740478234,-0.100739512925,3.01796520165,0.0277054103876
4.1,-0.101805058465,0.987716713777,-0.0211708448587,0.451830845278,-0.0365646483286,1.80479257913,-6.98131733957e-05,0.526906663736,-0.0654543147687,1.0405430748,-3.08740478234,-0.100739512925,3.01796520165,0.0277054103876
4.12,-0.101805058465,0.987716713777,-0.0211708448587,0.451830845278,-0.0365646483286,1.80479257913,-6.98131733957e-05,0.526372833161,-0.0654333841531,1.04060294211,-3.08739427905,-0.102327155953,3.01786270322,0.0278835592637
4.14,-0.101805058465,0.984156267137,-0.0211708448587,0.455600749538,-0.0365646483286,1.8048450434,-6.98131733957e-05,0.526372833161,-0.0654333841531,1.04060294211,-3.08739427905,-0.102327155953,3.01786270322,0.0278835592637
4.16,-0.101805058465,0.984156267137,-0.0211708448587,0.455600749538,-0.0365646483286,1.8048450434,-6.98131733957e-05,0.525748406645,-0.0653823757352,1.04143556152,-3.08743366732,-0.102589073128,3.01779736384,0.0280536137202
4.18,-0.101805058465,0.980037289037,-0.0211708448587,0.459649919528,-0.0365821003561,1.80489737452,-6.98131733957e-05,0.525748406645,-0.0653823757352,1.04143556152,-3.08743366732,-0.102589073128,3.01779736384,0.0280536137202
4.2,-0.101805058465,0.980037289037,-0.0211708448587,0.459649919528,-0.0365821003561,1.80489737452,-6.98131733957e-05,0.525063576579,-0.0653289650329,1.04248354339,-3.08746539034,-0.10257145967,3.01772422398,0.0282309223897
4.22,-0.101822510492,0.975516905981,-0.0212057509943,0.464205223283,-0.0365821003561,1.80491481822,-6.98131733957e-05,0.524297521152,-0.0652846496384,1.04359863759,-3.08748965813,-0.102623320327,3.01760877776,0.0282309223897
4.24,-0.101822510492,0.975516905981,-0.0212057509943,0.464205223283,-0.0365821003561,1.80491481822,-6.98131733957e-05,0.524297521152,-0.0652846496384,1.04359863759,-3.08748965813,-0.102623320327,3.01760877776,0.0284305361833
4.26,-0.10183996252,0.970909237821,-0.0212232030218,0.472478066894,-0.0365995523837,1.8048450434,-6.98131733957e-05,0.524297521152,-0.0652846496384,1.04359863759,-3.08748965813,-0.102623320327,3.01760877776,0.0284305361833
4.28,-0.10183996252,0.970909237821,-0.0212232030218,0.472478066894,-0.0365995523837,1.8048450434,-6.98131733957e-05,0.523054684335,-0.0652025707247,1.04371510025,-3.08747549433,-0.106217712795,3.01743645533,0.028840057668
4.3,-0.101822510492,0.966702974617,-0.0212057509943,0.483194394094,-0.0365995523837,1.8048450434,-6.98131733957e-05,0.521488054304,-0.0650640898004,1.04293832801,-3.08747276313,-0.112726938319,3.01727612863,0.029388993457
4.32,-0.101822510492,0.966702974617,-0.0212057509943,0.483194394094,-0.0365995523837,1.8048450434,-6.98131733957e-05,0.521488054304,-0.0650640898004,1.04293832801,-3.08747276313,-0.112726938319,3.01727612863,0.029388993457
4.34,-0.10183996252,0.961990577647,-0.0212057509943,0.495516440983,-0.0365995523837,1.8047053606,-6.98131733957e-05,0.519691729916,-0.0649302770733,1.04198073194,-3.0874504663,-0.120195762323,3.01704890639,0.0300162638332
4.36,-0.10183996252,0.961990577647,-0.0212057509943,0.495516440983,-0.0365995523837,1.8047053606,-6.98131733957e-05,0.519691729916,-0.0649302770733,1.04198073194,-3.0874504663,-0.120195762323,3.01704890639,0.0300162638332
4.38,-0.10183996252,0.956806934322,-0.0211882968862,0.507087975788,-0.0365995523837,1.80446101557,-6.98131733957e-05,0.517978580971,-0.0647881811729,1.04147788799,-3.08746167509,-0.126338942989,3.01687259345,0.0305882629733
4.4,-0.10183996252,0.956806934322,-0.0211882968862,0.507087975788,-0.0365995523837,1.80446101557,-6.98131733957e-05,0.517978580971,-0.0647881811729,1.04147788799,-3.08746167509,-0.126338942989,3.01687259345,0.0305882629733
4.42,-0.10183996252,0.950785593676,-0.0211882968862,0.517594845368,-0.0365995523837,1.80357085398,-6.98131733957e-05,0.516471329008,-0.0646703380758,1.04169102492,-3.08749393694,-0.129935029918,3.01674291581,0.0310883784757
4.44,-0.10183996252,0.950785593676,-0.0211882968862,0.517594845368,-0.0365995523837,1.80357085398,-6.98131733957e-05,0.516471329008,-0.0646703380758,1.04169102492,-3.08749393694,-0.129935029918,3.01674291581,0.0310883784757
4.46,-0.10183996252,0.944833961272,-0.0211882968862,0.527473408668,-0.0365995523837,1.80268082554,-6.98131733957e-05,0.515039247195,-0.0645576756738,1.04203654498,-3.0875320639,-0.132972788723,3.01662563969,0.0315487172591
4.48,-0.10183996252,0.944833961272,-0.0211882968862,0.527473408668,-0.0365995523837,1.80268082554,-6.98131733957e-05,0.515039247195,-0.0645576756738,1.04203654498,-3.0875320639,-0.132972788723,3.01662563969,0.0315487172591
4.5,-0.10183996252,0.939074409362,-0.0211882968862,0.536304783738,-0.0365995523837,1.80196523416,-6.98131733957e-05,0.513718331472,-0.0644520376134,1.04257007398,-3.08757645696,-0.135329809001,3.01651857182,0.0319474261822
4.52,-0.10183996252,0.939074409362,-0.0211882968862,0.536304783738,-0.0365995523837,1.80196523416,-6.98131733957e-05,0.513718331472,-0.0644520376134,1.04257007398,-3.08757645696,-0.135329809001,3.01651857182,0.0319474261822
4.54,-0.10183996252,0.933087956127,-0.0211882968862,0.543687499043,-0.0365821003561,1.80130197389,-6.98131733957e-05,0.512572492914,-0.0643565061105,1.04361555869,-3.08765965619,-0.136064114393,3.01644098661,0.0322587036007
4.56,-0.10183996252,0.933087956127,-0.0211882968862,0.543687499043,-0.0365821003561,1.80130197389,-6.98131733957e-05,0.512572492914,-0.0643565061105,1.04361555869,-3.08765965619,-0.136064114393,3.01644098661,0.0322587036007
4.58,-0.10183996252,0.928672235302,-0.0212057509943,0.550773538203,-0.0365995523837,1.80128453018,-5.2359878015e-05,0.511411366603,-0.0642663517585,1.0439424936,-3.08765321622,-0.138715307741,3.01629125793,0.0325686167331
4.6,-0.10183996252,0.928672235302,-0.0212057509943,0.550773538203,-0.0365995523837,1.80128453018,-5.2359878015e-05,0.511411366603,-0.0642663517585,1.0439424936,-3.08765321622,-0.138715307741,3.01629125793,0.0325686167331
4.62,-0.10183996252,0.925181563482,-0.0212232030218,0.557667596738,-0.0366170085724,1.80128453018,-6.98131733957e-05,0.51030380636,-0.0641807903246,1.04384444673,-3.08763187152,-0.142118665776,3.01617652429,0.0328801146674
4.64,-0.10183996252,0.925181563482,-0.0212232030218,0.557667596738,-0.0366170085724,1.80128453018,-6.98131733957e-05,0.51030380636,-0.0641807903246,1.04384444673,-3.08763187152,-0.142118665776,3.01617652429,0.0328801146674
4.66,-0.101874866575,0.923069743317,-0.0212232030218,0.562711623843,-0.0367915413311,1.80128453018,-6.98131733957e-05,0.509501709507,-0.0641601748829,1.04354668787,-3.08745134428,-0.14504830011,3.01601526689,0.0331136137979
4.68,-0.101874866575,0.923069743317,-0.0212232030218,0.562711623843,-0.0367915413311,1.80128453018,-6.98131733957e-05,0.509501709507,-0.0641601748829,1.04354668787,-3.08745134428,-0.14504830011,3.01601526689,0.0331136137979
4.7,-0.101822510492,0.921341884402,-0.0212057509943,0.567284338014,-0.0368264453862,1.80124964277,-5.2359878015e-05,0.508792954024,-0.0640746494951,1.0431792996,-3.08741890295,-0.147856835614,3.01597783752,0.0333276069235
4.72,-0.101822510492,0.921341884402,-0.0212057509943,0.567284338014,-0.0368264453862,1.80124964277,-5.2359878015e-05,0.508792954024,-0.0640746494951,1.0431792996,-3.08741890295,-0.147856835614,3.01597783752,0.0333276069235
4.74,-0.101892318602,0.919683800307,-0.0212232030218,0.572310921413,-0.0369660740899,1.80124964277,-5.2359878015e-05,0.50800172324,-0.0640718362105,1.04265484662,-3.08724814948,-0.151222731567,3.01577591801,0.033565198008
4.76,-0.101892318602,0.919683800307,-0.0212232030218,0.572310921413,-0.0369660740899,1.80124964277,-5.2359878015e-05,0.50800172324,-0.0640718362105,1.04265484662,-3.08724814948,-0.151222731567,3.01577591801,0.033565198008
4.78,-0.102031951467,0.917606867552,-0.0212232030218,0.577529452148,-0.0370184343336,1.80124964277,-5.2359878015e-05,0.507161330661,-0.0640807260734,1.04229227062,-3.08718714618,-0.15436321569,3.01553493714,0.0338044538252
4.8,-0.102031951467,0.917606867552,-0.0212232030218,0.577529452148,-0.0370184343336,1.80124964277,-5.2359878015e-05,0.507161330661,-0.0640807260734,1.04229227062,-3.08718714618,-0.15436321569,3.01553493714,0.0338044538252
4.82,-0.102049403495,0.915041244737,-0.0212232030218,0.583201785533,-0.0370184343336,1.80128453018,-5.2359878015e-05,0.507161330661,-0.0640807260734,1.04229227062,-3.08718714618,-0.15436321569,3.01553493714,0.0338044538252
4.84,-0.102049403495,0.915041244737,-0.0212232030218,0.583201785533,-0.0370184343336,1.80128453018,-5.2359878015e-05,0.506236253914,-0.0640102709824,1.04205648227,-3.08718533302,-0.157504348691,3.01541982644,0.034057155001
4.86,-0.10208430755,0.912999199392,-0.0212232030218,0.587774499704,-0.0370184343336,1.80128453018,-5.2359878015e-05,0.506236253914,-0.0640102709824,1.04205648227,-3.08718533302,-0.157504348691,3.01541982644,0.034057155001
4.88,-0.10208430755,0.912999199392,-0.0212232030218,0.587774499704,-0.0370184343336,1.80128453018,-5.2359878015e-05,0.505491803549,-0.0639642249801,1.0418524617,-3.08718342614,-0.160034680806,3.01530776837,0.0342602997346
4.9,-0.10217157601,0.911550572917,-0.0212232030218,0.591265171523,-0.0370358863611,1.80128453018,-5.2359878015e-05,0.505491803549,-0.0639642249801,1.0418524617,-3.08718342614,-0.160034680806,3.01530776837,0.0342602997346
4.92,-0.10217157601,0.911550572917,-0.0212232030218,0.591265171523,-0.0370358863611,1.80128453018,-5.2359878015e-05,0.504921499609,-0.0639626551776,1.04164091421,-3.08716159351,-0.162076223158,3.01515720595,0.0344164775042
4.94,-0.102189028037,0.909875045117,-0.0212232030218,0.594581339713,-0.0370882466049,1.80128453018,-6.98131733957e-05,0.504921499609,-0.0639626551776,1.04164091421,-3.08716159351,-0.162076223158,3.01515720595,0.0344164775042
4.96,-0.102189028037,0.909875045117,-0.0212232030218,0.594581339713,-0.0370882466049,1.80128453018,-6.98131733957e-05,0.504370832652,-0.0639325944028,1.04159260555,-3.08711487637,-0.163716983045,3.01509026346,0.0345590150431
4.98,-0.10225884447,0.907309422302,-0.0212232030218,0.598735205223,-0.0371929670924,1.80128453018,-6.98131733957e-05,0.503658270704,-0.0639234496409,1.04176922197,-3.08702469516,-0.165303842883,3.01492928873,0.0347284546246
5.0,-0.10225884447,0.907309422302,-0.0212232030218,0.598735205223,-0.0371929670924,1.80128453018,-6.98131733957e-05,0.503658270704,-0.0639234496409,1.04176922197,-3.08702469516,-0.165303842883,3.01492928873,0.0347284546246
5.02,-0.10232865258,0.904237599143,-0.0212232030218,0.603936292253,-0.0375245805824,1.80124964277,-5.2359878015e-05,0.503658270704,-0.0639234496409,1.04176922197,-3.08702469516,-0.165303842883,3.01492928873,0.0347284546246
5.04,-0.10232865258,0.904237599143,-0.0212232030218,0.603936292253,-0.0375245805824,1.80124964277,-5.2359878015e-05,0.502771148144,-0.0639367133743,1.04191873469,-3.08670273761,-0.167393051222,3.01468287275,0.0349418972599
5.06,-0.102381016985,0.900712039912,-0.0212232030218,0.609643513048,-0.0380481788586,1.80128453018,-6.98131733957e-05,0.502771148144,-0.0639367133743,1.04191873469,-3.08670273761,-0.167393051222,3.01468287275,0.0349418972599
5.08,-0.102381016985,0.900712039912,-0.0212232030218,0.609643513048,-0.0380481788586,1.80128453018,-6.98131733957e-05,0.501774331205,-0.0639624401413,1.0421633688,-3.08619683602,-0.16960385078,3.01443364148,0.0351704656624
5.1,-0.102485737472,0.897343607187,-0.0212406571299,0.615088945108,-0.0387463098936,1.80128453018,-6.98131733957e-05,0.501774331205,-0.0639624401413,1.0421633688,-3.08619683602,-0.16960385078,3.01443364148,0.0351704656624
5.12,-0.102485737472,0.897343607187,-0.0212406571299,0.615088945108,-0.0387463098936,1.80128453018,-6.98131733957e-05,0.500816705978,-0.0640519446088,1.04239867291,-3.08549639551,-0.17167159168,3.01406710946,0.0353868435706
5.14,-0.102607909987,0.894969931707,-0.0212406571299,0.619748944383,-0.0389208426524,1.80128453018,-6.98131733957e-05,0.500816705978,-0.0640519446088,1.04239867291,-3.08549639551,-0.17167159168,3.01406710946,0.0353868435706
5.16,-0.102607909987,0.894969931707,-0.0212406571299,0.619748944383,-0.0389208426524,1.80128453018,-6.98131733957e-05,0.500019853491,-0.0640725368029,1.04233842326,-3.08532404736,-0.173955468883,3.01382800967,0.0355796342161
5.18,-0.1029046111,0.893346801602,-0.0212232030218,0.624269394018,-0.0390779233836,1.80124964277,-6.98131733957e-05,0.499264619274,-0.0641772604818,1.04193649,-3.08516581145,-0.176815864865,3.01343314307,0.0357781644453
5.2,-0.1029046111,0.893346801602,-0.0212232030218,0.624269394018,-0.0390779233836,1.80124964277,-6.98131733957e-05,0.499264619274,-0.0641772604818,1.04193649,-3.08516581145,-0.176815864865,3.01343314307,0.0357781644453
5.22,-0.103794731082,0.891618876107,-0.0212232030218,0.630308178368,-0.0392175479261,1.80124964277,-6.98131733957e-05,0.498228094455,-0.0645575701357,1.04118054541,-3.08499491862,-0.181124226264,3.01240568183,0.0360491160613
5.24,-0.103794731082,0.891618876107,-0.0212232030218,0.630308178368,-0.0392175479261,1.80124964277,-6.98131733957e-05,0.498228094455,-0.0645575701357,1.04118054541,-3.08499491862,-0.181124226264,3.01240568183,0.0360491160613
5.26,-0.10438814163,0.889524499647,-0.0212232030218,0.636591374328,-0.0394095327124,1.80121475536,-6.98131733957e-05,0.497159324163,-0.0647924038518,1.04054436821,-3.08477708123,-0.18527510497,3.01166187185,0.0363239913147
5.28,-0.10438814163,0.889524499647,-0.0212232030218,0.636591374328,-0.0394095327124,1.80121475536,-6.98131733957e-05,0.497159324163,-0.0647924038518,1.04054436821,-3.08477708123,-0.18527510497,3.01166187185,0.0363239913147
5.3,-0.105173541125,0.887203221862,-0.0211708448587,0.641740130243,-0.0394444409286,1.80126708648,-6.98131733957e-05,0.496229620324,-0.0650926693958,1.04032806564,-3.08477885141,-0.188155097383,3.0108206987,0.0365354471866
5.32,-0.105173541125,0.887203221862,-0.0211708448587,0.641740130243,-0.0394444409286,1.80126708648,-6.98131733957e-05,0.496229620324,-0.0650926693958,1.04032806564,-3.08477885141,-0.188155097383,3.0108206987,0.0365354471866
5.34,-0.105173541125,0.887203221862,-0.0211708448587,0.641740130243,-0.0394444409286,1.80126708648,-6.98131733957e-05,0.496229620324,-0.0650926693958,1.04032806564,-3.08477885141,-0.188155097383,3.0108206987,0.0365354471866
5.36,-0.10636036222,0.883293701382,-0.0212232030218,0.647691696068,-0.0394269889011,1.80116229109,-6.98131733957e-05,0.495113311205,-0.0655973042975,1.0406858819,-3.08478446083,-0.190091741924,3.00951069826,0.0367570952954
5.38,-0.10636036222,0.883293701382,-0.0212232030218,0.647691696068,-0.0394269889011,1.80116229109,-6.98131733957e-05,0.495113311205,-0.0655973042975,1.0406858819,-3.08478446083,-0.190091741924,3.00951069826,0.0367570952954
5.4,-0.107302838285,0.877080280243,-0.0212232030218,0.656540514843,-0.0395142531999,1.80109251627,-6.98131733957e-05,0.493470539167,-0.0659286947317,1.04141608647,-3.08474902518,-0.192656568339,3.00841724992,0.0370734541221
5.42,-0.107302838285,0.877080280243,-0.0212232030218,0.656540514843,-0.0395142531999,1.80109251627,-6.98131733957e-05,0.493470539167,-0.0659286947317,1.04141608647,-3.08474902518,-0.192656568339,3.00841724992,0.0370734541221
5.44,-0.10868165665,0.870901813093,-0.0212232030218,0.665546393543,-0.0394968011724,1.80105762886,-6.98131733957e-05,0.491761193232,-0.0664498674694,1.04208084591,-3.08481746535,-0.195449576283,3.00690763109,0.0373919597726
5.46,-0.10868165665,0.870901813093,-0.0212232030218,0.665546393543,-0.0394968011724,1.80105762886,-6.98131733957e-05,0.491761193232,-0.0664498674694,1.04208084591,-3.08481746535,-0.195449576283,3.00690763109,0.0373919597726
5.48,-0.109868477745,0.865438937328,-0.0212232030218,0.673889078553,-0.0395142531999,1.80105762886,-6.98131733957e-05,0.490177439378,-0.0668885728176,1.04256365359,-3.08483981133,-0.198329286322,3.00558949382,0.0376865034819
5.5,-0.109868477745,0.865438937328,-0.0212232030218,0.673889078553,-0.0395142531999,1.80105762886,-6.98131733957e-05,0.490177439378,-0.0668885728176,1.04256365359,-3.08483981133,-0.198329286322,3.00558949382,0.0376865034819
5.52,-0.111125115272,0.860586924138,-0.0212232030218,0.682336492372,-0.0396189736874,1.80091794606,-6.98131733957e-05,0.488607482794,-0.0673747396155,1.04270898217,-3.08475740945,-0.201783798008,3.00418492746,0.0379949685111
5.54,-0.111125115272,0.860586924138,-0.0212232030218,0.682336492372,-0.0396189736874,1.80091794606,-6.98131733957e-05,0.488607482794,-0.0673747396155,1.04270898217,-3.08475740945,-0.201783798008,3.00418492746,0.0379949685111
5.56,-0.112032687282,0.856817019877,-0.0212406571299,0.689893744598,-0.0396887859586,1.80074350901,-6.98131733957e-05,0.487239197895,-0.0677043714031,1.04255422092,-3.08467985885,-0.205395487395,3.00313670874,0.038278934675
5.58,-0.112032687282,0.856817019877,-0.0212406571299,0.689893744598,-0.0396887859586,1.80074350901,-6.98131733957e-05,0.487239197895,-0.0677043714031,1.04255422092,-3.08467985885,-0.205395487395,3.00313670874,0.038278934675
5.6,-0.11229448434,0.854286284473,-0.0212406571299,0.696473616703,-0.0397586023911,1.80021979838,-6.98131733957e-05,0.486167370235,-0.0677403993642,1.04203694001,-3.08459891588,-0.20892038602,3.00278039465,0.0385431794331
5.62,-0.11229448434,0.854286284473,-0.0212406571299,0.696473616703,-0.0397586023911,1.80021979838,-6.98131733957e-05,0.486167370235,-0.0677403993642,1.04203694001,-3.08459891588,-0.20892038602,3.00278039465,0.0385431794331
5.64,-0.112469012937,0.852872611987,-0.0212057509943,0.701430358703,-0.0402996526949,1.79922497455,-6.98131733957e-05,0.485465528645,-0.0678413144077,1.04138905115,-3.08405921669,-0.211463441323,3.00248268385,0.0387584471524
5.66,-0.112469012937,0.852872611987,-0.0212057509943,0.701430358703,-0.0402996526949,1.79922497455,-6.98131733957e-05,0.485465528645,-0.0678413144077,1.04138905115,-3.08405921669,-0.211463441323,3.00248268385,0.0387584471524
5.68,-0.11253882937,0.851371587818,-0.0212232030218,0.706893234468,-0.0405265456974,1.79877117191,-6.98131733957e-05,0.484597508689,-0.0678333609064,1.04066823868,-3.08378912568,-0.214968346571,3.00227925425,0.0389868552594
5.7,-0.11253882937,0.851371587818,-0.0212232030218,0.706893234468,-0.0405265456974,1.79877117191,-6.98131733957e-05,0.484597508689,-0.0678333609064,1.04066823868,-3.08378912568,-0.214968346571,3.00227925425,0.0389868552594
5.72,-0.112730818317,0.849189926253,-0.0212057509943,0.712757581767,-0.0405789059411,1.79664197461,-6.98131733957e-05,0.483908111666,-0.0678742395123,1.04011227052,-3.08375892533,-0.216524625214,3.00211848506,0.0392406351084
5.74,-0.112730818317,0.849189926253,-0.0212057509943,0.712757581767,-0.0405789059411,1.79664197461,-6.98131733957e-05,0.483908111666,-0.0678742395123,1.04011227052,-3.08375892533,-0.216524625214,3.00211848506,0.0392406351084
5.76,-0.11320205635,0.847060662382,-0.0211882968862,0.718168059838,-0.0406138099961,1.79318612362,-6.98131733957e-05,0.483489158546,-0.0680846319046,1.03960087176,-3.08376830166,-0.216355309186,3.00176966516,0.0394905510614
5.78,-0.11320205635,0.847060662382,-0.0211882968862,0.718168059838,-0.0406138099961,1.79318612362,-6.98131733957e-05,0.483489158546,-0.0680846319046,1.03960087176,-3.08376830166,-0.216355309186,3.00176966516,0.0394905510614
5.8,-0.113306776837,0.845123345847,-0.0212057509943,0.723089914428,-0.0405265456974,1.78964318727,-6.98131733957e-05,0.483193138372,-0.0681180875038,1.03911969494,-3.08387859535,-0.215803249507,3.00179913707,0.0397216817841
5.82,-0.113306776837,0.845123345847,-0.0212057509943,0.723089914428,-0.0405265456974,1.78964318727,-6.98131733957e-05,0.483193138372,-0.0681180875038,1.03911969494,-3.08387859535,-0.215803249507,3.00179913707,0.0397216817841
5.84,-0.11327186446,0.843709606782,-0.0211882968862,0.726912149803,-0.0405265456974,1.78693794823,-6.98131733957e-05,0.482964121739,-0.0680887338695,1.03870329262,-3.08391585788,-0.21551107534,3.00194547135,0.0399014394793
5.86,-0.11327186446,0.843709606782,-0.0211882968862,0.726912149803,-0.0405265456974,1.78693794823,-6.98131733957e-05,0.482964121739,-0.0680887338695,1.03870329262,-3.08391585788,-0.21551107534,3.00194547135,0.0399014394793
5.88,-0.113254412432,0.841946860457,-0.0211882968862,0.731327870628,-0.0405265456974,1.78604778664,-6.98131733957e-05,0.482322653719,-0.0680192461879,1.03836654456,-3.08391915234,-0.217275096332,3.00194391804,0.0400760869489
5.9,-0.113254412432,0.841946860457,-0.0211882968862,0.731327870628,-0.0405265456974,1.78604778664,-6.98131733957e-05,0.482322653719,-0.0680192461879,1.03836654456,-3.08391915234,-0.217275096332,3.00194391804,0.0400760869489
5.92,-0.11328932481,0.840341107478,-0.0212057509943,0.735726081168,-0.0405265456974,1.78606523034,-6.98131733957e-05,0.481533164592,-0.0679596696464,1.03799174159,-3.08389365054,-0.220084303822,3.00182136792,0.0402401243477
5.94,-0.11328932481,0.840341107478,-0.0212057509943,0.735726081168,-0.0405265456974,1.78606523034,-6.98131733957e-05,0.481533164592,-0.0679596696464,1.03799174159,-3.08389365054,-0.220084303822,3.00182136792,0.0402401243477
5.96,-0.113254412432,0.838735421077,-0.0211708448587,0.740141801992,-0.0405090936698,1.78604778664,-6.98131733957e-05,0.48075122808,-0.0678481350188,1.03761113218,-3.08392610639,-0.222877503722,3.00181795138,0.0404042594445
5.98,-0.113254412432,0.838735421077,-0.0211708448587,0.740141801992,-0.0405090936698,1.78604778664,-6.98131733957e-05,0.48075122808,-0.0678481350188,1.03761113218,-3.08392610639,-0.222877503722,3.00181795138,0.0404042594445
6.0,-0.113236960405,0.837443854528,-0.0211533907506,0.742847041028,-0.0404916374811,1.78606523034,-6.98131733957e-05,0.480256052067,-0.0677797788226,1.03752865314,-3.08395788847,-0.224309061528,3.00181044009,0.0404974708424
6.02,-0.113236960405,0.837443854528,-0.0211533907506,0.742847041028,-0.0404916374811,1.78606523034,-6.98131733957e-05,0.480256052067,-0.0677797788226,1.03752865314,-3.08395788847,-0.224309061528,3.00181044009,0.0404974708424
6.04,-0.113254412432,0.835489094288,-0.0211708448587,0.745447551253,-0.0404916374811,1.78606523034,-6.98131733957e-05,0.479754716089,-0.0677410690836,1.03779466191,-3.0839648319,-0.224954636948,3.00174199256,0.0405719893203
6.06,-0.113254412432,0.835489094288,-0.0211708448587,0.745447551253,-0.0404916374811,1.78606523034,-6.98131733957e-05,0.479754716089,-0.0677410690836,1.03779466191,-3.0839648319,-0.224954636948,3.00174199256,0.0405719893203
6.08,-0.113236960405,0.832539510222,-0.0211533907506,0.747157966463,-0.0404916374811,1.78610011775,-6.98131733957e-05,0.479366756212,-0.0676859535314,1.03877556435,-3.08403637731,-0.22375134358,3.0017583249,0.0405854408896
6.1,-0.113236960405,0.832539510222,-0.0211533907506,0.747157966463,-0.0404916374811,1.78610011775,-6.98131733957e-05,0.479366756212,-0.0676859535314,1.03877556435,-3.08403637731,-0.22375134358,3.0017583249,0.0405854408896
6.12,-0.113236960405,0.828420532122,-0.0211708448587,0.750142504518,-0.0404916374811,1.78610011775,-6.98131733957e-05,0.478726117269,-0.0676234818849,1.03998499708,-3.08409781682,-0.222617428293,3.00171352644,0.0406302900242
6.14,-0.113236960405,0.828420532122,-0.0211708448587,0.750142504518,-0.0404916374811,1.78610011775,-6.98131733957e-05,0.478726117269,-0.0676234818849,1.03998499708,-3.08409781682,-0.222617428293,3.00171352644,0.0406302900242
6.16,-0.113236960405,0.823044941462,-0.0211533907506,0.754785060088,-0.0404567334261,1.78610011775,-6.98131733957e-05,0.477761700465,-0.067510509567,1.04136157084,-3.0842350685,-0.221886157459,3.00168315019,0.04071985628
6.18,-0.113236960405,0.823044941462,-0.0211533907506,0.754785060088,-0.0404567334261,1.78610011775,-6.98131733957e-05,0.477761700465,-0.067510509567,1.04136157084,-3.0842350685,-0.221886157459,3.00168315019,0.04071985628
6.2,-0.113236960405,0.816866474312,-0.0211533907506,0.762516882523,-0.0404567334261,1.78603034293,-6.98131733957e-05,0.476254930338,-0.0673521759483,1.04230574326,-3.08430782075,-0.223370550015,3.00158354536,0.040924815549
6.22,-0.113236960405,0.816866474312,-0.0211533907506,0.762516882523,-0.0404567334261,1.78603034293,-6.98131733957e-05,0.476254930338,-0.0673521759483,1.04230574326,-3.08430782075,-0.223370550015,3.00158354536,0.040924815549
6.24,-0.113236960405,0.811037081002,-0.0211708448587,0.771330813887,-0.0404741854536,1.78596056811,-6.98131733957e-05,0.474569653601,-0.0671830818869,1.04279210977,-3.08432702294,-0.226285264064,3.00144431868,0.0411790198838
6.26,-0.113236960405,0.811037081002,-0.0211708448587,0.771330813887,-0.0404741854536,1.78596056811,-6.98131733957e-05,0.474569653601,-0.0671830818869,1.04279210977,-3.08432702294,-0.226285264064,3.00144431868,0.0411790198838
6.28,-0.113236960405,0.806394458853,-0.0211708448587,0.779080080027,-0.0404567334261,1.78561142769,-6.98131733957e-05,0.473146802761,-0.0670318569508,1.04297302544,-3.08437985759,-0.229043739389,3.00135680921,0.0414124239711
6.3,-0.113236960405,0.806394458853,-0.0211708448587,0.779080080027,-0.0404567334261,1.78561142769,-6.98131733957e-05,0.473146802761,-0.0670318569508,1.04297302544,-3.08437985759,-0.229043739389,3.00135680921,0.0414124239711
6.32,-0.11320205635,0.802484938372,-0.0211708448587,0.786375543518,-0.0404567334261,1.78199858336,-6.98131733957e-05,0.472358341782,-0.0669526024941,1.04279335731,-3.08444402513,-0.228822765107,3.00149615346,0.041682930766
6.34,-0.11320205635,0.802484938372,-0.0211708448587,0.786375543518,-0.0404567334261,1.78199858336,-6.98131733957e-05,0.472358341782,-0.0669526024941,1.04279335731,-3.08444402513,-0.228822765107,3.00149615346,0.041682930766
6.36,-0.11320205635,0.799064107952,-0.0211708448587,0.794421485803,-0.0404567334261,1.77463334505,-6.98131733957e-05,0.472065978603,-0.0669639866648,1.04203772221,-3.08453558822,-0.226094357871,3.00180416094,0.042041929114
6.38,-0.11320205635,0.799064107952,-0.0211708448587,0.794421485803,-0.0404567334261,1.77463334505,-6.98131733957e-05,0.472065978603,-0.0669639866648,1.04203772221,-3.08453558822,-0.226094357871,3.00180416094,0.042041929114
6.4,-0.113236960405,0.796899890092,-0.0211708448587,0.801036311897,-0.0404567334261,1.76831526168,-6.98131733957e-05,0.471883406009,-0.0669973131669,1.04109697022,-3.08459715635,-0.22423670005,3.00203385829,0.0423513089736
6.42,-0.113236960405,0.796899890092,-0.0211708448587,0.801036311897,-0.0404567334261,1.76831526168,-6.98131733957e-05,0.471883406009,-0.0669973131669,1.04109697022,-3.08459715635,-0.22423670005,3.00203385829,0.0423513089736
6.44,-0.11320205635,0.796114457308,-0.0211708448587,0.805853437677,-0.0404567334261,1.76431838951,-6.98131733957e-05,0.471678769479,-0.0669815694086,1.04005795051,-3.08461342035,-0.224277412714,3.00222148521,0.0425844778336
6.46,-0.11320205635,0.796114457308,-0.0211708448587,0.805853437677,-0.0404567334261,1.76431838951,-6.98131733957e-05,0.471678769479,-0.0669815694086,1.04005795051,-3.08461342035,-0.224277412714,3.00222148521,0.0425844778336
6.48,-0.11320205635,0.796219186118,-0.0211708448587,0.809186982993,-0.0404218252099,1.76286976304,-6.98131733957e-05,0.471339248657,-0.066948026858,1.03908007458,-3.08462641326,-0.226269157431,3.00225323553,0.042742499411
6.5,-0.113184604322,0.796201742413,-0.0211882968862,0.811735162103,-0.0404218252099,1.76243353725,-8.72664606492e-05,0.471339248657,-0.066948026858,1.03908007458,-3.08462641326,-0.226269157431,3.00225323553,0.042742499411
6.52,-0.113184604322,0.796201742413,-0.0211882968862,0.811735162103,-0.0404218252099,1.76243353725,-8.72664606492e-05,0.470963995266,-0.0669077936646,1.0384056779,-3.08459419394,-0.228364593457,3.00225383962,0.0428519949245
6.54,-0.11311478789,0.796097013603,-0.0211359366424,0.813393246197,-0.0404043731824,1.76236362927,-6.98131733957e-05,0.470963995266,-0.0669077936646,1.0384056779,-3.08459419394,-0.228364593457,3.00225383962,0.0428519949245
6.56,-0.11311478789,0.796097013603,-0.0211359366424,0.813393246197,-0.0404043731824,1.76236362927,-6.98131733957e-05,0.470687840141,-0.0668263420241,1.03801917446,-3.08463086485,-0.229848066111,3.0023297828,0.0429181842143
6.58,-0.113149691945,0.795660721237,-0.0211359366424,0.814126281287,-0.0404218252099,1.76236362927,-6.98131733957e-05,0.470687840141,-0.0668263420241,1.03801917446,-3.08463086485,-0.229848066111,3.0023297828,0.0429181842143
6.6,-0.113149691945,0.795660721237,-0.0211359366424,0.814126281287,-0.0404218252099,1.76236362927,-6.98131733957e-05,0.470541773984,-0.0668303402428,1.03803535872,-3.08461611801,-0.230144639137,3.00228112366,0.0429382171861
6.62,-0.113149691945,0.794438996087,-0.0210835763987,0.814806985262,-0.0404218252099,1.76234618557,-6.98131733957e-05,0.470541773984,-0.0668303402428,1.03803535872,-3.08461611801,-0.230144639137,3.00228112366,0.0429382171861
6.64,-0.113149691945,0.794438996087,-0.0210835763987,0.814806985262,-0.0404218252099,1.76234618557,-6.98131733957e-05,0.470386782373,-0.0667974282353,1.03843686417,-3.08467958266,-0.229587475783,3.00232295847,0.0429386271882
6.66,-0.113132239917,0.792676183182,-0.0209963100193,0.816796632912,-0.0404043731824,1.76231129816,-6.98131733957e-05,0.470386782373,-0.0667974282353,1.03843686417,-3.08467958266,-0.229587475783,3.00232295847,0.0429386271882
6.68,-0.113132239917,0.792676183182,-0.0209963100193,0.816796632912,-0.0404043731824,1.76231129816,-6.98131733957e-05,0.469988912488,-0.0667165806703,1.03875206973,-3.0847858884,-0.229781538467,3.00239723523,0.0429800866283
6.7,-0.113167152295,0.788836437523,-0.0210137641274,0.820234907038,-0.0404043731824,1.76231129816,-6.98131733957e-05,0.469988912488,-0.0667165806703,1.03875206973,-3.0847858884,-0.229781538467,3.00239723523,0.0429800866283
6.72,-0.113167152295,0.788836437523,-0.0210137641274,0.820234907038,-0.0404043731824,1.76231129816,-6.98131733957e-05,0.469250314863,-0.0666591835606,1.03967538104,-3.08483606666,-0.229380446587,3.0023101292,0.0430321128078
6.74,-0.113167152295,0.788836437523,-0.0210137641274,0.820234907038,-0.0404043731824,1.76231129816,-6.98131733957e-05,0.469250314863,-0.0666591835606,1.03967538104,-3.08483606666,-0.229380446587,3.0023101292,0.0430321128078
6.76,-0.113149691945,0.783391005463,-0.0209439518562,0.824353885138,-0.0403869169936,1.76227641075,-6.98131733957e-05,0.468345176148,-0.0665287039577,1.04117487856,-3.08500337009,-0.228021776695,3.00235497814,0.0430740245424
6.78,-0.113149691945,0.783391005463,-0.0209439518562,0.824353885138,-0.0403869169936,1.76227641075,-6.98131733957e-05,0.468345176148,-0.0665287039577,1.04117487856,-3.08500337009,-0.228021776695,3.00235497814,0.0430740245424
6.8,-0.113167152295,0.776706404548,-0.0208741375043,0.829171010917,-0.0403869169936,1.76231129816,-6.98131733957e-05,0.467250341238,-0.0663966108562,1.04307330789,-3.08517676275,-0.226191863182,3.0023534345,0.0431122853704
6.82,-0.113167152295,0.776706404548,-0.0208741375043,0.829171010917,-0.0403869169936,1.76231129816,-6.98131733957e-05,0.467250341238,-0.0663966108562,1.04307330789,-3.08517676275,-0.226191863182,3.0023534345,0.0431122853704
6.84,-0.11320205635,0.771034071163,-0.0209090436399,0.834913185702,-0.0403694649661,1.76227641075,-6.98131733957e-05,0.466029421492,-0.0662893677034,1.04424240324,-3.08525625118,-0.226227385422,3.00222886181,0.0432088355525
6.86,-0.11320205635,0.771034071163,-0.0209090436399,0.834913185702,-0.0403694649661,1.76227641075,-6.98131733957e-05,0.466029421492,-0.0662893677034,1.04424240324,-3.08525625118,-0.226227385422,3.00222886181,0.0432088355525
6.88,-0.113184604322,0.766374071888,-0.0209264977481,0.843831779297,-0.0403869169936,1.76213672795,-6.98131733957e-05,0.464304633151,-0.0661043008019,1.04409603114,-3.08525071644,-0.230346115996,3.00211114154,0.0434517266594
6.9,-0.113184604322,0.766374071888,-0.0209264977481,0.843831779297,-0.0403869169936,1.76213672795,-6.98131733957e-05,0.464304633151,-0.0661043008019,1.04409603114,-3.08525071644,-0.230346115996,3.00211114154,0.0434517266594
6.92,-0.113167152295,0.762255093788,-0.0209264977481,0.853902323222,-0.0404218252099,1.76128158692,-6.98131733957e-05,0.462504506939,-0.0659120707749,1.04336741775,-3.08522142832,-0.235443265225,3.00202435883,0.0437557268872
6.94,-0.113167152295,0.762255093788,-0.0209264977481,0.853902323222,-0.0404218252099,1.76128158692,-6.98131733957e-05,0.462504506939,-0.0659120707749,1.04336741775,-3.08522142832,-0.235443265225,3.00202435883,0.0437557268872
6.96,-0.11320205635,0.758694647147,-0.0209439518562,0.862402068158,-0.0404567334261,1.75896024256,-6.98131733957e-05,0.461229414931,-0.0658138416523,1.0427282365,-3.08520304843,-0.238064042034,3.00197871994,0.0440262830701
6.98,-0.11320205635,0.758694647147,-0.0209439518562,0.862402068158,-0.0404567334261,1.75896024256,-6.98131733957e-05,0.461229414931,-0.0658138416523,1.0427282365,-3.08520304843,-0.238064042034,3.00197871994,0.0440262830701
7.0,-0.113149691945,0.754785060088,-0.0209090436399,0.870866925682,-0.0404218252099,1.75189168039,-6.98131733957e-05,0.460724422012,-0.0657543370871,1.04206764381,-3.08536856697,-0.235562898051,3.00235867069,0.0443439699303
7.02,-0.113149691945,0.754785060088,-0.0209090436399,0.870866925682,-0.0404218252099,1.75189168039,-6.98131733957e-05,0.460724422012,-0.0657543370871,1.04206764381,-3.08536856697,-0.235562898051,3.00235867069,0.0443439699303
7.04,-0.113149691945,0.751416627362,-0.0207170588537,0.877551526597,-0.0404218252099,1.74405519573,-6.98131733957e-05,0.460682611781,-0.0657289468913,1.04158579385,-3.08562367494,-0.23105836554,3.00289016564,0.0446123096057
7.06,-0.113149691945,0.751416627362,-0.0207170588537,0.877551526597,-0.0404218252099,1.74405519573,-6.98131733957e-05,0.460682611781,-0.0657289468913,1.04158579385,-3.08562367494,-0.23105836554,3.00289016564,0.0446123096057
7.08,-0.113167152295,0.748135413162,-0.0207170588537,0.882996958657,-0.0404392772374,1.73890650639,-6.98131733957e-05,0.460414532028,-0.0657364289165,1.04149284512,-3.08570092969,-0.228082012106,3.00309479131,0.0447989900545
7.1,-0.113167152295,0.748135413162,-0.0207170588537,0.882996958657,-0.0404392772374,1.73890650639,-6.98131733957e-05,0.460414532028,-0.0657364289165,1.04149284512,-3.08570092969,-0.228082012106,3.00309479131,0.0447989900545
7.12,-0.113167152295,0.743388062203,-0.0207345108812,0.890885841017,-0.0404392772374,1.73504931703,-6.98131733957e-05,0.459431025151,-0.065653400713,1.04149073484,-3.08578018219,-0.227372407553,3.00319875187,0.0450205349421
7.14,-0.113149691945,0.736930362613,-0.0206472445018,0.901096067742,-0.0404392772374,1.73138400842,-6.98131733957e-05,0.459431025151,-0.065653400713,1.04149073484,-3.08578018219,-0.227372407553,3.00319875187,0.0450205349421
7.16,-0.113149691945,0.736930362613,-0.0206472445018,0.901096067742,-0.0404392772374,1.73138400842,-6.98131733957e-05,0.457924202562,-0.0654699280019,1.04167572191,-3.0859508131,-0.227467346417,3.00337560627,0.0452764486731
7.18,-0.11320205635,0.727819755103,-0.0202981789843,0.913540220567,-0.0404218252099,1.72438535423,-5.2359878015e-05,0.457924202562,-0.0654699280019,1.04167572191,-3.0859508131,-0.227467346417,3.00337560627,0.0452764486731
7.2,-0.11320205635,0.727819755103,-0.0202981789843,0.913540220567,-0.0404218252099,1.72438535423,-5.2359878015e-05,0.456447294668,-0.065249832492,1.04236169841,-3.08640219729,-0.223819014842,3.00387317912,0.0455771860082
7.22,-0.113184604322,0.718063331028,-0.0203330851199,0.927415622742,-0.0404218252099,1.71595538412,-5.2359878015e-05,0.456447294668,-0.065249832492,1.04236169841,-3.08640219729,-0.223819014842,3.00387317912,0.0455771860082
7.24,-0.113184604322,0.718063331028,-0.0203330851199,0.927415622742,-0.0404218252099,1.71595538412,-5.2359878015e-05,0.45488128034,-0.0651185992593,1.042903625,-3.08659646791,-0.21952131591,3.00417362639,0.0459139223186
7.26,-0.113149691945,0.707643713263,-0.0203505392281,0.941465528547,-0.0404218252099,1.70783953386,-5.2359878015e-05,0.45488128034,-0.0651185992593,1.042903625,-3.08659646791,-0.21952131591,3.00417362639,0.0459139223186
7.28,-0.113149691945,0.707643713263,-0.0203505392281,0.941465528547,-0.0404218252099,1.70783953386,-5.2359878015e-05,0.453184395238,-0.0649563131708,1.04369638614,-3.08681449301,-0.215048949305,3.00449029296,0.0462190773948
7.3,-0.11320205635,0.698201542197,-0.0203679933362,0.955480480362,-0.0404392772374,1.70012528828,-5.2359878015e-05,0.453184395238,-0.0649563131708,1.04369638614,-3.08681449301,-0.215048949305,3.00449029296,0.0462190773948
7.32,-0.11320205635,0.698201542197,-0.0203679933362,0.955480480362,-0.0404392772374,1.70012528828,-5.2359878015e-05,0.451436053481,-0.064828256539,1.044046076,-3.08698743896,-0.211919608883,3.00469042342,0.0465264455774
7.34,-0.113184604322,0.689858857188,-0.0203679933362,0.968064315987,-0.0404567334261,1.69370240952,-5.2359878015e-05,0.451436053481,-0.064828256539,1.044046076,-3.08698743896,-0.211919608883,3.00469042342,0.0465264455774
7.36,-0.113184604322,0.689858857188,-0.0203679933362,0.968064315987,-0.0404567334261,1.69370240952,-5.2359878015e-05,0.449774040903,-0.0646651562778,1.04430062481,-3.08714338031,-0.20974816576,3.00492042541,0.0467863517169
7.38,-0.113167152295,0.682004862238,-0.0203679933362,0.980787767832,-0.0404392772374,1.68820457977,-5.2359878015e-05,0.449774040903,-0.0646651562778,1.04430062481,-3.08714338031,-0.20974816576,3.00492042541,0.0467863517169
7.4,-0.113167152295,0.682004862238,-0.0203679933362,0.980787767832,-0.0404392772374,1.68820457977,-5.2359878015e-05,0.447934378475,-0.064471288281,1.04431461977,-3.08731286294,-0.209128749102,3.00509969427,0.0470407090053
7.42,-0.113184604322,0.675582050058,-0.0203679933362,0.992795628292,-0.0404567334261,1.68438241097,-5.2359878015e-05,0.445991697312,-0.0642797076723,1.04391820711,-3.08740069675,-0.210897568818,3.00515134327,0.0472813537808
7.44,-0.113184604322,0.675582050058,-0.0203679933362,0.992795628292,-0.0404567334261,1.68438241097,-5.2359878015e-05,0.445991697312,-0.0642797076723,1.04391820711,-3.08740069675,-0.210897568818,3.00515134327,0.0472813537808
7.46,-0.11320205635,0.669351251792,-0.0203679933362,1.00485588645,-0.0404567334261,1.6805077779,-6.98131733957e-05,0.444038397064,-0.064083155033,1.04341164698,-3.08750747057,-0.212859405452,3.00522540545,0.0475185800382
7.48,-0.11320205635,0.669351251792,-0.0203679933362,1.00485588645,-0.0404567334261,1.6805077779,-6.98131733957e-05,0.444038397064,-0.064083155033,1.04341164698,-3.08750747057,-0.212859405452,3.00522540545,0.0475185800382
7.5,-0.113184604322,0.663434573378,-0.0203679933362,1.01503115918,-0.0404567334261,1.67722649712,-5.2359878015e-05,0.442356253606,-0.0638982208618,1.04327275068,-3.08760774773,-0.213841084615,3.00529219624,0.0476928857138
7.52,-0.113184604322,0.663434573378,-0.0203679933362,1.01503115918,-0.0404567334261,1.67722649712,-5.2359878015e-05,0.442356253606,-0.0638982208618,1.04327275068,-3.08760774773,-0.213841084615,3.00529219624,0.0476928857138
7.54,-0.113184604322,0.658565116482,-0.0203505392281,1.02429882662,-0.0404567334261,1.67336930776,-6.98131733957e-05,0.440976359124,-0.063751231779,1.0428767875,-3.08771617591,-0.214389245397,3.00543344022,0.0478672485782
7.56,-0.113184604322,0.658565116482,-0.0203505392281,1.02429882662,-0.0404567334261,1.67336930776,-6.98131733957e-05,0.440976359124,-0.063751231779,1.0428767875,-3.08771617591,-0.214389245397,3.00543344022,0.0478672485782
7.58,-0.113184604322,0.654655529423,-0.0203505392281,1.0323447689,-0.0404567334261,1.66830783695,-6.98131733957e-05,0.440063273634,-0.0636670878394,1.04232599872,-3.0878108537,-0.213471679777,3.00561978571,0.048038084308
7.6,-0.113184604322,0.654655529423,-0.0203505392281,1.0323447689,-0.0404567334261,1.66830783695,-6.98131733957e-05,0.440063273634,-0.0636670878394,1.04232599872,-3.0878108537,-0.213471679777,3.00561978571,0.048038084308
7.62,-0.113167152295,0.651915402978,-0.0203505392281,1.03799965858,-0.0404567334261,1.66368272508,-6.98131733957e-05,0.439594102765,-0.0636235031779,1.0418955125,-3.08788998771,-0.211768161096,3.0058269138,0.0481649261661
7.64,-0.113167152295,0.651915402978,-0.0203505392281,1.03799965858,-0.0404567334261,1.66368272508,-6.98131733957e-05,0.439594102765,-0.0636235031779,1.0418955125,-3.08788998771,-0.211768161096,3.0058269138,0.0481649261661
7.66,-0.113149691945,0.649489396383,-0.0202632728487,1.04342764694,-0.0404567334261,1.65966854237,-5.2359878015e-05,0.439081823004,-0.0635433448603,1.04140519106,-3.08800686907,-0.210762081479,3.00606501364,0.0482853798647
7.68,-0.113149691945,0.649489396383,-0.0202632728487,1.04342764694,-0.0404567334261,1.65966854237,-5.2359878015e-05,0.439081823004,-0.0635433448603,1.04140519106,-3.08800686907,-0.210762081479,3.00606501364,0.0482853798647
7.7,-0.113184604322,0.645597319607,-0.0202807248762,1.05012969156,-0.0404741854536,1.65645703642,-5.2359878015e-05,0.43811472666,-0.0634692946361,1.04125841246,-3.08806160437,-0.210365175046,3.00611597857,0.0483903521012
7.72,-0.113184604322,0.645597319607,-0.0202807248762,1.05012969156,-0.0404741854536,1.65645703642,-5.2359878015e-05,0.43811472666,-0.0634692946361,1.04125841246,-3.08806160437,-0.210365175046,3.00611597857,0.0483903521012
7.74,-0.113184604322,0.638825433588,-0.0202807248762,1.06002573185,-0.0404741854536,1.65202393846,-5.2359878015e-05,0.436594819289,-0.063311778337,1.04149810151,-3.08820512629,-0.209063329398,3.00625738936,0.0485079403877
7.76,-0.113184604322,0.638825433588,-0.0202807248762,1.06002573185,-0.0404741854536,1.65202393846,-5.2359878015e-05,0.436594819289,-0.063311778337,1.04149810151,-3.08820512629,-0.209063329398,3.00625738936,0.0485079403877
7.78,-0.113167152295,0.631041213458,-0.0202981789843,1.07119582841,-0.0404567334261,1.64701479877,-5.2359878015e-05,0.434862520677,-0.063126420005,1.04181765634,-3.08837845998,-0.207447927734,3.0064211105,0.0486270080209
7.8,-0.113167152295,0.631041213458,-0.0202981789843,1.07119582841,-0.0404567334261,1.64701479877,-5.2359878015e-05,0.434862520677,-0.063126420005,1.04181765634,-3.08837845998,-0.207447927734,3.0064211105,0.0486270080209
7.82,-0.113184604322,0.623414186413,-0.0202981789843,1.0825229849,-0.0404567334261,1.64153454588,-6.98131733957e-05,0.433165894373,-0.0629584630373,1.04199705117,-3.08855015593,-0.205677320099,3.00660590162,0.0487476851476
7.84,-0.113184604322,0.623414186413,-0.0202981789843,1.0825229849,-0.0404567334261,1.64153454588,-6.98131733957e-05,0.433165894373,-0.0629584630373,1.04199705117,-3.08855015593,-0.205677320099,3.00660590162,0.0487476851476
7.86,-0.113167152295,0.616851691433,-0.0202807248762,1.09339640531,-0.0404392772374,1.63502444859,-6.98131733957e-05,0.431761486537,-0.0628024502947,1.04178275503,-3.08873714978,-0.203488193475,3.00688240888,0.0488841095749
7.88,-0.113167152295,0.616851691433,-0.0202807248762,1.09339640531,-0.0404392772374,1.63502444859,-6.98131733957e-05,0.431761486537,-0.0628024502947,1.04178275503,-3.08873714978,-0.203488193475,3.00688240888,0.0488841095749
7.9,-0.113167152295,0.611737889508,-0.0202981789843,1.10378113567,-0.0404392772374,1.62851435131,-6.98131733957e-05,0.430495265809,-0.0626837981799,1.04105852825,-3.08885755924,-0.20225822201,3.00710756043,0.0490387018816
7.92,-0.113167152295,0.611737889508,-0.0202981789843,1.10378113567,-0.0404392772374,1.62851435131,-6.98131733957e-05,0.430495265809,-0.0626837981799,1.04105852825,-3.08885755924,-0.20225822201,3.00710756043,0.0490387018816
7.94,-0.113167152295,0.607392010083,-0.0202807248762,1.11379934848,-0.0404567334261,1.62348776791,-6.98131733957e-05,0.429076848487,-0.0625330598001,1.04014313248,-3.08895136306,-0.202911307784,3.00728632308,0.0491858745336
7.96,-0.113167152295,0.607392010083,-0.0202807248762,1.11379934848,-0.0404567334261,1.62348776791,-6.98131733957e-05,0.429076848487,-0.0625330598001,1.04014313248,-3.08895136306,-0.202911307784,3.00728632308,0.0491858745336
7.98,-0.113149691945,0.603238144573,-0.0202807248762,1.12147870664,-0.0404392772374,1.62142834544,-6.98131733957e-05,0.427657896546,-0.0623646147837,1.03985634287,-3.08904593259,-0.204380611261,3.00733770579,0.0492573429706
8.0,-0.113149691945,0.603238144573,-0.0202807248762,1.12147870664,-0.0404392772374,1.62142834544,-6.98131733957e-05,0.427657896546,-0.0623646147837,1.03985634287,-3.08904593259,-0.204380611261,3.00733770579,0.0492573429706
8.02,-0.113149691945,0.599433352903,-0.020228366713,1.12802369133,-0.0404392772374,1.62128866264,-6.98131733957e-05,0.42616927033,-0.0621746049515,1.0397791694,-3.0891302818,-0.206982293662,3.00733029114,0.049295974552
8.04,-0.113149691945,0.599433352903,-0.020228366713,1.12802369133,-0.0404392772374,1.62128866264,-6.98131733957e-05,0.42616927033,-0.0621746049515,1.0397791694,-3.0891302818,-0.206982293662,3.00733029114,0.049295974552
8.06,-0.113149691945,0.596187026113,-0.0201236462256,1.13404509856,-0.0404392772374,1.62127121894,-6.98131733957e-05,0.424789090984,-0.061978849165,1.03960077728,-3.08923351528,-0.20974147268,3.00737072575,0.049335203063
8.08,-0.113149691945,0.596187026113,-0.0201236462256,1.13404509856,-0.0404392772374,1.62127121894,-6.98131733957e-05,0.424789090984,-0.061978849165,1.03960077728,-3.08923351528,-0.20974147268,3.00737072575,0.049335203063
8.1,-0.113149691945,0.593254885753,-0.0201760064693,1.13879244952,-0.0404567334261,1.621149113,-6.98131733957e-05,0.423696376688,-0.0618727653922,1.03961625333,-3.08922908597,-0.211434385161,3.0072818747,0.0493547064084
8.12,-0.113149691945,0.593254885753,-0.0201760064693,1.13879244952,-0.0404567334261,1.621149113,-6.98131733957e-05,0.423696376688,-0.0618727653922,1.03961625333,-3.08922908597,-0.211434385161,3.0072818747,0.0493547064084
8.14,-0.11311478789,0.590863766568,-0.0200189257381,1.14217839253,-0.0404567334261,1.62104431761,-6.98131733957e-05,0.422920170165,-0.0617146622404,1.03975223689,-3.08935619236,-0.212326692489,3.00744123722,0.0493595246448
8.16,-0.11311478789,0.590863766568,-0.0200189257381,1.14217839253,-0.0404567334261,1.62104431761,-6.98131733957e-05,0.422920170165,-0.0617146622404,1.03975223689,-3.08935619236,-0.212326692489,3.00744123722,0.0493595246448
8.18,-0.113167152295,0.588525045078,-0.0198967532231,1.14519775141,-0.0404741854536,1.62064297923,-6.98131733957e-05,0.422264127426,-0.0616237263067,1.03994975041,-3.08944917597,-0.212608218681,3.00749980523,0.0493595503432
8.2,-0.113167152295,0.588525045078,-0.0198967532231,1.14519775141,-0.0404741854536,1.62064297923,-6.98131733957e-05,0.422264127426,-0.0616237263067,1.03994975041,-3.08944917597,-0.212608218681,3.00749980523,0.0493595503432
8.22,-0.113149691945,0.585941911978,-0.0198094868437,1.14943896861,-0.0404741854536,1.6187231064,-6.98131733957e-05,0.421590622121,-0.0615140049456,1.03987786028,-3.0895563971,-0.212350307545,3.00766361532,0.0493874096847
8.24,-0.113149691945,0.585941911978,-0.0198094868437,1.14943896861,-0.0404741854536,1.6187231064,-6.98131733957e-05,0.421590622121,-0.0615140049456,1.03987786028,-3.0895563971,-0.212350307545,3.00766361532,0.0493874096847
8.26,-0.113079883835,0.582957440503,-0.0194604213262,1.15525091821,-0.0404567334261,1.61565128324,-6.98131733957e-05,0.42077079503,-0.0612765099126,1.03952327139,-3.08984299258,-0.212114336435,3.00817488153,0.0494417513318
8.28,-0.113079883835,0.582957440503,-0.0194604213262,1.15525091821,-0.0404567334261,1.61565128324,-6.98131733957e-05,0.42077079503,-0.0612765099126,1.03952327139,-3.08984299258,-0.212114336435,3.00817488153,0.0494417513318
8.3,-0.113132239917,0.578873349813,-0.0194255151906,1.16211002276,-0.0404567334261,1.61083415747,-6.98131733957e-05,0.41994849482,-0.0612048959989,1.03930129978,-3.08997219012,-0.210079435347,3.00834900263,0.0494940714945
8.32,-0.113132239917,0.578873349813,-0.0194255151906,1.16211002276,-0.0404567334261,1.61083415747,-6.98131733957e-05,0.41994849482,-0.0612048959989,1.03930129978,-3.08997219012,-0.210079435347,3.00834900263,0.0494940714945
8.34,-0.113132239917,0.573393030343,-0.0192335283237,1.17027820414,-0.0404567334261,1.60465575689,-5.2359878015e-05,0.419026189443,-0.0610492855197,1.03927738886,-3.09022289358,-0.206598846318,3.00877000663,0.0495358910712
8.36,-0.113132239917,0.573393030343,-0.0192335283237,1.17027820414,-0.0404567334261,1.60465575689,-5.2359878015e-05,0.419026189443,-0.0610492855197,1.03927738886,-3.09022289358,-0.206598846318,3.00877000663,0.0495358910712
8.38,-0.11311478789,0.567598524443,-0.019076449673,1.17994734311,-0.0404218252099,1.59807588479,-6.98131733957e-05,0.417826774475,-0.060859828731,1.03897535789,-3.0905001579,-0.203905365742,3.00921710513,0.0495916951911
8.4,-0.11311478789,0.567598524443,-0.019076449673,1.17994734311,-0.0404218252099,1.59807588479,-6.98131733957e-05,0.417826774475,-0.060859828731,1.03897535789,-3.0905001579,-0.203905365742,3.00921710513,0.0495916951911
8.42,-0.11311478789,0.560966254643,-0.0191462619443,1.19211226349,-0.0404218252099,1.5921591398,-6.98131733957e-05,0.415920996214,-0.0606753188972,1.03839246363,-3.09061614515,-0.203528788117,3.00935292296,0.0496546726875
8.44,-0.11311478789,0.560966254643,-0.0191462619443,1.19211226349,-0.0404218252099,1.5921591398,-6.98131733957e-05,0.415920996214,-0.0606753188972,1.03839246363,-3.09061614515,-0.203528788117,3.00935292296,0.0496546726875
8.46,-0.113079883835,0.555136861333,-0.0187797423187,1.20214785343,-0.0403694649661,1.58945390076,-6.98131733957e-05,0.413990209837,-0.0603067553066,1.03812577928,-3.09097873475,-0.205037453739,3.00979646975,0.0496759704312
8.48,-0.113079883835,0.555136861333,-0.0187797423187,1.20214785343,-0.0403694649661,1.58945390076,-6.98131733957e-05,0.413990209837,-0.0603067553066,1.03812577928,-3.09097873475,-0.205037453739,3.00979646975,0.0496759704312
8.5,-0.113079883835,0.550092867518,-0.0188146484543,1.21185187981,-0.0401949322074,1.58884297161,-6.98131733957e-05,0.411783358772,-0.060030361933,1.03768631464,-3.09121096015,-0.209087519818,3.0097162019,0.0496955754234
8.52,-0.113079883835,0.550092867518,-0.0188146484543,1.21185187981,-0.0401949322074,1.58884297161,-6.98131733957e-05,0.411783358772,-0.060030361933,1.03768631464,-3.09121096015,-0.209087519818,3.0097162019,0.0496955754234
8.54,-0.113079883835,0.545973889418,-0.0186226636681,1.21878089233,-0.0381354431574,1.58884297161,-6.98131733957e-05,0.4101635665,-0.0594220615546,1.03758364231,-3.09343974717,-0.211901478313,3.00988424918,0.0496889702407
8.56,-0.113079883835,0.545973889418,-0.0186226636681,1.21878089233,-0.0381354431574,1.58884297161,-6.98131733957e-05,0.4101635665,-0.0594220615546,1.03758364231,-3.09343974717,-0.211901478313,3.00988424918,0.0496889702407
8.58,-0.11304497978,0.543181365278,-0.0185004890725,1.22298708896,-0.0338593884874,1.58887799217,-6.98131733957e-05,0.409227660492,-0.0585244602441,1.03761966036,-3.09783765545,-0.213354828998,3.01008293258,0.0496750428878
8.6,-0.11304497978,0.543181365278,-0.0185004890725,1.22298708896,-0.0338593884874,1.58887799217,-6.98131733957e-05,0.409227660492,-0.0585244602441,1.03761966036,-3.09783765545,-0.213354828998,3.01008293258,0.0496750428878
8.62,-0.11302751943,0.541418585663,-0.0183783165574,1.22666970811,-0.0297404103874,1.58887799217,-6.98131733957e-05,0.408442025418,-0.0576785784151,1.03736764097,-3.10206008506,-0.215278759532,3.01026485602,0.0496811359375
8.64,-0.11302751943,0.541418585663,-0.0183783165574,1.22666970811,-0.0297404103874,1.58887799217,-6.98131733957e-05,0.408442025418,-0.0576785784151,1.03736764097,-3.10206008506,-0.215278759532,3.01026485602,0.0496811359375
8.66,-0.113010067402,0.540668106868,-0.0183085042862,1.23049201007,-0.0253770872574,1.58887799217,-6.98131733957e-05,0.407658783783,-0.0568086631295,1.0366650139,-3.10648103212,-0.218353820177,3.01039559209,0.049716578543
8.68,-0.113010067402,0.540668106868,-0.0183085042862,1.23049201007,-0.0253770872574,1.58887799217,-6.98131733957e-05,0.407658783783,-0.0568086631295,1.0366650139,-3.10648103212,-0.218353820177,3.01039559209,0.049716578543
8.7,-0.113010067402,0.540668106868,-0.0182386899343,1.23509967823,-0.0188495566706,1.58887799217,-6.98131733957e-05,0.406764369204,-0.0555622682758,1.0354476367,-3.11305922121,-0.222965221402,3.01053855086,0.0497830064358
8.72,-0.113010067402,0.540668106868,-0.0182386899343,1.23509967823,-0.0188495566706,1.58887799217,-6.98131733957e-05,0.406764369204,-0.0555622682758,1.0354476367,-3.11305922121,-0.222965221402,3.01053855086,0.0497830064358
8.74,-0.113010067402,0.540615742463,-0.018151423555,1.2400390431,-0.0126710905609,1.58887799217,-5.2359878015e-05,0.405782425538,-0.0543590637213,1.03418032724,-3.11929328014,-0.227854825422,3.01067162178,0.0498508437081
8.76,-0.113010067402,0.540615742463,-0.018151423555,1.2400390431,-0.0126710905609,1.58887799217,-5.2359878015e-05,0.405782425538,-0.0543590637213,1.03418032724,-3.11929328014,-0.227854825422,3.01067162178,0.0498508437081
8.78,-0.113010067402,0.540563378058,-0.0180816112837,1.24379143708,-0.00830776743091,1.58884297161,-6.98131733957e-05,0.405031573156,-0.0534997176283,1.03323025658,-3.12370750215,-0.231521985618,3.01080265847,0.0499008823713
8.8,-0.113010067402,0.540563378058,-0.0180816112837,1.24379143708,-0.00830776743091,1.58884297161,-6.98131733957e-05,0.405031573156,-0.0534997176283,1.03323025658,-3.12370750215,-0.231521985618,3.01080265847,0.0499008823713
8.82,-0.113010067402,0.540423761838,-0.0180117969318,1.24628721849,-0.00595157258701,1.58856373917,-5.2359878015e-05,0.404558894803,-0.0530173564711,1.0326358056,-3.12610390492,-0.233599771623,3.01087730788,0.0499319589219
8.84,-0.113010067402,0.540423761838,-0.0180117969318,1.24628721849,-0.00595157258701,1.58856373917,-5.2359878015e-05,0.404558894803,-0.0530173564711,1.0326358056,-3.12610390492,-0.233599771623,3.01087730788,0.0499319589219
8.86,-0.112992615375,0.540423761838,-0.0179070785249,1.24729948602,-0.00555014682577,1.58589338754,-6.98131733957e-05,0.404779992545,-0.0529378813932,1.0322728047,-3.12657351825,-0.231943244432,3.01105401287,0.049958941004
8.88,-0.112992615375,0.540423761838,-0.0179070785249,1.24729948602,-0.00555014682577,1.58589338754,-6.98131733957e-05,0.404779992545,-0.0529378813932,1.0322728047,-3.12657351825,-0.231943244432,3.01105401287,0.049958941004
8.9,-0.113010067402,0.540476092953,-0.0178547182812,1.24731706289,-0.00549778710217,1.57840591014,-6.98131733957e-05,0.406009197392,-0.0530797228684,1.03195862559,-3.126678197,-0.224526980528,3.01120298548,0.0499968371221
8.92,-0.113010067402,0.540476092953,-0.0178547182812,1.24731706289,-0.00549778710217,1.57840591014,-6.98131733957e-05,0.406009197392,-0.0530797228684,1.03195862559,-3.126678197,-0.224526980528,3.01120298548,0.0499968371221
