GitHatake/ROS1EARs/catkin_ws/src/torobo_robot/torobo_EARs2021/scripts/arm/2021_kaiya_csv/test_manipulability_20220119_3.csv
time,joint_1,joint_2,joint_3,joint_4,joint_5,joint_6,joint_7,x,y,z,roll,pitch,yaw,manipulability
0.0,0.695321732953,0.464519376424,0.0672649909698,1.14093922367,-0.106552351167,1.33226218112,-0.657046648608,0.35505720171,0.306464484102,1.09712508839,-2.95510167614,0.11412265503,-1.70693699196,0.0454130509745
0.02,0.695304289247,0.464554297123,0.0672649909698,1.14093922367,-0.106552351167,1.33226218112,-0.657046648608,0.35506501757,0.306460351277,1.09710871189,-2.95512535955,0.114096851482,-1.70695713232,0.0454142178741
0.04,0.695304289247,0.464554297123,0.0672649909698,1.14093922367,-0.106552351167,1.33226218112,-0.657046648608,0.35506501757,0.306460351277,1.09710871189,-2.95512535955,0.114096851482,-1.70695713232,0.0454142178741
0.06,0.695321732953,0.464554297123,0.0672649909698,1.14093922367,-0.106552351167,1.33226218112,-0.657046648608,0.355059671712,0.30646654488,1.09710871189,-2.95512535955,0.114096851482,-1.70693968861,0.0454142178741
0.08,0.695321732953,0.464606661528,0.0672824429973,1.14093922367,-0.106569803195,1.33226218112,-0.657046648608,0.355059671712,0.30646654488,1.09710871189,-2.95512535955,0.114096851482,-1.70693968861,0.0454142178741
0.1,0.695321732953,0.464606661528,0.0672824429973,1.14093922367,-0.106569803195,1.33226218112,-0.657046648608,0.355061032802,0.306472535885,1.09708443615,-2.95515301756,0.114052484869,-1.70692664478,0.0454159387768
0.12,0.695304289247,0.464606661528,0.0672649909698,1.14095666738,-0.106552351167,1.33226218112,-0.657029204903,0.355061032802,0.306472535885,1.09708443615,-2.95515301756,0.114052484869,-1.70692664478,0.0454159387768
0.14,0.695304289247,0.464606661528,0.0672649909698,1.14095666738,-0.106552351167,1.33226218112,-0.657029204903,0.355066369483,0.306461467642,1.09707832397,-2.95517386048,0.114047824739,-1.70697915762,0.0454163616077
0.16,0.695304289247,0.464624105233,0.0672649909698,1.14092177997,-0.106569803195,1.33226218112,-0.657046648608,0.355066369483,0.306461467642,1.09707832397,-2.95517386048,0.114047824739,-1.70697915762,0.0454163616077
0.18,0.695304289247,0.464624105233,0.0672649909698,1.14092177997,-0.106569803195,1.33226218112,-0.657046648608,0.355074283438,0.306464357406,1.0970820249,-2.95514800798,0.114047893042,-1.70695964581,0.0454161545996
0.2,0.695304289247,0.464624105233,0.0672649909698,1.14092177997,-0.106569803195,1.33226218112,-0.657046648608,0.355074283438,0.306464357406,1.0970820249,-2.95514800798,0.114047893042,-1.70695964581,0.0454161545996
0.22,0.695304289247,0.464658992644,0.0672649909698,1.14095666738,-0.106552351167,1.33226218112,-0.657046648608,0.355070068964,0.306464554093,1.09705378234,-2.95520738764,0.114005922977,-1.70696594212,0.0454181102015
0.24,0.695304289247,0.464658992644,0.0672649909698,1.14095666738,-0.106552351167,1.33226218112,-0.657046648608,0.355070068964,0.306464554093,1.09705378234,-2.95520738764,0.114005922977,-1.70696594212,0.0454181102015
0.26,0.695304289247,0.464641548939,0.0672649909698,1.14093922367,-0.106552351167,1.33226218112,-0.657046648608,0.355071187214,0.306465498567,1.09706779357,-2.95518453361,0.11403237923,-1.70696386735,0.0454171333756
0.28,0.695304289247,0.464641548939,0.0672649909698,1.14093922367,-0.106552351167,1.33226218112,-0.657046648608,0.355071187214,0.306465498567,1.09706779357,-2.95518453361,0.11403237923,-1.70696386735,0.0454171333756
0.3,0.695304289247,0.464658992644,0.0672649909698,1.14095666738,-0.106552351167,1.33226218112,-0.657046648608,0.355070068964,0.306464554093,1.09705378234,-2.95520738764,0.114005922977,-1.70696594212,0.0454181102015
0.32,0.695304289247,0.464658992644,0.0672649909698,1.14095666738,-0.106552351167,1.33226218112,-0.657046648608,0.355070068964,0.306464554093,1.09705378234,-2.95520738764,0.114005922977,-1.70696594212,0.0454181102015
0.34,0.695304289247,0.464641548939,0.0672649909698,1.14093922367,-0.106552351167,1.33226218112,-0.657029204903,0.355071187214,0.306465498567,1.09706779357,-2.95518649684,0.114035612063,-1.70698112093,0.0454171333756
0.36,0.695304289247,0.464641548939,0.0672649909698,1.14093922367,-0.106552351167,1.33226218112,-0.657029204903,0.355071187214,0.306465498567,1.09706779357,-2.95518649684,0.114035612063,-1.70698112093,0.0454171333756
0.38,0.695304289247,0.464641548939,0.0672649909698,1.14093922367,-0.106569803195,1.33226218112,-0.657046648608,0.355073165534,0.306463413231,1.09706801353,-2.95517086215,0.114021436878,-1.70696172096,0.0454171314604
0.4,0.695304289247,0.464641548939,0.0672649909698,1.14093922367,-0.106569803195,1.33226218112,-0.657046648608,0.355073165534,0.306463413231,1.09706801353,-2.95517086215,0.114021436878,-1.70696172096,0.0454171314604
0.42,0.695304289247,0.464624105233,0.0672649909698,1.14093922367,-0.106552351167,1.33226218112,-0.657046648608,0.355069953975,0.306464469685,1.09707597417,-2.95517270338,0.114045268793,-1.70696252117,0.0454165505068
0.44,0.695304289247,0.464624105233,0.0672649909698,1.14093922367,-0.106552351167,1.33226218112,-0.657046648608,0.355069953975,0.306464469685,1.09707597417,-2.95517270338,0.114045268793,-1.70696252117,0.0454165505068
0.46,0.695304289247,0.464624105233,0.0672649909698,1.14093922367,-0.106552351167,1.33226218112,-0.657046648608,0.355069953975,0.306464469685,1.09707597417,-2.95517270338,0.114045268793,-1.70696252117,0.0454165505068
0.48,0.695304289247,0.464624105233,0.0672649909698,1.14093922367,-0.106552351167,1.33226218112,-0.657046648608,0.355069953975,0.306464469685,1.09707597417,-2.95517270338,0.114045268793,-1.70696252117,0.0454165505068
0.5,0.695321732953,0.464624105233,0.0672649909698,1.14093922367,-0.106552351167,1.33226218112,-0.657046648608,0.355064608045,0.306470663374,1.09707597417,-2.95517270338,0.114045268793,-1.70694507747,0.0454165505068
0.52,0.695321732953,0.464624105233,0.0672649909698,1.14093922367,-0.106552351167,1.33226218112,-0.657046648608,0.355064608045,0.306470663374,1.09707597417,-2.95517270338,0.114045268793,-1.70694507747,0.0454165505068
0.54,0.695321732953,0.464624105233,0.0672649909698,1.14092177997,-0.106552351167,1.33226218112,-0.657046648608,0.35506695916,0.306472636478,1.09708180493,-2.95516167946,0.114058835442,-1.70694434826,0.0454161565146
0.56,0.695321732953,0.464624105233,0.0672649909698,1.14093922367,-0.106552351167,1.33226218112,-0.657029204903,0.35506695916,0.306472636478,1.09708180493,-2.95516167946,0.114058835442,-1.70694434826,0.0454161565146
0.58,0.695321732953,0.464624105233,0.0672649909698,1.14093922367,-0.106552351167,1.33226218112,-0.657029204903,0.355064608045,0.306470663374,1.09707597417,-2.95517466684,0.114048501828,-1.70696233103,0.0454165505068
0.6,0.695321732953,0.464624105233,0.0672649909698,1.14093922367,-0.106552351167,1.33226218112,-0.657046648608,0.355064608045,0.306470663374,1.09707597417,-2.95517466684,0.114048501828,-1.70696233103,0.0454165505068
0.62,0.695321732953,0.464624105233,0.0672649909698,1.14093922367,-0.106552351167,1.33226218112,-0.657046648608,0.355064608045,0.306470663374,1.09707597417,-2.95517270338,0.114045268793,-1.70694507747,0.0454165505068
0.64,0.695304289247,0.464624105233,0.0672475347811,1.14093922367,-0.106552351167,1.33226218112,-0.657046648608,0.355064608045,0.306470663374,1.09707597417,-2.95517270338,0.114045268793,-1.70694507747,0.0454165505068
0.66,0.695304289247,0.464624105233,0.0672475347811,1.14093922367,-0.106552351167,1.33226218112,-0.657046648608,0.355074275138,0.306459481568,1.09707591274,-2.95516688578,0.114039998527,-1.70697746481,0.0454165774475
0.68,0.695304289247,0.464624105233,0.0672475347811,1.14093922367,-0.106552351167,1.33226218112,-0.657046648608,0.355074275138,0.306459481568,1.09707591274,-2.95516688578,0.114039998527,-1.70697746481,0.0454165774475
0.7,0.695321732953,0.464606661528,0.0672649909698,1.14093922367,-0.106569803195,1.33226218112,-0.657046648608,0.355065353066,0.306467549072,1.09708437471,-2.95514720164,0.114047215936,-1.70694158498,0.0454159657185
0.72,0.695321732953,0.464606661528,0.0672649909698,1.14093922367,-0.106569803195,1.33226218112,-0.657046648608,0.355065353066,0.306467549072,1.09708437471,-2.95514720164,0.114047215936,-1.70694158498,0.0454159657185
0.74,0.695321732953,0.464606661528,0.0672649909698,1.14093922367,-0.106552351167,1.33226218112,-0.657046648608,0.355063374715,0.306469634378,1.09708415474,-2.95516087312,0.114058158339,-1.70694373113,0.0454159676335
0.76,0.695321732953,0.464606661528,0.0672649909698,1.14093922367,-0.106552351167,1.33226218112,-0.657046648608,0.355063374715,0.306469634378,1.09708415474,-2.95516087312,0.114058158339,-1.70694373113,0.0454159676335
0.78,0.695321732953,0.464589184534,0.0672649909698,1.14095666738,-0.106569803195,1.33226218112,-0.657046648608,0.355061766241,0.306464544977,1.09708674005,-2.95514637272,0.114046563423,-1.70694096531,0.0454157757068
0.8,0.695321732953,0.464589184534,0.0672649909698,1.14095666738,-0.106569803195,1.33226218112,-0.657046648608,0.355061766241,0.306464544977,1.09708674005,-2.95514637272,0.114046563423,-1.70694096531,0.0454157757068
0.82,0.695321732953,0.464589184534,0.0672649909698,1.14095666738,-0.106569803195,1.33226218112,-0.657046648608,0.355061766241,0.306464544977,1.09708674005,-2.95514637272,0.114046563423,-1.70694096531,0.0454157757068
0.84,0.695304289247,0.464606661528,0.0672475347811,1.14093922367,-0.106552351167,1.33226218112,-0.657046648608,0.35507304179,0.306458452595,1.09708409331,-2.95515505572,0.114052888249,-1.70697611856,0.0454159945747
0.86,0.695304289247,0.464606661528,0.0672475347811,1.14093922367,-0.106552351167,1.33226218112,-0.657046648608,0.35507304179,0.306458452595,1.09708409331,-2.95515505572,0.114052888249,-1.70697611856,0.0454159945747
0.88,0.695304289247,0.464606661528,0.0672649909698,1.14093922367,-0.106552351167,1.33226218112,-0.657046648608,0.355068720627,0.306463440711,1.09708415474,-2.95516087312,0.114058158339,-1.70696117483,0.0454159676335
0.9,0.695304289247,0.464606661528,0.0672649909698,1.14093922367,-0.106552351167,1.33226218112,-0.657046648608,0.355068720627,0.306463440711,1.09708415474,-2.95516087312,0.114058158339,-1.70696117483,0.0454159676335
0.92,0.695304289247,0.464606661528,0.0672649909698,1.14093922367,-0.106552351167,1.33226218112,-0.657046648608,0.355068720627,0.306463440711,1.09708415474,-2.95516087312,0.114058158339,-1.70696117483,0.0454159676335
0.94,0.695304289247,0.464606661528,0.0672649909698,1.14093922367,-0.106552351167,1.33226218112,-0.657046648608,0.355068720627,0.306463440711,1.09708415474,-2.95516087312,0.114058158339,-1.70696117483,0.0454159676335
0.96,0.695304289247,0.464606661528,0.0672475347811,1.14092177997,-0.106552351167,1.33226218112,-0.657029204903,0.355075392863,0.306460425592,1.09708992412,-2.95514599558,0.114069688413,-1.70699264262,0.0454156005779
0.98,0.695304289247,0.464606661528,0.0672475347811,1.14092177997,-0.106552351167,1.33226218112,-0.657029204903,0.355075392863,0.306460425592,1.09708992412,-2.95514599558,0.114069688413,-1.70699264262,0.0454156005779
1.0,0.695321732953,0.464606661528,0.0672475347811,1.14093922367,-0.106552351167,1.33226218112,-0.657046648608,0.355067695965,0.306464646338,1.09708409331,-2.95515505572,0.114052888249,-1.70695867486,0.0454159945747
1.02,0.695321732953,0.464606661528,0.0672475347811,1.14093922367,-0.106552351167,1.33226218112,-0.657046648608,0.355067695965,0.306464646338,1.09708409331,-2.95515505572,0.114052888249,-1.70695867486,0.0454159945747
1.04,0.695304289247,0.464606661528,0.0672649909698,1.14093922367,-0.106552351167,1.33226218112,-0.657046648608,0.355068720627,0.306463440711,1.09708415474,-2.95516087312,0.114058158339,-1.70696117483,0.0454159676335
1.06,0.695304289247,0.464606661528,0.0672649909698,1.14093922367,-0.106552351167,1.33226218112,-0.657046648608,0.355068720627,0.306463440711,1.09708415474,-2.95516087312,0.114058158339,-1.70696117483,0.0454159676335
1.08,0.695304289247,0.464606661528,0.0672649909698,1.14095666738,-0.106569803195,1.33226218112,-0.657046648608,0.355068347801,0.306459382304,1.09707854395,-2.95515822557,0.114033649311,-1.70695975779,0.0454163596927
1.1,0.695321732953,0.464606661528,0.0672649909698,1.14092177997,-0.106552351167,1.33226218112,-0.657046648608,0.355068347801,0.306459382304,1.09707854395,-2.95515822557,0.114033649311,-1.70695975779,0.0454163596927
1.12,0.695321732953,0.464606661528,0.0672649909698,1.14092177997,-0.106552351167,1.33226218112,-0.657046648608,0.355065725752,0.306471607418,1.09708998555,-2.95514984917,0.11407172498,-1.70694300176,0.0454155736372
1.14,0.695321732953,0.464624105233,0.0672649909698,1.14093922367,-0.106552351167,1.33226218112,-0.657046648608,0.355065725752,0.306471607418,1.09708998555,-2.95514984917,0.11407172498,-1.70694300176,0.0454155736372
1.16,0.695321732953,0.464624105233,0.0672649909698,1.14093922367,-0.106552351167,1.33226218112,-0.657046648608,0.355064608045,0.306470663374,1.09707597417,-2.95517270338,0.114045268793,-1.70694507747,0.0454165505068
1.18,0.695321732953,0.464624105233,0.0672649909698,1.14092177997,-0.106569803195,1.33226218112,-0.657046648608,0.355064608045,0.306470663374,1.09707597417,-2.95517270338,0.114045268793,-1.70694507747,0.0454165505068
1.2,0.695321732953,0.464624105233,0.0672649909698,1.14092177997,-0.106569803195,1.33226218112,-0.657046648608,0.35506893751,0.30647055117,1.0970820249,-2.95514800798,0.114047893042,-1.7069422021,0.0454161545996
1.22,0.695339176658,0.464624105233,0.0672649909698,1.14095666738,-0.106552351167,1.33226218112,-0.657046648608,0.355056910854,0.306474883753,1.09707014346,-2.95518372728,0.114031702135,-1.70692836282,0.0454169444768
1.24,0.695339176658,0.464624105233,0.0672649909698,1.14095666738,-0.106552351167,1.33226218112,-0.657046648608,0.355056910854,0.306474883753,1.09707014346,-2.95518372728,0.114031702135,-1.70692836282,0.0454169444768
1.26,0.695304289247,0.464606661528,0.0672300827535,1.14095666738,-0.106569803195,1.33226218112,-0.657046648608,0.355076988949,0.306449407138,1.0970784212,-2.95514659213,0.114023110457,-1.70698964199,0.0454164135626
1.28,0.695304289247,0.464606661528,0.0672300827535,1.14095666738,-0.106569803195,1.33226218112,-0.657046648608,0.355076988949,0.306449407138,1.0970784212,-2.95514659213,0.114023110457,-1.70698964199,0.0454164135626
1.3,0.695321732953,0.464624105233,0.0672475347811,1.14093922367,-0.106552351167,1.33226218112,-0.657046648608,0.355068929295,0.306465675332,1.09707591274,-2.95516688578,0.114039998527,-1.70696002111,0.0454165774475
1.32,0.695321732953,0.464624105233,0.0672475347811,1.14093922367,-0.106552351167,1.33226218112,-0.657046648608,0.355068929295,0.306465675332,1.09707591274,-2.95516688578,0.114039998527,-1.70696002111,0.0454165774475
1.34,0.695321732953,0.464658992644,0.0672649909698,1.14095666738,-0.106552351167,1.33226218112,-0.657029204903,0.355064723033,0.306470747784,1.09705378234,-2.95520935042,0.114009155418,-1.70696575201,0.0454181102015
1.36,0.695321732953,0.464658992644,0.0672649909698,1.14095666738,-0.106552351167,1.33226218112,-0.657029204903,0.355064723033,0.306470747784,1.09705378234,-2.95520935042,0.114009155418,-1.70696575201,0.0454181102015
1.38,0.695304289247,0.464641548939,0.0672649909698,1.14095666738,-0.106552351167,1.33226218112,-0.657046648608,0.355068835913,0.306463525367,1.09706196291,-2.95519555747,0.114018812564,-1.70696459625,0.0454175273414
1.4,0.695304289247,0.464641548939,0.0672649909698,1.14095666738,-0.106552351167,1.33226218112,-0.657046648608,0.355068835913,0.306463525367,1.09706196291,-2.95519555747,0.114018812564,-1.70696459625,0.0454175273414
1.42,0.695286845542,0.464658992644,0.0672649909698,1.14093922367,-0.106552351167,1.33226218112,-0.657029204903,0.355077766201,0.306460333532,1.09705961294,-2.95519832681,0.114022722282,-1.70699991068,0.0454177162399
1.44,0.695286845542,0.464658992644,0.0672649909698,1.14093922367,-0.106552351167,1.33226218112,-0.657029204903,0.355077766201,0.306460333532,1.09705961294,-2.95519832681,0.114022722282,-1.70699991068,0.0454177162399
1.46,0.695286845542,0.464676469638,0.0672649909698,1.14095666738,-0.106552351167,1.33226218112,-0.657046648608,0.3550766501,0.306459390884,1.09704558613,-2.95521924034,0.113993008776,-1.7069847341,0.0454186941695
1.48,0.695286845542,0.464676469638,0.0672649909698,1.14095666738,-0.106552351167,1.33226218112,-0.657046648608,0.3550766501,0.306459390884,1.09704558613,-2.95521924034,0.113993008776,-1.7069847341,0.0454186941695
1.5,0.695321732953,0.464746277748,0.0672649909698,1.14095666738,-0.106552351167,1.33226218112,-0.657046648608,0.355070891259,0.306475894073,1.09701284783,-2.95526658308,0.11394142561,-1.70695523054,0.0454210266589
1.52,0.695321732953,0.464746277748,0.0672649909698,1.14095666738,-0.106552351167,1.33226218112,-0.657046648608,0.355070891259,0.306475894073,1.09701284783,-2.95526658308,0.11394142561,-1.70695523054,0.0454210266589
1.54,0.695286845542,0.464746277748,0.0672649909698,1.14095666738,-0.106552351167,1.33226218112,-0.657046648608,0.355081583193,0.306463506383,1.09701284783,-2.95526658308,0.11394142561,-1.70699011795,0.0454210266589
1.56,0.695286845542,0.464746277748,0.0672649909698,1.14095666738,-0.106552351167,1.33226218112,-0.657046648608,0.355081583193,0.306463506383,1.09701284783,-2.95526658308,0.11394142561,-1.70699011795,0.0454210266589
1.58,0.695286845542,0.464763721454,0.0672649909698,1.14095666738,-0.106552351167,1.33226218112,-0.657046648608,0.355082815604,0.306464534538,1.09700466709,-2.95527841303,0.113928535928,-1.70699146288,0.0454216094919
1.6,0.695286845542,0.464763721454,0.0672649909698,1.14095666738,-0.106552351167,1.33226218112,-0.657046648608,0.355082815604,0.306464534538,1.09700466709,-2.95527841303,0.113928535928,-1.70699146288,0.0454216094919
1.62,0.695321732953,0.464851006558,0.0672824429973,1.14095666738,-0.106552351167,1.33226218112,-0.657046648608,0.355073968283,0.306487052606,1.09696379323,-2.95534342618,0.113869309461,-1.70694836389,0.0454244988781
1.64,0.695321732953,0.464851006558,0.0672824429973,1.14095666738,-0.106552351167,1.33226218112,-0.657046648608,0.355073968283,0.306487052606,1.09696379323,-2.95534342618,0.113869309461,-1.70694836389,0.0454244988781
1.66,0.695286845542,0.464920814668,0.0672649909698,1.14092177997,-0.106569803195,1.33226218112,-0.657046648608,0.355100592847,0.3064756527,1.09694287188,-2.95534923064,0.113828645913,-1.7069999669,0.0454260683845
1.68,0.695286845542,0.464920814668,0.0672649909698,1.14092177997,-0.106569803195,1.33226218112,-0.657046648608,0.355100592847,0.3064756527,1.09694287188,-2.95534923064,0.113828645913,-1.7069999669,0.0454260683845
1.7,0.695234447848,0.464973179073,0.0672300827535,1.14095666738,-0.1066221676,1.33227962483,-0.657046648608,0.35512814248,0.306437916048,1.09690659127,-2.95536507358,0.113705867933,-1.70708385708,0.0454287684156
1.72,0.695234447848,0.464973179073,0.0672300827535,1.14095666738,-0.1066221676,1.33227962483,-0.657046648608,0.35512814248,0.306437916048,1.09690659127,-2.95536507358,0.113705867933,-1.70708385708,0.0454287684156
1.74,0.695286845542,0.465025510189,0.0672824429973,1.14095666738,-0.106587255222,1.33226218112,-0.657046648608,0.355100934684,0.306480770121,1.09688239147,-2.9554344269,0.113718479994,-1.70699239165,0.0454303251267
1.76,0.695286845542,0.465025510189,0.0672824429973,1.14095666738,-0.106587255222,1.33226218112,-0.657046648608,0.355100934684,0.306480770121,1.09688239147,-2.9554344269,0.113718479994,-1.70699239165,0.0454303251267
1.78,0.695199560438,0.465322219624,0.0671951745373,1.14090433626,-0.106657071655,1.33222729371,-0.657029204903,0.355189330892,0.306443929656,1.09676248633,-2.95549881924,0.113500151167,-1.70717851777,0.0454389531313
1.8,0.695199560438,0.465322219624,0.0671951745373,1.14090433626,-0.106657071655,1.33222729371,-0.657029204903,0.355189330892,0.306443929656,1.09676248633,-2.95549881924,0.113500151167,-1.70717851777,0.0454389531313
1.82,0.694920327997,0.466509057363,0.0671428142936,1.14090433626,-0.106814148225,1.33220985001,-0.657029204903,0.355391113846,0.306382549451,1.09620813195,-2.95615200669,0.112522291193,-1.70757134395,0.0454785370668
1.84,0.694920327997,0.466509057363,0.0671428142936,1.14090433626,-0.106814148225,1.33220985001,-0.657029204903,0.355391113846,0.306382549451,1.09620813195,-2.95615200669,0.112522291193,-1.70757134395,0.0454785370668
1.86,0.694693426672,0.469161965283,0.0671079102385,1.14085187199,-0.106796696197,1.33226218112,-0.657011761198,0.35565280048,0.306447729253,1.09497855901,-2.95795354635,0.110564978395,-1.70805320452,0.0455662720888
1.88,0.694693426672,0.469161965283,0.0671079102385,1.14085187199,-0.106796696197,1.33226218112,-0.657011761198,0.35565280048,0.306447729253,1.09497855901,-2.95795354635,0.110564978395,-1.70805320452,0.0455662720888
1.9,0.694675916388,0.475183339218,0.0670206417786,1.14083442828,-0.106883964657,1.33220985001,-0.657011761198,0.356107978747,0.306755600651,1.09215879184,-2.96188970432,0.106085627556,-1.70856693085,0.045766176124
1.92,0.693960391582,0.484398675539,0.0668461090198,1.14081698458,-0.107582095692,1.33217496259,-0.657029204903,0.356107978747,0.306755600651,1.09215879184,-2.96188970432,0.106085627556,-1.70856693085,0.045766176124
1.94,0.693960391582,0.484398675539,0.0668461090198,1.14081698458,-0.107582095692,1.33217496259,-0.657029204903,0.35705831015,0.306874383141,1.08783939595,-2.96748180711,0.0988146440246,-1.70995588795,0.0460714962509
1.96,0.693105183977,0.497541009333,0.0667239365048,1.14093922367,-0.110793501782,1.33217496259,-0.657046648608,0.35705831015,0.306874383141,1.08783939595,-2.96748180711,0.0988146440246,-1.70995588795,0.0460714962509
1.98,0.693105183977,0.497541009333,0.0667239365048,1.14093922367,-0.110793501782,1.33217496259,-0.657046648608,0.358503425253,0.306805163617,1.08164596029,-2.97387915636,0.0869426275677,-1.71129833655,0.0465075459018
2.0,0.692616427338,0.512917369098,0.0667937487761,1.14146280114,-0.115558246512,1.33217496259,-0.657029204903,0.359963609733,0.306733938863,1.07427526422,-2.98088568795,0.0722021247946,-1.71192783244,0.0470215195738
2.02,0.692616427338,0.512917369098,0.0667937487761,1.14146280114,-0.115558246512,1.33217496259,-0.657029204903,0.359963609733,0.306733938863,1.07427526422,-2.98088568795,0.0722021247946,-1.71192783244,0.0470215195738
2.04,0.692040518753,0.529131459473,0.066758844721,1.141166125,-0.118438039112,1.3320527235,-0.657029204903,0.361352362782,0.306902171064,1.06673675866,-2.98928729993,0.0587148691806,-1.712822919,0.0475395034166
2.06,0.692040518753,0.529131459473,0.066758844721,1.141166125,-0.118438039112,1.3320527235,-0.657029204903,0.361352362782,0.306902171064,1.06673675866,-2.98928729993,0.0587148691806,-1.712822919,0.0475395034166
2.08,0.691848504838,0.543338458493,0.0665843119623,1.14121845611,-0.119258350985,1.33194806127,-0.657029204903,0.362190366621,0.307219439894,1.05999212256,-2.99810793424,0.0476608931721,-1.7135368735,0.047996152816
2.1,0.691848504838,0.543338458493,0.0665843119623,1.14121845611,-0.119258350985,1.33194806127,-0.657029204903,0.362190366621,0.307219439894,1.05999212256,-2.99810793424,0.0476608931721,-1.7135368735,0.047996152816
2.12,0.691883392248,0.555835009013,0.066427231231,1.14053775214,-0.119223438607,1.33159892085,-0.657029204903,0.362864434693,0.307736353955,1.05427484235,-3.00582840687,0.0391683379415,-1.7139695958,0.0483772040266
2.14,0.691883392248,0.555835009013,0.066427231231,1.14053775214,-0.119223438607,1.33159892085,-0.657029204903,0.362864434693,0.307736353955,1.05427484235,-3.00582840687,0.0391683379415,-1.7139695958,0.0483772040266
2.16,0.691883392248,0.566289514188,0.066427231231,1.13954292831,-0.119240890635,1.3294695904,-0.657029204903,0.363660228362,0.308430275637,1.04965019046,-3.01090193593,0.0338515698333,-1.71401133591,0.0486732045604
2.18,0.691883392248,0.566289514188,0.066427231231,1.13954292831,-0.119240890635,1.3294695904,-0.657029204903,0.363660228362,0.308430275637,1.04965019046,-3.01090193593,0.0338515698333,-1.71401133591,0.0486732045604
2.2,0.691883392248,0.575435075688,0.066427231231,1.13732637934,-0.119240890635,1.3256299779,-0.657029204903,0.364783455965,0.309430182138,1.04604938762,-3.01329204345,0.0318092795882,-1.71385388206,0.0488896082852
2.22,0.691883392248,0.575435075688,0.066427231231,1.13732637934,-0.119240890635,1.3256299779,-0.657029204903,0.364783455965,0.309430182138,1.04604938762,-3.01329204345,0.0318092795882,-1.71385388206,0.0488896082852
2.24,0.691883392248,0.583463574268,0.066427231231,1.1329281688,-0.119240890635,1.32128409848,-0.657029204903,0.366269387836,0.310740205628,1.04366177116,-3.01324945081,0.0326881627233,-1.71365782097,0.0490191340513
2.26,0.691883392248,0.583463574268,0.066427231231,1.1329281688,-0.119240890635,1.32128409848,-0.657029204903,0.366269387836,0.310740205628,1.04366177116,-3.01324945081,0.0326881627233,-1.71365782097,0.0490191340513
2.28,0.691883392248,0.589973671553,0.0662701504998,1.12659264172,-0.119328159095,1.31730467002,-0.657029204903,0.368021649272,0.31216771037,1.04259535003,-3.0110591159,0.0357955150287,-1.71361035356,0.0490589866165
2.3,0.691883392248,0.589973671553,0.0662701504998,1.12659264172,-0.119328159095,1.31730467002,-0.657029204903,0.368021649272,0.31216771037,1.04259535003,-3.0110591159,0.0357955150287,-1.71361035356,0.0490589866165
2.32,0.691691444913,0.595680892348,0.0656941919798,1.11720273519,-0.119502696015,1.31370926939,-0.657029204903,0.370369166634,0.313732557777,1.04286874944,-3.00639567608,0.0413523712321,-1.71412902198,0.0490045359126
2.34,0.691691444913,0.595680892348,0.0656941919798,1.11720273519,-0.119502696015,1.31370926939,-0.657029204903,0.370369166634,0.313732557777,1.04286874944,-3.00639567608,0.0413523712321,-1.71412902198,0.0490045359126
2.36,0.691429656177,0.601196099228,0.0645597269673,1.10624202967,-0.12077678557,1.311457833,-0.657029204903,0.373079415219,0.315014310284,1.04372229805,-3.00034663959,0.0463155863209,-1.71510414409,0.0489098892098
2.38,0.691429656177,0.601196099228,0.0645597269673,1.10624202967,-0.12077678557,1.311457833,-0.657029204903,0.373079415219,0.315014310284,1.04372229805,-3.00034663959,0.0463155863209,-1.71510414409,0.0489098892098
2.4,0.691115469748,0.606938274013,0.0639314123648,1.09564790828,-0.127461394807,1.310532784,-0.657011761198,0.376070215358,0.315569444607,1.04440104798,-2.99151691429,0.046607980645,-1.71496144248,0.0488292282188
2.42,0.691115469748,0.606938274013,0.0639314123648,1.09564790828,-0.127461394807,1.310532784,-0.657011761198,0.376070215358,0.315569444607,1.04440104798,-2.99151691429,0.046607980645,-1.71496144248,0.0488292282188
2.44,0.690766395908,0.612034632233,0.0639488643923,1.08728777956,-0.137025796645,1.3105502277,-0.657011761198,0.37874009053,0.315528182941,1.04471457708,-2.98228911654,0.0433444747569,-1.71395729558,0.0487804734153
2.46,0.690766395908,0.612034632233,0.0639488643923,1.08728777956,-0.137025796645,1.3105502277,-0.657011761198,0.37874009053,0.315528182941,1.04471457708,-2.98228911654,0.0433444747569,-1.71395729558,0.0487804734153
2.48,0.689806459493,0.617462554008,0.0639837684473,1.08000975978,-0.147061436515,1.3105502277,-0.656994317492,0.381486288407,0.315066771852,1.04453583061,-2.97360716721,0.0387103029826,-1.71355150093,0.0487637492459
2.5,0.689806459493,0.617462554008,0.0639837684473,1.08000975978,-0.147061436515,1.3105502277,-0.656994317492,0.381486288407,0.315066771852,1.04453583061,-2.97360716721,0.0387103029826,-1.71355150093,0.0487637492459
2.52,0.689143265803,0.622768369848,0.0639837684473,1.07486100386,-0.153920590994,1.31046300918,-0.656994317492,0.383454502431,0.314809314247,1.04368497545,-2.96857767809,0.0345459674026,-1.71335214728,0.0487940414643
2.54,0.689143265803,0.622768369848,0.0639837684473,1.07486100386,-0.153920590994,1.31046300918,-0.656994317492,0.383454502431,0.314809314247,1.04368497545,-2.96857767809,0.0345459674026,-1.71335214728,0.0487940414643
2.56,0.689073424403,0.626817573128,0.0640186766635,1.071160941,-0.156049888154,1.30927617144,-0.656994317492,0.384557370049,0.315257171083,1.04292701651,-2.96660467746,0.0340184787762,-1.7130592429,0.0488151157698
2.58,0.689073424403,0.626817573128,0.0640186766635,1.071160941,-0.156049888154,1.30927617144,-0.656994317492,0.384557370049,0.315257171083,1.04292701651,-2.96660467746,0.0340184787762,-1.7130592429,0.0488151157698
2.6,0.688933808183,0.629959171108,0.0640186766635,1.06833346287,-0.156294233185,1.30606479864,-0.656994317492,0.385555217769,0.315993402614,1.04234814316,-2.96476351941,0.0362314198988,-1.71283390557,0.0488173359622
2.62,0.688933808183,0.629959171108,0.0640186766635,1.06833346287,-0.156294233185,1.30606479864,-0.656994317492,0.385555217769,0.315993402614,1.04234814316,-2.96476351941,0.0362314198988,-1.71283390557,0.0488173359622
2.64,0.687816811843,0.632559681333,0.0640186766635,1.06639614634,-0.156311693534,1.30046230665,-0.656994317492,0.386965974268,0.316531598453,1.04180489725,-2.96182254898,0.0401612568945,-1.7132539766,0.0488093684162
2.66,0.687816811843,0.632559681333,0.0640186766635,1.06639614634,-0.156311693534,1.30046230665,-0.656994317492,0.386965974268,0.316531598453,1.04180489725,-2.96182254898,0.0401612568945,-1.7132539766,0.0488093684162
2.68,0.686071442643,0.634933356813,0.0640535848798,1.06622164271,-0.156364041295,1.29173566039,-0.656994317492,0.388658785337,0.31696406266,1.04088736115,-2.95790737667,0.0453220880982,-1.71378387845,0.0488171595881
2.7,0.686071442643,0.634933356813,0.0640535848798,1.06622164271,-0.156364041295,1.29173566039,-0.656994317492,0.388658785337,0.31696406266,1.04088736115,-2.95790737667,0.0453220880982,-1.71378387845,0.0488171595881
2.72,0.682964798653,0.637498979628,0.0640884889348,1.06623908641,-0.156276789479,1.28173495786,-0.656994317492,0.390894237654,0.31700425352,1.03984771418,-2.95355884885,0.0512695328676,-1.71549645103,0.0488231305256
2.74,0.682964798653,0.637498979628,0.0640884889348,1.06623908641,-0.156276789479,1.28173495786,-0.656994317492,0.390894237654,0.31700425352,1.03984771418,-2.95355884885,0.0512695328676,-1.71549645103,0.0488231305256
2.76,0.679526457948,0.641443387518,0.0640710369073,1.06623908641,-0.15624186878,1.27342709369,-0.656994317492,0.393087380158,0.316712959103,1.03808027097,-2.95111239873,0.0548423570183,-1.71785694194,0.048879987793
2.78,0.679526457948,0.641443387518,0.0640710369073,1.06623908641,-0.15624186878,1.27342709369,-0.656994317492,0.393087380158,0.316712959103,1.03808027097,-2.95111239873,0.0548423570183,-1.71785694194,0.048879987793
2.8,0.676158025223,0.645126073253,0.0640710369073,1.06622164271,-0.156224425074,1.26937802357,-0.656976807208,0.39473433815,0.315937601534,1.03633458383,-2.95110821066,0.0553097530698,-1.72077538492,0.0489598035525
2.82,0.676158025223,0.645126073253,0.0640710369073,1.06622164271,-0.156224425074,1.26937802357,-0.656976807208,0.39473433815,0.315937601534,1.03633458383,-2.95110821066,0.0553097530698,-1.72077538492,0.0489598035525
2.84,0.673522561008,0.647482238448,0.0640710369073,1.0661867553,-0.156206964725,1.26824351694,-0.656976807208,0.395763379821,0.315079882037,1.03518457413,-2.95199636922,0.0544972470509,-1.7233319607,0.049021519075
2.86,0.673522561008,0.647482238448,0.0640710369073,1.0661867553,-0.156206964725,1.26824351694,-0.656976807208,0.395763379821,0.315079882037,1.03518457413,-2.95199636922,0.0544972470509,-1.7233319607,0.049021519075
2.88,0.671497959368,0.648354889758,0.0640535848798,1.0661867553,-0.156224425074,1.267196362,-0.656994317492,0.39655403173,0.314408449895,1.03477152485,-2.95191862297,0.0546485492371,-1.72522540763,0.0490396121962
2.9,0.671497959368,0.648354889758,0.0640535848798,1.0661867553,-0.156224425074,1.267196362,-0.656994317492,0.39655403173,0.314408449895,1.03477152485,-2.95191862297,0.0546485492371,-1.72522540763,0.0490396121962
2.92,0.669752656748,0.648389843748,0.0640884889348,1.06606458278,-0.156206964725,1.26662032026,-0.656994317492,0.397182849221,0.313811539989,1.0348086376,-2.95153651115,0.0551899083268,-1.72686247787,0.0490327969206
2.94,0.669752656748,0.648389843748,0.0640884889348,1.06606458278,-0.156206964725,1.26662032026,-0.656994317492,0.397182849221,0.313811539989,1.0348086376,-2.95153651115,0.0551899083268,-1.72686247787,0.0490327969206
2.96,0.668373805093,0.648669076188,0.0640884889348,1.06627397382,-0.156224425074,1.26649821432,-0.656994317492,0.397603849761,0.31325397689,1.03460301333,-2.95177117164,0.0549077617228,-1.72822953214,0.0490457343481
2.98,0.668373805093,0.648669076188,0.0640884889348,1.06627397382,-0.156224425074,1.26649821432,-0.656994317492,0.397603849761,0.31325397689,1.03460301333,-2.95177117164,0.0549077617228,-1.72822953214,0.0490457343481
3.0,0.667082305123,0.649122878838,0.0640535848798,1.06625653012,-0.156224425074,1.26648077062,-0.656994317492,0.398031921804,0.312742156598,1.03437944014,-2.95204179894,0.0545868321577,-1.72956230813,0.0490589614069
3.02,0.667082305123,0.649122878838,0.0640535848798,1.06625653012,-0.156224425074,1.26648077062,-0.656994317492,0.398031921804,0.312742156598,1.03437944014,-2.95204179894,0.0545868321577,-1.72956230813,0.0490589614069
3.04,0.665738407458,0.650047861263,0.0640710369073,1.06623908641,-0.156189521019,1.26648077062,-0.656994317492,0.398468013638,0.312235292626,1.03391619417,-2.95269311683,0.0539493458317,-1.73093331876,0.0490865806222
3.06,0.665738407458,0.650047861263,0.0640710369073,1.06623908641,-0.156189521019,1.26648077062,-0.656994317492,0.398468013638,0.312235292626,1.03391619417,-2.95269311683,0.0539493458317,-1.73093331876,0.0490865806222
3.08,0.664987928662,0.651513931443,0.0641059451235,1.06608202649,-0.156189521019,1.26635853152,-0.656994317492,0.398767912001,0.312006791156,1.03322806341,-2.95352783281,0.0531016370696,-1.73169265937,0.0491259233625
3.1,0.664987928662,0.651513931443,0.0641059451235,1.06608202649,-0.156189521019,1.26635853152,-0.656994317492,0.398767912001,0.312006791156,1.03322806341,-2.95352783281,0.0531016370696,-1.73169265937,0.0491259233625
3.12,0.664080323363,0.653678149303,0.0643851942086,1.066204199,-0.156032427805,1.2662887567,-0.656994317492,0.399002925561,0.311777585107,1.03209152481,-2.95527714181,0.0516847994397,-1.73248019302,0.0491937992742
3.14,0.664080323363,0.653678149303,0.0643851942086,1.066204199,-0.156032427805,1.2662887567,-0.656994317492,0.399002925561,0.311777585107,1.03209152481,-2.95527714181,0.0516847994397,-1.73248019302,0.0491937992742
3.16,0.664010481963,0.656715018473,0.0643153819373,1.06585512516,-0.156102252559,1.26597463685,-0.656994317492,0.399208752543,0.311850658549,1.03067565602,-2.95683640242,0.0498923109163,-1.73265175419,0.0492739303756
3.18,0.664010481963,0.656715018473,0.0643153819373,1.06585512516,-0.156102252559,1.26597463685,-0.656994317492,0.399208752543,0.311850658549,1.03067565602,-2.95683640242,0.0498923109163,-1.73265175419,0.0492739303756
3.2,0.663993038258,0.660100961483,0.0642979299098,1.06515697748,-0.156102252559,1.26586984146,-0.656994317492,0.399414959234,0.311992619617,1.02918779903,-2.95861507822,0.0480136495183,-1.732785468,0.0493568753863
3.22,0.663993038258,0.660100961483,0.0642979299098,1.06515697748,-0.156102252559,1.26586984146,-0.656994317492,0.399414959234,0.311992619617,1.02918779903,-2.95861507822,0.0480136495183,-1.732785468,0.0493568753863
3.24,0.664062879658,0.663382175683,0.0643153819373,1.06224228083,-0.156102252559,1.26588728517,-0.656994317492,0.399939481898,0.312449037137,1.02846213875,-2.95899531505,0.0478335790762,-1.7328371686,0.0493793875041
3.26,0.664062879658,0.663382175683,0.0643153819373,1.06224228083,-0.156102252559,1.26588728517,-0.656994317492,0.399939481898,0.312449037137,1.02846213875,-2.95899531505,0.0478335790762,-1.7328371686,0.0493793875041
3.28,0.663958150848,0.665633678648,0.0642630216936,1.05742515505,-0.156137156614,1.26590472887,-0.656994317492,0.400838768211,0.313039579076,1.02887133393,-2.95740097718,0.0498206218057,-1.73309284183,0.0493199204233
3.3,0.663958150848,0.665633678648,0.0642630216936,1.05742515505,-0.156137156614,1.26590472887,-0.656994317492,0.400838768211,0.313039579076,1.02887133393,-2.95740097718,0.0498206218057,-1.73309284183,0.0493199204233
3.32,0.663853422038,0.667448822668,0.0642979299098,1.05211940579,-0.156137156614,1.26590472887,-0.656994317492,0.401787120421,0.313716258098,1.02966085691,-2.95525319991,0.0525757747454,-1.73327093968,0.0492322262438
3.34,0.663853422038,0.667448822668,0.0642979299098,1.05211940579,-0.156137156614,1.26590472887,-0.656994317492,0.401787120421,0.313716258098,1.02966085691,-2.95525319991,0.0525757747454,-1.73327093968,0.0492322262438
3.36,0.663731249523,0.668478533903,0.0642804778823,1.04730228001,-0.15615460032,1.26590472887,-0.656994317492,0.402655149934,0.314289918337,1.03069535841,-2.95284766604,0.055500335539,-1.73346603864,0.0491323070852
3.38,0.663731249523,0.668478533903,0.0642804778823,1.04730228001,-0.15615460032,1.26590472887,-0.656994317492,0.402655149934,0.314289918337,1.03069535841,-2.95284766604,0.055500335539,-1.73346603864,0.0491323070852
3.4,0.663678918408,0.669613040528,0.0642630216936,1.0423106506,-0.156189521019,1.26593961628,-0.656994317492,0.40352657191,0.314905776894,1.03173503036,-2.95040936754,0.0584437156957,-1.73359112568,0.0490292185771
3.42,0.662893485623,0.670119174293,0.0642630216936,1.03623691226,-0.1564164057,1.26590472887,-0.656994317492,0.40352657191,0.314905776894,1.03173503036,-2.95040936754,0.0584437156957,-1.73359112568,0.0490292185771
3.44,0.662893485623,0.670119174293,0.0642630216936,1.03623691226,-0.1564164057,1.26590472887,-0.656994317492,0.404814715674,0.315336159617,1.0334580453,-2.94666881346,0.0626211674853,-1.73435740635,0.0488743882399
3.46,0.661130739298,0.670311121628,0.0642106614498,1.03093109642,-0.1564164057,1.26590472887,-0.656994317492,0.404814715674,0.315336159617,1.0334580453,-2.94666881346,0.0626211674853,-1.73435740635,0.0488743882399
3.48,0.661130739298,0.670311121628,0.0642106614498,1.03093109642,-0.1564164057,1.26590472887,-0.656994317492,0.406255626451,0.31526744075,1.03509253499,-2.9433772699,0.0665334126756,-1.7361603372,0.0487297285668
3.5,0.658233486348,0.670695149457,0.064245569666,1.02689940342,-0.15648621381,1.26586984146,-0.656994317492,0.406255626451,0.31526744075,1.03509253499,-2.9433772699,0.0665334126756,-1.7361603372,0.0487297285668
3.52,0.658233486348,0.670695149457,0.064245569666,1.02689940342,-0.15648621381,1.26586984146,-0.656994317492,0.407837628891,0.314596532752,1.03621773086,-2.94099621761,0.0693454457873,-1.7390165003,0.0486251602116
3.54,0.654515913203,0.671044223297,0.0642804778823,1.02438611172,-0.1564164057,1.26576517923,-0.656994317492,0.407837628891,0.314596532752,1.03621773086,-2.94099621761,0.0693454457873,-1.7390165003,0.0486251602116
3.56,0.654515913203,0.671044223297,0.0642804778823,1.02438611172,-0.1564164057,1.26576517923,-0.656994317492,0.40941953691,0.313420663979,1.03686437634,-2.93962759083,0.0711590572724,-1.74270763333,0.0485620167376
3.58,0.650746008943,0.671986649428,0.0642804778823,1.02246623889,-0.156381501644,1.26564294014,-0.656994317492,0.40941953691,0.313420663979,1.03686437634,-2.93962759083,0.0711590572724,-1.74270763333,0.0485620167376
3.6,0.650746008943,0.671986649428,0.0642804778823,1.02246623889,-0.156381501644,1.26564294014,-0.656994317492,0.410946235576,0.312142218279,1.03701193417,-2.93898831306,0.0720573308642,-1.74649875748,0.0485334114005
3.62,0.646941217273,0.674936300072,0.0643153819373,1.01956898594,-0.15632913724,1.26466556002,-0.656994317492,0.410946235576,0.312142218279,1.03701193417,-2.93898831306,0.0720573308642,-1.74649875748,0.0485334114005
3.64,0.646941217273,0.674936300072,0.0643153819373,1.01956898594,-0.15632913724,1.26466556002,-0.656994317492,0.412785944811,0.311106141602,1.03646964222,-2.93858330944,0.0729188309727,-1.75025720143,0.0485290622698
3.66,0.643607605378,0.679596299348,0.064332838126,1.01478681415,-0.156364041295,1.26288536999,-0.656994317492,0.412785944811,0.311106141602,1.03646964222,-2.93858330944,0.0729188309727,-1.75025720143,0.0485290622698
3.68,0.643607605378,0.679596299348,0.064332838126,1.01478681415,-0.156364041295,1.26288536999,-0.656994317492,0.414939914806,0.310584271992,1.03568598936,-2.93755667009,0.0745296176914,-1.75348590417,0.0485125439201
3.7,0.640692908723,0.686315854252,0.0642804778823,1.00565869636,-0.156381501644,1.26161131372,-0.656994317492,0.414939914806,0.310584271992,1.03568598936,-2.93755667009,0.0745296176914,-1.75348590417,0.0485125439201
3.72,0.640692908723,0.686315854252,0.0642804778823,1.00565869636,-0.156381501644,1.26161131372,-0.656994317492,0.417674641583,0.310696731625,1.03524262948,-2.93543687171,0.0775497361897,-1.75650250648,0.0484277542573
3.74,0.637987669688,0.694396683948,0.0642979299098,0.992149878307,-0.156381501644,1.26169853225,-0.656994317492,0.417674641583,0.310696731625,1.03524262948,-2.93543687171,0.0775497361897,-1.75650250648,0.0484277542573
3.76,0.637987669688,0.694396683948,0.0642979299098,0.992149878307,-0.156381501644,1.26169853225,-0.656994317492,0.420900500537,0.311281724584,1.03548300635,-2.93232349971,0.0819152711799,-1.75950893914,0.0482502751685
3.78,0.635561663093,0.703507291458,0.0643153819373,0.975778694717,-0.156381501644,1.26171597595,-0.656994317492,0.420900500537,0.311281724584,1.03548300635,-2.93232349971,0.0819152711799,-1.75950893914,0.0482502751685
3.8,0.635561663093,0.703507291458,0.0643153819373,0.975778694717,-0.156381501644,1.26171597595,-0.656994317492,0.424526565835,0.312305888577,1.03612435537,-2.92802583256,0.0877722148436,-1.76223627945,0.0479948038774
3.82,0.633467220053,0.713577835383,0.0642979299098,0.958517349532,-0.156364041295,1.26173341966,-0.656994317492,0.424526565835,0.312305888577,1.03612435537,-2.92802583256,0.0877722148436,-1.76223627945,0.0479948038774
3.84,0.633467220053,0.713577835383,0.0642979299098,0.958517349532,-0.156364041295,1.26173341966,-0.656994317492,0.428205736243,0.313539853176,1.03654426739,-2.92380061878,0.0935986257734,-1.76468693748,0.0477157052192
3.86,0.631774315127,0.722932854502,0.0642804778823,0.943839137447,-0.156381501644,1.26185565875,-0.656994317492,0.428205736243,0.313539853176,1.03654426739,-2.92380061878,0.0935986257734,-1.76468693748,0.0477157052192
3.88,0.631774315127,0.722932854502,0.0642804778823,0.943839137447,-0.156381501644,1.26185565875,-0.656994317492,0.431302676434,0.314592555814,1.03646522312,-2.92078240995,0.0978627488479,-1.76673717125,0.0474828363636
3.9,0.631774315127,0.722932854502,0.0642804778823,0.943839137447,-0.156381501644,1.26185565875,-0.656994317492,0.431302676434,0.314592555814,1.03646522312,-2.92078240995,0.0978627488479,-1.76673717125,0.0474828363636
3.92,0.629976614813,0.731851448098,0.0642281176385,0.930644439247,-0.156451309755,1.26237923622,-0.656994317492,0.434136649511,0.315340176647,1.03609450769,-2.91861188017,0.100947968523,-1.76897450728,0.0472757500395
3.94,0.627166580388,0.739670555637,0.0642804778823,0.920556451617,-0.156364041295,1.26386275011,-0.656976807208,0.434136649511,0.315340176647,1.03609450769,-2.91861188017,0.100947968523,-1.76897450728,0.0472757500395
3.96,0.627166580388,0.739670555637,0.0642804778823,0.920556451617,-0.156364041295,1.26386275011,-0.656976807208,0.436602742609,0.315214043571,1.03521974912,-2.91846752832,0.101866550266,-1.77235743304,0.0471435947727
3.98,0.623466517528,0.746739117803,0.0642804778823,0.911864692767,-0.156364041295,1.26681233417,-0.656976807208,0.436602742609,0.315214043571,1.03521974912,-2.91846752832,0.101866550266,-1.77235743304,0.0471435947727
4.0,0.623466517528,0.746739117803,0.0642804778823,0.911864692767,-0.156364041295,1.26681233417,-0.656976807208,0.438939119378,0.314328692957,1.0342166432,-2.91953612581,0.101049893257,-1.77687401682,0.047043826112
4.02,0.619556997048,0.752463782303,0.0643153819373,0.904185268027,-0.15632913724,1.26974447453,-0.656959363503,0.441132205196,0.313218378151,1.03359070291,-2.92037731763,0.100501327892,-1.78152638217,0.0469373623058
4.04,0.619556997048,0.752463782303,0.0643153819373,0.904185268027,-0.15632913724,1.26974447453,-0.656959363503,0.441132205196,0.313218378151,1.03359070291,-2.92037731763,0.100501327892,-1.78152638217,0.0469373623058
4.06,0.616048881523,0.757961612057,0.0643851942086,0.895964755532,-0.156294233185,1.27428236787,-0.656959363503,0.443060742139,0.312159972032,1.03320429862,-2.92174199426,0.0993069457479,-1.78599074136,0.0468096088515
4.08,0.616048881523,0.757961612057,0.0643851942086,0.895964755532,-0.156294233185,1.27428236787,-0.656959363503,0.443060742139,0.312159972032,1.03320429862,-2.92174199426,0.0993069457479,-1.78599074136,0.0468096088515
4.1,0.612593097113,0.764314582838,0.0644724626685,0.885510250357,-0.156294233185,1.27951827573,-0.656976807208,0.445246642508,0.311280424662,1.03307125839,-2.92267270851,0.0986408176629,-1.79050455135,0.0466162096148
4.12,0.612593097113,0.764314582838,0.0644724626685,0.885510250357,-0.156294233185,1.27951827573,-0.656976807208,0.445246642508,0.311280424662,1.03307125839,-2.92267270851,0.0986408176629,-1.79050455135,0.0466162096148
4.14,0.609765685563,0.769952028812,0.064455010641,0.876015681597,-0.15632913724,1.28300901413,-0.656994317492,0.447308475371,0.310701108878,1.03306104838,-2.92255898309,0.0990436633918,-1.79412529989,0.0464195946873
4.16,0.609765685563,0.769952028812,0.064455010641,0.876015681597,-0.15632913724,1.28300901413,-0.656994317492,0.447308475371,0.310701108878,1.03306104838,-2.92255898309,0.0990436633918,-1.79412529989,0.0464195946873
4.18,0.606903320023,0.774577140677,0.0644375544523,0.867131908833,-0.156346597589,1.28484153528,-0.656976807208,0.449465187318,0.310188987635,1.03345158607,-2.92112843664,0.101026171581,-1.79747521782,0.0462016751936
4.2,0.606903320023,0.774577140677,0.0644375544523,0.867131908833,-0.156346597589,1.28484153528,-0.656976807208,0.449465187318,0.310188987635,1.03345158607,-2.92112843664,0.101026171581,-1.79747521782,0.0462016751936
4.22,0.604442426018,0.779167365132,0.0644026503973,0.859243026472,-0.156346597589,1.28485897898,-0.656976807208,0.451570468112,0.30992973847,1.03358979742,-2.9191729064,0.103669903948,-1.80011916572,0.0460051395368
4.24,0.604442426018,0.779167365132,0.0644026503973,0.859243026472,-0.156346597589,1.28485897898,-0.656976807208,0.451570468112,0.30992973847,1.03358979742,-2.9191729064,0.103669903948,-1.80011916572,0.0460051395368
4.26,0.602103704528,0.783548131967,0.0644026503973,0.852279193117,-0.156364041295,1.28491144326,-0.656959363503,0.453475037116,0.30962220676,1.03352805515,-2.91769541954,0.105738169196,-1.80264067423,0.0458362817023
4.28,0.602103704528,0.783548131967,0.0644026503973,0.852279193117,-0.156364041295,1.28491144326,-0.656959363503,0.453475037116,0.30962220676,1.03352805515,-2.91769541954,0.105738169196,-1.80264067423,0.0458362817023
4.3,0.600096546593,0.787632156078,0.0644026503973,0.846746475952,-0.156364041295,1.28501610549,-0.656976807208,0.455036413136,0.309306558864,1.03314224455,-2.91697585123,0.106887103093,-1.80481794105,0.0457153945263
4.32,0.600096546593,0.787632156078,0.0644026503973,0.846746475952,-0.156364041295,1.28501610549,-0.656976807208,0.455036413136,0.309306558864,1.03314224455,-2.91697585123,0.106887103093,-1.80481794105,0.0457153945263
4.34,0.598403575088,0.792431838152,0.0644026503973,0.840201491257,-0.156346597589,1.28580147169,-0.656976807208,0.456581703442,0.309167017354,1.03267394086,-2.91653490852,0.107773967789,-1.80685044564,0.045572254966
4.36,0.598403575088,0.792431838152,0.0644026503973,0.840201491257,-0.156346597589,1.28580147169,-0.656976807208,0.456581703442,0.309167017354,1.03267394086,-2.91653490852,0.107773967789,-1.80685044564,0.045572254966
4.38,0.596920061203,0.800739635752,0.0644026503973,0.827408264592,-0.156381501644,1.29035680874,-0.656959363503,0.458619502535,0.309370214686,1.03222697276,-2.91679790631,0.10793125327,-1.80946617715,0.0452726113873
4.4,0.596920061203,0.800739635752,0.0644026503973,0.827408264592,-0.156381501644,1.29035680874,-0.656959363503,0.458619502535,0.309370214686,1.03222697276,-2.91679790631,0.10793125327,-1.80946617715,0.0452726113873
4.42,0.595803064863,0.812084235943,0.0644201024248,0.808750690627,-0.156364041295,1.30021796162,-0.656959363503,0.460796478252,0.309785169523,1.03185694209,-2.91874870177,0.106294272894,-1.81272679405,0.0448080462416
4.44,0.595803064863,0.812084235943,0.0644201024248,0.808750690627,-0.156364041295,1.30021796162,-0.656959363503,0.460796478252,0.309785169523,1.03185694209,-2.91874870177,0.106294272894,-1.81272679405,0.0448080462416
4.46,0.594982744668,0.825680339098,0.0644026503973,0.784909473337,-0.156381501644,1.31580371243,-0.656976807208,0.462943955835,0.310212250769,1.03174173824,-2.92246253687,0.102517232756,-1.81674766868,0.0441592458081
4.48,0.594982744668,0.825680339098,0.0644026503973,0.784909473337,-0.156381501644,1.31580371243,-0.656976807208,0.462943955835,0.310212250769,1.03174173824,-2.92246253687,0.102517232756,-1.81674766868,0.0441592458081
4.5,0.594459167198,0.840201491257,0.0644375544523,0.758345573307,-0.156381501644,1.33248908245,-0.656994317492,0.465208165105,0.310893992071,1.03195000398,-2.92580346993,0.0993427419525,-1.82064191657,0.043352406804
4.52,0.594459167198,0.840201491257,0.0644375544523,0.758345573307,-0.156381501644,1.33248908245,-0.656994317492,0.465208165105,0.310893992071,1.03195000398,-2.92580346993,0.0993427419525,-1.82064191657,0.043352406804
4.54,0.593481787078,0.855281174877,0.0643502901535,0.730490106728,-0.15648621381,1.34889522002,-0.656994317492,0.46781090626,0.311407028799,1.03225017109,-2.92838432038,0.0968478749275,-1.8250422414,0.0424275492388
4.56,0.593481787078,0.855281174877,0.0643502901535,0.730490106728,-0.15648621381,1.34889522002,-0.656994317492,0.46781090626,0.311407028799,1.03225017109,-2.92838432038,0.0968478749275,-1.8250422414,0.0424275492388
4.58,0.592626579473,0.871442900847,0.0643502901535,0.701674703733,-0.15648621381,1.36476020327,-0.656994317492,0.470500368368,0.312104442969,1.03223401449,-2.93088030914,0.0948186229753,-1.82924818034,0.0414062822447
4.6,0.592626579473,0.871442900847,0.0643502901535,0.701674703733,-0.15648621381,1.36476020327,-0.656994317492,0.470500368368,0.312104442969,1.03223401449,-2.93088030914,0.0948186229753,-1.82924818034,0.0414062822447
4.62,0.591335012923,0.886819260612,0.0643677421811,0.674709398748,-0.15648621381,1.37840863754,-0.656994317492,0.473253806445,0.312591423881,1.03207152488,-2.93265212614,0.0936691558081,-1.83348768558,0.0403871334586
4.64,0.591335012923,0.886819260612,0.0643677421811,0.674709398748,-0.15648621381,1.37840863754,-0.656994317492,0.473253806445,0.312591423881,1.03207152488,-2.93265212614,0.0936691558081,-1.83348768558,0.0403871334586
4.66,0.590706706643,0.901480028992,0.0644026503973,0.648075657318,-0.156503674159,1.39081803611,-0.656994317492,0.475826334586,0.31341929395,1.03220300922,-2.93339099521,0.0937624857783,-1.83681611286,0.0393075009508
4.68,0.590706706643,0.901480028992,0.0644026503973,0.648075657318,-0.156503674159,1.39081803611,-0.656994317492,0.475826334586,0.31341929395,1.03220300922,-2.93339099521,0.0937624857783,-1.83681611286,0.0393075009508
4.7,0.589345298694,0.914744502012,0.0643502901535,0.625281661548,-0.156503674159,1.40188333729,-0.656994317492,0.47819854404,0.313631348482,1.03185722306,-2.93474381577,0.0929251336029,-1.84065935662,0.038353521511
4.72,0.589345298694,0.914744502012,0.0643502901535,0.625281661548,-0.156503674159,1.40188333729,-0.656994317492,0.47819854404,0.313631348482,1.03185722306,-2.93474381577,0.0929251336029,-1.84065935662,0.038353521511
4.74,0.588385428858,0.927014151207,0.0643502901535,0.603796676033,-0.15657348227,1.41188403981,-0.656994317492,0.480333334691,0.313986431009,1.03165009922,-2.93557738072,0.0926281498509,-1.84384922308,0.0374110665092
4.76,0.586954246088,0.938533321607,0.0643502901535,0.583917376918,-0.156556038564,1.41944142519,-0.656994317492,0.480333334691,0.313986431009,1.03165009922,-2.93557738072,0.0926281498509,-1.84384922308,0.0374110665092
4.78,0.586954246088,0.938533321607,0.0643502901535,0.583917376918,-0.156556038564,1.41944142519,-0.656994317492,0.482658735059,0.31419830926,1.03139277267,-2.93546530895,0.0935940181146,-1.84708607934,0.0365082011214
4.8,0.585523063318,0.948638819522,0.0643851942086,0.566097566853,-0.156538578215,1.42467733306,-0.656994317492,0.482658735059,0.31419830926,1.03139277267,-2.93546530895,0.0935940181146,-1.84708607934,0.0365082011214
4.82,0.585523063318,0.948638819522,0.0643851942086,0.566097566853,-0.156538578215,1.42467733306,-0.656994317492,0.484950644224,0.314441657801,1.03132043414,-2.93428437077,0.0958402628214,-1.84985693212,0.0356683745113
4.84,0.584563126903,0.957452750886,0.064332838126,0.551140055748,-0.156643307024,1.42788870586,-0.656994317492,0.484950644224,0.314441657801,1.03132043414,-2.93428437077,0.0958402628214,-1.84985693212,0.0356683745113
4.86,0.584563126903,0.957452750886,0.064332838126,0.551140055748,-0.156643307024,1.42788870586,-0.656994317492,0.486965231576,0.314821286278,1.03109686499,-2.93262482214,0.0982735284371,-1.85180977115,0.0349505657597
4.88,0.582049835203,0.965184506742,0.0644026503973,0.537927913843,-0.15657348227,1.43099541643,-0.656994317492,0.489177474269,0.314348395927,1.03090700774,-2.93149389653,0.100416782151,-1.85518414636,0.0343028504273
4.9,0.582049835203,0.965184506742,0.0644026503973,0.537927913843,-0.15657348227,1.43099541643,-0.656994317492,0.489177474269,0.314348395927,1.03090700774,-2.93149389653,0.100416782151,-1.85518414636,0.0343028504273
4.92,0.578751177298,0.971729491437,0.0644026503973,0.526757817283,-0.15657348227,1.43356110582,-0.656994317492,0.491425806168,0.313335352783,1.03073734802,-2.93042210403,0.102201647376,-1.85923088988,0.0337459277641
4.94,0.578751177298,0.971729491437,0.0644026503973,0.526757817283,-0.15657348227,1.43356110582,-0.656994317492,0.491425806168,0.313335352783,1.03073734802,-2.93042210403,0.102201647376,-1.85923088988,0.0337459277641
4.96,0.574859100523,0.977366937412,0.0644026503973,0.517158519713,-0.156556038564,1.43635356338,-0.656994317492,0.493595365275,0.31187095038,1.03055712689,-2.9298923794,0.103281624514,-1.86386519904,0.0332612630114
4.98,0.574859100523,0.977366937412,0.0644026503973,0.517158519713,-0.156556038564,1.43635356338,-0.656994317492,0.493595365275,0.31187095038,1.03055712689,-2.9298923794,0.103281624514,-1.86386519904,0.0332612630114
5.0,0.570705235013,0.981904764172,0.0644026503973,0.509601234198,-0.156521134509,1.43895414019,-0.656994317492,0.495577414105,0.310129778497,1.03033839604,-2.92980964296,0.103757684503,-1.86867793625,0.0328771727293
5.02,0.570705235013,0.981904764172,0.0644026503973,0.509601234198,-0.156521134509,1.43895414019,-0.656994317492,0.495577414105,0.310129778497,1.03033839604,-2.92980964296,0.103757684503,-1.86867793625,0.0328771727293
5.04,0.566848045648,0.985482721097,0.0644375544523,0.502986441393,-0.15648621381,1.44061222428,-0.656994317492,0.497440236721,0.30854587668,1.03039635521,-2.92911924784,0.104975227007,-1.87296496843,0.0325311846576
5.06,0.566848045648,0.985482721097,0.0644375544523,0.502986441393,-0.15648621381,1.44061222428,-0.656994317492,0.497440236721,0.30854587668,1.03039635521,-2.92911924784,0.104975227007,-1.87296496843,0.0325311846576
5.08,0.563182870198,0.988327576352,0.0644375544523,0.496982511163,-0.156503674159,1.44178161831,-0.656994317492,0.499219743768,0.30702587399,1.03069629893,-2.92796181261,0.106600331183,-1.87695124861,0.0322083688402
5.1,0.563182870198,0.988327576352,0.0644375544523,0.496982511163,-0.156503674159,1.44178161831,-0.656994317492,0.499219743768,0.30702587399,1.03069629893,-2.92796181261,0.106600331183,-1.87695124861,0.0322083688402
5.12,0.559761973199,0.990683808127,0.0644375544523,0.492182862378,-0.156503674159,1.44221797726,-0.656994317492,0.500854861023,0.305606329459,1.03090523118,-2.92678730976,0.108231272856,-1.88054898679,0.0319496313978
5.14,0.559761973199,0.990683808127,0.0644375544523,0.492182862378,-0.156503674159,1.44221797726,-0.656994317492,0.500854861023,0.305606329459,1.03090523118,-2.92678730976,0.108231272856,-1.88054898679,0.0319496313978
5.16,0.556899674238,0.993458888561,0.0644724626685,0.487941711763,-0.156451309755,1.44277644214,-0.656994317492,0.502226797764,0.3044340834,1.03067505559,-2.92637140301,0.10906037894,-1.88362791597,0.0317303261937
5.18,0.556899674238,0.993458888561,0.0644724626685,0.487941711763,-0.156451309755,1.44277644214,-0.656994317492,0.502226797764,0.3044340834,1.03067505559,-2.92637140301,0.10906037894,-1.88362791597,0.0317303261937
5.2,0.554281653728,0.996460803742,0.064699355671,0.483299122903,-0.156451309755,1.4455688997,-0.656994317492,0.503243181759,0.303238238022,1.03036263805,-2.92734209452,0.108374539944,-1.8867623688,0.0314899240026
5.22,0.554281653728,0.996460803742,0.064699355671,0.483299122903,-0.156451309755,1.4455688997,-0.656994317492,0.503243181759,0.303238238022,1.03036263805,-2.92734209452,0.108374539944,-1.8867623688,0.0314899240026
5.24,0.552606159218,0.998659975591,0.0647691679423,0.479389569134,-0.156433866049,1.44879784936,-0.656994317492,0.503824261596,0.302379286466,1.03026025377,-2.92843384901,0.10731453656,-1.88905521005,0.0312820200352
5.26,0.552606159218,0.998659975591,0.0647691679423,0.479389569134,-0.156433866049,1.44879784936,-0.656994317492,0.503824261596,0.302379286466,1.03026025377,-2.92843384901,0.10731453656,-1.88905521005,0.0312820200352
5.28,0.551401877773,1.00031799311,0.0647342638873,0.475078610409,-0.156503674159,1.45153797581,-0.656994317492,0.504388587243,0.301778984241,1.03062929794,-2.92848304893,0.107251743832,-1.89080201106,0.0310398779262
5.3,0.551401877773,1.00031799311,0.0647342638873,0.475078610409,-0.156503674159,1.45153797581,-0.656994317492,0.504388587243,0.301778984241,1.03062929794,-2.92848304893,0.107251743832,-1.89080201106,0.0310398779262
5.32,0.549953251298,1.00117320071,0.0648389802136,0.470610591758,-0.156503674159,1.45520315126,-0.657011761198,0.504869618685,0.301010768542,1.03148650928,-2.92864148239,0.107326799345,-1.89280801792,0.030775791764
5.34,0.549953251298,1.00117320071,0.0648389802136,0.470610591758,-0.156503674159,1.45520315126,-0.657011761198,0.504869618685,0.301010768542,1.03148650928,-2.92864148239,0.107326799345,-1.89280801792,0.030775791764
5.36,0.549028235583,1.00160955966,0.0647517159148,0.466666150578,-0.156521134509,1.45663433403,-0.656994317492,0.505454191012,0.300623215073,1.03249723026,-2.92731489177,0.108933273532,-1.89401524651,0.0305364555377
5.38,0.549028235583,1.00160955966,0.0647517159148,0.466666150578,-0.156521134509,1.45663433403,-0.656994317492,0.505454191012,0.300623215073,1.03249723026,-2.92731489177,0.108933273532,-1.89401524651,0.0305364555377
5.4,0.547544688408,1.0027439997,0.0650135129723,0.463018385544,-0.15648621381,1.45677401683,-0.656994317492,0.506305432378,0.300157808577,1.03304283186,-2.92607701691,0.110989255811,-1.89543171098,0.0303243610918
5.42,0.547544688408,1.0027439997,0.0650135129723,0.463018385544,-0.15648621381,1.45677401683,-0.656994317492,0.506305432378,0.300157808577,1.03304283186,-2.92607701691,0.110989255811,-1.89543171098,0.0303243610918
5.44,0.546532387588,1.00551908014,0.0652229539473,0.458480525494,-0.156433866049,1.45694845388,-0.656994317492,0.507161163053,0.299988409927,1.0329192729,-2.92535166121,0.112444721984,-1.89651179718,0.0300787911206
5.46,0.546532387588,1.00551908014,0.0652229539473,0.458480525494,-0.156433866049,1.45694845388,-0.656994317492,0.507161163053,0.299988409927,1.0329192729,-2.92535166121,0.112444721984,-1.89651179718,0.0300787911206
5.48,0.546218234448,1.01134847345,0.065275314191,0.449177937359,-0.1564164057,1.45930468566,-0.656994317492,0.508171711553,0.30023726272,1.03250879314,-2.92489906883,0.11351494777,-1.89749417871,0.0295741650872
5.5,0.546218234448,1.01134847345,0.065275314191,0.449177937359,-0.1564164057,1.45930468566,-0.656994317492,0.508171711553,0.30023726272,1.03250879314,-2.92489906883,0.11351494777,-1.89749417871,0.0295741650872
5.52,0.546357883958,1.01880106344,0.0653102224073,0.436122888668,-0.156451309755,1.46483740282,-0.656994317492,0.509085437575,0.30063649766,1.03227147081,-2.92512508476,0.113796015719,-1.89864146675,0.0288477508661
5.54,0.546357883958,1.01880106344,0.0653102224073,0.436122888668,-0.156451309755,1.46483740282,-0.656994317492,0.509085437575,0.30063649766,1.03227147081,-2.92512508476,0.113796015719,-1.89864146675,0.0288477508661
5.56,0.546392771368,1.02560783687,0.0653102224073,0.423102727388,-0.156451309755,1.47167906366,-0.656994317492,0.509812790405,0.300834884711,1.03234552398,-2.92578750994,0.113536198098,-1.90008715139,0.0281051177517
5.58,0.546392771368,1.02560783687,0.0653102224073,0.423102727388,-0.156451309755,1.47167906366,-0.656994317492,0.509812790405,0.300834884711,1.03234552398,-2.92578750994,0.113536198098,-1.90008715139,0.0281051177517
5.6,0.546200790743,1.03222259639,0.0652404059748,0.409105185989,-0.156503674159,1.47834628745,-0.657011761198,0.51073499515,0.300945198422,1.03285912144,-2.92552784895,0.114257010107,-1.90171858356,0.0272868942566
5.62,0.546148426338,1.03836617613,0.0652404059748,0.395927931494,-0.156503674159,1.48256992778,-0.657011761198,0.51073499515,0.300945198422,1.03285912144,-2.92552784895,0.114257010107,-1.90171858356,0.0272868942566
5.64,0.546148426338,1.03836617613,0.0652404059748,0.395927931494,-0.156503674159,1.48256992778,-0.657011761198,0.511812074448,0.301309058875,1.03346024778,-2.9240238233,0.116659912616,-1.90275398262,0.0265060485189
5.66,0.546322963258,1.04351493204,0.0652578621635,0.383344129159,-0.156521134509,1.48565919464,-0.657011761198,0.511812074448,0.301309058875,1.03346024778,-2.9240238233,0.116659912616,-1.90275398262,0.0265060485189
5.68,0.546322963258,1.04351493204,0.0652578621635,0.383344129159,-0.156521134509,1.48565919464,-0.657011761198,0.512865920981,0.301834535966,1.0344918917,-2.92153092759,0.120238296742,-1.90329078516,0.0257440243881
5.7,0.546165870043,1.04791314258,0.0652229539473,0.373360837049,-0.156521134509,1.48633989862,-0.656994317492,0.512865920981,0.301834535966,1.0344918917,-2.92153092759,0.120238296742,-1.90329078516,0.0257440243881
5.72,0.546165870043,1.04791314258,0.0652229539473,0.373360837049,-0.156521134509,1.48633989862,-0.656994317492,0.514035924338,0.302245382769,1.0351908017,-2.91861691567,0.124189794564,-1.90375704891,0.0251379085965
5.74,0.546043697528,1.053829821,0.0652055019198,0.362696874254,-0.156590942619,1.48644456085,-0.656994317492,0.514035924338,0.302245382769,1.0351908017,-2.91861691567,0.124189794564,-1.90375704891,0.0251379085965
5.76,0.546043697528,1.053829821,0.0652055019198,0.362696874254,-0.156590942619,1.48644456085,-0.656994317492,0.515379927509,0.302767370979,1.03523474639,-2.91584782541,0.12791603391,-1.90416374273,0.0244985941271
5.78,0.546043697528,1.053829821,0.0652055019198,0.362696874254,-0.156590942619,1.48644456085,-0.656994317492,0.515379927509,0.302767370979,1.03523474639,-2.91584782541,0.12791603391,-1.90416374273,0.0244985941271
5.8,0.545991366413,1.06098566827,0.0652229539473,0.352120163274,-0.15657348227,1.48651433567,-0.656994317492,0.516704256421,0.303353657123,1.03450391653,-2.91399593729,0.130716743131,-1.90457318874,0.0238720629969
5.82,0.545991366413,1.06098566827,0.0652229539473,0.352120163274,-0.15657348227,1.48651433567,-0.656994317492,0.516704256421,0.303353657123,1.03450391653,-2.91399593729,0.130716743131,-1.90457318874,0.0238720629969
5.84,0.546113538928,1.06798445561,0.065275314191,0.341683101804,-0.156521134509,1.4867586807,-0.656994317492,0.517911191132,0.304007900687,1.03380606307,-2.91228828226,0.133432563636,-1.9048113267,0.0232465768715
5.86,0.546113538928,1.06798445561,0.065275314191,0.341683101804,-0.156521134509,1.4867586807,-0.656994317492,0.517911191132,0.304007900687,1.03380606307,-2.91228828226,0.133432563636,-1.9048113267,0.0232465768715
5.88,0.545991366413,1.07559403895,0.0652578621635,0.330547892654,-0.156521134509,1.48829465886,-0.656994317492,0.51910268492,0.304426580336,1.03291731551,-2.91127200068,0.135159947338,-1.90559241288,0.0225738209078
5.9,0.545991366413,1.07559403895,0.0652578621635,0.330547892654,-0.156521134509,1.48829465886,-0.656994317492,0.51910268492,0.304426580336,1.03291731551,-2.91127200068,0.135159947338,-1.90559241288,0.0225738209078
5.92,0.545816829493,1.08231359386,0.0652055019198,0.319499968609,-0.156608386325,1.49318155946,-0.656994317492,0.519813540739,0.304469434359,1.03238912361,-2.91177387093,0.134847723418,-1.90698126547,0.0218920034902
5.94,0.545816829493,1.08231359386,0.0652055019198,0.319499968609,-0.156608386325,1.49318155946,-0.656994317492,0.519813540739,0.304469434359,1.03238912361,-2.91177387093,0.134847723418,-1.90698126547,0.0218920034902
5.96,0.544734720563,1.08870145205,0.0652578621635,0.306706708654,-0.156625846674,1.50126238916,-0.656994317492,0.520495787221,0.303850063147,1.03250575852,-2.9131445866,0.133809512592,-1.90974247384,0.0210820491703
5.98,0.544734720563,1.08870145205,0.0652578621635,0.306706708654,-0.156625846674,1.50126238916,-0.656994317492,0.520495787221,0.303850063147,1.03250575852,-2.9131445866,0.133809512592,-1.90974247384,0.0210820491703
6.0,0.542186541453,1.09484503179,0.0652578621635,0.293407314934,-0.156538578215,1.50894188047,-0.656994317492,0.52170018901,0.302510552369,1.03294705135,-2.91384249767,0.133706274591,-1.91387508552,0.0202277458459
6.02,0.542186541453,1.09484503179,0.0652578621635,0.293407314934,-0.156538578215,1.50894188047,-0.656994317492,0.52170018901,0.302510552369,1.03294705135,-2.91384249767,0.133706274591,-1.91387508552,0.0202277458459
6.04,0.539289288503,1.10098861153,0.065275314191,0.279601754159,-0.156503674159,1.51512028105,-0.656994317492,0.52324666513,0.30112046679,1.03361240275,-2.91325313672,0.135142510115,-1.91807083334,0.0193314620466
6.06,0.535868424793,1.10721940979,0.0652927662186,0.266162710929,-0.156468770104,1.5196930618,-0.656994317492,0.52324666513,0.30112046679,1.03361240275,-2.91325313672,0.135142510115,-1.91807083334,0.0193314620466
6.08,0.535868424793,1.10721940979,0.0652927662186,0.266162710929,-0.156468770104,1.5196930618,-0.656994317492,0.525113706136,0.299561640126,1.03416103102,-2.91192900715,0.137462184896,-1.92251500623,0.0184541703383
6.1,0.533180629463,1.11306624681,0.0652578621635,0.254870425209,-0.156468770104,1.52271255384,-0.656994317492,0.525113706136,0.299561640126,1.03416103102,-2.91192900715,0.137462184896,-1.92251500623,0.0184541703383
6.12,0.533180629463,1.11306624681,0.0652578621635,0.254870425209,-0.156468770104,1.52271255384,-0.656994317492,0.526745559816,0.298397652257,1.03428208622,-2.9106273226,0.139527176418,-1.92598441886,0.0177163969664
6.14,0.530562642243,1.11872113649,0.0652927662186,0.245358379454,-0.156433866049,1.52580168755,-0.656994317492,0.526745559816,0.298397652257,1.03428208622,-2.9106273226,0.139527176418,-1.92598441886,0.0177163969664
6.16,0.530562642243,1.11872113649,0.0652927662186,0.245358379454,-0.156433866049,1.52580168755,-0.656994317492,0.528142985006,0.297199559183,1.03391322313,-2.91041578869,0.14033739441,-1.9293993948,0.0170959870307
6.18,0.528538073893,1.12345104374,0.0655022071935,0.238219992534,-0.156381501644,1.52765178556,-0.657011761198,0.529254910302,0.296349420341,1.0333559084,-2.91041612968,0.141044383581,-1.93189932813,0.0166311576154
6.2,0.528538073893,1.12345104374,0.0655022071935,0.238219992534,-0.156381501644,1.52765178556,-0.657011761198,0.529254910302,0.296349420341,1.0333559084,-2.91041612968,0.141044383581,-1.93189932813,0.0166311576154
6.22,0.527089447418,1.12886152181,0.0655894714923,0.230854704289,-0.15617206067,1.52875140477,-0.657011761198,0.530333162566,0.295876052176,1.03248883407,-2.91027062908,0.142010089306,-1.93378446237,0.0161526206123
6.24,0.527089447418,1.12886152181,0.0655894714923,0.230854704289,-0.15617206067,1.52875140477,-0.657011761198,0.530333162566,0.295876052176,1.03248883407,-2.91027062908,0.142010089306,-1.93378446237,0.0161526206123
6.26,0.526304047923,1.1343417747,0.0656243797085,0.224170086729,-0.156067348504,1.52889095441,-0.657011761198,0.531294713686,0.295780094349,1.03139065754,-2.90985552763,0.143027752555,-1.93488365536,0.0157195830058
6.28,0.526304047923,1.1343417747,0.0656243797085,0.224170086729,-0.156067348504,1.52889095441,-0.657011761198,0.531294713686,0.295780094349,1.03139065754,-2.90985552763,0.143027752555,-1.93488365536,0.0157195830058
6.3,0.526199319113,1.13854810449,0.065729100196,0.219178440674,-0.156067348504,1.52896072923,-0.656994317492,0.531870803848,0.295969437651,1.030500697,-2.90959306695,0.143726594156,-1.9352272723,0.0153952365846
6.32,0.526199319113,1.13854810449,0.065729100196,0.219178440674,-0.156067348504,1.52896072923,-0.656994317492,0.531870803848,0.295969437651,1.030500697,-2.90959306695,0.143726594156,-1.9352272723,0.0153952365846
6.34,0.526234206524,1.14221327994,0.0657640042511,0.213610852744,-0.156067348504,1.52904808091,-0.657011761198,0.53244948423,0.296227506756,1.03013123798,-2.90858980599,0.145241006173,-1.93535708545,0.015025740882
6.36,0.526234206524,1.14221327994,0.0657640042511,0.213610852744,-0.156067348504,1.52904808091,-0.657011761198,0.53244948423,0.296227506756,1.03013123798,-2.90858980599,0.145241006173,-1.93535708545,0.015025740882
6.38,0.526199319113,1.14531999051,0.0658163644948,0.207135676159,-0.156067348504,1.52911785574,-0.656994317492,0.533118012504,0.296474283092,1.03040609746,-2.90668087949,0.147940574833,-1.93550215788,0.0145877111486
6.4,0.526199319113,1.14531999051,0.0658163644948,0.207135676159,-0.156067348504,1.52911785574,-0.656994317492,0.533118012504,0.296474283092,1.03040609746,-2.90668087949,0.147940574833,-1.93550215788,0.0145877111486
6.42,0.525972417788,1.14792056731,0.0656767399523,0.201114285579,-0.156137156614,1.52922251797,-0.657011761198,0.533807280366,0.296541629645,1.03083891582,-2.90455253744,0.150486349446,-1.93583881652,0.0141775400759
6.44,0.525972417788,1.14792056731,0.0656767399523,0.201114285579,-0.156137156614,1.52922251797,-0.657011761198,0.533807280366,0.296541629645,1.03083891582,-2.90455253744,0.150486349446,-1.93583881652,0.0141775400759
6.46,0.525867688979,1.15083526397,0.0656592879248,0.195878294494,-0.156137156614,1.52929242594,-0.657011761198,0.534376425102,0.296686779581,1.0308150831,-2.90322645721,0.15230749546,-1.93607066061,0.0138234790454
6.48,0.525867688979,1.15083526397,0.0656592879248,0.195878294494,-0.156137156614,1.52929242594,-0.657011761198,0.534376425102,0.296686779581,1.0308150831,-2.90322645721,0.15230749546,-1.93607066061,0.0138234790454
6.5,0.525745516463,1.15361027782,0.0656941919798,0.190659763759,-0.156137156614,1.52934475706,-0.657011761198,0.534939459256,0.296829494243,1.03087046307,-2.9018478103,0.154266633837,-1.93628588274,0.0134689231592
6.52,0.525745516463,1.15361027782,0.0656941919798,0.190659763759,-0.156137156614,1.52934475706,-0.657011761198,0.534939459256,0.296829494243,1.03087046307,-2.9018478103,0.154266633837,-1.93628588274,0.0134689231592
6.54,0.525448840318,1.15594906589,0.0656941919798,0.185790306864,-0.156137156614,1.52937964447,-0.657011761198,0.535515939286,0.296854024444,1.03107614965,-2.90036883688,0.156281346075,-1.93664943875,0.0131359711209
6.56,0.525448840318,1.15594906589,0.0656941919798,0.185790306864,-0.156137156614,1.52937964447,-0.657011761198,0.535515939286,0.296854024444,1.03107614965,-2.90036883688,0.156281346075,-1.93664943875,0.0131359711209
6.58,0.524558712013,1.15802593207,0.0656767399523,0.181671328764,-0.156137156614,1.52937964447,-0.657011761198,0.536199168606,0.296530593099,1.03119123815,-2.89914831411,0.157921288258,-1.93760316919,0.0128542425542
6.6,0.524558712013,1.15802593207,0.0656767399523,0.181671328764,-0.156137156614,1.52937964447,-0.657011761198,0.536199168606,0.296530593099,1.03119123815,-2.89914831411,0.157921288258,-1.93760316919,0.0128542425542
6.62,0.523878041328,1.15929998833,0.0656941919798,0.179297669929,-0.15615460032,1.52936220077,-0.657011761198,0.536644268928,0.29625833713,1.03121095049,-2.89848896951,0.158824894956,-1.9383180322,0.0126920156841
6.64,0.523878041328,1.15929998833,0.0656941919798,0.179297669929,-0.15615460032,1.52936220077,-0.657011761198,0.536644268928,0.29625833713,1.03121095049,-2.89848896951,0.158824894956,-1.9383180322,0.0126920156841
6.66,0.522377050448,1.16019014993,0.0658338206835,0.177761791639,-0.156102252559,1.52937964447,-0.656994317492,0.537224125724,0.295544711592,1.03117961875,-2.89826722274,0.15945273483,-1.93982684801,0.0125872584745
6.68,0.522377050448,1.16019014993,0.0658338206835,0.177761791639,-0.156102252559,1.52937964447,-0.656994317492,0.537224125724,0.295544711592,1.03117961875,-2.89826722274,0.15945273483,-1.93982684801,0.0125872584745
6.7,0.520701522648,1.16080107908,0.0657640042511,0.176871663334,-0.156119696265,1.52936220077,-0.656994317492,0.537823128806,0.294664634691,1.03110682692,-2.89803402938,0.159645789066,-1.94154928485,0.012526962568
6.72,0.518799126813,1.16144676249,0.0660432574973,0.176679682709,-0.156102252559,1.52936220077,-0.657011761198,0.537823128806,0.294664634691,1.03110682692,-2.89803402938,0.159645789066,-1.94154928485,0.012526962568
6.74,0.518799126813,1.16144676249,0.0660432574973,0.176679682709,-0.156102252559,1.52936220077,-0.657011761198,0.538383613486,0.293711767639,1.03077228397,-2.89853960452,0.159462897974,-1.94341162644,0.0125163954129
6.76,0.516861810278,1.16303507176,0.0661130739298,0.176295704814,-0.156067348504,1.52936220077,-0.656994317492,0.538383613486,0.293711767639,1.03077228397,-2.89853960452,0.159462897974,-1.94341162644,0.0125163954129
6.78,0.516861810278,1.16303507176,0.0661130739298,0.176295704814,-0.156067348504,1.52936220077,-0.656994317492,0.539010869274,0.292718408178,1.02992635672,-2.89939459335,0.158597064617,-1.9454885491,0.0124966393051
6.8,0.515308454993,1.16514695851,0.0661654300123,0.174445656739,-0.156067348504,1.52939708818,-0.656994317492,0.539666134029,0.291969507346,1.02925190269,-2.89966209731,0.158423950905,-1.94717889133,0.0123749845034
6.82,0.515308454993,1.16514695851,0.0661654300123,0.174445656739,-0.156067348504,1.52939708818,-0.656994317492,0.539666134029,0.291969507346,1.02925190269,-2.89966209731,0.158423950905,-1.94717889133,0.0123749845034
6.84,0.514365995573,1.16898657101,0.0662003382285,0.167237445065,-0.156067348504,1.52953677097,-0.656994317492,0.540644527184,0.291716612332,1.0293166843,-2.89779174155,0.161063463634,-1.94826120385,0.0118792051607
6.86,0.514365995573,1.16898657101,0.0662003382285,0.167237445065,-0.156067348504,1.52953677097,-0.656994317492,0.540644527184,0.291716612332,1.0293166843,-2.89779174155,0.161063463634,-1.94826120385,0.0118792051607
6.88,0.513720212298,1.17513021733,0.0662352464448,0.152663945145,-0.156067348504,1.53025236236,-0.656994317492,0.542143045853,0.291807447238,1.03042169539,-2.89322736113,0.167305168534,-1.94910080725,0.0108652985273
6.9,0.513720212298,1.17513021733,0.0662352464448,0.152663945145,-0.156067348504,1.53025236236,-0.656994317492,0.542143045853,0.291807447238,1.03042169539,-2.89322736113,0.167305168534,-1.94910080725,0.0108652985273
6.92,0.513231522238,1.18087225895,0.0660956177411,0.137339958107,-0.156119696265,1.53412699543,-0.656994317492,0.543198382666,0.291678398691,1.03187713703,-2.88980863526,0.171897800033,-1.95036372506,0.00979125200795
6.94,0.513231522238,1.18087225895,0.0660956177411,0.137339958107,-0.156119696265,1.53412699543,-0.656994317492,0.543198382666,0.291678398691,1.03187713703,-2.88980863526,0.171897800033,-1.95036372506,0.00979125200795
6.96,0.512969733503,1.1864923278,0.0660781657135,0.121876338205,-0.156137156614,1.54184137416,-0.657011761198,0.543607951268,0.291369312902,1.0332587687,-2.88882172831,0.173844017875,-1.9520873625,0.00870222087184
6.98,0.512969733503,1.1864923278,0.0660781657135,0.121876338205,-0.156137156614,1.54184137416,-0.657011761198,0.543607951268,0.291369312902,1.0332587687,-2.88882172831,0.173844017875,-1.9520873625,0.00870222087184
7.0,0.512987177208,1.19207737608,0.0660781657135,0.108402399242,-0.156137156614,1.55002686609,-0.656994317492,0.543674980915,0.291114817174,1.03395753095,-2.88937986227,0.173912087689,-1.95373872288,0.00775165778558
7.02,0.512987177208,1.19207737608,0.0660781657135,0.108402399242,-0.156137156614,1.55002686609,-0.656994317492,0.543674980915,0.291114817174,1.03395753095,-2.88937986227,0.173912087689,-1.95373872288,0.00775165778558
7.04,0.512987177208,1.19804631903,0.0660781657135,0.0972846504422,-0.156137156614,1.55644974484,-0.657011761198,0.543797820387,0.290934122401,1.03370491911,-2.89048761196,0.173153777188,-1.95516632827,0.00696806305528
7.06,0.512987177208,1.19804631903,0.0660781657135,0.0972846504422,-0.156137156614,1.55644974484,-0.657011761198,0.543797820387,0.290934122401,1.03370491911,-2.89048761196,0.173153777188,-1.95516632827,0.00696806305528
7.08,0.512934812803,1.20413750108,0.0660781657135,0.0886278206147,-0.156137156614,1.56110974412,-0.657011761198,0.543981319613,0.290806788624,1.03263056456,-2.89204583655,0.171699334461,-1.95643121691,0.00635909245162
7.1,0.512934812803,1.20413750108,0.0660781657135,0.0886278206147,-0.156137156614,1.56110974412,-0.657011761198,0.543981319613,0.290806788624,1.03263056456,-2.89204583655,0.171699334461,-1.95643121691,0.00635909245162
7.12,0.512899892104,1.2109093871,0.0660956177411,0.0801455193847,-0.156137156614,1.56275038451,-0.657011761198,0.544576662277,0.290935158587,1.03121887245,-2.89220570664,0.171898674614,-1.95715557642,0.0057618549246
7.14,0.512899892104,1.21810018836,0.066060713686,0.0722566287023,-0.156189521019,1.56306450436,-0.657011761198,0.544576662277,0.290935158587,1.03121887245,-2.89220570664,0.171898674614,-1.95715557642,0.0057618549246
7.16,0.512899892104,1.21810018836,0.066060713686,0.0722566287023,-0.156189521019,1.56306450436,-0.657011761198,0.545309879205,0.291157895271,1.0294097738,-2.89205663007,0.172252359993,-1.95767254658,0.00520568050267
7.18,0.512899892104,1.21810018836,0.066060713686,0.0722566287023,-0.156189521019,1.56306450436,-0.657011761198,0.545309879205,0.291157895271,1.0294097738,-2.89205663007,0.172252359993,-1.95767254658,0.00520568050267
7.2,0.512725388473,1.22366779293,0.066060713686,0.0658861809273,-0.156206964725,1.56351830701,-0.656994317492,0.545905979697,0.291226401378,1.02808247094,-2.89195563863,0.172605730611,-1.95828614551,0.00475421847536
7.22,0.512725388473,1.22366779293,0.066060713686,0.0658861809273,-0.156206964725,1.56351830701,-0.656994317492,0.545905979697,0.291226401378,1.02808247094,-2.89195563863,0.172605730611,-1.95828614551,0.00475421847536
7.24,0.512393758338,1.22876415115,0.0660432574973,0.0580147422723,-0.156276789479,1.56540329243,-0.656994317492,0.546449524966,0.291104820965,1.02747869602,-2.89150519981,0.173378112695,-1.9592200274,0.00419161025805
7.26,0.512393758338,1.22876415115,0.0660432574973,0.0580147422723,-0.156276789479,1.56540329243,-0.656994317492,0.546449524966,0.291104820965,1.02747869602,-2.89150519981,0.173378112695,-1.9592200274,0.00419161025805
7.28,0.510718230539,1.23384306567,0.0660432574973,0.0476823971286,-0.156276789479,1.57152936188,-0.657011761198,0.546952489198,0.289965825895,1.02749979676,-2.89233930841,0.172916600429,-1.96220161232,0.0034487036231
7.3,0.508955450924,1.23693233253,0.0660781657135,0.0405789059411,-0.156224425074,1.57641626249,-0.657011761198,0.546952489198,0.289965825895,1.02749979676,-2.89233930841,0.172916600429,-1.96220161232,0.0034487036231
7.32,0.508955450924,1.23693233253,0.0660781657135,0.0405789059411,-0.156224425074,1.57641626249,-0.657011761198,0.547354516585,0.288799080238,1.02772667981,-2.89316468059,0.17245204747,-1.9649484404,0.00293650814696
7.34,0.506459636218,1.23920121262,0.066060713686,0.0343306265199,-0.156259329129,1.58079702932,-0.657029204903,0.547354516585,0.288799080238,1.02772667981,-2.89316468059,0.17245204747,-1.9649484404,0.00293650814696
7.36,0.506459636218,1.23920121262,0.066060713686,0.0343306265199,-0.156259329129,1.58079702932,-0.657029204903,0.54796202486,0.28722050089,1.02819966336,-2.89356219472,0.172253067498,-1.968282265,0.00248507567806
7.38,0.504557240383,1.24108619804,0.0660781657135,0.0290946395961,-0.156224425074,1.58187920483,-0.657029204903,0.548770561351,0.286217318367,1.02872839905,-2.8922927027,0.174147077324,-1.970370721,0.00210662988263
7.4,0.504557240383,1.24108619804,0.0660781657135,0.0290946395961,-0.156224425074,1.58187920483,-0.657029204903,0.548770561351,0.286217318367,1.02872839905,-2.8922927027,0.174147077324,-1.970370721,0.00210662988263
7.42,0.503073693209,1.24438478937,0.0660956177411,0.0232128798005,-0.156189521019,1.58193153594,-0.657029204903,0.549676871756,0.285548372311,1.02864748984,-2.89085218233,0.176235164586,-1.97195942063,0.0016819347582
7.44,0.503073693209,1.24438478937,0.0660956177411,0.0232128798005,-0.156189521019,1.58193153594,-0.657029204903,0.549676871756,0.285548372311,1.02864748984,-2.89085218233,0.176235164586,-1.97195942063,0.0016819347582
7.46,0.502235929309,1.24862600656,0.0660956177411,0.0179419846606,-0.156224425074,1.58194897965,-0.657029204903,0.550381131647,0.285219535395,1.02778065467,-2.89028602318,0.177070116702,-1.97303961919,0.00130136841736
7.48,0.502235929309,1.24862600656,0.0660956177411,0.0179419846606,-0.156224425074,1.58194897965,-0.657029204903,0.550381131647,0.285219535395,1.02778065467,-2.89028602318,0.177070116702,-1.97303961919,0.00130136841736
7.5,0.501677431139,1.2530242171,0.0660956177411,0.0127583569403,-0.156206964725,1.58207121874,-0.657011761198,0.550978725714,0.285040542219,1.02677973085,-2.88998135286,0.17766612985,-1.97389127504,0.000926378265349
7.52,0.501677431139,1.2530242171,0.0660956177411,0.0127583569403,-0.156206964725,1.58207121874,-0.657011761198,0.550978725714,0.285040542219,1.02677973085,-2.88998135286,0.17766612985,-1.97389127504,0.000926378265349
7.54,0.501014204159,1.25705597668,0.0660781657135,0.00713839680294,-0.156224425074,1.58289147236,-0.657011761198,0.551530009344,0.284741366932,1.02611653338,-2.88958784476,0.17832709659,-1.9749188583,0.000518774271494
7.56,0.501014204159,1.25705597668,0.0660781657135,0.00713839680294,-0.156224425074,1.58289147236,-0.657011761198,0.551530009344,0.284741366932,1.02611653338,-2.88958784476,0.17832709659,-1.9749188583,0.000518774271494
7.58,0.500804779828,1.25977865942,0.066060713686,0.00111701077433,-0.156224425074,1.58564904251,-0.657029204903,0.551673729577,0.28453439458,1.0263022372,-2.88939057634,0.178858156654,-1.97569707759,8.12086799876e-05
7.6,0.500804779828,1.25977865942,0.066060713686,0.00111701077433,-0.156224425074,1.58564904251,-0.657029204903,0.551673729577,0.28453439458,1.0263022372,-2.88939057634,0.178858156654,-1.97569707759,8.12086799876e-05
7.62,0.500787336123,1.26150651833,0.0660781657135,-0.00481710861483,-0.15624186878,1.58884297161,-0.657029204903,0.551669425719,0.284387806272,1.02705259008,-2.88892242922,0.179783380052,-1.97627771894,0.000350228868214
7.64,0.500787336123,1.26150651833,0.0660781657135,-0.00481710861483,-0.15624186878,1.58884297161,-0.657029204903,0.551669425719,0.284387806272,1.02705259008,-2.88892242922,0.179783380052,-1.97627771894,0.000350228868214
7.66,0.500804779828,1.26321693354,0.0661130739298,-0.00993092354372,-0.156224425074,1.58990770341,-0.657029204903,0.551669425719,0.284387806272,1.02705259008,-2.88892242922,0.179783380052,-1.97627771894,0.000350228868214
7.68,0.500804779828,1.26321693354,0.0661130739298,-0.00993092354372,-0.156224425074,1.58990770341,-0.657029204903,0.551893574486,0.284418524247,1.02764378801,-2.8876069092,0.181731748029,-1.9764205238,0.000722120917634
7.7,0.500595322209,1.26534626399,0.0661130739298,-0.0157079628518,-0.156259329129,1.59041383717,-0.657029204903,0.551893574486,0.284418524247,1.02764378801,-2.8876069092,0.181731748029,-1.9764205238,0.000722120917634
7.72,0.500595322209,1.26534626399,0.0661130739298,-0.0157079628518,-0.156259329129,1.59041383717,-0.657029204903,0.552318012859,0.284366048441,1.02822520619,-2.88572123353,0.184256498635,-1.9767047852,0.001142426164
7.74,0.500647686614,1.27072185465,0.0660956177411,-0.0274540283349,-0.156259329129,1.59205447756,-0.657029204903,0.552961083729,0.284487364394,1.02872445675,-2.88297813727,0.188128842409,-1.97702972918,0.00199807706031
7.76,0.500647686614,1.27072185465,0.0660956177411,-0.0274540283349,-0.156259329129,1.59205447756,-0.657029204903,0.552961083729,0.284487364394,1.02872445675,-2.88297813727,0.188128842409,-1.97702972918,0.00199807706031
7.78,0.500665163608,1.27735405787,0.0661130739298,-0.0418006352524,-0.15624186878,1.59468994178,-0.657029204903,0.553642717075,0.284555433292,1.02925509839,-2.88012050173,0.192355848222,-1.97758985318,0.00304451164287
7.8,0.500665163608,1.27735405787,0.0661130739298,-0.0418006352524,-0.15624186878,1.59468994178,-0.657029204903,0.553642717075,0.284555433292,1.02925509839,-2.88012050173,0.192355848222,-1.97758985318,0.00304451164287
7.82,0.500734971718,1.2853652459,0.0660781657135,-0.0603534845686,-0.15624186878,1.60081601123,-0.657029204903,0.554078123004,0.284419904037,1.03014240047,-2.87777921294,0.196144426724,-1.97876593937,0.00439849701188
7.84,0.500734971718,1.2853652459,0.0660781657135,-0.0603534845686,-0.15624186878,1.60081601123,-0.657029204903,0.554078123004,0.284419904037,1.03014240047,-2.87777921294,0.196144426724,-1.97876593937,0.00439849701188
7.86,0.500752415423,1.29236390009,0.0660781657135,-0.0771261022422,-0.15624186878,1.60830348864,-0.657029204903,0.554161230668,0.284103583992,1.03098014191,-2.87681106259,0.198295284411,-1.98024522826,0.00562257798181
7.88,0.500752415423,1.29236390009,0.0660781657135,-0.0771261022422,-0.15624186878,1.60830348864,-0.657029204903,0.554161230668,0.284103583992,1.03098014191,-2.87681106259,0.198295284411,-1.98024522826,0.00562257798181
7.9,0.500734971718,1.29852499012,0.0660781657135,-0.0917694102722,-0.156259329129,1.61603531107,-0.657029204903,0.554045388614,0.283701015565,1.03160538719,-2.8767711361,0.199214203088,-1.98182971977,0.00669101232466
7.92,0.500734971718,1.29852499012,0.0660781657135,-0.0917694102722,-0.156259329129,1.61603531107,-0.657029204903,0.554045388614,0.283701015565,1.03160538719,-2.8767711361,0.199214203088,-1.98182971977,0.00669101232466
7.94,0.500700051018,1.3047382781,0.0660432574973,-0.105644779157,-0.156294233185,1.62271984541,-0.657046648608,0.554018836105,0.283343148465,1.03198958048,-2.87651045487,0.200246663568,-1.98324962954,0.00770384185194
7.96,0.500700051018,1.3047382781,0.0660432574973,-0.105644779157,-0.156294233185,1.62271984541,-0.657046648608,0.554018836105,0.283343148465,1.03198958048,-2.87651045487,0.200246663568,-1.98324962954,0.00770384185194
7.98,0.500560434798,1.31077712903,0.0660258054698,-0.116308741952,-0.1564164057,1.62535530962,-0.657046648608,0.554406496645,0.283189336524,1.03162782321,-2.87540528441,0.2019074907,-1.98411242215,0.00848561252067
8.0,0.500560434798,1.31077712903,0.0660258054698,-0.116308741952,-0.1564164057,1.62535530962,-0.657046648608,0.554406496645,0.283189336524,1.03162782321,-2.87540528441,0.2019074907,-1.98411242215,0.00848561252067
8.02,0.500158996553,1.31583859984,0.0659908972536,-0.124162720257,-0.156608386325,1.62573933745,-0.657046648608,0.555012004272,0.283011995469,1.03106222686,-2.87386234354,0.203761994983,-1.98481497554,0.00906347821463
8.04,0.500158996553,1.31583859984,0.0659908972536,-0.124162720257,-0.156608386325,1.62573933745,-0.657046648608,0.555012004272,0.283011995469,1.03106222686,-2.87386234354,0.203761994983,-1.98481497554,0.00906347821463
8.06,0.499617942089,1.31955623956,0.0659908972536,-0.13098696236,-0.156957460164,1.62582655598,-0.657029204903,0.555616977543,0.282732595871,1.03100857971,-2.87182626053,0.20601769663,-1.98553062798,0.00956392504869
8.08,0.499617942089,1.31955623956,0.0659908972536,-0.13098696236,-0.156957460164,1.62582655598,-0.657029204903,0.555616977543,0.282732595871,1.03100857971,-2.87182626053,0.20601769663,-1.98553062798,0.00956392504869
8.1,0.499129252028,1.32210435209,0.065973445226,-0.135385189545,-0.157446150225,1.62626291492,-0.657029204903,0.555616977543,0.282732595871,1.03100857971,-2.87182626053,0.20601769663,-1.98553062798,0.00956392504869
8.12,0.499129252028,1.32210435209,0.065973445226,-0.135385189545,-0.157446150225,1.62626291492,-0.657029204903,0.55601304477,0.282403709825,1.03086193812,-2.87064476836,0.206896366859,-1.98628066107,0.00988679680289
8.14,0.498710370079,1.32329118983,0.0660083534423,-0.137217785592,-0.159435831164,1.6284969076,-0.657029204903,0.55601304477,0.282403709825,1.03086193812,-2.87064476836,0.206896366859,-1.98628066107,0.00988679680289
8.16,0.498710370079,1.32329118983,0.0660083534423,-0.137217785592,-0.159435831164,1.6284969076,-0.657029204903,0.556078856947,0.281727872736,1.0306346711,-2.87027730386,0.204600667582,-1.98766361136,0.0100212267259
8.18,0.498361329528,1.32332607724,0.065973445226,-0.137270141675,-0.162228355304,1.63293000556,-0.657029204903,0.555757125486,0.280774497711,1.03043071723,-2.87105906882,0.199616547057,-1.98960550595,0.0100239472525
8.2,0.498361329528,1.32332607724,0.065973445226,-0.137270141675,-0.162228355304,1.63293000556,-0.657029204903,0.555757125486,0.280774497711,1.03043071723,-2.87105906882,0.199616547057,-1.98960550595,0.0100239472525
8.22,0.497907526878,1.32329118983,0.0659559931985,-0.137252689647,-0.16324063948,1.63668253269,-0.657029204903,0.555422215273,0.280085363572,1.03026078543,-2.87273055935,0.196178642401,-1.99109635045,0.0100214818229
8.24,0.497907526878,1.32329118983,0.0659559931985,-0.137252689647,-0.16324063948,1.63668253269,-0.657029204903,0.555422215273,0.280085363572,1.03026078543,-2.87273055935,0.196178642401,-1.99109635045,0.0100214818229
8.26,0.496982511163,1.32330863354,0.0659559931985,-0.137252689647,-0.163258099829,1.63767735651,-0.657029204903,0.555540314933,0.279494755812,1.03019726639,-2.87337739918,0.195395350146,-1.99224055188,0.0100212146562
8.28,0.496982511163,1.32330863354,0.0659559931985,-0.137252689647,-0.163258099829,1.63767735651,-0.657029204903,0.555540314933,0.279494755812,1.03019726639,-2.87337739918,0.195395350146,-1.99224055188,0.0100212146562
8.3,0.496057495448,1.32330863354,0.065973445226,-0.13723523762,-0.16332790794,1.63771224392,-0.657029204903,0.555796876559,0.278969459388,1.03019036801,-2.8733723808,0.195325192703,-1.99318842766,0.0100199507166
8.32,0.496057495448,1.32330863354,0.065973445226,-0.13723523762,-0.16332790794,1.63771224392,-0.657029204903,0.555796876559,0.278969459388,1.03019036801,-2.8733723808,0.195325192703,-1.99318842766,0.0100199507166
8.34,0.493893277588,1.32327374613,0.065938541171,-0.13723523762,-0.16332790794,1.63816604657,-0.657046648608,0.556335431623,0.277727836463,1.03018861151,-2.87361604176,0.194981267739,-1.99543157441,0.0100197015215
8.36,0.493893277588,1.32327374613,0.065938541171,-0.13723523762,-0.16332790794,1.63816604657,-0.657046648608,0.556335431623,0.277727836463,1.03018861151,-2.87361604176,0.194981267739,-1.99543157441,0.0100197015215
8.38,0.491170561558,1.32322141501,0.0659559931985,-0.137252689647,-0.16332790794,1.64104585582,-0.657029204903,0.556674399348,0.276000865353,1.03007441981,-2.87546723949,0.192852328835,-1.99877587435,0.0100198141406
8.4,0.491170561558,1.32322141501,0.0659559931985,-0.137252689647,-0.16332790794,1.64104585582,-0.657029204903,0.556674399348,0.276000865353,1.03007441981,-2.87546723949,0.192852328835,-1.99877587435,0.0100198141406
8.42,0.487365736598,1.3232039713,0.0659908972536,-0.137252689647,-0.163275543535,1.64757339681,-0.657029204903,0.556772770889,0.273413887735,1.02974389816,-2.87976964206,0.187926963578,-2.00393643395,0.0100172164198
8.44,0.487365736598,1.3232039713,0.0659908972536,-0.137252689647,-0.163275543535,1.64757339681,-0.657029204903,0.556772770889,0.273413887735,1.02974389816,-2.87976964206,0.187926963578,-2.00393643395,0.0100172164198
8.46,0.483421295418,1.32322141501,0.065973445226,-0.137217785592,-0.163293003884,1.65553212057,-0.657011761198,0.556694285353,0.270631260931,1.02931711921,-2.88494072787,0.181778053624,-2.00955096887,0.0100110802005
8.48,0.483421295418,1.32322141501,0.065973445226,-0.137217785592,-0.163293003884,1.65553212057,-0.657011761198,0.556694285353,0.270631260931,1.02931711921,-2.88494072787,0.181778053624,-2.00955096887,0.0100110802005
8.5,0.479005607884,1.32316895074,0.0660083534423,-0.137252689647,-0.163223195774,1.66193742246,-0.657029204903,0.556944985658,0.267721890659,1.02904063007,-2.88910776517,0.176995224751,-2.01521974786,0.0100100117736
8.52,0.479005607884,1.32316895074,0.0660083534423,-0.137252689647,-0.163223195774,1.66193742246,-0.657029204903,0.556944985658,0.267721890659,1.02904063007,-2.88910776517,0.176995224751,-2.01521974786,0.0100100117736
8.54,0.474363052313,1.32322141501,0.0660432574973,-0.137217785592,-0.16315337102,1.66499180192,-0.657029204903,0.557727873988,0.264929798283,1.02884560038,-2.89121264978,0.174642715163,-2.0204596165,0.0100058835467
8.56,0.474363052313,1.32322141501,0.0660432574973,-0.137217785592,-0.16315337102,1.66499180192,-0.657029204903,0.557727873988,0.264929798283,1.02884560038,-2.89121264978,0.174642715163,-2.0204596165,0.0100058835467
8.58,0.469982252189,1.32315150703,0.066060713686,-0.137252689647,-0.162734505714,1.66544547141,-0.657029204903,0.558786898975,0.262517517131,1.02887152246,-2.89176781538,0.174625783679,-2.02481711599,0.0100079166881
8.6,0.469982252189,1.32315150703,0.066060713686,-0.137252689647,-0.162734505714,1.66544547141,-0.657029204903,0.558786898975,0.262517517131,1.02887152246,-2.89176781538,0.174625783679,-2.02481711599,0.0100079166881
8.62,0.466561421768,1.32322141501,0.0660956177411,-0.137217785592,-0.161565128324,1.6655677105,-0.657029204903,0.559580776764,0.260780418492,1.0287934031,-2.89280960777,0.175130218421,-2.02798027965,0.0100055471281
8.64,0.466561421768,1.32322141501,0.0660781657135,-0.137270141675,-0.15772539931,1.66568981644,-0.657046648608,0.559580776764,0.260780418492,1.0287934031,-2.89280960777,0.175130218421,-2.02798027965,0.0100055471281
8.66,0.464135415173,1.3231865276,0.0660781657135,-0.137270141675,-0.15772539931,1.66568981644,-0.657046648608,0.559932514712,0.260002487704,1.02877188121,-2.89568110695,0.177266600327,-2.02947048425,0.0100091493138
8.68,0.462878769324,1.32322141501,0.066060713686,-0.137270141675,-0.153955495049,1.66680687936,-0.657046648608,0.559932514712,0.260002487704,1.02877188121,-2.89568110695,0.177266600327,-2.02947048425,0.0100091493138
8.7,0.462878769324,1.32322141501,0.066060713686,-0.137270141675,-0.153955495049,1.66680687936,-0.657046648608,0.559836558846,0.259799216433,1.02864522755,-2.89921865479,0.178507595473,-2.03003282595,0.0100085893799
8.72,0.462442443668,1.32325630242,0.0660781657135,-0.137252689647,-0.151285143424,1.66911078002,-0.657046648608,0.559836558846,0.259799216433,1.02864522755,-2.89921865479,0.178507595473,-2.03003282595,0.0100085893799
8.74,0.462442443668,1.32325630242,0.0660781657135,-0.137252689647,-0.151285143424,1.66911078002,-0.657046648608,0.559425416461,0.25980691741,1.02847168745,-2.90273910119,0.178219111832,-2.03026485278,0.0100060103751
8.76,0.462424999963,1.32323885872,0.0660432574973,-0.137252689647,-0.14948744311,1.6721301389,-0.657046648608,0.558862444891,0.259857805085,1.02831581428,-2.90598499443,0.176908625902,-2.03041716263,0.0100040003742
8.78,0.462424999963,1.32323885872,0.0660432574973,-0.137252689647,-0.14948744311,1.6721301389,-0.657046648608,0.558862444891,0.259857805085,1.02831581428,-2.90598499443,0.176908625902,-2.03041716263,0.0100040003742
8.8,0.462407522969,1.32323885872,0.0660083534423,-0.137182881537,-0.149190750319,1.67583020177,-0.657046648608,0.55829902206,0.259629720928,1.02811523823,-2.90860095222,0.1741505605,-2.03105933661,0.00999645831534
8.82,0.462407522969,1.32323885872,0.0660083534423,-0.137182881537,-0.149190750319,1.67583020177,-0.657046648608,0.55829902206,0.259629720928,1.02811523823,-2.90860095222,0.1741505605,-2.03105933661,0.00999645831534
8.84,0.462442443668,1.3231865276,0.0660432574973,-0.137200333565,-0.149103481859,1.67879736269,-0.657064092313,0.557843879566,0.259457963084,1.02801285862,-2.91055461943,0.171985772235,-2.03152401138,0.0099954277115
8.86,0.462442443668,1.3231865276,0.0660432574973,-0.137200333565,-0.149103481859,1.67879736269,-0.657064092313,0.557843879566,0.259457963084,1.02801285862,-2.91055461943,0.171985772235,-2.03152401138,0.0099954277115
8.88,0.462529695484,1.32322141501,0.066060713686,-0.137130517132,-0.14835298642,1.68068221496,-0.657046648608,0.557486961148,0.259491694285,1.02787195318,-2.91240349682,0.170887868182,-2.03161770573,0.00998912589033
8.9,0.462529695484,1.32322141501,0.066060713686,-0.137130517132,-0.14835298642,1.68068221496,-0.657046648608,0.557486961148,0.259491694285,1.02787195318,-2.91240349682,0.170887868182,-2.03161770573,0.00998912589033
8.92,0.462616980588,1.3231865276,0.0660432574973,-0.136065868552,-0.145019407815,1.68083934146,-0.657064092313,0.557153490129,0.260034387732,1.02750221961,-2.91558585691,0.171811922754,-2.03075525922,0.00991256598975
8.94,0.462616980588,1.3231865276,0.0660432574973,-0.136065868552,-0.145019407815,1.68083934146,-0.657064092313,0.557153490129,0.260034387732,1.02750221961,-2.91558585691,0.171811922754,-2.03075525922,0.00991256598975
8.96,0.462529695484,1.32315150703,0.0660083534423,-0.135018672,-0.1354200936,1.68082189775,-0.657081536018,0.556454444882,0.261451378832,1.02707992809,-2.92329856588,0.176438853622,-2.02851631528,0.00983739756872
8.98,0.462529695484,1.32315150703,0.0660083534423,-0.135018672,-0.1354200936,1.68082189775,-0.657081536018,0.556454444882,0.261451378832,1.02707992809,-2.92329856588,0.176438853622,-2.02851631528,0.00983739756872
9.0,0.462512251778,1.32315150703,0.0660258054698,-0.134372897047,-0.124127816202,1.68082189775,-0.657081536018,0.555628419291,0.263172003323,1.02676361532,-2.93210441088,0.182366827209,-2.02584962229,0.00979110806087
9.02,0.462512251778,1.32315150703,0.0660258054698,-0.134372897047,-0.124127816202,1.68082189775,-0.657081536018,0.555628419291,0.263172003323,1.02676361532,-2.93210441088,0.182366827209,-2.02584962229,0.00979110806087
9.04,0.462564616183,1.32311661962,0.0660083534423,-0.13395402342,-0.114964835965,1.68083934146,-0.657081536018,0.554938878201,0.264598448536,1.02657653583,-2.939148002,0.187274535927,-2.02365827772,0.00976097193236
9.06,0.462564616183,1.32311661962,0.0660083534423,-0.13395402342,-0.114964835965,1.68083934146,-0.657081536018,0.554938878201,0.264598448536,1.02657653583,-2.939148002,0.187274535927,-2.02365827772,0.00976097193236
9.08,0.462564616183,1.32309917592,0.0660083534423,-0.133500237415,-0.10875146476,1.68085678516,-0.657081536018,0.554467020559,0.265545136844,1.02639809179,-2.94404240209,0.190473007862,-2.02223780465,0.00972836007789
9.1,0.462564616183,1.32309917592,0.0660083534423,-0.133500237415,-0.10875146476,1.68085678516,-0.657081536018,0.554467020559,0.265545136844,1.02639809179,-2.94404240209,0.190473007862,-2.02223780465,0.00972836007789
9.12,0.462564616183,1.32295962627,0.0659908972536,-0.13205161094,-0.103690010595,1.68085678516,-0.657064092313,0.554022006502,0.26630767561,1.02598653626,-2.94858806869,0.192324496688,-2.02115246011,0.00962397278366
9.14,0.462564616183,1.32295962627,0.0659908972536,-0.13205161094,-0.103690010595,1.68085678516,-0.657064092313,0.554022006502,0.26630767561,1.02598653626,-2.94858806869,0.192324496688,-2.02115246011,0.00962397278366
9.16,0.462599503594,1.32280249977,0.065973445226,-0.129677960427,-0.101159283512,1.68085678516,-0.657081536018,0.553696279659,0.266696764355,1.02530343877,-2.95179974691,0.191993321739,-2.02063155214,0.00945302228496
9.18,0.462599503594,1.32280249977,0.065973445226,-0.129677960427,-0.101159283512,1.68085678516,-0.657081536018,0.553696279659,0.266696764355,1.02530343877,-2.95179974691,0.191993321739,-2.02063155214,0.00945302228496
9.2,0.462686788698,1.32177278854,0.0659908972536,-0.125855691762,-0.0992917834096,1.68087422887,-0.657064092313,0.553300475049,0.266998909652,1.02469216652,-2.95490297173,0.190828746946,-2.02021767352,0.009175465776
9.22,0.462686788698,1.32177278854,0.0659908972536,-0.125855691762,-0.0992917834096,1.68087422887,-0.657064092313,0.553300475049,0.266998909652,1.02469216652,-2.95490297173,0.190828746946,-2.02021767352,0.009175465776
9.24,0.463175478758,1.3190675495,0.0659559931985,-0.121300379685,-0.0990299780297,1.68089167257,-0.657064092313,0.552842544985,0.267250710404,1.024881966,-2.95616901027,0.18944468814,-2.01959088262,0.00884074171334
