GitHatake/ROS1EARs/catkin_ws/src/torobo_robot/torobo_EARs2021/scripts/arm/2021_kaiya_csv/test_manipulability_20220119_1.csv
time,joint_1,joint_2,joint_3,joint_4,joint_5,joint_6,joint_7,x,y,z,roll,pitch,yaw,manipulability
0.0,0.640553292503,0.725341350813,0.0630063841661,0.892247248967,-0.0911236436422,1.41614270071,-0.657413166153,0.410291119833,0.314993565972,1.04696741821,-3.03597397478,0.0558227120352,-1.78664646115,0.0463587929725
0.02,0.640553292503,0.725323907108,0.0629889321386,0.892247248967,-0.0911236436422,1.41614270071,-0.657413166153,0.410291119833,0.314993565972,1.04696741821,-3.03597397478,0.0558227120352,-1.78664646115,0.0463587929725
0.04,0.640553292503,0.725323907108,0.0629889321386,0.892247248967,-0.0911236436422,1.41614270071,-0.657413166153,0.410294355877,0.314988160006,1.04697635526,-3.03595376831,0.055828305682,-1.78665839268,0.0463583204226
0.06,0.640553292503,0.725341350813,0.0629889321386,0.892247248967,-0.0911410956697,1.41612525701,-0.657395722448,0.410294355877,0.314988160006,1.04697635526,-3.03595376831,0.055828305682,-1.78665839268,0.0463583204226
0.08,0.640553292503,0.725341350813,0.0629889321386,0.892247248967,-0.0911410956697,1.41612525701,-0.657395722448,0.41029907072,0.314988235908,1.0469677993,-3.03594170595,0.0558199356677,-1.78667338175,0.0463587848004
0.1,0.640553292503,0.725323907108,0.0630063841661,0.892247248967,-0.0911236436422,1.41614270071,-0.657413166153,0.41029907072,0.314988235908,1.0469677993,-3.03594170595,0.0558199356677,-1.78667338175,0.0463587848004
0.12,0.640553292503,0.725323907108,0.0630063841661,0.892247248967,-0.0911236436422,1.41614270071,-0.657413166153,0.410290532824,0.314993128413,1.04697644026,-3.03596252855,0.055835890596,-1.78664582244,0.0463583070688
0.14,0.640553292503,0.725323907108,0.0630063841661,0.892247248967,-0.0911236436422,1.41614270071,-0.657413166153,0.410290532824,0.314993128413,1.04697644026,-3.03596252855,0.055835890596,-1.78664582244,0.0463583070688
0.16,0.640553292503,0.725323907108,0.0630063841661,0.892247248967,-0.0911236436422,1.41614270071,-0.657413166153,0.410290532824,0.314993128413,1.04697644026,-3.03596252855,0.055835890596,-1.78664582244,0.0463583070688
0.18,0.640553292503,0.725323907108,0.0630063841661,0.892247248967,-0.0911236436422,1.41612525701,-0.657413166153,0.410292792679,0.31499502137,1.04697676204,-3.03595178781,0.0558496216385,-1.78664436427,0.0463582870173
0.2,0.640553292503,0.725323907108,0.0630063841661,0.892247248967,-0.0911236436422,1.41612525701,-0.657413166153,0.410292792679,0.31499502137,1.04697676204,-3.03595178781,0.0558496216385,-1.78664436427,0.0463582870173
0.22,0.640553292503,0.725323907108,0.0630063841661,0.892247248967,-0.0911236436422,1.41612525701,-0.657413166153,0.410292792679,0.31499502137,1.04697676204,-3.03595178781,0.0558496216385,-1.78664436427,0.0463582870173
0.24,0.640553292503,0.725323907108,0.0630063841661,0.892247248967,-0.0911236436422,1.41612525701,-0.657413166153,0.410292792679,0.31499502137,1.04697676204,-3.03595178781,0.0558496216385,-1.78664436427,0.0463582870173
0.26,0.640553292503,0.725341350813,0.0630063841661,0.892247248967,-0.0911236436422,1.41612525701,-0.657413166153,0.410293379693,0.314995458932,1.04696773994,-3.03596323408,0.0558364430943,-1.78664500313,0.0463587729226
0.28,0.640553292503,0.725341350813,0.0630063841661,0.892247248967,-0.0911236436422,1.41612525701,-0.657413166153,0.410293379693,0.314995458932,1.04696773994,-3.03596323408,0.0558364430943,-1.78664500313,0.0463587729226
0.3,0.640553292503,0.725323907108,0.0629889321386,0.892247248967,-0.0911410956697,1.41612525701,-0.657413166153,0.410298483706,0.314987798345,1.0469768214,-3.03592929057,0.0558312748119,-1.78665536961,0.0463582988954
0.32,0.640553292503,0.725323907108,0.0629889321386,0.892247248967,-0.0911410956697,1.41612525701,-0.657413166153,0.410298483706,0.314987798345,1.0469768214,-3.03592929057,0.0558312748119,-1.78665536961,0.0463582988954
0.34,0.640553292503,0.725341350813,0.0630063841661,0.892247248967,-0.0911236436422,1.41614270071,-0.657413166153,0.410291119833,0.314993565972,1.04696741821,-3.03597397478,0.0558227120352,-1.78664646115,0.0463587929725
0.36,0.640553292503,0.725341350813,0.0630063841661,0.892247248967,-0.0911236436422,1.41614270071,-0.657413166153,0.410291119833,0.314993565972,1.04696741821,-3.03597397478,0.0558227120352,-1.78664646115,0.0463587929725
0.38,0.640553292503,0.725323907108,0.0629889321386,0.892247248967,-0.0911410956697,1.41614270071,-0.657413166153,0.410296223834,0.314985905409,1.04697649962,-3.0359400313,0.0558175438022,-1.78665682809,0.0463583189472
0.4,0.640553292503,0.725323907108,0.0629889321386,0.892247248967,-0.0911410956697,1.41614270071,-0.657413166153,0.410296223834,0.314985905409,1.04697649962,-3.0359400313,0.0558175438022,-1.78665682809,0.0463583189472
0.42,0.640553292503,0.725341350813,0.0630063841661,0.892247248967,-0.0911236436422,1.41614270071,-0.657395722448,0.410291119833,0.314993565972,1.04696741821,-3.03597494413,0.0558245509844,-1.78666383471,0.0463587929725
0.44,0.640553292503,0.725341350813,0.0630063841661,0.892247248967,-0.0911236436422,1.41614270071,-0.657395722448,0.410291119833,0.314993565972,1.04696741821,-3.03597494413,0.0558245509844,-1.78666383471,0.0463587929725
0.46,0.640553292503,0.725341350813,0.0630063841661,0.892247248967,-0.0911236436422,1.41612525701,-0.657413166153,0.410293379693,0.314995458932,1.04696773994,-3.03596323408,0.0558364430943,-1.78664500313,0.0463587729226
0.48,0.640553292503,0.725341350813,0.0630063841661,0.892247248967,-0.0911236436422,1.41612525701,-0.657413166153,0.410293379693,0.314995458932,1.04696773994,-3.03596323408,0.0558364430943,-1.78664500313,0.0463587729226
0.5,0.640553292503,0.725341350813,0.0630063841661,0.892247248967,-0.0911236436422,1.41614270071,-0.657413166153,0.410291119833,0.314993565972,1.04696741821,-3.03597397478,0.0558227120352,-1.78664646115,0.0463587929725
0.52,0.640553292503,0.725341350813,0.0630063841661,0.892247248967,-0.0911236436422,1.41614270071,-0.657413166153,0.410291119833,0.314993565972,1.04696741821,-3.03597397478,0.0558227120352,-1.78664646115,0.0463587929725
0.54,0.640553292503,0.725341350813,0.0630063841661,0.892247248967,-0.0911410956697,1.41614270071,-0.657413166153,0.410292987823,0.314991311399,1.04696756254,-3.03596023776,0.0558119501869,-1.78664489634,0.046358791497
0.56,0.640553292503,0.725341350813,0.0630063841661,0.892247248967,-0.0911236436422,1.41614270071,-0.657413166153,0.410292987823,0.314991311399,1.04696756254,-3.03596023776,0.0558119501869,-1.78664489634,0.046358791497
0.58,0.640553292503,0.725341350813,0.0630063841661,0.892247248967,-0.0911236436422,1.41614270071,-0.657413166153,0.410291119833,0.314993565972,1.04696741821,-3.03597397478,0.0558227120352,-1.78664646115,0.0463587929725
0.6,0.640553292503,0.725358861097,0.0629889321386,0.892247248967,-0.0911410956697,1.41614270071,-0.657413166153,0.410291119833,0.314993565972,1.04696741821,-3.03597397478,0.0558227120352,-1.78664646115,0.0463587929725
0.62,0.640553292503,0.725358861097,0.0629889321386,0.892247248967,-0.0911410956697,1.41614270071,-0.657413166153,0.410297399967,0.314986782104,1.04695842108,-3.03596296713,0.0557911361213,-1.78665810735,0.046359292598
0.64,0.640553292503,0.725341350813,0.0629889321386,0.892247248967,-0.0911236436422,1.41612525701,-0.657395722448,0.410297399967,0.314986782104,1.04695842108,-3.03596296713,0.0557911361213,-1.78665810735,0.046359292598
0.66,0.640553292503,0.725341350813,0.0629889321386,0.892247248967,-0.0911236436422,1.41612525701,-0.657395722448,0.410297202767,0.314990490498,1.04696765494,-3.03595544314,0.0558306973114,-1.78667494668,0.046358786276
0.68,0.640553292503,0.725341350813,0.0629889321386,0.892247248967,-0.0911236436422,1.41612525701,-0.657395722448,0.410297202767,0.314990490498,1.04696765494,-3.03595544314,0.0558306973114,-1.78667494668,0.046358786276
0.7,0.640553292503,0.725341350813,0.0629889321386,0.892247248967,-0.0911236436422,1.41614270071,-0.657413166153,0.410294942885,0.314988597564,1.04696733321,-3.03596521438,0.0558151269775,-1.78665903129,0.0463588063259
0.72,0.640553292503,0.725341350813,0.0629889321386,0.892247248967,-0.0911236436422,1.41614270071,-0.657413166153,0.410294942885,0.314988597564,1.04696733321,-3.03596521438,0.0558151269775,-1.78665903129,0.0463588063259
0.74,0.640553292503,0.725341350813,0.0630063841661,0.892247248967,-0.0911236436422,1.41614270071,-0.657413166153,0.410291119833,0.314993565972,1.04696741821,-3.03597397478,0.0558227120352,-1.78664646115,0.0463587929725
0.76,0.640553292503,0.725341350813,0.0630063841661,0.892247248967,-0.0911236436422,1.41614270071,-0.657413166153,0.410291119833,0.314993565972,1.04696741821,-3.03597397478,0.0558227120352,-1.78664646115,0.0463587929725
0.78,0.640535848798,0.725341350813,0.0629889321386,0.892247248967,-0.0911236436422,1.41614270071,-0.657413166153,0.41030043739,0.314981440452,1.04696733321,-3.03596521438,0.0558151269775,-1.78667647499,0.0463588063259
0.8,0.640535848798,0.725341350813,0.0629889321386,0.892247248967,-0.0911236436422,1.41614270071,-0.657413166153,0.41030043739,0.314981440452,1.04696733321,-3.03596521438,0.0558151269775,-1.78667647499,0.0463588063259
0.82,0.640553292503,0.725341350813,0.0629889321386,0.892247248967,-0.0911236436422,1.41614270071,-0.657413166153,0.410294942885,0.314988597564,1.04696733321,-3.03596521438,0.0558151269775,-1.78665903129,0.0463588063259
0.84,0.640553292503,0.725341350813,0.0629889321386,0.892247248967,-0.0911236436422,1.41614270071,-0.657413166153,0.410294942885,0.314988597564,1.04696733321,-3.03596521438,0.0558151269775,-1.78665903129,0.0463588063259
0.86,0.640553292503,0.725341350813,0.0629889321386,0.892247248967,-0.0911236436422,1.41612525701,-0.657413166153,0.410297202767,0.314990490498,1.04696765494,-3.03595447368,0.0558288580239,-1.78665757315,0.046358786276
0.88,0.640553292503,0.725341350813,0.0629889321386,0.892247248967,-0.0911236436422,1.41612525701,-0.657413166153,0.410297202767,0.314990490498,1.04696765494,-3.03595447368,0.0558288580239,-1.78665757315,0.046358786276
0.9,0.640553292503,0.725341350813,0.0629889321386,0.892247248967,-0.0911410956697,1.41612525701,-0.657413166153,0.41029907072,0.314988235908,1.0469677993,-3.03594073668,0.055818096142,-1.78665600825,0.0463587848004
0.92,0.640553292503,0.725341350813,0.0629889321386,0.892247248967,-0.0911410956697,1.41612525701,-0.657413166153,0.41029907072,0.314988235908,1.0469677993,-3.03594073668,0.055818096142,-1.78665600825,0.0463587848004
0.94,0.640570736208,0.725376304802,0.0630063841661,0.892247248967,-0.0911236436422,1.41612525701,-0.657413166153,0.410289060815,0.315003492454,1.04694966127,-3.03598617024,0.0558100356843,-1.78662883913,0.0463597465571
0.96,0.640570736208,0.725376304802,0.0630063841661,0.892247248967,-0.0911236436422,1.41612525701,-0.657413166153,0.410289060815,0.315003492454,1.04694966127,-3.03598617024,0.0558100356843,-1.78662883913,0.0463597465571
0.98,0.640553292503,0.725411192213,0.0630063841661,0.892247248967,-0.0911410956697,1.41612525701,-0.657413166153,0.410297596716,0.31499495535,1.04693176131,-3.03599532569,0.0557729167482,-1.78664599401,0.0463607168202
1.0,0.640553292503,0.725411192213,0.0630063841661,0.892247248967,-0.0911410956697,1.41612525701,-0.657413166153,0.410297596716,0.31499495535,1.04693176131,-3.03599532569,0.0557729167482,-1.78664599401,0.0463607168202
1.02,0.640535848798,0.725393748508,0.0629889321386,0.892247248967,-0.0911410956697,1.41612525701,-0.657395722448,0.410306327768,0.314982392487,1.04694069849,-3.03597608717,0.0557803487174,-1.78669274294,0.0463602443083
1.04,0.640518405093,0.725393748508,0.062971480111,0.892194851272,-0.0911759997247,1.41609036959,-0.657395722448,0.410306327768,0.314982392487,1.04694069849,-3.03597608717,0.0557803487174,-1.78669274294,0.0463602443083
1.06,0.640518405093,0.725393748508,0.062971480111,0.892194851272,-0.0911759997247,1.41609036959,-0.657395722448,0.410331713156,0.314975059486,1.04695820363,-3.03588592523,0.0558198276737,-1.78671708745,0.0463582050644
1.08,0.640518405093,0.725463589907,0.0629889321386,0.892264692672,-0.0911934517522,1.41612525701,-0.657395722448,0.410331713156,0.314975059486,1.04695820363,-3.03588592523,0.0558198276737,-1.78671708745,0.0463582050644
1.1,0.640518405093,0.725463589907,0.0629889321386,0.892264692672,-0.0911934517522,1.41612525701,-0.657395722448,0.410317172059,0.314968384161,1.04689946359,-3.03599150434,0.055681607142,-1.78670791655,0.0463628540711
1.12,0.640518405093,0.725568252138,0.0629889321386,0.892247248967,-0.0911934517522,1.41612525701,-0.657395722448,0.410317172059,0.314968384161,1.04689946359,-3.03599150434,0.055681607142,-1.78670791655,0.0463628540711
1.14,0.640518405093,0.725568252138,0.0629889321386,0.892247248967,-0.0911934517522,1.41612525701,-0.657395722448,0.410323287672,0.314972840385,1.04685087524,-3.03604937735,0.0556162247497,-1.78671186403,0.0463650999097
1.16,0.640518405093,0.726056942198,0.062971480111,0.892212294977,-0.0911759997247,1.41612525701,-0.657395722448,0.410346808784,0.314985996286,1.04660898709,-3.03635335025,0.055277615467,-1.78674402974,0.0463773790702
1.18,0.640518405093,0.726056942198,0.062971480111,0.892212294977,-0.0911759997247,1.41612525701,-0.657395722448,0.410346808784,0.314985996286,1.04660898709,-3.03635335025,0.055277615467,-1.78674402974,0.0463773790702
1.2,0.640466007398,0.727523012378,0.0629016678398,0.892020347642,-0.0912807202122,1.41602059477,-0.657413166153,0.410480559563,0.314998847945,1.04591399307,-3.03701343421,0.0543061780589,-1.78686535915,0.0464107075404
1.22,0.640466007398,0.727523012378,0.0629016678398,0.892020347642,-0.0912807202122,1.41602059477,-0.657413166153,0.410480559563,0.314998847945,1.04591399307,-3.03701343421,0.0543061780589,-1.78686535915,0.0464107075404
1.24,0.640361278588,0.730717008052,0.062971480111,0.892247248967,-0.0911410956697,1.41614270071,-0.657413166153,0.410536019643,0.315032913595,1.04418645616,-3.03946923941,0.0517350978581,-1.78705156683,0.0465080697243
1.26,0.640361278588,0.730717008052,0.062971480111,0.892247248967,-0.0911410956697,1.41614270071,-0.657413166153,0.410536019643,0.315032913595,1.04418645616,-3.03946923941,0.0517350978581,-1.78705156683,0.0465080697243
1.28,0.640553292503,0.736092598713,0.0630238403548,0.892491593997,-0.0911236436422,1.41612525701,-0.657413166153,0.410590239049,0.315225988643,1.04132763672,-3.04317509155,0.0475285785186,-1.78699429954,0.046665648068
1.3,0.640553292503,0.736092598713,0.0630238403548,0.892491593997,-0.0911236436422,1.41612525701,-0.657413166153,0.410590239049,0.315225988643,1.04132763672,-3.04317509155,0.0475285785186,-1.78699429954,0.046665648068
1.32,0.640553292503,0.743213558573,0.0631285608423,0.892788270142,-0.0911061832923,1.41616014442,-0.657413166153,0.410712181131,0.315368767087,1.03754755499,-3.04811508506,0.0419434785971,-1.78712800445,0.0468718582633
1.34,0.640553292503,0.743213558573,0.0631285608423,0.892788270142,-0.0911061832923,1.41616014442,-0.657413166153,0.410712181131,0.315368767087,1.03754755499,-3.04811508506,0.0419434785971,-1.78712800445,0.0468718582633
1.36,0.640518405093,0.750735923388,0.0631111046536,0.892805713847,-0.0911236436422,1.41612525701,-0.657395722448,0.410915251798,0.315486646812,1.03364688678,-3.05301119601,0.0362543699724,-1.78738083601,0.0470764630085
1.38,0.640518405093,0.750735923388,0.0631111046536,0.892805713847,-0.0911236436422,1.41612525701,-0.657395722448,0.410915251798,0.315486646812,1.03364688678,-3.05301119601,0.0362543699724,-1.78738083601,0.0470764630085
1.4,0.640518405093,0.759253112028,0.0630762005985,0.892753382732,-0.0911585476972,1.4161078133,-0.657395722448,0.41111772449,0.315614531321,1.0292505783,-3.05850058432,0.0298329196041,-1.78758639681,0.0473030098779
1.42,0.640518405093,0.759253112028,0.0630762005985,0.892753382732,-0.0911585476972,1.4161078133,-0.657395722448,0.41111772449,0.315614531321,1.0292505783,-3.05850058432,0.0298329196041,-1.78758639681,0.0473030098779
1.44,0.640483451103,0.766077395742,0.0629365718948,0.892753382732,-0.0912807202122,1.41605548218,-0.657395722448,0.411302251563,0.315642008034,1.02571426162,-3.06276708816,0.0245758449649,-1.78782568163,0.0474843208576
1.46,0.640483451103,0.766077395742,0.0629365718948,0.892753382732,-0.0912807202122,1.41605548218,-0.657395722448,0.411302251563,0.315642008034,1.02571426162,-3.06276708816,0.0245758449649,-1.78782568163,0.0474843208576
1.48,0.640535848798,0.771295926477,0.0627969473523,0.892770826437,-0.0912458161572,1.41612525701,-0.657378278743,0.411381652648,0.315679077213,1.02300155243,-3.0661900261,0.0205196679129,-1.78797386388,0.0476226501748
1.5,0.640535848798,0.771295926477,0.0627969473523,0.892770826437,-0.0912458161572,1.41612525701,-0.657378278743,0.411381652648,0.315679077213,1.02300155243,-3.0661900261,0.0205196679129,-1.78797386388,0.0476226501748
1.52,0.640588179913,0.773460144337,0.062849307596,0.892509037702,-0.0911585476972,1.41612525701,-0.657395722448,0.411416784201,0.315779280468,1.02195976776,-3.06753977079,0.0191642296121,-1.78791300404,0.0476693295515
1.54,0.640588179913,0.773460144337,0.062849307596,0.892509037702,-0.0911585476972,1.41612525701,-0.657395722448,0.411416784201,0.315779280468,1.02195976776,-3.06753977079,0.0191642296121,-1.78791300404,0.0476693295515
1.56,0.640553292503,0.773739376777,0.0628318514073,0.892404308892,-0.0911934517522,1.41612525701,-0.657395722448,0.411456040057,0.315770251787,1.02184747474,-3.06762104197,0.0190057731745,-1.78796324349,0.0476726345081
1.58,0.640553292503,0.773739376777,0.0628318514073,0.892404308892,-0.0911934517522,1.41612525701,-0.657395722448,0.411456040057,0.315770251787,1.02184747474,-3.06762104197,0.0190057731745,-1.78796324349,0.0476726345081
1.6,0.640500961387,0.773023785392,0.0627794911636,0.891549101287,-0.0912283641296,1.41612525701,-0.657395722448,0.411615689618,0.315819649318,1.02248277034,-3.06656842416,0.0201723805269,-1.78806665985,0.0476211436705
1.62,0.640500961387,0.773023785392,0.0627794911636,0.891549101287,-0.0912283641296,1.41612525701,-0.657395722448,0.411615689618,0.315819649318,1.02248277034,-3.06656842416,0.0201723805269,-1.78806665985,0.0476211436705
1.64,0.640466007398,0.771121356268,0.0625351461336,0.888791464557,-0.0914028927272,1.41612525701,-0.657395722448,0.412112981431,0.316005564734,1.02432367628,-3.06335105685,0.0235557232387,-1.78831104851,0.0474653199441
1.66,0.640466007398,0.771121356268,0.0625351461336,0.888791464557,-0.0914028927272,1.41612525701,-0.657395722448,0.412112981431,0.316005564734,1.02432367628,-3.06335105685,0.0235557232387,-1.78831104851,0.0474653199441
1.68,0.640518405093,0.767491068228,0.0625875063773,0.883869609968,-0.0913505366447,1.41616014442,-0.657378278743,0.412794932768,0.316552333061,1.02773919466,-3.05802052664,0.0301929345837,-1.78831527829,0.0471790864627
1.7,0.640518405093,0.767491068228,0.0625875063773,0.883869609968,-0.0913505366447,1.41616014442,-0.657378278743,0.412794932768,0.316552333061,1.02773919466,-3.05802052664,0.0301929345837,-1.78831527829,0.0471790864627
1.72,0.640448563693,0.762028192463,0.062395521591,0.876155297817,-0.0914727091597,1.41614270071,-0.657378278743,0.413967500607,0.317222366524,1.0329978772,-3.04946485095,0.0402306444952,-1.78854626919,0.0467323215952
1.74,0.640448563693,0.762028192463,0.062395521591,0.876155297817,-0.0914727091597,1.41614270071,-0.657378278743,0.413967500607,0.317222366524,1.0329978772,-3.04946485095,0.0402306444952,-1.78854626919,0.0467323215952
1.76,0.640239106073,0.756320971668,0.0622558928873,0.864863028742,-0.0926595302547,1.41612525701,-0.657378278743,0.415771827531,0.318048040676,1.03955367778,-3.03772228859,0.0526304396831,-1.78872663091,0.0461305350405
1.78,0.640239106073,0.756320971668,0.0622558928873,0.864863028742,-0.0926595302547,1.41612525701,-0.657378278743,0.415771827531,0.318048040676,1.03955367778,-3.03772228859,0.0526304396831,-1.78872663091,0.0461305350405
1.8,0.640186774958,0.752254391262,0.0622209888323,0.852959830513,-0.0979478774222,1.41612525701,-0.657378278743,0.418004078843,0.318476453762,1.04552642569,-3.02350422351,0.0617677647014,-1.78827967566,0.0455381595341
1.82,0.640186774958,0.752254391262,0.0622209888323,0.852959830513,-0.0979478774222,1.41612525701,-0.657378278743,0.418004078843,0.318476453762,1.04552642569,-3.02350422351,0.0617677647014,-1.78827967566,0.0455381595341
1.84,0.640099489853,0.749601483342,0.0621337203723,0.841946860457,-0.108245322672,1.41617758812,-0.657360835037,0.420641875818,0.318116856437,1.05056521352,-3.0068181903,0.0659661168003,-1.78757929239,0.0450111740557
1.86,0.640099489853,0.749601483342,0.0621337203723,0.841946860457,-0.108245322672,1.41617758812,-0.657360835037,0.420641875818,0.318116856437,1.05056521352,-3.0068181903,0.0659661168003,-1.78757929239,0.0450111740557
1.88,0.640169331253,0.748833494263,0.0622035326436,0.833865964182,-0.119101266092,1.41631727092,-0.657343324753,0.422856946504,0.317517420825,1.05370995559,-2.99288138434,0.0660806018358,-1.78674138897,0.0446510483948
1.9,0.640169331253,0.748833494263,0.0622035326436,0.833865964182,-0.119101266092,1.41631727092,-0.657343324753,0.422856946504,0.317517420825,1.05370995559,-2.99288138434,0.0660806018358,-1.78674138897,0.0446510483948
1.92,0.640204218663,0.748955666778,0.062273349076,0.828821937078,-0.126414198255,1.41643937686,-0.657325881048,0.424302072004,0.31708324542,1.05537744303,-2.98419183377,0.0653439580367,-1.78626344066,0.0444403662856
1.94,0.640204218663,0.748955666778,0.062273349076,0.828821937078,-0.126414198255,1.41643937686,-0.657325881048,0.424302072004,0.31708324542,1.05537744303,-2.98419183377,0.0653439580367,-1.78626344066,0.0444403662856
1.96,0.640343834883,0.749025508177,0.0622908011035,0.826430884472,-0.12777555627,1.41649170797,-0.657343324753,0.424726750761,0.317196901365,1.05613562653,-2.98172224368,0.0662838774848,-1.78603059986,0.0443405001735
1.98,0.640343834883,0.749025508177,0.0622908011035,0.826430884472,-0.12777555627,1.41649170797,-0.657343324753,0.424726750761,0.317196901365,1.05613562653,-2.98172224368,0.0662838774848,-1.78603059986,0.0443405001735
2.0,0.640256549778,0.749147680692,0.0623082531311,0.826308711957,-0.127461394807,1.41656161595,-0.657325881048,0.424730371151,0.317213291883,1.056104334,-2.98202695657,0.0664382215764,-1.78615478266,0.0443386920752
2.02,0.640256549778,0.749147680692,0.0623082531311,0.826308711957,-0.127461394807,1.41656161595,-0.657325881048,0.424730371151,0.317213291883,1.056104334,-2.98202695657,0.0664382215764,-1.78615478266,0.0443386920752
2.04,0.640343834883,0.749933046898,0.0622908011035,0.826343599367,-0.127461394807,1.41663139077,-0.657325881048,0.424724606791,0.317258412658,1.05567487449,-2.98259896982,0.0657556115131,-1.78612249926,0.044361404699
2.06,0.640343834883,0.749933046898,0.0622908011035,0.826343599367,-0.127461394807,1.41663139077,-0.657325881048,0.424724606791,0.317258412658,1.05567487449,-2.98259896982,0.0657556115131,-1.78612249926,0.044361404699
2.08,0.640204218663,0.751538799877,0.0622908011035,0.826203983147,-0.127478846835,1.41677107357,-0.657343324753,0.42483691961,0.317243347328,1.05486564746,-2.98363897259,0.0645298213697,-1.78633032239,0.0443987610768
2.1,0.640204218663,0.751538799877,0.0622908011035,0.826203983147,-0.127478846835,1.41677107357,-0.657343324753,0.42483691961,0.317243347328,1.05486564746,-2.98363897259,0.0645298213697,-1.78633032239,0.0443987610768
2.12,0.640256549778,0.754872345193,0.0622908011035,0.826203983147,-0.127478846835,1.41678851727,-0.657343324753,0.424949014862,0.317361235852,1.05309744756,-2.98583964763,0.061999016933,-1.78641860194,0.0444880680945
2.14,0.640256549778,0.754872345193,0.0622908011035,0.826203983147,-0.127478846835,1.41678851727,-0.657343324753,0.424949014862,0.317361235852,1.05309744756,-2.98583964763,0.061999016933,-1.78641860194,0.0444880680945
2.16,0.640274060063,0.759549854752,0.0622908011035,0.826238870557,-0.127478846835,1.41677107357,-0.657343324753,0.42511653813,0.31749809859,1.0506052176,-2.98892214274,0.0584528395615,-1.78658365856,0.0446141805837
2.18,0.640274060063,0.759549854752,0.0622908011035,0.826238870557,-0.127478846835,1.41677107357,-0.657343324753,0.42511653813,0.31749809859,1.0506052176,-2.98892214274,0.0584528395615,-1.78658365856,0.0446141805837
2.2,0.640291503768,0.764174966617,0.062273349076,0.826186539442,-0.127496298862,1.416736053,-0.657343324753,0.42529311359,0.317629892549,1.04816861094,-2.99188112823,0.0550090572363,-1.7867456272,0.0447344296979
2.22,0.640291503768,0.764174966617,0.062273349076,0.826186539442,-0.127496298862,1.416736053,-0.657343324753,0.42529311359,0.317629892549,1.04816861094,-2.99188112823,0.0550090572363,-1.7867456272,0.0447344296979
2.24,0.640116933558,0.767717969553,0.0621686285885,0.826081810632,-0.127635931727,1.4167186093,-0.657343324753,0.425522793437,0.31760957312,1.0463237179,-2.99396546994,0.0522940883904,-1.7871076565,0.0448233393022
2.26,0.640116933558,0.767717969553,0.0621686285885,0.826081810632,-0.127635931727,1.4167186093,-0.657343324753,0.425522793437,0.31760957312,1.0463237179,-2.99396546994,0.0522940883904,-1.7871076565,0.0448233393022
2.28,0.640082046148,0.769568000983,0.0621337203723,0.825750180497,-0.12768828781,1.41668372189,-0.657343324753,0.425659599452,0.317659958575,1.04544950563,-2.99489212975,0.0511350734963,-1.78722572252,0.0448577297952
2.3,0.640082046148,0.769568000983,0.0621337203723,0.825750180497,-0.12768828781,1.41668372189,-0.657343324753,0.425659599452,0.317659958575,1.04544950563,-2.99489212975,0.0511350734963,-1.78722572252,0.0448577297952
2.32,0.640116933558,0.769742571192,0.062151176561,0.825593120572,-0.127810460325,1.41668372189,-0.657343324753,0.4256860516,0.317683782714,1.04540906079,-2.99482233883,0.0510584467851,-1.78717864591,0.0448555742497
2.34,0.640099489853,0.769829856297,0.0621337203723,0.825610564277,-0.127810460325,1.41668372189,-0.657360835037,0.4256860516,0.317683782714,1.04540906079,-2.99482233883,0.0510584467851,-1.78717864591,0.0448555742497
2.36,0.640099489853,0.769829856297,0.0621337203723,0.825610564277,-0.127810460325,1.41668372189,-0.657360835037,0.425695600782,0.31767178541,1.04535707913,-2.99488034841,0.0509683154258,-1.78719352866,0.0448586180489
2.38,0.639785370003,0.769969472517,0.0619940958298,0.825593120572,-0.128089717732,1.41661394707,-0.657360835037,0.425695600782,0.31767178541,1.04535707913,-2.99488034841,0.0509683154258,-1.78719352866,0.0448586180489
2.4,0.639785370003,0.769969472517,0.0619940958298,0.825593120572,-0.128089717732,1.41661394707,-0.657360835037,0.425870549362,0.317475038013,1.04529399098,-2.99462517481,0.0506943941938,-1.78758315591,0.0448615125282
2.42,0.639732972308,0.770213817547,0.0619940958298,0.825435994068,-0.130707704952,1.41647426427,-0.657360835037,0.425870549362,0.317475038013,1.04529399098,-2.99462517481,0.0506943941938,-1.78758315591,0.0448615125282
2.44,0.639732972308,0.770213817547,0.0619940958298,0.825435994068,-0.130707704952,1.41647426427,-0.657360835037,0.426213707209,0.31715071178,1.04525568829,-2.99254566134,0.049119502502,-1.78746419159,0.0448607478215
2.46,0.639645687203,0.770685063902,0.0619591876136,0.825209092743,-0.137357410135,1.41631727092,-0.657343324753,0.426213707209,0.31715071178,1.04525568829,-2.99254566134,0.049119502502,-1.78746419159,0.0448607478215
2.48,0.639645687203,0.770685063902,0.0619591876136,0.825209092743,-0.137357410135,1.41631727092,-0.657343324753,0.427022651969,0.316294710247,1.04518310576,-2.98737907701,0.0449275887665,-1.78718696901,0.0448624413667
2.5,0.639820257413,0.771889345347,0.0622558928873,0.822678423917,-0.150028497575,1.41631727092,-0.657308437343,0.427022651969,0.316294710247,1.04518310576,-2.98737907701,0.0449275887665,-1.78718696901,0.0448624413667
2.52,0.639820257413,0.771889345347,0.0622558928873,0.822678423917,-0.150028497575,1.41631727092,-0.657308437343,0.428651768301,0.315097111614,1.04557016064,-2.97681361949,0.0382779396132,-1.7862070398,0.0447837578452
2.54,0.639837701118,0.772622380437,0.0622908011035,0.818437273302,-0.159976885629,1.41635215833,-0.657290993638,0.430318233663,0.314262853188,1.04673185091,-2.96689881895,0.0348565779175,-1.78579816105,0.0446190440633
2.56,0.639837701118,0.772622380437,0.0622908011035,0.818437273302,-0.159976885629,1.41635215833,-0.657290993638,0.430318233663,0.314262853188,1.04673185091,-2.96689881895,0.0348565779175,-1.78579816105,0.0446190440633
2.58,0.639855144823,0.774542186688,0.0622908011035,0.811787559797,-0.165317588879,1.41638704574,-0.657273549933,0.431879995108,0.314274083148,1.04796129161,-2.95986056074,0.0352669192294,-1.78575420491,0.044379925895
2.6,0.639855144823,0.774542186688,0.0622908011035,0.811787559797,-0.165317588879,1.41638704574,-0.657273549933,0.431879995108,0.314274083148,1.04796129161,-2.95986056074,0.0352669192294,-1.78575420491,0.044379925895
2.62,0.639802813708,0.778853178702,0.0623606133748,0.802327878447,-0.166399697809,1.41643937686,-0.657256106228,0.433467138238,0.315147872515,1.04873881451,-2.95603037698,0.0387355726186,-1.78603859802,0.0440764195898
2.64,0.639802813708,0.778853178702,0.0623606133748,0.802327878447,-0.166399697809,1.41643937686,-0.657256106228,0.433467138238,0.315147872515,1.04873881451,-2.95603037698,0.0387355726186,-1.78603859802,0.0440764195898
2.66,0.639907542518,0.786427874633,0.0628667596235,0.789063338848,-0.166102988374,1.41645682056,-0.657238662522,0.43540785181,0.316830997187,1.04896861705,-2.95326907944,0.04380423511,-1.78606753376,0.0436789891245
2.68,0.639907542518,0.786427874633,0.0628667596235,0.789063338848,-0.166102988374,1.41645682056,-0.657238662522,0.43540785181,0.316830997187,1.04896861705,-2.95326907944,0.04380423511,-1.78606753376,0.0436789891245
2.7,0.639907542518,0.798191456642,0.0630238403548,0.773372859232,-0.165265224474,1.41666627818,-0.657238662522,0.437835666476,0.318736323434,1.04770060784,-2.95210567974,0.0476310383042,-1.78663348821,0.0432620798675
2.72,0.639907542518,0.798191456642,0.0630238403548,0.773372859232,-0.165265224474,1.41666627818,-0.657238662522,0.437835666476,0.318736323434,1.04770060784,-2.95210567974,0.0476310383042,-1.78663348821,0.0432620798675
2.74,0.639872588528,0.811438485957,0.0630587444098,0.758677203442,-0.163991134919,1.4168582921,-0.657221152238,0.440143769241,0.320569378111,1.04526608676,-2.95279723801,0.0497864339221,-1.78738395659,0.0429067260891
2.76,0.639872588528,0.811438485957,0.0630587444098,0.758677203442,-0.163991134919,1.4168582921,-0.657221152238,0.440143769241,0.320569378111,1.04526608676,-2.95279723801,0.0497864339221,-1.78738395659,0.0429067260891
2.78,0.639872588528,0.826465771882,0.063093652626,0.743492791013,-0.163711885834,1.41902250996,-0.657221152238,0.442384557345,0.322133390929,1.04194902148,-2.95478499962,0.0488173851673,-1.78841104782,0.0425509986408
2.8,0.639872588528,0.826465771882,0.063093652626,0.743492791013,-0.163711885834,1.41902250996,-0.657221152238,0.442384557345,0.322133390929,1.04194902148,-2.95478499962,0.0488173851673,-1.78841104782,0.0425509986408
2.82,0.639890032233,0.839625516093,0.0630238403548,0.727802311397,-0.163781693945,1.42787126215,-0.657203708533,0.443798169188,0.322882973291,1.03961636594,-2.95902607262,0.0441835655769,-1.79042052281,0.0421080530429
2.84,0.639890032233,0.839625516093,0.0630238403548,0.727802311397,-0.163781693945,1.42787126215,-0.657203708533,0.443798169188,0.322882973291,1.03961636594,-2.95902607262,0.0441835655769,-1.79042052281,0.0421080530429
2.86,0.639715528603,0.851598489142,0.0629365718948,0.708376814932,-0.16390386646,1.44588315271,-0.657221152238,0.444543950119,0.322836825247,1.03890192493,-2.96576698448,0.0361833077203,-1.79392007159,0.0414277937307
2.88,0.639715528603,0.851598489142,0.0629365718948,0.708376814932,-0.16390386646,1.44588315271,-0.657221152238,0.444543950119,0.322836825247,1.03890192493,-2.96576698448,0.0361833077203,-1.79392007159,0.0414277937307
2.9,0.639506070983,0.862419511863,0.0629016678398,0.685390805248,-0.163973691214,1.46789164912,-0.657203708533,0.445166618329,0.322630944876,1.03986680593,-2.97208827413,0.0287974676714,-1.79802388031,0.0404973536896
2.92,0.639506070983,0.862419511863,0.0629016678398,0.685390805248,-0.163973691214,1.46789164912,-0.657203708533,0.445166618329,0.322630944876,1.03986680593,-2.97208827413,0.0287974676714,-1.79802388031,0.0404973536896
2.94,0.639104666028,0.872402837262,0.0629016678398,0.661776489283,-0.164427460575,1.48878334892,-0.657238662522,0.446024377609,0.322415185753,1.0415143198,-2.97652032478,0.023193984284,-1.80207342983,0.0394670067406
2.96,0.639104666028,0.872402837262,0.0629016678398,0.661776489283,-0.164427460575,1.48878334892,-0.657238662522,0.446024377609,0.322415185753,1.0415143198,-2.97652032478,0.023193984284,-1.80207342983,0.0394670067406
2.98,0.638144729613,0.882770057332,0.062849307596,0.636120127973,-0.16463690155,1.50524181761,-0.657238662522,0.447830598537,0.322574045146,1.04366937386,-2.97741140559,0.0225153250392,-1.80624175244,0.0382964926573
3.0,0.638144729613,0.882770057332,0.062849307596,0.636120127973,-0.16463690155,1.50524181761,-0.657238662522,0.447830598537,0.322574045146,1.04366937386,-2.97741140559,0.0225153250392,-1.80624175244,0.0382964926573
3.02,0.636957891873,0.891671273802,0.0629016678398,0.614931885183,-0.165701566774,1.51220558439,-0.657256106228,0.450348337472,0.323100569687,1.04539440278,-2.9736674967,0.026383924832,-1.80918872689,0.0373159207605
3.04,0.636957891873,0.891671273802,0.0629016678398,0.614931885183,-0.165701566774,1.51220558439,-0.657256106228,0.450348337472,0.323100569687,1.04539440278,-2.9736674967,0.026383924832,-1.80918872689,0.0373159207605
3.06,0.635195145548,0.900432807472,0.062849307596,0.595803064863,-0.166068084319,1.51295606319,-0.657273549933,0.453512691459,0.323877184398,1.04664752469,-2.96776705174,0.0339598269144,-1.81184043283,0.0364321645148
3.08,0.635195145548,0.900432807472,0.062849307596,0.595803064863,-0.166068084319,1.51295606319,-0.657273549933,0.453512691459,0.323877184398,1.04664752469,-2.96776705174,0.0339598269144,-1.81184043283,0.0364321645148
3.1,0.633362557823,0.908339133537,0.0628667596235,0.581613542838,-0.16612043208,1.51292117578,-0.657238662522,0.456100931018,0.324324731238,1.04679807175,-2.96413498251,0.0391297361026,-1.81426455067,0.0357894833106
3.12,0.633362557823,0.908339133537,0.0628667596235,0.581613542838,-0.16612043208,1.51292117578,-0.657238662522,0.456100931018,0.324324731238,1.04679807175,-2.96413498251,0.0391297361026,-1.81426455067,0.0357894833106
3.14,0.631425241288,0.915809167237,0.0625700543498,0.568907534698,-0.166294968999,1.51292117578,-0.657238662522,0.458578399831,0.324476334754,1.04671248503,-2.96085765401,0.0431917645667,-1.81689307177,0.0352095391773
3.16,0.631425241288,0.915809167237,0.0625700543498,0.568907534698,-0.166294968999,1.51292117578,-0.657238662522,0.458578399831,0.324476334754,1.04671248503,-2.96085765401,0.0431917645667,-1.81689307177,0.0352095391773
3.18,0.629243579723,0.922197092007,0.0625002420785,0.559971430818,-0.166521870324,1.51292117578,-0.657256106228,0.4606017839,0.324240616396,1.04601075904,-2.95927777883,0.0451779626987,-1.81949411205,0.0348154425077
3.2,0.629243579723,0.922197092007,0.0625002420785,0.559971430818,-0.166521870324,1.51292117578,-0.657256106228,0.4606017839,0.324240616396,1.04601075904,-2.95927777883,0.0451779626987,-1.81949411205,0.0348154425077
3.22,0.626224154258,0.927572682667,0.0625526023223,0.553025041168,-0.167708691419,1.51293861948,-0.657273549933,0.462693070841,0.323333729007,1.04524809915,-2.9575906869,0.0458288154648,-1.82284373746,0.034511994116
3.24,0.626224154258,0.927572682667,0.0625526023223,0.553025041168,-0.167708691419,1.51293861948,-0.657273549933,0.462693070841,0.323333729007,1.04524809915,-2.9575906869,0.0458288154648,-1.82284373746,0.034511994116
3.26,0.622733482438,0.932634153477,0.062517694106,0.546776732618,-0.16982052823,1.51292117578,-0.657256106228,0.464949362456,0.321992356173,1.04445255797,-2.95532471578,0.0455923786465,-1.82677305584,0.0342396484948
3.28,0.622733482438,0.932634153477,0.062517694106,0.546776732618,-0.16982052823,1.51292117578,-0.657256106228,0.464949362456,0.321992356173,1.04445255797,-2.95532471578,0.0455923786465,-1.82677305584,0.0342396484948
3.3,0.619364983133,0.937224377932,0.062517694106,0.541139319933,-0.170693196185,1.51288628837,-0.657273549933,0.466941397509,0.320815657173,1.04369743423,-2.9541143554,0.0460152147842,-1.83042903799,0.0339915414356
3.32,0.619364983133,0.937224377932,0.062517694106,0.541139319933,-0.170693196185,1.51288628837,-0.657273549933,0.466941397509,0.320815657173,1.04369743423,-2.9541143554,0.0460152147842,-1.83042903799,0.0339915414356
3.34,0.616013927533,0.941168785822,0.062517694106,0.536269863038,-0.170710656534,1.51288628837,-0.657256106228,0.468719225246,0.319677701254,1.04303827794,-2.95365530661,0.0468275159259,-1.83402308228,0.0337746722306
3.36,0.616013927533,0.941168785822,0.062517694106,0.536269863038,-0.170710656534,1.51288628837,-0.657256106228,0.468719225246,0.319677701254,1.04303827794,-2.95365530661,0.0468275159259,-1.83402308228,0.0337746722306
3.38,0.612819998438,0.944240608981,0.062517694106,0.532430150668,-0.170710656534,1.51288628837,-0.657273549933,0.470290433946,0.318514327358,1.04253821833,-2.95327778227,0.0474998725802,-1.83737620555,0.0336015923299
3.4,0.612819998438,0.944240608981,0.062517694106,0.532430150668,-0.170710656534,1.51288628837,-0.657273549933,0.470290433946,0.318514327358,1.04253821833,-2.95327778227,0.0474998725802,-1.83737620555,0.0336015923299
3.42,0.608962809073,0.947259967867,0.0625526023223,0.528433345083,-0.17097244527,1.51288628837,-0.657273549933,0.472104702373,0.317012328268,1.04212231139,-2.95258726934,0.0481984349628,-1.84140743692,0.0334171024514
3.44,0.608962809073,0.947259967867,0.0625526023223,0.528433345083,-0.17097244527,1.51288628837,-0.657273549933,0.472104702373,0.317012328268,1.04212231139,-2.95258726934,0.0481984349628,-1.84140743692,0.0334171024514
3.46,0.604774056153,0.949930319492,0.0626049584048,0.524453983203,-0.170902637159,1.51276418243,-0.657273549933,0.473985233971,0.315395684616,1.04189429521,-2.95188102785,0.0494581229443,-1.84571216568,0.0332267370811
3.48,0.604774056153,0.949930319492,0.0626049584048,0.524453983203,-0.170902637159,1.51276418243,-0.657273549933,0.473985233971,0.315395684616,1.04189429521,-2.95188102785,0.0494581229443,-1.84571216568,0.0332267370811
3.5,0.600620124064,0.953124315167,0.062639866621,0.519392545683,-0.170867733104,1.51272916186,-0.657290993638,0.475987109757,0.313849753285,1.04171647449,-2.95086443188,0.0510700222723,-1.85002800318,0.0329794014571
3.52,0.600620124064,0.953124315167,0.062639866621,0.519392545683,-0.170867733104,1.51272916186,-0.657290993638,0.475987109757,0.313849753285,1.04171647449,-2.95086443188,0.0510700222723,-1.85002800318,0.0329794014571
3.54,0.596536099953,0.957260736972,0.062639866621,0.512969733503,-0.170867733104,1.51264194334,-0.657290993638,0.478166048699,0.312424944602,1.0414437907,-2.94953888448,0.0530382071565,-1.85436096657,0.0326643739286
3.56,0.593254885753,0.960681567392,0.062639866621,0.507314843823,-0.170867733104,1.51257216851,-0.657308437343,0.478166048699,0.312424944602,1.0414437907,-2.94953888448,0.0530382071565,-1.85436096657,0.0326643739286
3.58,0.593254885753,0.960681567392,0.062639866621,0.507314843823,-0.170867733104,1.51257216851,-0.657308437343,0.479972209558,0.311302609048,1.04132813241,-2.94823362213,0.0549322030454,-1.85783616755,0.0323810231371
3.6,0.590340189098,0.963596264047,0.0626224145935,0.502166121199,-0.170867733104,1.51246737313,-0.657308437343,0.479972209558,0.311302609048,1.04132813241,-2.94823362213,0.0549322030454,-1.85783616755,0.0323810231371
3.62,0.590340189098,0.963596264047,0.0626224145935,0.502166121199,-0.170867733104,1.51246737313,-0.657308437343,0.4815915749,0.310301456673,1.04133751284,-2.94688139469,0.0568364524319,-1.86093730549,0.0321180275919
3.64,0.587547664958,0.966860034542,0.0626747748373,0.495690944614,-0.1708153687,1.51203114734,-0.657308437343,0.4815915749,0.310301456673,1.04133751284,-2.94688139469,0.0568364524319,-1.86093730549,0.0321180275919
3.66,0.587547664958,0.966860034542,0.0626747748373,0.495690944614,-0.1708153687,1.51203114734,-0.657308437343,0.483363948991,0.309498873671,1.0415858088,-2.94482344472,0.0598479363736,-1.86385621121,0.0317789175259
3.68,0.585348493109,0.971467702702,0.0627969473523,0.486807238428,-0.170780464644,1.51112354204,-0.657308437343,0.483363948991,0.309498873671,1.0415858088,-2.94482344472,0.0598479363736,-1.86385621121,0.0317789175259
3.7,0.585348493109,0.971467702702,0.0627969473523,0.486807238428,-0.170780464644,1.51112354204,-0.657308437343,0.485324704695,0.309211456254,1.04186110426,-2.94189254894,0.0641224760198,-1.86615309567,0.0313118786644
3.72,0.583673031888,0.978344317532,0.062971480111,0.474223402804,-0.170763020939,1.51053005659,-0.657308437343,0.485324704695,0.309211456254,1.04186110426,-2.94189254894,0.0641224760198,-1.86615309567,0.0313118786644
3.74,0.583673031888,0.978344317532,0.062971480111,0.474223402804,-0.170763020939,1.51053005659,-0.657308437343,0.487563772884,0.309416631438,1.04202902911,-2.93836715409,0.0693504966144,-1.86807836548,0.0306464048295
3.76,0.582486194148,0.985517608507,0.0629191198673,0.461028737893,-0.170797924994,1.51051261289,-0.657308437343,0.48967689954,0.309762608432,1.04220800276,-2.93482754169,0.0742336536146,-1.86973279089,0.0299369300442
3.78,0.582486194148,0.985517608507,0.0629191198673,0.461028737893,-0.170797924994,1.51051261289,-0.657308437343,0.48967689954,0.309762608432,1.04220800276,-2.93482754169,0.0742336536146,-1.86973279089,0.0299369300442
3.8,0.581281912703,0.992917800807,0.0628667596235,0.447799118994,-0.170832829049,1.51056507716,-0.657308437343,0.48967689954,0.309762608432,1.04220800276,-2.93482754169,0.0742336536146,-1.86973279089,0.0299369300442
3.82,0.581281912703,0.992917800807,0.0628667596235,0.447799118994,-0.170832829049,1.51056507716,-0.657308437343,0.491779226618,0.310079318834,1.04226040524,-2.93145159414,0.0789133341782,-1.87141294614,0.0292178843329
3.84,0.580269645173,0.999968919267,0.0628667596235,0.435861066644,-0.170902637159,1.5105475003,-0.657343324753,0.491779226618,0.310079318834,1.04226040524,-2.93145159414,0.0789133341782,-1.87141294614,0.0292178843329
3.86,0.580269645173,0.999968919267,0.0628667596235,0.435861066644,-0.170902637159,1.5105475003,-0.657343324753,0.493654799534,0.310403959928,1.0420882907,-2.92859770088,0.0828908981469,-1.87279747652,0.02856511076
3.88,0.579030409738,1.00576342517,0.0628667596235,0.426453749699,-0.170885193454,1.51056507716,-0.657325881048,0.495255881702,0.310441216902,1.04180739007,-2.92657875771,0.0858693752398,-1.87438142584,0.0280476590222
3.9,0.579030409738,1.00576342517,0.0628667596235,0.426453749699,-0.170885193454,1.51056507716,-0.657325881048,0.495255881702,0.310441216902,1.04180739007,-2.92657875771,0.0858693752398,-1.87438142584,0.0280476590222
3.92,0.578070473324,1.01183716351,0.0628667596235,0.417535122814,-0.170885193454,1.51058252086,-0.657325881048,0.496717798445,0.310581525318,1.04119798033,-2.92501906112,0.0882295816186,-1.87568191617,0.0275594943092
3.94,0.578070473324,1.01183716351,0.0628667596235,0.417535122814,-0.170885193454,1.51058252086,-0.657325881048,0.496717798445,0.310581525318,1.04119798033,-2.92501906112,0.0882295816186,-1.87568191617,0.0275594943092
3.96,0.577075649498,1.01723026445,0.062849307596,0.409838221079,-0.170902637159,1.51056507716,-0.657343324753,0.498037327588,0.310610946808,1.04058088912,-2.92372099268,0.0901497575619,-1.87696444203,0.0271358678497
3.98,0.577075649498,1.01723026445,0.062849307596,0.409838221079,-0.170902637159,1.51056507716,-0.657343324753,0.498037327588,0.310610946808,1.04058088912,-2.92372099268,0.0901497575619,-1.87696444203,0.0271358678497
4.0,0.576202998188,1.02213460876,0.0628667596235,0.402961606249,-0.170955001564,1.51058252086,-0.657325881048,0.499202205026,0.310639498394,1.03997491361,-2.92263151683,0.0917750140707,-1.87812355614,0.0267550298005
4.02,0.576202998188,1.02213460876,0.0628667596235,0.402961606249,-0.170955001564,1.51058252086,-0.657325881048,0.499202205026,0.310639498394,1.03997491361,-2.92263151683,0.0917750140707,-1.87812355614,0.0267550298005
4.04,0.575277949184,1.02681211832,0.0627969473523,0.396451542254,-0.171356423164,1.51058252086,-0.657343324753,0.500379137766,0.310543421322,1.03938613325,-2.92127487015,0.0930306585498,-1.87935092137,0.0263919545892
4.06,0.575277949184,1.02681211832,0.0627969473523,0.396451542254,-0.171356423164,1.51058252086,-0.657343324753,0.500379137766,0.310543421322,1.03938613325,-2.92127487015,0.0930306585498,-1.87935092137,0.0263919545892
4.08,0.574248237948,1.03260662422,0.0628318514073,0.389260774284,-0.173520641024,1.51058252086,-0.657343324753,0.501836246277,0.310221328776,1.03839484341,-2.91890368943,0.0929494887469,-1.88085041211,0.0259949871882
4.1,0.574248237948,1.03260662422,0.0628318514073,0.389260774284,-0.173520641024,1.51058252086,-0.657343324753,0.501836246277,0.310221328776,1.03839484341,-2.91890368943,0.0929494887469,-1.88085041211,0.0259949871882
4.12,0.573619931668,1.03883742248,0.0628667596235,0.382471444559,-0.179891088799,1.51056507716,-0.657325881048,0.503519549735,0.309487474212,1.03709560563,-2.91375117915,0.0896725828388,-1.88232381895,0.0256253911932
4.14,0.573619931668,1.03883742248,0.0628667596235,0.382471444559,-0.179891088799,1.51056507716,-0.657325881048,0.503519549735,0.309487474212,1.03709560563,-2.91375117915,0.0896725828388,-1.88232381895,0.0256253911932
4.16,0.573689706488,1.04346253435,0.0628842116511,0.376886396279,-0.184830370449,1.51058252086,-0.657308437343,0.504671325883,0.309201812637,1.0363156842,-2.90944247557,0.0875186699487,-1.88292703287,0.0253127896015
4.18,0.573689706488,1.04346253435,0.0628842116511,0.376886396279,-0.184830370449,1.51058252086,-0.657308437343,0.504671325883,0.309201812637,1.0363156842,-2.90944247557,0.0875186699487,-1.88292703287,0.0253127896015
4.2,0.573864276698,1.04731972371,0.0628842116511,0.370428696689,-0.186488437899,1.51059996457,-0.657325881048,0.505559650215,0.309456552874,1.03620794873,-2.90666890074,0.0886273940543,-1.88309660368,0.0249319444519
4.22,0.573724660478,1.05084528294,0.0628667596235,0.362941219284,-0.186628054119,1.51058252086,-0.657343324753,0.505559650215,0.309456552874,1.03620794873,-2.90666890074,0.0886273940543,-1.88309660368,0.0249319444519
4.24,0.573724660478,1.05084528294,0.0628667596235,0.362941219284,-0.186628054119,1.51058252086,-0.657343324753,0.506508370595,0.309808968542,1.03660578009,-2.90421177821,0.0917485670405,-1.88343399007,0.024477144952
4.26,0.573480315448,1.0545279021,0.0628318514073,0.353324444719,-0.186785130689,1.51058252086,-0.657343324753,0.506508370595,0.309808968542,1.03660578009,-2.90421177821,0.0917485670405,-1.88343399007,0.024477144952
4.28,0.573480315448,1.0545279021,0.0628318514073,0.353324444719,-0.186785130689,1.51058252086,-0.657343324753,0.507711061096,0.310203695268,1.0376184671,-2.90054227016,0.0964065330501,-1.88390076629,0.0238801014505
4.3,0.573131241608,1.05726809512,0.0628318514073,0.344196393504,-0.188844619739,1.51058252086,-0.657343324753,0.507711061096,0.310203695268,1.0376184671,-2.90054227016,0.0964065330501,-1.88390076629,0.0238801014505
4.32,0.573131241608,1.05726809512,0.0628318514073,0.344196393504,-0.188844619739,1.51058252086,-0.657343324753,0.509026021046,0.310232822222,1.0390733422,-2.89510782751,0.100272748627,-1.88455691769,0.0233019858845
4.34,0.572625041264,1.05960681661,0.0628667596235,0.335207925219,-0.193574460414,1.51058252086,-0.657325881048,0.509026021046,0.310232822222,1.0390733422,-2.89510782751,0.100272748627,-1.88455691769,0.0233019858845
4.36,0.572625041264,1.05960681661,0.0628667596235,0.335207925219,-0.193574460414,1.51058252086,-0.657325881048,0.510587888036,0.309786073687,1.04078542415,-2.88744559466,0.102747410732,-1.88559371518,0.0227261052672
4.38,0.571560442618,1.061247457,0.0628318514073,0.328470959899,-0.196873134964,1.51058252086,-0.657308437343,0.510587888036,0.309786073687,1.04078542415,-2.88744559466,0.102747410732,-1.88559371518,0.0227261052672
4.4,0.571560442618,1.061247457,0.0628318514073,0.328470959899,-0.196873134964,1.51058252086,-0.657308437343,0.511942478159,0.309111286955,1.04213558623,-2.881785381,0.104809151637,-1.88706264609,0.0222916382868
4.42,0.570233988658,1.06379563611,0.0629191198673,0.322659010294,-0.198513742064,1.51063485198,-0.657308437343,0.511942478159,0.309111286955,1.04213558623,-2.881785381,0.104809151637,-1.88706264609,0.0222916382868
4.44,0.570233988658,1.06379563611,0.0629191198673,0.322659010294,-0.198513742064,1.51063485198,-0.657308437343,0.513134329304,0.308528176885,1.04259296075,-2.87867380406,0.106460352772,-1.88864384237,0.0219267585767
4.46,0.568383957228,1.06978208935,0.0629016678398,0.313251693349,-0.198950084364,1.51058252086,-0.657308437343,0.513134329304,0.308528176885,1.04259296075,-2.87867380406,0.106460352772,-1.88864384237,0.0219267585767
4.48,0.568383957228,1.06978208935,0.0629016678398,0.313251693349,-0.198950084364,1.51058252086,-0.657308437343,0.514861559446,0.30805519658,1.04217272992,-2.87635309027,0.109047182037,-1.89084424388,0.0213508194951
4.5,0.566411686703,1.0793814535,0.0629191198673,0.299987187039,-0.198984988419,1.51065229568,-0.657308437343,0.517041840131,0.307795158905,1.04085640449,-2.87438407295,0.112057470061,-1.89334064758,0.0205408979102
4.52,0.566411686703,1.0793814535,0.0629191198673,0.299987187039,-0.198984988419,1.51065229568,-0.657308437343,0.517041840131,0.307795158905,1.04085640449,-2.87438407295,0.112057470061,-1.89334064758,0.0205408979102
4.54,0.564683827788,1.09119730004,0.0629016678398,0.283197121499,-0.198984988419,1.5107046268,-0.657308437343,0.519529837846,0.307824081922,1.03937670264,-2.87165721141,0.116155384276,-1.8957070342,0.0194979895554
4.56,0.564683827788,1.09119730004,0.0629016678398,0.283197121499,-0.198984988419,1.5107046268,-0.657308437343,0.519529837846,0.307824081922,1.03937670264,-2.87165721141,0.116155384276,-1.8957070342,0.0194979895554
4.58,0.563374817533,1.10304810058,0.0628318514073,0.264748988509,-0.199054796529,1.51138533077,-0.657325881048,0.521937548627,0.308025132398,1.03839221336,-2.86824031205,0.12098129319,-1.89776666359,0.018325202609
4.6,0.563374817533,1.10304810058,0.0628318514073,0.264748988509,-0.199054796529,1.51138533077,-0.657325881048,0.521937548627,0.308025132398,1.03839221336,-2.86824031205,0.12098129319,-1.89776666359,0.018325202609
4.62,0.562537053633,1.11313608821,0.0628318514073,0.247348060394,-0.199665659104,1.51183913342,-0.657325881048,0.524084407913,0.30832219208,1.03813161931,-2.86382465628,0.126232971263,-1.89922615389,0.0171957871965
4.64,0.562537053633,1.11313608821,0.0628318514073,0.247348060394,-0.199665659104,1.51183913342,-0.657325881048,0.524084407913,0.30832219208,1.03813161931,-2.86382465628,0.126232971263,-1.89922615389,0.0171957871965
4.66,0.561297884778,1.12317167814,0.0627969473523,0.227119687439,-0.201410995014,1.51567887908,-0.657325881048,0.526211922438,0.308003698508,1.03871967651,-2.85890664145,0.130490601601,-1.90190019453,0.0158556127627
4.68,0.561297884778,1.12317167814,0.0627969473523,0.227119687439,-0.201410995014,1.51567887908,-0.657325881048,0.526211922438,0.308003698508,1.03871967651,-2.85890664145,0.130490601601,-1.90190019453,0.0158556127627
4.7,0.560303060953,1.13085116946,0.0628318514073,0.210347082249,-0.204604940754,1.52246820881,-0.657325881048,0.527560739045,0.307151788463,1.03946037018,-2.85543234314,0.130778115405,-1.9050472595,0.0147295148787
4.72,0.560303060953,1.13085116946,0.0628318514073,0.210347082249,-0.204604940754,1.52246820881,-0.657325881048,0.527560739045,0.307151788463,1.03946037018,-2.85543234314,0.130778115405,-1.9050472595,0.0147295148787
4.74,0.558679864269,1.13804197072,0.062849307596,0.193958438309,-0.210381986304,1.53384776299,-0.657325881048,0.528612031722,0.305133230467,1.04020844254,-2.85282847247,0.126127870389,-1.91024736135,0.0136183433327
4.76,0.558679864269,1.13804197072,0.062849307596,0.193958438309,-0.210381986304,1.53384776299,-0.657325881048,0.528612031722,0.305133230467,1.04020844254,-2.85282847247,0.126127870389,-1.91024736135,0.0136183433327
4.78,0.556969482348,1.14338267397,0.0628318514073,0.180990641434,-0.215391076064,1.54723440852,-0.657343324753,0.528968205548,0.302828705657,1.04081920165,-2.85299868774,0.119144593983,-1.91590814904,0.0127304034536
4.8,0.556969482348,1.14338267397,0.0628318514073,0.180990641434,-0.215391076064,1.54723440852,-0.657343324753,0.528968205548,0.302828705657,1.04081920165,-2.85299868774,0.119144593983,-1.91590814904,0.0127304034536
4.82,0.555189225738,1.14839168051,0.0628318514073,0.170187062419,-0.219649687029,1.56329140568,-0.657325881048,0.52868867235,0.300280135826,1.04077357253,-2.85655901716,0.109154307714,-1.92223576116,0.0119873977427
4.84,0.555189225738,1.14839168051,0.0628318514073,0.170187062419,-0.219649687029,1.56329140568,-0.657325881048,0.52868867235,0.300280135826,1.04077357253,-2.85655901716,0.109154307714,-1.92223576116,0.0119873977427
4.86,0.553618426748,1.15306925665,0.062849307596,0.161303322945,-0.222599287739,1.57671293863,-0.657325881048,0.528404599359,0.298200670275,1.04038302471,-2.86039303185,0.100674079632,-1.92754623759,0.011375174166
4.88,0.553618426748,1.15306925665,0.062849307596,0.161303322945,-0.222599287739,1.57671293863,-0.657325881048,0.528404599359,0.298200670275,1.04038302471,-2.86039303185,0.100674079632,-1.92754623759,0.011375174166
4.9,0.552483986703,1.1568915586,0.0628667596235,0.153257364014,-0.223995549809,1.58676610543,-0.657343324753,0.528217626187,0.29683090991,1.04034099731,-2.86325533106,0.0956659082318,-1.93134213003,0.0108172623959
4.92,0.552483986703,1.1568915586,0.0628667596235,0.153257364014,-0.223995549809,1.58676610543,-0.657343324753,0.528217626187,0.29683090991,1.04034099731,-2.86325533106,0.0956659082318,-1.93134213003,0.0108172623959
4.94,0.551768395318,1.15945711484,0.0628318514073,0.146974168055,-0.224047914214,1.59420125172,-0.657343324753,0.527975840517,0.296020754604,1.04055341901,-2.86573791598,0.0929854627236,-1.93385575637,0.0103787213249
4.96,0.551768395318,1.15945711484,0.0628318514073,0.146974168055,-0.224047914214,1.59420125172,-0.657343324753,0.527975840517,0.296020754604,1.04055341901,-2.86573791598,0.0929854627236,-1.93385575637,0.0103787213249
4.98,0.551681110213,1.16069628369,0.0628667596235,0.14398966329,-0.224100278619,1.59671447684,-0.657343324753,0.527924184844,0.295863518733,1.04068277104,-2.86630334372,0.0924844929302,-1.93456387919,0.0101707788845
5.0,0.551681110213,1.16069628369,0.0628667596235,0.14398966329,-0.224100278619,1.59671447684,-0.657343324753,0.527924184844,0.295863518733,1.04068277104,-2.86630334372,0.0924844929302,-1.93456387919,0.0101707788845
5.02,0.551576414693,1.16167366381,0.0628318514073,0.141616021099,-0.224187547079,1.59844233575,-0.657343324753,0.527940474283,0.29572484702,1.04080393855,-2.86649634587,0.0922376449606,-1.93513278076,0.0100053956497
5.04,0.551576414693,1.16167366381,0.0628318514073,0.141616021099,-0.224187547079,1.59844233575,-0.657343324753,0.527940474283,0.29572484702,1.04080393855,-2.86649634587,0.0922376449606,-1.93513278076,0.0100053956497
5.06,0.551489129588,1.16272095191,0.0628143993798,0.14069098874,-0.224344623649,1.59854699799,-0.657343324753,0.528070936704,0.295689526685,1.04047455347,-2.8665223837,0.0919726407584,-1.93534076736,0.00994384219606
5.08,0.551489129588,1.16272095191,0.0628143993798,0.14069098874,-0.224344623649,1.59854699799,-0.657343324753,0.528070936704,0.295689526685,1.04047455347,-2.8665223837,0.0919726407584,-1.93534076736,0.00994384219606
5.1,0.550127788218,1.1631746214,0.0628667596235,0.140673545034,-0.225601252854,1.59856457485,-0.657343324753,0.528584217369,0.294803779947,1.04023788845,-2.86586667466,0.0909135914764,-1.93695732556,0.00994435316915
5.12,0.550127788218,1.1631746214,0.0628667596235,0.140673545034,-0.225601252854,1.59856457485,-0.657343324753,0.528584217369,0.294803779947,1.04023788845,-2.86586667466,0.0909135914764,-1.93695732556,0.00994435316915
5.14,0.549150408098,1.1640822267,0.0628318514073,0.14069098874,-0.226142307319,1.59858201855,-0.657343324753,0.528943463331,0.294216176774,1.03969807168,-2.8659984744,0.0898327234016,-1.93810482019,0.00994908841221
5.16,0.549150408098,1.1640822267,0.0628318514073,0.14069098874,-0.226142307319,1.59858201855,-0.657343324753,0.528943463331,0.294216176774,1.03969807168,-2.8659984744,0.0898327234016,-1.93810482019,0.00994908841221
5.18,0.547736669033,1.16437890285,0.0628318514073,0.14076079685,-0.226089959559,1.59863434967,-0.657343324753,0.529350447278,0.293474568719,1.03949224425,-2.86629446526,0.0895314954801,-1.93953563462,0.00995515295438
5.2,0.547736669033,1.16437890285,0.0628318514073,0.14076079685,-0.226089959559,1.59863434967,-0.657343324753,0.529350447278,0.293474568719,1.03949224425,-2.86629446526,0.0895314954801,-1.93953563462,0.00995515295438
5.22,0.546602228988,1.16432657173,0.0629016678398,0.140882969365,-0.225845597884,1.59866923708,-0.657343324753,0.529639891005,0.292914906328,1.0394741953,-2.86659679377,0.0896286658012,-1.9406038261,0.00996359431796
5.24,0.546602228988,1.16432657173,0.0629016678398,0.140882969365,-0.225845597884,1.59866923708,-0.657343324753,0.529639891005,0.292914906328,1.0394741953,-2.86659679377,0.0896286658012,-1.9406038261,0.00996359431796
5.26,0.546392771368,1.16432657173,0.0628667596235,0.141005158524,-0.225758346069,1.59879134302,-0.657343324753,0.529670654122,0.292796326674,1.03942767388,-2.86678785465,0.0894681421829,-1.94083366156,0.00997218688719
5.28,0.546392771368,1.16432657173,0.0628667596235,0.141005158524,-0.225758346069,1.59879134302,-0.657343324753,0.529670654122,0.292796326674,1.03942767388,-2.86678785465,0.0894681421829,-1.94083366156,0.00997218688719
5.3,0.546462579478,1.1642219095,0.0628667596235,0.14102260223,-0.225723425369,1.59959428608,-0.657360835037,0.529529840168,0.292766610402,1.03945214172,-2.86726574834,0.0889408135022,-1.94090740383,0.00997252633595
5.32,0.546462579478,1.1642219095,0.0628667596235,0.14102260223,-0.225723425369,1.59959428608,-0.657360835037,0.529529840168,0.292766610402,1.03945214172,-2.86726574834,0.0889408135022,-1.94090740383,0.00997252633595
5.34,0.546532387588,1.16418702209,0.0629016678398,0.141458927885,-0.224449335814,1.60153160262,-0.657343324753,0.529092671924,0.292815664395,1.03921805334,-2.86973555394,0.0879028780961,-1.9410065286,0.0100021102384
5.36,0.546532387588,1.16418702209,0.0629016678398,0.141458927885,-0.224449335814,1.60153160262,-0.657343324753,0.529092671924,0.292815664395,1.03921805334,-2.86973555394,0.0879028780961,-1.9410065286,0.0100021102384
5.38,0.546514943883,1.1642044658,0.0628842116511,0.143605685395,-0.220836508124,1.60348636286,-0.657360835037,0.52835539744,0.293100700932,1.03833278166,-2.87502614141,0.0867467960662,-1.94071346226,0.0101530798994
5.4,0.546514943883,1.1642044658,0.0628842116511,0.143605685395,-0.220836508124,1.60348636286,-0.657360835037,0.52835539744,0.293100700932,1.03833278166,-2.87502614141,0.0867467960662,-1.94071346226,0.0101530798994
5.42,0.546532387588,1.16394267706,0.062849307596,0.14899875305,-0.215408536414,1.60495243304,-0.657378278743,0.527253480615,0.293605222643,1.03653321922,-2.88314940872,0.0846129015557,-1.93990133608,0.0105331854572
5.44,0.546532387588,1.16394267706,0.062849307596,0.14899875305,-0.215408536414,1.60495243304,-0.657378278743,0.527253480615,0.293605222643,1.03653321922,-2.88314940872,0.0846129015557,-1.93990133608,0.0105331854572
5.46,0.546672037098,1.16284305785,0.062849307596,0.159104217674,-0.209753663379,1.60495243304,-0.657378278743,0.525873035926,0.29417273185,1.03376028248,-2.89283395391,0.0806319192628,-1.93855920043,0.0112441698345
5.48,0.546672037098,1.16284305785,0.062849307596,0.159104217674,-0.209753663379,1.60495243304,-0.657378278743,0.525873035926,0.29417273185,1.03376028248,-2.89283395391,0.0806319192628,-1.93855920043,0.0112441698345
5.5,0.546741845208,1.15907322017,0.062849307596,0.174428213034,-0.204796938024,1.60490010192,-0.657360835037,0.524036962382,0.294375715128,1.03092730865,-2.90340922046,0.0742139713502,-1.93723945882,0.0123104001287
5.52,0.546741845208,1.15907322017,0.062849307596,0.174428213034,-0.204796938024,1.60490010192,-0.657360835037,0.524036962382,0.294375715128,1.03092730865,-2.90340922046,0.0742139713502,-1.93723945882,0.0123104001287
5.54,0.546654560103,1.15237110897,0.0628318514073,0.193469748249,-0.202528007999,1.60472553171,-0.657378278743,0.522053272876,0.293911975453,1.02872863861,-2.9122140037,0.0656371930143,-1.93629279191,0.013618617306
5.56,0.546654560103,1.15237110897,0.0628318514073,0.193469748249,-0.202528007999,1.60472553171,-0.657378278743,0.522053272876,0.293911975453,1.02872863861,-2.9122140037,0.0656371930143,-1.93629279191,0.013618617306
5.58,0.546637116398,1.1427194137,0.0628143993798,0.211778248374,-0.201620435989,1.60463831319,-0.657360835037,0.520112311234,0.293235699133,1.02856459922,-2.91777219216,0.059127598419,-1.93542176811,0.0148488383332
5.6,0.546637116398,1.1427194137,0.0628143993798,0.211778248374,-0.201620435989,1.60463831319,-0.657360835037,0.520112311234,0.293235699133,1.02856459922,-2.91777219216,0.059127598419,-1.93542176811,0.0148488383332
5.62,0.546619672693,1.12898362775,0.0628318514073,0.230941972749,-0.201585531934,1.60458584892,-0.657360835037,0.518029412657,0.292320605601,1.03056804961,-2.92068845324,0.0546293775641,-1.93449180728,0.0160993986534
5.64,0.546619672693,1.12898362775,0.0628318514073,0.230941972749,-0.201585531934,1.60458584892,-0.657360835037,0.518029412657,0.292320605601,1.03056804961,-2.92068845324,0.0546293775641,-1.93449180728,0.0160993986534
5.66,0.546602228988,1.11498611964,0.062849307596,0.247766942344,-0.201550627879,1.60449863039,-0.657360835037,0.516119614869,0.291463040338,1.03345872888,-2.92202938505,0.0522396943443,-1.93360186443,0.0171678614431
5.68,0.546602228988,1.11498611964,0.062849307596,0.247766942344,-0.201550627879,1.60449863039,-0.657360835037,0.516119614869,0.291463040338,1.03345872888,-2.92202938505,0.0522396943443,-1.93360186443,0.0171678614431
5.7,0.546584751993,1.10081404132,0.062849307596,0.264452295719,-0.201585531934,1.60435894759,-0.657360835037,0.51418851582,0.290566938648,1.03647580447,-2.92307217426,0.0500828363688,-1.93272254261,0.0182077544526
5.72,0.546584751993,1.10081404132,0.062849307596,0.264452295719,-0.201585531934,1.60435894759,-0.657360835037,0.51418851582,0.290566938648,1.03647580447,-2.92307217426,0.0500828363688,-1.93272254261,0.0182077544526
5.74,0.546619672693,1.09018503251,0.0628842116511,0.279252680319,-0.201393534664,1.60430661648,-0.657343324753,0.512444903306,0.289837828265,1.03797905914,-2.92543094007,0.0467320060134,-1.93192984076,0.0191305666914
5.76,0.546619672693,1.09018503251,0.0628842116511,0.279252680319,-0.201393534664,1.60430661648,-0.657343324753,0.512444903306,0.289837828265,1.03797905914,-2.92543094007,0.0467320060134,-1.93192984076,0.0191305666914
5.78,0.546619672693,1.08060317865,0.0629016678398,0.294663927494,-0.200695403629,1.6039052781,-0.657343324753,0.510660970673,0.289162524384,1.03865608042,-2.92896071512,0.0426165897751,-1.93102805339,0.0200915579575
5.8,0.546619672693,1.08060317865,0.0629016678398,0.294663927494,-0.200695403629,1.6039052781,-0.657343324753,0.510660970673,0.289162524384,1.03865608042,-2.92896071512,0.0426165897751,-1.93102805339,0.0200915579575
5.82,0.546637116398,1.07253972608,0.0629016678398,0.309743577824,-0.195738678274,1.60181083506,-0.657343324753,0.508795248546,0.289278500353,1.03848638614,-2.9355151255,0.0413905813618,-1.92921228814,0.0210354512203
5.84,0.546637116398,1.07253972608,0.0629016678398,0.309743577824,-0.195738678274,1.60181083506,-0.657343324753,0.508795248546,0.289278500353,1.03848638614,-2.9355151255,0.0413905813618,-1.92921228814,0.0210354512203
5.86,0.546584751993,1.06587256887,0.0628667596235,0.324037828659,-0.185598309594,1.59430591395,-0.657343324753,0.507361134997,0.290623599041,1.03777682534,-2.94317841951,0.0469676520923,-1.92597475133,0.0219417055531
5.88,0.546584751993,1.06587256887,0.0628667596235,0.324037828659,-0.185598309594,1.59430591395,-0.657343324753,0.507361134997,0.290623599041,1.03777682534,-2.94317841951,0.0469676520923,-1.92597475133,0.0219417055531
5.9,0.546584751993,1.05965921431,0.0628318514073,0.338489139419,-0.175231056234,1.58344993724,-0.657360835037,0.50632887445,0.292312159122,1.03684290393,-2.94933287758,0.0548474758845,-1.92233747954,0.0228614232888
5.92,0.546584751993,1.05965921431,0.0628318514073,0.338489139419,-0.175231056234,1.58344993724,-0.657360835037,0.50632887445,0.292312159122,1.03684290393,-2.94933287758,0.0548474758845,-1.92233747954,0.0228614232888
5.94,0.546602228988,1.05370764848,0.0628143993798,0.353778247369,-0.16653931403,1.57170393209,-0.657360835037,0.505444193768,0.293798897064,1.03554875193,-2.95431216153,0.0616087016073,-1.91899097186,0.0238319571886
5.96,0.546602228988,1.05370764848,0.0628143993798,0.353778247369,-0.16653931403,1.57170393209,-0.657360835037,0.505444193768,0.293798897064,1.03554875193,-2.95431216153,0.0616087016073,-1.91899097186,0.0238319571886
5.98,0.546549864583,1.0481226002,0.062517694106,0.369364031464,-0.160622652259,1.56069082888,-0.657360835037,0.504698925095,0.294691595246,1.03397736108,-2.95780459222,0.0655006683626,-1.91645149116,0.0248148333409
6.0,0.546549864583,1.0481226002,0.062517694106,0.369364031464,-0.160622652259,1.56069082888,-0.657360835037,0.504698925095,0.294691595246,1.03397736108,-2.95780459222,0.0655006683626,-1.91645149116,0.0248148333409
6.02,0.546602228988,1.04295640058,0.0625526023223,0.384810199339,-0.158912220405,1.55339536539,-0.657343324753,0.503718083114,0.294763311116,1.03216856141,-2.96072332133,0.0639564133563,-1.91474221589,0.0257771257294
6.04,0.546602228988,1.04295640058,0.0625526023223,0.384810199339,-0.158912220405,1.55339536539,-0.657343324753,0.503718083114,0.294763311116,1.03216856141,-2.96072332133,0.0639564133563,-1.91474221589,0.0257771257294
6.06,0.546672037098,1.03756336622,0.0626049584048,0.398545918714,-0.15872023978,1.54964297141,-0.657343324753,0.502523278163,0.29437529571,1.03096962762,-2.9634890683,0.0602878735609,-1.91366306255,0.0266108298179
6.08,0.546672037098,1.03756336622,0.0626049584048,0.398545918714,-0.15872023978,1.54964297141,-0.657343324753,0.502523278163,0.29437529571,1.03096962762,-2.9634890683,0.0602878735609,-1.91366306255,0.0266108298179
6.1,0.546672037098,1.03171646262,0.0626049584048,0.411251926854,-0.158685335724,1.54695517608,-0.657343324753,0.501306496254,0.293854486961,1.03033846234,-2.96584997571,0.0568407146364,-1.91283555051,0.027362762274
6.12,0.546672037098,1.03171646262,0.0626049584048,0.411251926854,-0.158685335724,1.54695517608,-0.657343324753,0.501306496254,0.293854486961,1.03033846234,-2.96584997571,0.0568407146364,-1.91283555051,0.027362762274
6.14,0.546672037098,1.02618381204,0.0626049584048,0.420868701419,-0.158615527614,1.54575089464,-0.657343324753,0.500228215184,0.293366951823,1.03047829515,-2.96748630165,0.0544711047102,-1.91227756693,0.0279111475606
6.16,0.546672037098,1.02618381204,0.0626049584048,0.420868701419,-0.158615527614,1.54575089464,-0.657343324753,0.500228215184,0.293366951823,1.03047829515,-2.96748630165,0.0544711047102,-1.91227756693,0.0279111475606
6.18,0.546741845208,1.02037186243,0.062639866621,0.430241097664,-0.158283914124,1.54534942311,-0.657325881048,0.499000024555,0.292888859226,1.03082955858,-2.96952429043,0.0520664825002,-1.91173228811,0.0284335577556
6.2,0.546741845208,1.02037186243,0.062639866621,0.430241097664,-0.158283914124,1.54534942311,-0.657325881048,0.499000024555,0.292888859226,1.03082955858,-2.96952429043,0.0520664825002,-1.91173228811,0.0284335577556
6.22,0.546741845208,1.01466464164,0.0626224145935,0.437990363804,-0.157411246169,1.54531453569,-0.657343324753,0.497884283571,0.292493592961,1.0316201946,-2.9712608805,0.0508776943542,-1.91129301727,0.0288488264599
6.24,0.546741845208,1.01466464164,0.0626224145935,0.437990363804,-0.157411246169,1.54531453569,-0.657343324753,0.497884283571,0.292493592961,1.0316201946,-2.9712608805,0.0508776943542,-1.91129301727,0.0288488264599
6.26,0.546724401503,1.00923665328,0.0626049584048,0.445547649319,-0.157166901139,1.54531453569,-0.657343324753,0.496846830214,0.292005537359,1.03231715012,-2.97258457409,0.0492189315078,-1.91095628268,0.0292514022093
6.28,0.546724401503,1.00923665328,0.0626049584048,0.445547649319,-0.157166901139,1.54531453569,-0.657343324753,0.496846830214,0.292005537359,1.03231715012,-2.97258457409,0.0492189315078,-1.91095628268,0.0292514022093
6.3,0.546759288913,1.0043322424,0.0626049584048,0.453087457839,-0.156678211079,1.54531453569,-0.657343324753,0.495776959071,0.291585703719,1.03271007446,-2.97443191901,0.0473249787498,-1.91055559796,0.0296560207668
6.32,0.546759288913,1.0043322424,0.0626049584048,0.453087457839,-0.156678211079,1.54531453569,-0.657343324753,0.495776959071,0.291585703719,1.03271007446,-2.97443191901,0.0473249787498,-1.91055559796,0.0296560207668
6.34,0.546741845208,1.00019582059,0.0625875063773,0.458916884438,-0.15271630955,1.54531453569,-0.657343324753,0.494628865092,0.291738519523,1.03314847564,-2.97845379799,0.048292472049,-1.91001957532,0.029961438782
6.36,0.546741845208,1.00019582059,0.0625875063773,0.458916884438,-0.15271630955,1.54531453569,-0.657343324753,0.494628865092,0.291738519523,1.03314847564,-2.97845379799,0.048292472049,-1.91001957532,0.029961438782
6.38,0.546672037098,0.995692881242,0.0625351461336,0.465601485353,-0.145892075769,1.54524476087,-0.657343324753,0.493134621769,0.292212880557,1.03347898203,-2.98495114761,0.0506396080993,-1.90932297129,0.0303122545131
6.4,0.546672037098,0.995692881242,0.0625351461336,0.465601485353,-0.145892075769,1.54524476087,-0.657343324753,0.493134621769,0.292212880557,1.03347898203,-2.98495114761,0.0506396080993,-1.90932297129,0.0303122545131
6.42,0.546706924508,0.990352177992,0.0625002420785,0.474659728459,-0.141301851315,1.54515740919,-0.657343324753,0.491495641289,0.29226614381,1.03356649147,-2.9905982266,0.0504192813119,-1.90861385856,0.0307937052456
6.44,0.546706924508,0.990352177992,0.0625002420785,0.474659728459,-0.141301851315,1.54515740919,-0.657343324753,0.491495641289,0.29226614381,1.03356649147,-2.9905982266,0.0504192813119,-1.90861385856,0.0307937052456
6.46,0.546689480803,0.982166552907,0.062517694106,0.489180880618,-0.1378984646,1.54496539528,-0.657343324753,0.48923337462,0.291762834225,1.03354967037,-2.99678944154,0.0474529036249,-1.90780019204,0.0315602000881
6.48,0.546689480803,0.982166552907,0.062517694106,0.489180880618,-0.1378984646,1.54496539528,-0.657343324753,0.48923337462,0.291762834225,1.03354967037,-2.99678944154,0.0474529036249,-1.90780019204,0.0315602000881
6.5,0.546637116398,0.972951216587,0.0625002420785,0.505778965533,-0.13740977454,1.54210316289,-0.657343324753,0.487319400456,0.290899795705,1.0335469726,-2.99962160061,0.0439356032712,-1.90684133979,0.0324284163714
6.52,0.546637116398,0.972951216587,0.0625002420785,0.505778965533,-0.13740977454,1.54210316289,-0.657343324753,0.487319400456,0.290899795705,1.0335469726,-2.99962160061,0.0439356032712,-1.90684133979,0.0324284163714
6.54,0.546637116398,0.963369362722,0.0625002420785,0.522307242338,-0.137392322512,1.53587229805,-0.657343324753,0.485875513582,0.290287349612,1.03383585081,-2.99974455428,0.0431194130412,-1.90546334675,0.0332772389968
6.56,0.546637116398,0.963369362722,0.0625002420785,0.522307242338,-0.137392322512,1.53587229805,-0.657343324753,0.485875513582,0.290287349612,1.03383585081,-2.99974455428,0.0431194130412,-1.90546334675,0.0332772389968
6.58,0.546864017723,0.953002142652,0.0626049584048,0.539673249753,-0.137060709022,1.52807070079,-0.657343324753,0.484384332892,0.289914316079,1.03431091172,-2.99922494459,0.043722208924,-1.90357126142,0.0341474032643
6.6,0.546864017723,0.953002142652,0.0626049584048,0.539673249753,-0.137060709022,1.52807070079,-0.657343324753,0.484384332892,0.289914316079,1.03431091172,-2.99922494459,0.043722208924,-1.90357126142,0.0341474032643
6.62,0.546933825833,0.943874091436,0.0626049584048,0.554683091973,-0.136310213582,1.52190961077,-0.657343324753,0.482989906774,0.289497306083,1.03478130047,-2.99933726791,0.0441524174602,-1.90216066444,0.0348785961364
6.64,0.546933825833,0.943874091436,0.0626049584048,0.554683091973,-0.136310213582,1.52190961077,-0.657343324753,0.482989906774,0.289497306083,1.03478130047,-2.99933726791,0.0441524174602,-1.90216066444,0.0348785961364
6.66,0.546864017723,0.934588913717,0.0625351461336,0.568575904563,-0.135140844515,1.51864590685,-0.657325881048,0.481318152264,0.288838727974,1.03561575367,-3.00074110173,0.0435398176567,-1.90128990074,0.0355213884078
6.68,0.546864017723,0.934588913717,0.0625351461336,0.568575904563,-0.135140844515,1.51864590685,-0.657325881048,0.481318152264,0.288838727974,1.03561575367,-3.00074110173,0.0435398176567,-1.90128990074,0.0355213884078
6.7,0.546968746533,0.925408464807,0.0625875063773,0.581788046468,-0.132819558407,1.51628967508,-0.657325881048,0.47941348274,0.28840656112,1.03655839289,-3.00333853951,0.0434381880942,-1.90025382845,0.0361114158999
6.72,0.546968746533,0.925408464807,0.0625875063773,0.581788046468,-0.132819558407,1.51628967508,-0.657325881048,0.47941348274,0.28840656112,1.03655839289,-3.00333853951,0.0434381880942,-1.90025382845,0.0361114158999
6.74,0.546916382128,0.917275237417,0.0625875063773,0.594127537063,-0.129102001907,1.51491082343,-0.657343324753,0.4774205107,0.288053810124,1.03714269088,-3.00774379614,0.0432806003594,-1.8995221328,0.0366569658037
6.76,0.546916382128,0.917275237417,0.0625875063773,0.594127537063,-0.129102001907,1.51491082343,-0.657343324753,0.4774205107,0.288053810124,1.03714269088,-3.00774379614,0.0432806003594,-1.8995221328,0.0366569658037
6.78,0.546916382128,0.909246738837,0.0625700543498,0.606519358773,-0.126082584765,1.51342730954,-0.657343324753,0.475472566166,0.287616430562,1.03765396872,-3.01162237428,0.0426496618649,-1.898795331,0.037196167306
6.8,0.546916382128,0.909246738837,0.0625700543498,0.606519358773,-0.126082584765,1.51342730954,-0.657343324753,0.475472566166,0.287616430562,1.03765396872,-3.01162237428,0.0426496618649,-1.898795331,0.037196167306
6.82,0.546986190238,0.902666866732,0.0625700543498,0.617846581838,-0.12407546012,1.51093152813,-0.657325881048,0.473905327521,0.287255007514,1.03772325652,-3.01436948278,0.0419348623105,-1.89800543868,0.0376961776838
6.84,0.546986190238,0.902666866732,0.0625700543498,0.617846581838,-0.12407546012,1.51093152813,-0.657325881048,0.473905327521,0.287255007514,1.03772325652,-3.01436948278,0.0419348623105,-1.89800543868,0.0376961776838
6.86,0.546933825833,0.896226544267,0.0625526023223,0.628929393293,-0.118734748547,1.50730124009,-0.657325881048,0.472249453529,0.287418075793,1.03776663127,-3.01898014078,0.0442304513737,-1.89720168171,0.0381790446785
6.88,0.546933825833,0.896226544267,0.0625526023223,0.628929393293,-0.118734748547,1.50730124009,-0.657325881048,0.472249453529,0.287418075793,1.03776663127,-3.01898014078,0.0442304513737,-1.89720168171,0.0381790446785
6.9,0.547003633943,0.890938238712,0.0625700543498,0.638720704778,-0.11187560239,1.50309504346,-0.657343324753,0.470688200941,0.288020204498,1.03757562754,-3.02440723083,0.0480666004952,-1.8962939303,0.0386083321346
6.92,0.547003633943,0.890938238712,0.0625700543498,0.638720704778,-0.11187560239,1.50309504346,-0.657343324753,0.470688200941,0.288020204498,1.03757562754,-3.02440723083,0.0480666004952,-1.8962939303,0.0386083321346
6.94,0.546933825833,0.886138556637,0.0625526023223,0.647534636142,-0.10431833352,1.4998835375,-0.657343324753,0.46910570491,0.288624108036,1.03740301928,-3.03069548024,0.0519356415241,-1.89576794573,0.0389870392065
6.96,0.546933825833,0.886138556637,0.0625526023223,0.647534636142,-0.10431833352,1.4998835375,-0.657343324753,0.46910570491,0.288624108036,1.03740301928,-3.03069548024,0.0519356415241,-1.89576794573,0.0389870392065
6.98,0.547055998348,0.882194148747,0.0625351461336,0.654917318158,-0.0984016634272,1.49770187594,-0.657343324753,0.467690138331,0.289103303174,1.03721446332,-3.03599779112,0.0544656255783,-1.89525163476,0.0393005888143
7.0,0.547055998348,0.882194148747,0.0625351461336,0.654917318158,-0.0984016634272,1.49770187594,-0.657343324753,0.467690138331,0.289103303174,1.03721446332,-3.03599779112,0.0544656255783,-1.89525163476,0.0393005888143
7.02,0.546968746533,0.878494019307,0.062517694106,0.662352464448,-0.0946492028722,1.49668960841,-0.657343324753,0.466365341871,0.289063891773,1.03687361608,-3.04050100484,0.0545194304881,-1.89506540457,0.0396159693692
7.04,0.546968746533,0.878494019307,0.062517694106,0.662352464448,-0.0946492028722,1.49668960841,-0.657343324753,0.466365341871,0.289063891773,1.03687361608,-3.04050100484,0.0545194304881,-1.89506540457,0.0396159693692
7.06,0.547160727158,0.875387308738,0.0625526023223,0.669019621658,-0.0931133162597,1.49630571373,-0.657343324753,0.46518805631,0.288860013434,1.03645764954,-3.04358254261,0.0528961274857,-1.89463394793,0.0398989869909
7.08,0.547160727158,0.875387308738,0.0625526023223,0.669019621658,-0.0931133162597,1.49630571373,-0.657343324753,0.46518805631,0.288860013434,1.03645764954,-3.04358254261,0.0528961274857,-1.89463394793,0.0398989869909
7.1,0.547195614568,0.872402837262,0.0625526023223,0.676733933808,-0.0906523972873,1.49593912961,-0.657343324753,0.46382180028,0.288619426023,1.03563667184,-3.04810584294,0.0508894379181,-1.89438638241,0.0402356116171
7.12,0.547195614568,0.872402837262,0.0625526023223,0.676733933808,-0.0906523972873,1.49593912961,-0.657343324753,0.46382180028,0.288619426023,1.03563667184,-3.04810584294,0.0508894379181,-1.89438638241,0.0402356116171
7.14,0.547265455968,0.868632933002,0.0625351461336,0.687397896603,-0.0850498969797,1.49284986275,-0.657343324753,0.462083535279,0.288841067075,1.03433785065,-3.05473077389,0.0512215048046,-1.89392529225,0.0407071781145
7.16,0.547265455968,0.868632933002,0.0625351461336,0.687397896603,-0.0850498969797,1.49284986275,-0.657343324753,0.462083535279,0.288841067075,1.03433785065,-3.05473077389,0.0512215048046,-1.89392529225,0.0407071781145
7.18,0.547247978973,0.864880472447,0.0625351461336,0.698288760723,-0.0780162139023,1.48831210256,-0.657343324753,0.46038873365,0.289335752655,1.03297725298,-3.06176060417,0.0533923754744,-1.89355239725,0.0411858349421
7.2,0.547247978973,0.864880472447,0.0625351461336,0.698288760723,-0.0780162139023,1.48831210256,-0.657343324753,0.46038873365,0.289335752655,1.03297725298,-3.06176060417,0.0533923754744,-1.89355239725,0.0411858349421
7.22,0.547352707783,0.860744050642,0.0625351461336,0.710750423833,-0.0707032900622,1.48239535757,-0.657343324753,0.458567948041,0.289910553048,1.03135649798,-3.06888359669,0.055878967522,-1.89305371641,0.0417284389275
7.24,0.547352707783,0.860744050642,0.0625351461336,0.710750423833,-0.0707032900622,1.48239535757,-0.657343324753,0.458567948041,0.289910553048,1.03135649798,-3.06888359669,0.055878967522,-1.89305371641,0.0417284389275
7.26,0.547282899673,0.857043921202,0.062517694106,0.723124801838,-0.0658861809273,1.476827753,-0.657343324753,0.456987457614,0.290012523824,1.02953540108,-3.07446872205,0.0562874204031,-1.89276541515,0.0422653507578
7.28,0.547282899673,0.857043921202,0.062517694106,0.723124801838,-0.0658861809273,1.476827753,-0.657343324753,0.456987457614,0.290012523824,1.02953540108,-3.07446872205,0.0562874204031,-1.89276541515,0.0422653507578
7.3,0.547230535268,0.853640534487,0.062517694106,0.734486912313,-0.0645073708848,1.47267388749,-0.657343324753,0.455662267296,0.289583205721,1.02786381072,-3.07778459247,0.0540522626096,-1.89240703506,0.0427478299942
7.32,0.547230535268,0.853640534487,0.062517694106,0.734486912313,-0.0645073708848,1.47267388749,-0.657343324753,0.455662267296,0.289583205721,1.02786381072,-3.07778459247,0.0540522626096,-1.89240703506,0.0427478299942
7.34,0.547352707783,0.849905517637,0.0625002420785,0.744749470152,-0.0645073708848,1.47115548619,-0.657343324753,0.454194946295,0.288862714768,1.02668442613,-3.08072858947,0.050002450588,-1.89194054292,0.0431585362275
7.36,0.547352707783,0.849905517637,0.0625002420785,0.744749470152,-0.0645073708848,1.47115548619,-0.657343324753,0.454194946295,0.288862714768,1.02668442613,-3.08072858947,0.050002450588,-1.89194054292,0.0431585362275
7.38,0.547457436593,0.845681810728,0.0625002420785,0.752882697542,-0.0644201024248,1.47108571137,-0.657343324753,0.452827836621,0.288182942063,1.02641506196,-3.08301650702,0.0469220075778,-1.89156667863,0.0434486605145
7.4,0.547457436593,0.845681810728,0.0625002420785,0.752882697542,-0.0644201024248,1.47108571137,-0.657343324753,0.452827836621,0.288182942063,1.02641506196,-3.08301650702,0.0469220075778,-1.89156667863,0.0434486605145
7.42,0.548033378468,0.840253888952,0.0624827858898,0.760719182208,-0.0644724626685,1.47077145836,-0.657343324753,0.451393584334,0.287720716476,1.0268847708,-3.08407218003,0.0450931720149,-1.89067845873,0.0436924147688
7.44,0.548033378468,0.840253888952,0.0624827858898,0.760719182208,-0.0644724626685,1.47077145836,-0.657343324753,0.451393584334,0.287720716476,1.0268847708,-3.08407218003,0.0450931720149,-1.89067845873,0.0436924147688
7.46,0.549028235583,0.833202703913,0.0624129736186,0.769655286088,-0.064455010641,1.46941018357,-0.657343324753,0.449780102669,0.287418613856,1.02788506092,-3.08413525823,0.0444799973449,-1.8892950526,0.0439451212221
7.48,0.549028235583,0.833202703913,0.0624129736186,0.769655286088,-0.064455010641,1.46941018357,-0.657343324753,0.449780102669,0.287418613856,1.02788506092,-3.08413525823,0.0444799973449,-1.8892950526,0.0439451212221
7.5,0.549202739213,0.823533631522,0.0624478818348,0.784071709438,-0.0644724626685,1.46345855117,-0.657343324753,0.448108657098,0.28668368368,1.02861691371,-3.08308480268,0.0451977475087,-1.88827680175,0.0443822856488
7.52,0.549202739213,0.823533631522,0.0624478818348,0.784071709438,-0.0644724626685,1.46345855117,-0.657343324753,0.448108657098,0.28668368368,1.02861691371,-3.08308480268,0.0451977475087,-1.88827680175,0.0443822856488
7.54,0.548993314883,0.810112031997,0.0624478818348,0.809675673053,-0.0644724626685,1.44792513148,-0.657343324753,0.446016393376,0.285610422259,1.02794808466,-3.08059531973,0.0475225963561,-1.88691238402,0.0452080125431
7.56,0.548993314883,0.810112031997,0.0624478818348,0.809675673053,-0.0644724626685,1.44792513148,-0.657343324753,0.446016393376,0.285610422259,1.02794808466,-3.08059531973,0.0475225963561,-1.88691238402,0.0452080125431
7.58,0.549063122993,0.794316823572,0.0624827858898,0.844390310757,-0.0644899146961,1.4225131152,-0.657343324753,0.44361801589,0.284684255592,1.02578240368,-3.07612127104,0.0522910966541,-1.8845411986,0.0462919711598
7.6,0.549063122993,0.794316823572,0.0624827858898,0.844390310757,-0.0644899146961,1.4225131152,-0.657343324753,0.44361801589,0.284684255592,1.02578240368,-3.07612127104,0.0522910966541,-1.8845411986,0.0462919711598
7.62,0.549220216208,0.775432348282,0.062517694106,0.886417789078,-0.0644724626685,1.39018966326,-0.657325881048,0.440735919338,0.283624829142,1.0230076457,-3.06994071258,0.0591398468249,-1.88152834315,0.0474517828072
7.64,0.549220216208,0.775432348282,0.062517694106,0.886417789078,-0.0644724626685,1.39018966326,-0.657325881048,0.440735919338,0.283624829142,1.0230076457,-3.06994071258,0.0591398468249,-1.88152834315,0.0474517828072
7.66,0.549342388723,0.755238862738,0.0625875063773,0.928305717757,-0.0643502901535,1.35959407023,-0.657308437343,0.437419561061,0.282275812013,1.02088036634,-3.06398812405,0.0658083318791,-1.87856462796,0.0483964940872
7.68,0.549342388723,0.755238862738,0.0625875063773,0.928305717757,-0.0643502901535,1.35959407023,-0.657308437343,0.437419561061,0.282275812013,1.02088036634,-3.06398812405,0.0658083318791,-1.87856462796,0.0483964940872
7.7,0.549342388723,0.733910937148,0.0625526023223,0.969774731197,-0.0643677421811,1.33042952682,-0.657325881048,0.433851298808,0.280586965706,1.01938367665,-3.05774832486,0.0723969407672,-1.87575595835,0.049120494566
7.72,0.549342388723,0.733910937148,0.0625526023223,0.969774731197,-0.0643677421811,1.33042952682,-0.657325881048,0.433851298808,0.280586965706,1.01938367665,-3.05774832486,0.0723969407672,-1.87575595835,0.049120494566
7.74,0.549028235583,0.713490616857,0.0624827858898,1.00715972053,-0.064455010641,1.30513974963,-0.657343324753,0.430436447133,0.278692653592,1.01856383103,-3.05187956948,0.0783810286738,-1.87353792969,0.0495902087246
7.76,0.549028235583,0.713490616857,0.0624827858898,1.00715972053,-0.064455010641,1.30513974963,-0.657343324753,0.430436447133,0.278692653592,1.01856383103,-3.05187956948,0.0783810286738,-1.87353792969,0.0495902087246
7.78,0.548888586073,0.693366972712,0.0625526023223,1.04091435524,-0.0643677421811,1.28423073928,-0.657308437343,0.426868045405,0.276824783828,1.01858057666,-3.04684788672,0.0836915690774,-1.87141583924,0.0498520450883
7.8,0.548888586073,0.693366972712,0.0625526023223,1.04091435524,-0.0643677421811,1.28423073928,-0.657308437343,0.426868045405,0.276824783828,1.01858057666,-3.04684788672,0.0836915690774,-1.87141583924,0.0498520450883
7.82,0.548993314883,0.673313103388,0.0625526023223,1.07210336713,-0.0643851942086,1.26347872228,-0.657308437343,0.423614210469,0.275219645624,1.01929725894,-3.04022622103,0.090722642799,-1.86900265559,0.0499344879458
7.84,0.548993314883,0.673313103388,0.0625526023223,1.07210336713,-0.0643851942086,1.26347872228,-0.657308437343,0.423614210469,0.275219645624,1.01929725894,-3.04022622103,0.090722642799,-1.86900265559,0.0499344879458
7.86,0.548836221668,0.656627799947,0.0625002420785,1.096555447,-0.0644375544523,1.24796274629,-0.657325881048,0.42096395659,0.273708280819,1.0202733387,-3.03479379703,0.0963069036544,-1.86733910168,0.0499038244733
7.88,0.548836221668,0.656627799947,0.0625002420785,1.096555447,-0.0644375544523,1.24796274629,-0.657325881048,0.42096395659,0.273708280819,1.0202733387,-3.03479379703,0.0963069036544,-1.86733910168,0.0499038244733
7.9,0.548731526148,0.642857126583,0.062517694106,1.11465455608,-0.0644724626685,1.23752568482,-0.657325881048,0.41878692894,0.272472065421,1.02164547278,-3.03049674133,0.100697974832,-1.86605007625,0.0498072132445
7.92,0.548731526148,0.642857126583,0.062517694106,1.11465455608,-0.0644724626685,1.23752568482,-0.657325881048,0.41878692894,0.272472065421,1.02164547278,-3.03049674133,0.100697974832,-1.86605007625,0.0498072132445
7.94,0.548766413558,0.631948818758,0.062517694106,1.12648784633,-0.0644724626685,1.23194063654,-0.657325881048,0.417119085359,0.271554806302,1.02343778363,-3.02718975975,0.104022497948,-1.86509116399,0.0496797438785
7.96,0.548766413558,0.631948818758,0.062517694106,1.12648784633,-0.0644724626685,1.23194063654,-0.657325881048,0.417119085359,0.271554806302,1.02343778363,-3.02718975975,0.104022497948,-1.86509116399,0.0496797438785
7.98,0.548801334258,0.623763193673,0.0625526023223,1.13608721048,-0.0644375544523,1.22853724983,-0.657308437343,0.415597446695,0.27071698019,1.02451481863,-3.02569093663,0.105371475214,-1.86445214741,0.0495975274586
8.0,0.548801334258,0.623763193673,0.0625526023223,1.13608721048,-0.0644375544523,1.22853724983,-0.657308437343,0.415597446695,0.27071698019,1.02451481863,-3.02569093663,0.105371475214,-1.86445214741,0.0495975274586
8.02,0.548731526148,0.616904089128,0.0624827858898,1.14390625144,-0.0644724626685,1.22693149685,-0.657308437343,0.41424103711,0.269832124226,1.02544408565,-3.02497094599,0.105616232383,-1.86416910662,0.0495303023278
8.04,0.548731526148,0.616904089128,0.0624827858898,1.14390625144,-0.0644724626685,1.22693149685,-0.657308437343,0.41424103711,0.269832124226,1.02544408565,-3.02497094599,0.105616232383,-1.86416910662,0.0495303023278
8.06,0.548731526148,0.611964790833,0.0624827858898,1.14959596195,-0.0644899146961,1.22691405314,-0.657308437343,0.413067749643,0.269112389983,1.02605778313,-3.02522394696,0.104874452631,-1.86398710728,0.0494913162219
8.08,0.548731526148,0.611964790833,0.0624827858898,1.14959596195,-0.0644899146961,1.22691405314,-0.657308437343,0.413067749643,0.269112389983,1.02605778313,-3.02522394696,0.104874452631,-1.86398710728,0.0494913162219
8.1,0.548714049153,0.607374566378,0.0624304256461,1.15577449568,-0.064577183156,1.22687916573,-0.657325881048,0.411828481247,0.268304412753,1.02633784772,-3.02592905261,0.103440339352,-1.86386528275,0.0494698526751
8.12,0.548714049153,0.607374566378,0.0624304256461,1.15577449568,-0.064577183156,1.22687916573,-0.657325881048,0.411828481247,0.268304412753,1.02633784772,-3.02592905261,0.103440339352,-1.86386528275,0.0494698526751
8.14,0.548626797338,0.603534887298,0.0622035326436,1.16130721285,-0.065275314191,1.22686172203,-0.657308437343,0.410833715965,0.267410435867,1.02645307033,-3.0261978142,0.101500619009,-1.86385389533,0.0494567770177
8.16,0.548626797338,0.603534887298,0.0622035326436,1.16130721285,-0.065275314191,1.22686172203,-0.657308437343,0.410833715965,0.267410435867,1.02645307033,-3.0261978142,0.101500619009,-1.86385389533,0.0494567770177
8.18,0.548591876638,0.600340891623,0.0620813601286,1.16519928962,-0.0663923230148,1.22684427832,-0.657343324753,0.410166450604,0.266716374145,1.02677689601,-3.02558202019,0.100134828029,-1.86354102641,0.0494307322378
8.2,0.548591876638,0.600340891623,0.0620813601286,1.16519928962,-0.0663923230148,1.22684427832,-0.657343324753,0.410166450604,0.266716374145,1.02677689601,-3.02558202019,0.100134828029,-1.86354102641,0.0494307322378
8.22,0.548609353633,0.598037057543,0.0620289998848,1.16748561342,-0.0702145916798,1.22679194721,-0.657325881048,0.410048681957,0.265915014781,1.02719265761,-3.02247677782,0.0977619235433,-1.86245980709,0.0494006661531
8.24,0.548609353633,0.598037057543,0.0620289998848,1.16748561342,-0.0702145916798,1.22679194721,-0.657325881048,0.410048681957,0.265915014781,1.02719265761,-3.02247677782,0.0977619235433,-1.86245980709,0.0494006661531
8.26,0.548591876638,0.596902617498,0.0619766438023,1.16863756375,-0.0746651832698,1.2267570598,-0.657308437343,0.410236039613,0.265162985077,1.02740477929,-3.01896988596,0.0949987169344,-1.86130212134,0.049385668451
8.28,0.548591876638,0.596902617498,0.0619766438023,1.16863756375,-0.0746651832698,1.2267570598,-0.657308437343,0.410236039613,0.265162985077,1.02740477929,-3.01896988596,0.0949987169344,-1.86130212134,0.049385668451
8.3,0.548609353633,0.596309198628,0.061941735586,1.16865500745,-0.0780336742522,1.22673961609,-0.657325881048,0.410537024795,0.264711257682,1.0277108188,-3.01596116762,0.0933616663679,-1.86036447795,0.0493668384689
8.32,0.548609353633,0.596309198628,0.061941735586,1.16865500745,-0.0780336742522,1.22673961609,-0.657325881048,0.410537024795,0.264711257682,1.0277108188,-3.01596116762,0.0933616663679,-1.86036447795,0.0493668384689
8.34,0.548574432933,0.596344086038,0.0618893753423,1.16870733857,-0.0804422288197,1.22673961609,-0.657308437343,0.410770201394,0.26435941,1.02769327566,-3.01414381448,0.0918008291671,-1.8598276717,0.049368496239
8.36,0.548574432933,0.596344086038,0.0618893753423,1.16870733857,-0.0804422288197,1.22673961609,-0.657308437343,0.410770201394,0.26435941,1.02769327566,-3.01414381448,0.0918008291671,-1.8598276717,0.049368496239
8.38,0.548469704123,0.596344086038,0.0618021068823,1.16867245116,-0.0830427640123,1.22672217239,-0.657308437343,0.411065458547,0.263954004953,1.02772326308,-3.01207442578,0.0902129325589,-1.85931757228,0.0493672785411
8.4,0.548469704123,0.596344086038,0.0618021068823,1.16867245116,-0.0830427640123,1.22672217239,-0.657308437343,0.411065458547,0.263954004953,1.02772326308,-3.01207442578,0.0902129325589,-1.85931757228,0.0493672785411
8.42,0.548190471683,0.596413927438,0.0616799343673,1.16867245116,-0.0855385870397,1.22670472868,-0.657308437343,0.411399064466,0.263475761236,1.02770805087,-3.01014136234,0.0885959240162,-1.85904512936,0.0493689158388
8.44,0.548190471683,0.596413927438,0.0616799343673,1.16867245116,-0.0855385870397,1.22670472868,-0.657308437343,0.411399064466,0.263475761236,1.02770805087,-3.01014136234,0.0885959240162,-1.85904512936,0.0493689158388
8.46,0.548260279793,0.596448814848,0.0616624823398,1.16867245116,-0.0878075170647,1.22670472868,-0.657325881048,0.411594551173,0.263203143232,1.02770921434,-3.00841345791,0.0871665475293,-1.85838500874,0.0493695549804
8.48,0.548260279793,0.596448814848,0.0616624823398,1.16867245116,-0.0878075170647,1.22670472868,-0.657325881048,0.411594551173,0.263203143232,1.02770921434,-3.00841345791,0.0871665475293,-1.85838500874,0.0493695549804
8.5,0.548225359093,0.596536099953,0.0616624823398,1.16870733857,-0.0880867661497,1.22668715182,-0.657325881048,0.411626917451,0.263150994397,1.02765817766,-3.00826903659,0.0869168504451,-1.85835159236,0.0493726650984
8.52,0.548225359093,0.596536099953,0.0616624823398,1.16870733857,-0.0880867661497,1.22668715182,-0.657325881048,0.411626917451,0.263150994397,1.02765817766,-3.00826903659,0.0869168504451,-1.85835159236,0.0493726650984
8.54,0.548312644198,0.596570987363,0.0616624823398,1.16870733857,-0.0880693141222,1.22665226441,-0.657325881048,0.411607767433,0.263193037172,1.0276418796,-3.00828428228,0.0869290746424,-1.85826717948,0.0493733918969
8.56,0.548312644198,0.596570987363,0.0616624823398,1.16870733857,-0.0880693141222,1.22665226441,-0.657325881048,0.411607767433,0.263193037172,1.0276418796,-3.00828428228,0.0869290746424,-1.85826717948,0.0493733918969
8.58,0.548190471683,0.596605874773,0.0616450303123,1.16868989486,-0.0880867661497,1.2266348207,-0.657308437343,0.411651620778,0.263138898809,1.02763090704,-3.00826669816,0.0869154046409,-1.85841583116,0.0493739908757
8.6,0.548190471683,0.596605874773,0.0616450303123,1.16868989486,-0.0880867661497,1.2266348207,-0.657308437343,0.411651620778,0.263138898809,1.02763090704,-3.00826669816,0.0869154046409,-1.85841583116,0.0493739908757
8.62,0.548085742873,0.596885173793,0.0614704975535,1.16867245116,-0.0882089386647,1.2266348207,-0.657308437343,0.411736015274,0.263027640748,1.02750008889,-3.00827680281,0.086580820048,-1.85864289756,0.0493825137294
8.64,0.548085742873,0.596885173793,0.0614704975535,1.16867245116,-0.0882089386647,1.2266348207,-0.657308437343,0.411736015274,0.263027640748,1.02750008889,-3.00827680281,0.086580820048,-1.85864289756,0.0493825137294
8.66,0.547928649658,0.597356420148,0.0613308688498,1.16863756375,-0.0886801766972,1.22658248959,-0.657325881048,0.411873130396,0.262870175971,1.02728553187,-3.00811774074,0.0859545373314,-1.85879215655,0.049396010064
8.68,0.547928649658,0.597356420148,0.0613308688498,1.16863756375,-0.0886801766972,1.22658248959,-0.657325881048,0.411873130396,0.262870175971,1.02728553187,-3.00811774074,0.0859545373314,-1.85879215655,0.049396010064
8.7,0.548085742873,0.599398398913,0.0613308688498,1.16867245116,-0.0917519582447,1.22654760218,-0.657308437343,0.41215157382,0.262556825544,1.02630417262,-3.00713830078,0.0825533338588,-1.85797083885,0.0494588686063
8.72,0.548085742873,0.602662169408,0.0614006811211,1.16858523263,-0.0957487638297,1.22625092603,-0.657308437343,0.41215157382,0.262556825544,1.02630417262,-3.00713830078,0.0825533338588,-1.85797083885,0.0494588686063
8.74,0.548085742873,0.602662169408,0.0614006811211,1.16858523263,-0.0957487638297,1.22625092603,-0.657308437343,0.412620949968,0.262133647196,1.02478132905,-3.00606573199,0.0780017800368,-1.85702762995,0.049554089779
8.76,0.548225359093,0.606484471363,0.0614181373098,1.16856778893,-0.0979478774222,1.22391213796,-0.657290993638,0.412620949968,0.262133647196,1.02478132905,-3.00606573199,0.0780017800368,-1.85702762995,0.049554089779
8.78,0.548225359093,0.606484471363,0.0614181373098,1.16856778893,-0.0979478774222,1.22391213796,-0.657290993638,0.413167840338,0.262181424665,1.02299584953,-3.00550937186,0.0756744501078,-1.8562687443,0.0496469004035
8.8,0.548155550983,0.609468942838,0.0614181373098,1.16830600019,-0.0984540195097,1.22071820887,-0.657308437343,0.41376326867,0.262460561271,1.0217003864,-3.00498970949,0.0758585052062,-1.85599335182,0.0497005003792
8.82,0.548155550983,0.609468942838,0.0614181373098,1.16830600019,-0.0984540195097,1.22071820887,-0.657308437343,0.41376326867,0.262460561271,1.0217003864,-3.00498970949,0.0758585052062,-1.85599335182,0.0497005003792
8.84,0.548207915388,0.611720445803,0.0614006811211,1.16804421146,-0.0984714798596,1.21766382941,-0.657308437343,0.41425313073,0.262826376853,1.02075450699,-3.00442957696,0.0767722434137,-1.85573150304,0.0497326947121
8.86,0.548207915388,0.611720445803,0.0614006811211,1.16804421146,-0.0984714798596,1.21766382941,-0.657308437343,0.41425313073,0.262826376853,1.02075450699,-3.00442957696,0.0767722434137,-1.85573150304,0.0497326947121
8.88,0.547998491058,0.612977058363,0.0613308688498,1.16793941607,-0.0985761920247,1.21412089306,-0.657308437343,0.414852043211,0.263075560245,1.02025918773,-3.00290635448,0.0786100253698,-1.85564540528,0.0497316119413
8.9,0.547998491058,0.612977058363,0.0613308688498,1.16793941607,-0.0985761920247,1.21412089306,-0.657308437343,0.414852043211,0.263075560245,1.02025918773,-3.00290635448,0.0786100253698,-1.85564540528,0.0497316119413
8.92,0.548015934763,0.614390797428,0.0611039758473,1.16776484586,-0.0989776219472,1.21174721758,-0.657308437343,0.415307619526,0.263221944049,1.01968219025,-3.00187536805,0.0792248960486,-1.85550916815,0.0497463420244
8.94,0.548015934763,0.614390797428,0.0611039758473,1.16776484586,-0.0989776219472,1.21174721758,-0.657308437343,0.415307619526,0.263221944049,1.01968219025,-3.00187536805,0.0792248960486,-1.85550916815,0.0497463420244
8.96,0.547736669033,0.614966772593,0.0608770828448,1.16731117637,-0.100461152477,1.20949578119,-0.657308437343,0.41596811307,0.26311983334,1.01961393675,-2.99935178138,0.079912284135,-1.85533899485,0.0497311190802
8.98,0.547736669033,0.614966772593,0.0608770828448,1.16731117637,-0.100461152477,1.20949578119,-0.657308437343,0.41596811307,0.26311983334,1.01961393675,-2.99935178138,0.079912284135,-1.85533899485,0.0497311190802
9.0,0.547771589733,0.615787092788,0.0596902617498,1.1665082333,-0.10372491465,1.20761079577,-0.657308437343,0.416932841373,0.262606306229,1.01954291871,-2.9952310281,0.0789287743427,-1.85516966769,0.0497214026037
9.02,0.547771589733,0.615787092788,0.0596902617498,1.1665082333,-0.10372491465,1.20761079577,-0.657308437343,0.416932841373,0.262606306229,1.01954291871,-2.9952310281,0.0789287743427,-1.85516966769,0.0497214026037
9.04,0.547213091563,0.616467730183,0.059393556476,1.16537385983,-0.109711392852,1.20710466201,-0.657290993638,0.417991498196,0.261692296757,1.01964805641,-2.98997349854,0.0758862415414,-1.8543348116,0.049714543487
9.06,0.547213091563,0.616467730183,0.059393556476,1.16537385983,-0.109711392852,1.20710466201,-0.657290993638,0.417991498196,0.261692296757,1.01964805641,-2.98997349854,0.0758862415414,-1.8543348116,0.049714543487
9.08,0.546392771368,0.616729518918,0.0594633687473,1.16306995917,-0.115802599865,1.20710466201,-0.657290993638,0.41920589062,0.260863467582,1.02032895858,-2.98407953194,0.073722392288,-1.85347260883,0.0496781540147
9.1,0.546392771368,0.616729518918,0.0594633687473,1.16306995917,-0.115802599865,1.20710466201,-0.657290993638,0.41920589062,0.260863467582,1.02032895858,-2.98407953194,0.073722392288,-1.85347260883,0.0496781540147
9.12,0.546200790743,0.616799360318,0.0594459125586,1.15973634728,-0.12027063516,1.20713954942,-0.657273549933,0.420317406264,0.260594046584,1.02141866332,-2.97861465115,0.0734288839061,-1.85249595169,0.0496170300377
9.14,0.546200790743,0.616799360318,0.0594459125586,1.15973634728,-0.12027063516,1.20713954942,-0.657273549933,0.420317406264,0.260594046584,1.02141866332,-2.97861465115,0.0734288839061,-1.85249595169,0.0496170300377
9.16,0.546235711443,0.617148434158,0.0594633687473,1.15502401689,-0.121858886177,1.20715699312,-0.657290993638,0.421368794246,0.260967570435,1.02277995573,-2.97463986792,0.0757931336973,-1.85197722885,0.0495378591418
9.18,0.546235711443,0.617148434158,0.0594633687473,1.15502401689,-0.121858886177,1.20715699312,-0.657290993638,0.421368794246,0.260967570435,1.02277995573,-2.97463986792,0.0757931336973,-1.85197722885,0.0495378591418
9.2,0.546165870043,0.618021085468,0.0594633687473,1.14935161692,-0.122295220155,1.20715699312,-0.657290993638,0.422536001802,0.26155495654,1.0241803112,-2.97125970066,0.0792333594871,-1.85189468836,0.0494544194383
