GitHatake/ROS1EARs/catkin_ws/src/torobo_robot/torobo_EARs2021/scripts/arm/2021_kaiya_csv/test_manipulability_20220119_5_pvt_2.csv
time,joint_1,joint_2,joint_3,joint_4,joint_5,joint_6,joint_7,x,y,z,roll,pitch,yaw,manipulability
0.0,-0.637656039553,0.0916646897847,0.0851720694947,1.19862236078,0.116134205032,1.20090868457,-3.49065866979e-05,0.364614188692,-0.205659785635,1.2528003183,2.99179490634,0.647363228478,2.53035971474,0.0331252832211
0.02,-0.637656039553,0.0916646897847,0.0851720694947,1.19862236078,0.116134205032,1.20089124087,-3.49065866979e-05,0.364616125794,-0.205661143199,1.25280210671,2.9917929387,0.647380476834,2.53035645114,0.0331250645475
0.04,-0.637656039553,0.0916646897847,0.0851720694947,1.19862236078,0.116134205032,1.20089124087,-3.49065866979e-05,0.364616125794,-0.205661143199,1.25280210671,2.9917929387,0.647380476834,2.53035645114,0.0331250645475
0.06,-0.637656039553,0.0916646897847,0.0851720694947,1.19862236078,0.116134205032,1.20089124087,-3.49065866979e-05,0.364616125794,-0.205661143199,1.25280210671,2.9917929387,0.647380476834,2.53035645114,0.0331250645475
0.08,-0.637656039553,0.0916646897847,0.0851720694947,1.19862236078,0.116134205032,1.20089124087,-3.49065866979e-05,0.364616125794,-0.205661143199,1.25280210671,2.9917929387,0.647380476834,2.53035645114,0.0331250645475
0.1,-0.637656039553,0.0916646897847,0.0851720694947,1.19862236078,0.116134205032,1.20090868457,-3.49065866979e-05,0.364614188692,-0.205659785635,1.2528003183,2.99179490634,0.647363228478,2.53035971474,0.0331252832211
0.12,-0.637656039553,0.0916646897847,0.0851720694947,1.19862236078,0.116134205032,1.20090868457,-3.49065866979e-05,0.364614188692,-0.205659785635,1.2528003183,2.99179490634,0.647363228478,2.53035971474,0.0331252832211
0.14,-0.637656039553,0.0916646897847,0.0851720694947,1.19862236078,0.116134205032,1.20090868457,-3.49065866979e-05,0.364614188692,-0.205659785635,1.2528003183,2.99179490634,0.647363228478,2.53035971474,0.0331252832211
0.16,-0.637656039553,0.0916646897847,0.0851720694947,1.19860491707,0.116134205032,1.20089124087,-3.49065866979e-05,0.364616856198,-0.205661656269,1.25280892584,2.99179166241,0.647397890276,2.53035554556,0.0331246602396
0.18,-0.637656039553,0.0916646897847,0.0851720694947,1.19860491707,0.116134205032,1.20089124087,-3.49065866979e-05,0.364616856198,-0.205661656269,1.25280892584,2.99179166241,0.647397890276,2.53035554556,0.0331246602396
0.2,-0.637656039553,0.0916646897847,0.0851720694947,1.19862236078,0.116116753005,1.20089124087,-3.49065866979e-05,0.364614759944,-0.205663525993,1.25280177738,2.99181392734,0.647381417819,2.53036427247,0.033125064759
0.22,-0.637656039553,0.0916646897847,0.0851720694947,1.19862236078,0.116116753005,1.20089124087,-3.49065866979e-05,0.364614759944,-0.205663525993,1.25280177738,2.99181392734,0.647381417819,2.53036427247,0.033125064759
0.24,-0.637656039553,0.0916646897847,0.0851720694947,1.19862236078,0.116134205032,1.20089124087,-3.49065866979e-05,0.364616125794,-0.205661143199,1.25280210671,2.9917929387,0.647380476834,2.53035645114,0.0331250645475
0.26,-0.637656039553,0.0916646897847,0.0851720694947,1.19862236078,0.116134205032,1.20089124087,-3.49065866979e-05,0.364616125794,-0.205661143199,1.25280210671,2.9917929387,0.647380476834,2.53035645114,0.0331250645475
0.28,-0.637656039553,0.0916646897847,0.0851720694947,1.19862236078,0.116134205032,1.20089124087,-3.49065866979e-05,0.364616125794,-0.205661143199,1.25280210671,2.9917929387,0.647380476834,2.53035645114,0.0331250645475
0.3,-0.637656039553,0.0916646897847,0.0851720694947,1.19862236078,0.116134205032,1.20089124087,-3.49065866979e-05,0.364616125794,-0.205661143199,1.25280210671,2.9917929387,0.647380476834,2.53035645114,0.0331250645475
0.32,-0.637656039553,0.0916646897847,0.0851720694947,1.19862236078,0.116134205032,1.20089124087,-3.49065866979e-05,0.364616125794,-0.205661143199,1.25280210671,2.9917929387,0.647380476834,2.53035645114,0.0331250645475
0.34,-0.637656039553,0.0916646897847,0.0851720694947,1.19862236078,0.116134205032,1.20089124087,-3.49065866979e-05,0.364616125794,-0.205661143199,1.25280210671,2.9917929387,0.647380476834,2.53035645114,0.0331250645475
0.36,-0.637656039553,0.0916646897847,0.0851720694947,1.19862236078,0.116134205032,1.20089124087,-3.49065866979e-05,0.364616125794,-0.205661143199,1.25280210671,2.9917929387,0.647380476834,2.53035645114,0.0331250645475
0.38,-0.637656039553,0.0916646897847,0.0851720694947,1.19860491707,0.116134205032,1.20089124087,-3.49065866979e-05,0.364616856198,-0.205661656269,1.25280892584,2.99179166241,0.647397890276,2.53035554556,0.0331246602396
0.4,-0.637656039553,0.0916646897847,0.0851720694947,1.19860491707,0.116134205032,1.20089124087,-3.49065866979e-05,0.364616856198,-0.205661656269,1.25280892584,2.99179166241,0.647397890276,2.53035554556,0.0331246602396
0.42,-0.637656039553,0.0916646897847,0.0851720694947,1.19860491707,0.116134205032,1.20089124087,-3.49065866979e-05,0.364616856198,-0.205661656269,1.25280892584,2.99179166241,0.647397890276,2.53035554556,0.0331246602396
0.44,-0.637638595848,0.0916646897847,0.0851720694947,1.19862236078,0.116134205032,1.20089124087,-3.49065866979e-05,0.364619713231,-0.205654782912,1.25280210671,2.9917929387,0.647380476834,2.53037389484,0.0331250645475
0.46,-0.637638595848,0.0916646897847,0.0851720694947,1.19862236078,0.116134205032,1.20089124087,-3.49065866979e-05,0.364619713231,-0.205654782912,1.25280210671,2.9917929387,0.647380476834,2.53037389484,0.0331250645475
0.48,-0.637656039553,0.0916646897847,0.0851720694947,1.19862236078,0.116134205032,1.20089124087,-3.49065866979e-05,0.364616125794,-0.205661143199,1.25280210671,2.9917929387,0.647380476834,2.53035645114,0.0331250645475
0.5,-0.637656039553,0.0916646897847,0.0851720694947,1.19862236078,0.116134205032,1.20089124087,-3.49065866979e-05,0.364616125794,-0.205661143199,1.25280210671,2.9917929387,0.647380476834,2.53035645114,0.0331250645475
0.52,-0.637656039553,0.0916646897847,0.0851720694947,1.19862236078,0.116134205032,1.20090868457,-3.49065866979e-05,0.364614188692,-0.205659785635,1.2528003183,2.99179490634,0.647363228478,2.53035971474,0.0331252832211
0.54,-0.637656039553,0.0916646897847,0.0851720694947,1.19862236078,0.116134205032,1.20090868457,-3.49065866979e-05,0.364614188692,-0.205659785635,1.2528003183,2.99179490634,0.647363228478,2.53035971474,0.0331252832211
0.56,-0.637656039553,0.0916646897847,0.0851720694947,1.19862236078,0.116134205032,1.20090868457,-3.49065866979e-05,0.364614188692,-0.205659785635,1.2528003183,2.99179490634,0.647363228478,2.53035971474,0.0331252832211
0.58,-0.637656039553,0.0916646897847,0.0851720694947,1.19862236078,0.116134205032,1.20089124087,-3.49065866979e-05,0.364616125794,-0.205661143199,1.25280210671,2.9917929387,0.647380476834,2.53035645114,0.0331250645475
0.6,-0.637656039553,0.0916646897847,0.0851720694947,1.19862236078,0.116134205032,1.20089124087,-3.49065866979e-05,0.364616125794,-0.205661143199,1.25280210671,2.9917929387,0.647380476834,2.53035645114,0.0331250645475
0.62,-0.637656039553,0.0916646897847,0.0851720694947,1.19862236078,0.116134205032,1.20090868457,-3.49065866979e-05,0.364614188692,-0.205659785635,1.2528003183,2.99179490634,0.647363228478,2.53035971474,0.0331252832211
0.64,-0.637656039553,0.0916646897847,0.0851720694947,1.19862236078,0.116134205032,1.20090868457,-3.49065866979e-05,0.364614188692,-0.205659785635,1.2528003183,2.99179490634,0.647363228478,2.53035971474,0.0331252832211
0.66,-0.637656039553,0.0916646897847,0.0851720694947,1.19862236078,0.116134205032,1.20089124087,-3.49065866979e-05,0.364616125794,-0.205661143199,1.25280210671,2.9917929387,0.647380476834,2.53035645114,0.0331250645475
0.68,-0.637656039553,0.0916646897847,0.0851720694947,1.19862236078,0.116134205032,1.20089124087,-3.49065866979e-05,0.364616125794,-0.205661143199,1.25280210671,2.9917929387,0.647380476834,2.53035645114,0.0331250645475
0.7,-0.637656039553,0.0916646897847,0.0851720694947,1.19862236078,0.116134205032,1.20089124087,-3.49065866979e-05,0.364616125794,-0.205661143199,1.25280210671,2.9917929387,0.647380476834,2.53035645114,0.0331250645475
0.72,-0.637656039553,0.0916646897847,0.0851720694947,1.19862236078,0.116116753005,1.20089124087,-3.49065866979e-05,0.364614759944,-0.205663525993,1.25280177738,2.99181392734,0.647381417819,2.53036427247,0.033125064759
0.74,-0.637656039553,0.0916646897847,0.0851720694947,1.19862236078,0.116116753005,1.20089124087,-3.49065866979e-05,0.364614759944,-0.205663525993,1.25280177738,2.99181392734,0.647381417819,2.53036427247,0.033125064759
0.76,-0.637656039553,0.0916646897847,0.0851720694947,1.19862236078,0.116134205032,1.20089124087,-3.49065866979e-05,0.364616125794,-0.205661143199,1.25280210671,2.9917929387,0.647380476834,2.53035645114,0.0331250645475
0.78,-0.637656039553,0.0916646897847,0.0851720694947,1.19862236078,0.116134205032,1.20089124087,-3.49065866979e-05,0.364616125794,-0.205661143199,1.25280210671,2.9917929387,0.647380476834,2.53035645114,0.0331250645475
0.8,-0.637656039553,0.0916646897847,0.0851720694947,1.19862236078,0.116134205032,1.20089124087,-3.49065866979e-05,0.364616125794,-0.205661143199,1.25280210671,2.9917929387,0.647380476834,2.53035645114,0.0331250645475
0.82,-0.637656039553,0.0916646897847,0.0851720694947,1.19862236078,0.116134205032,1.20089124087,-3.49065866979e-05,0.364616125794,-0.205661143199,1.25280210671,2.9917929387,0.647380476834,2.53035645114,0.0331250645475
0.84,-0.637656039553,0.0916646897847,0.0851720694947,1.19862236078,0.116134205032,1.20089124087,-3.49065866979e-05,0.364616125794,-0.205661143199,1.25280210671,2.9917929387,0.647380476834,2.53035645114,0.0331250645475
0.86,-0.637656039553,0.0916646897847,0.0851720694947,1.19862236078,0.116116753005,1.20090868457,-3.49065866979e-05,0.364612822833,-0.205662168444,1.25279998897,2.99181589472,0.647364169409,2.53036753562,0.0331252834325
0.88,-0.637656039553,0.0916646897847,0.0851720694947,1.19862236078,0.116116753005,1.20090868457,-3.49065866979e-05,0.364612822833,-0.205662168444,1.25279998897,2.99181589472,0.647364169409,2.53036753562,0.0331252834325
0.9,-0.637656039553,0.0916646897847,0.0851720694947,1.19862236078,0.116134205032,1.20089124087,-3.49065866979e-05,0.364616125794,-0.205661143199,1.25280210671,2.9917929387,0.647380476834,2.53035645114,0.0331250645475
0.92,-0.637656039553,0.0916646897847,0.0851720694947,1.19862236078,0.116134205032,1.20089124087,-3.49065866979e-05,0.364616125794,-0.205661143199,1.25280210671,2.9917929387,0.647380476834,2.53035645114,0.0331250645475
0.94,-0.637656039553,0.0916646897847,0.0851720694947,1.19862236078,0.116134205032,1.20089124087,-3.49065866979e-05,0.364616125794,-0.205661143199,1.25280210671,2.9917929387,0.647380476834,2.53035645114,0.0331250645475
0.96,-0.637656039553,0.0916646897847,0.0851720694947,1.19862236078,0.116134205032,1.20089124087,-3.49065866979e-05,0.364616125794,-0.205661143199,1.25280210671,2.9917929387,0.647380476834,2.53035645114,0.0331250645475
0.98,-0.637656039553,0.0916646897847,0.0851720694947,1.19862236078,0.116134205032,1.20089124087,-3.49065866979e-05,0.364616125794,-0.205661143199,1.25280210671,2.9917929387,0.647380476834,2.53035645114,0.0331250645475
1.0,-0.637656039553,0.0916646897847,0.0851720694947,1.19862236078,0.116134205032,1.20089124087,-3.49065866979e-05,0.364616125794,-0.205661143199,1.25280210671,2.9917929387,0.647380476834,2.53035645114,0.0331250645475
1.02,-0.637656039553,0.0916646897847,0.0851720694947,1.19862236078,0.116134205032,1.20089124087,-3.49065866979e-05,0.364616125794,-0.205661143199,1.25280210671,2.9917929387,0.647380476834,2.53035645114,0.0331250645475
1.04,-0.637656039553,0.0916646897847,0.0851720694947,1.19862236078,0.116134205032,1.20089124087,-3.49065866979e-05,0.364616125794,-0.205661143199,1.25280210671,2.9917929387,0.647380476834,2.53035645114,0.0331250645475
1.06,-0.637656039553,0.0916646897847,0.0851720694947,1.19862236078,0.116134205032,1.20089124087,-3.49065866979e-05,0.364616125794,-0.205661143199,1.25280210671,2.9917929387,0.647380476834,2.53035645114,0.0331250645475
1.08,-0.637656039553,0.0916646897847,0.0851720694947,1.19862236078,0.116116753005,1.20089124087,-3.49065866979e-05,0.364614759944,-0.205663525993,1.25280177738,2.99181392734,0.647381417819,2.53036427247,0.033125064759
1.1,-0.637656039553,0.0916646897847,0.0851720694947,1.19862236078,0.116116753005,1.20089124087,-3.49065866979e-05,0.364614759944,-0.205663525993,1.25280177738,2.99181392734,0.647381417819,2.53036427247,0.033125064759
1.12,-0.637656039553,0.0916646897847,0.0851720694947,1.19862236078,0.116116753005,1.20089124087,-3.49065866979e-05,0.364614759944,-0.205663525993,1.25280177738,2.99181392734,0.647381417819,2.53036427247,0.033125064759
1.14,-0.637656039553,0.0916646897847,0.0851720694947,1.19862236078,0.116134205032,1.20089124087,-3.49065866979e-05,0.364616125794,-0.205661143199,1.25280210671,2.9917929387,0.647380476834,2.53035645114,0.0331250645475
1.16,-0.637656039553,0.0916646897847,0.0851720694947,1.19862236078,0.116134205032,1.20089124087,-3.49065866979e-05,0.364616125794,-0.205661143199,1.25280210671,2.9917929387,0.647380476834,2.53035645114,0.0331250645475
1.18,-0.637656039553,0.0916646897847,0.0851720694947,1.19862236078,0.116134205032,1.20089124087,-3.49065866979e-05,0.364616125794,-0.205661143199,1.25280210671,2.9917929387,0.647380476834,2.53035645114,0.0331250645475
1.2,-0.637656039553,0.0916646897847,0.0851720694947,1.19862236078,0.116134205032,1.20089124087,-3.49065866979e-05,0.364616125794,-0.205661143199,1.25280210671,2.9917929387,0.647380476834,2.53035645114,0.0331250645475
1.22,-0.637656039553,0.0916646897847,0.0851720694947,1.19862236078,0.116134205032,1.20089124087,-3.49065866979e-05,0.364616125794,-0.205661143199,1.25280210671,2.9917929387,0.647380476834,2.53035645114,0.0331250645475
1.24,-0.637656039553,0.0916646897847,0.0851720694947,1.19862236078,0.116134205032,1.20089124087,-3.49065866979e-05,0.364616125794,-0.205661143199,1.25280210671,2.9917929387,0.647380476834,2.53035645114,0.0331250645475
1.26,-0.637656039553,0.0916646897847,0.0851720694947,1.19862236078,0.116134205032,1.20089124087,-3.49065866979e-05,0.364616125794,-0.205661143199,1.25280210671,2.9917929387,0.647380476834,2.53035645114,0.0331250645475
1.28,-0.637656039553,0.0916646897847,0.0851720694947,1.19862236078,0.116134205032,1.20089124087,-3.49065866979e-05,0.364616125794,-0.205661143199,1.25280210671,2.9917929387,0.647380476834,2.53035645114,0.0331250645475
1.3,-0.637656039553,0.0916646897847,0.0851720694947,1.19862236078,0.116134205032,1.20089124087,-3.49065866979e-05,0.364616125794,-0.205661143199,1.25280210671,2.9917929387,0.647380476834,2.53035645114,0.0331250645475
1.32,-0.637656039553,0.0916646897847,0.0851720694947,1.19862236078,0.116134205032,1.20089124087,-3.49065866979e-05,0.364616125794,-0.205661143199,1.25280210671,2.9917929387,0.647380476834,2.53035645114,0.0331250645475
1.34,-0.637656039553,0.0916646897847,0.0851720694947,1.19862236078,0.116134205032,1.20089124087,-3.49065866979e-05,0.364616125794,-0.205661143199,1.25280210671,2.9917929387,0.647380476834,2.53035645114,0.0331250645475
1.36,-0.637656039553,0.0916646897847,0.0851720694947,1.19862236078,0.116134205032,1.20089124087,-3.49065866979e-05,0.364616125794,-0.205661143199,1.25280210671,2.9917929387,0.647380476834,2.53035645114,0.0331250645475
1.38,-0.637656039553,0.0916646897847,0.0851720694947,1.19862236078,0.116134205032,1.20089124087,-3.49065866979e-05,0.364616125794,-0.205661143199,1.25280210671,2.9917929387,0.647380476834,2.53035645114,0.0331250645475
1.4,-0.637656039553,0.0916646897847,0.0851720694947,1.19862236078,0.116134205032,1.20089124087,-3.49065866979e-05,0.364616125794,-0.205661143199,1.25280210671,2.9917929387,0.647380476834,2.53035645114,0.0331250645475
1.42,-0.637638595848,0.0916646897847,0.0851720694947,1.19862236078,0.116134205032,1.20089124087,-3.49065866979e-05,0.364619713231,-0.205654782912,1.25280210671,2.9917929387,0.647380476834,2.53037389484,0.0331250645475
1.44,-0.637638595848,0.0916646897847,0.0851720694947,1.19862236078,0.116134205032,1.20089124087,-3.49065866979e-05,0.364619713231,-0.205654782912,1.25280210671,2.9917929387,0.647380476834,2.53037389484,0.0331250645475
1.46,-0.637656039553,0.0916646897847,0.0851546174672,1.19862236078,0.116134205032,1.20089124087,-3.49065866979e-05,0.364612787269,-0.205667161673,1.25280202395,2.99179494071,0.647380434646,2.53034027979,0.0331251096598
1.48,-0.637656039553,0.0916646897847,0.0851546174672,1.19862236078,0.116134205032,1.20089124087,-3.49065866979e-05,0.364612787269,-0.205667161673,1.25280202395,2.99179494071,0.647380434646,2.53034027979,0.0331251096598
1.5,-0.637656039553,0.0916646897847,0.0851720694947,1.19862236078,0.116134205032,1.20089124087,-3.49065866979e-05,0.364616125794,-0.205661143199,1.25280210671,2.9917929387,0.647380476834,2.53035645114,0.0331250645475
1.52,-0.637656039553,0.0916646897847,0.0851720694947,1.19862236078,0.116134205032,1.20089124087,-3.49065866979e-05,0.364616125794,-0.205661143199,1.25280210671,2.9917929387,0.647380476834,2.53035645114,0.0331250645475
1.54,-0.637656039553,0.0916646897847,0.0851720694947,1.19862236078,0.116134205032,1.20089124087,-3.49065866979e-05,0.364616125794,-0.205661143199,1.25280210671,2.9917929387,0.647380476834,2.53035645114,0.0331250645475
1.56,-0.637656039553,0.0916646897847,0.0851720694947,1.19862236078,0.116134205032,1.20089124087,-3.49065866979e-05,0.364616125794,-0.205661143199,1.25280210671,2.9917929387,0.647380476834,2.53035645114,0.0331250645475
1.58,-0.637656039553,0.0916646897847,0.0851720694947,1.19862236078,0.116134205032,1.20089124087,-3.49065866979e-05,0.364616125794,-0.205661143199,1.25280210671,2.9917929387,0.647380476834,2.53035645114,0.0331250645475
1.6,-0.637656039553,0.0916646897847,0.0851720694947,1.19862236078,0.116134205032,1.20089124087,-3.49065866979e-05,0.364616125794,-0.205661143199,1.25280210671,2.9917929387,0.647380476834,2.53035645114,0.0331250645475
1.62,-0.637656039553,0.0916646897847,0.0851720694947,1.19862236078,0.116134205032,1.20089124087,-3.49065866979e-05,0.364616125794,-0.205661143199,1.25280210671,2.9917929387,0.647380476834,2.53035645114,0.0331250645475
1.64,-0.637656039553,0.0916646897847,0.0851720694947,1.19862236078,0.116134205032,1.20089124087,-3.49065866979e-05,0.364616125794,-0.205661143199,1.25280210671,2.9917929387,0.647380476834,2.53035645114,0.0331250645475
1.66,-0.637656039553,0.0916646897847,0.0851720694947,1.19862236078,0.116134205032,1.20089124087,-3.49065866979e-05,0.364616125794,-0.205661143199,1.25280210671,2.9917929387,0.647380476834,2.53035645114,0.0331250645475
1.68,-0.637656039553,0.0916646897847,0.0851720694947,1.19862236078,0.116134205032,1.20089124087,-3.49065866979e-05,0.364616125794,-0.205661143199,1.25280210671,2.9917929387,0.647380476834,2.53035645114,0.0331250645475
1.7,-0.637656039553,0.0916646897847,0.0851720694947,1.19862236078,0.116134205032,1.20089124087,-3.49065866979e-05,0.364616125794,-0.205661143199,1.25280210671,2.9917929387,0.647380476834,2.53035645114,0.0331250645475
1.72,-0.637656039553,0.0916646897847,0.0851720694947,1.19862236078,0.116134205032,1.20089124087,-3.49065866979e-05,0.364616125794,-0.205661143199,1.25280210671,2.9917929387,0.647380476834,2.53035645114,0.0331250645475
1.74,-0.637656039553,0.0916646897847,0.0851720694947,1.19862236078,0.116134205032,1.20089124087,-3.49065866979e-05,0.364616125794,-0.205661143199,1.25280210671,2.9917929387,0.647380476834,2.53035645114,0.0331250645475
1.76,-0.637656039553,0.0916646897847,0.0851720694947,1.19862236078,0.116134205032,1.20089124087,-3.49065866979e-05,0.364616125794,-0.205661143199,1.25280210671,2.9917929387,0.647380476834,2.53035645114,0.0331250645475
1.78,-0.637638595848,0.0917170541897,0.0851720694947,1.19862236078,0.116134205032,1.20089124087,-3.49065866979e-05,0.364630139046,-0.205662507188,1.25278035423,2.99179120459,0.647328130702,2.53037284904,0.0331265400797
1.8,-0.637638595848,0.0917170541897,0.0851720694947,1.19862236078,0.116134205032,1.20089124087,-3.49065866979e-05,0.364630139046,-0.205662507188,1.25278035423,2.99179120459,0.647328130702,2.53037284904,0.0331265400797
1.82,-0.637638595848,0.0917170541897,0.0851720694947,1.19862236078,0.116134205032,1.20089124087,-3.49065866979e-05,0.364630139046,-0.205662507188,1.25278035423,2.99179120459,0.647328130702,2.53037284904,0.0331265400797
1.84,-0.637621152143,0.0923104647372,0.0851720694947,1.1985524528,0.116134205032,1.20090868457,-3.49065866979e-05,0.364752815675,-0.205744339329,1.25255933974,2.99176841496,0.646787465479,2.53037808539,0.033141869573
1.86,-0.637621152143,0.0923104647372,0.0851720694947,1.1985524528,0.116134205032,1.20090868457,-3.49065866979e-05,0.364752815675,-0.205744339329,1.25255933974,2.99176841496,0.646787465479,2.53037808539,0.033141869573
1.88,-0.637603708438,0.0937416308622,0.0851720694947,1.19799398792,0.116116753005,1.20103092367,-3.49065866979e-05,0.365049480706,-0.20595814177,1.25216977764,2.99171500705,0.645794364778,2.53036870345,0.0331708840706
1.9,-0.637603708438,0.0937416308622,0.0851720694947,1.19799398792,0.116116753005,1.20103092367,-3.49065866979e-05,0.365049480706,-0.20595814177,1.25216977764,2.99171500705,0.645794364778,2.53036870345,0.0331708840706
1.92,-0.637586198153,0.0961327334022,0.0851546174672,1.19569022042,0.116099300977,1.20176395876,-3.49065866979e-05,0.365539170491,-0.206323432204,1.25199940602,2.99157320621,0.644979942997,2.53034765424,0.0331943698407
1.94,-0.637586198153,0.0961327334022,0.0851546174672,1.19569022042,0.116099300977,1.20176395876,-3.49065866979e-05,0.365539170491,-0.206323432204,1.25199940602,2.99157320621,0.644979942997,2.53034765424,0.0331943698407
1.96,-0.637586198153,0.0961327334022,0.0851546174672,1.19569022042,0.116099300977,1.20176395876,-3.49065866979e-05,0.365539170491,-0.206323432204,1.25199940602,2.99157320621,0.644979942997,2.53034765424,0.0331943698407
1.98,-0.637464025638,0.0987158248896,0.0851720694947,1.19265328467,0.11599458049,1.20302057132,-3.49065866979e-05,0.366060942232,-0.206659638716,1.25197876501,2.99153105294,0.644192593561,2.53055801931,0.0332126759245
2.0,-0.637464025638,0.0987158248896,0.0851720694947,1.19265328467,0.11599458049,1.20302057132,-3.49065866979e-05,0.366060942232,-0.206659638716,1.25197876501,2.99153105294,0.644192593561,2.53055801931,0.0332126759245
2.02,-0.637272078303,0.101944683007,0.0851895215222,1.18856919398,0.11583750392,1.20488811303,-3.49065866979e-05,0.366697011098,-0.207055989399,1.25203187556,2.99152250292,0.64320379772,2.53090732559,0.0332322810912
2.04,-0.637272078303,0.101944683007,0.0851895215222,1.18856919398,0.11583750392,1.20488811303,-3.49065866979e-05,0.366697011098,-0.207055989399,1.25203187556,2.99152250292,0.64320379772,2.53090732559,0.0332322810912
2.06,-0.636992845863,0.1057844037,0.0851546174672,1.18371718079,0.115226641345,1.20776778912,-3.49065866979e-05,0.36734559194,-0.207534092958,1.25201381936,2.99210099159,0.641394089773,2.53163023122,0.0332634892834
2.08,-0.636992845863,0.1057844037,0.0851546174672,1.18371718079,0.115226641345,1.20776778912,-3.49065866979e-05,0.36734559194,-0.207534092958,1.25201381936,2.99210099159,0.641394089773,2.53163023122,0.0332634892834
2.1,-0.636992845863,0.1057844037,0.0851546174672,1.18371718079,0.115226641345,1.20776778912,-3.49065866979e-05,0.36734559194,-0.207534092958,1.25201381936,2.99210099159,0.641394089773,2.53163023122,0.0332634892834
2.12,-0.636381983287,0.109938285855,0.0851546174672,1.17820190733,0.114423789822,1.21066504207,-3.49065866979e-05,0.368141824135,-0.207968903675,1.2521131275,2.99284631353,0.639924790639,2.53275754829,0.0332873658933
2.14,-0.636381983287,0.109938285855,0.0851546174672,1.17820190733,0.114423789822,1.21066504207,-3.49065866979e-05,0.368141824135,-0.207968903675,1.2521131275,2.99284631353,0.639924790639,2.53275754829,0.0332873658933
2.16,-0.636015465742,0.114580866392,0.0851546174672,1.17177916173,0.113586025922,1.21410344935,-3.49065866979e-05,0.368957519327,-0.208554735663,1.25229971293,2.99360932865,0.638338889176,2.53369133543,0.033309102958
2.18,-0.636015465742,0.114580866392,0.0851546174672,1.17177916173,0.113586025922,1.21410344935,-3.49065866979e-05,0.368957519327,-0.208554735663,1.25229971293,2.99360932865,0.638338889176,2.53369133543,0.033309102958
2.2,-0.635648881618,0.119904117615,0.0851546174672,1.16465826845,0.112591193775,1.21757661089,-3.49065866979e-05,0.369919278931,-0.209279957214,1.25245790079,2.99448796339,0.636742468413,2.53464000427,0.0333329477481
2.22,-0.635648881618,0.119904117615,0.0851546174672,1.16465826845,0.112591193775,1.21757661089,-3.49065866979e-05,0.369919278931,-0.209279957214,1.25245790079,2.99448796339,0.636742468413,2.53464000427,0.0333329477481
2.24,-0.635648881618,0.119904117615,0.0851546174672,1.16465826845,0.112591193775,1.21757661089,-3.49065866979e-05,0.369919278931,-0.209279957214,1.25245790079,2.99448796339,0.636742468413,2.53464000427,0.0333329477481
2.26,-0.635195145548,0.125314637297,0.0851546174672,1.15776414333,0.111456728762,1.22136389227,-3.49065866979e-05,0.370858969409,-0.209973331726,1.25244838706,2.9955757614,0.634527679182,2.53579140562,0.0333673946675
2.28,-0.635195145548,0.125314637297,0.0851546174672,1.15776414333,0.111456728762,1.22136389227,-3.49065866979e-05,0.370858969409,-0.209973331726,1.25244838706,2.9955757614,0.634527679182,2.53579140562,0.0333673946675
2.3,-0.634462110458,0.131789813882,0.0850498969797,1.14959596195,0.109938285855,1.22574479227,-3.49065866979e-05,0.372002071409,-0.210799264328,1.25240571067,2.99706859993,0.631950486787,2.53729353234,0.0334074995499
2.32,-0.634462110458,0.131789813882,0.0850498969797,1.14959596195,0.109938285855,1.22574479227,-3.49065866979e-05,0.372002071409,-0.210799264328,1.25240571067,2.99706859993,0.631950486787,2.53729353234,0.0334074995499
2.34,-0.633833804177,0.138352250605,0.0847357355172,1.14111366072,0.108210410295,1.22995098889,-3.49065866979e-05,0.373113982446,-0.211799505701,1.25244794823,2.99879710717,0.629779608223,2.53852413269,0.0334388122439
2.36,-0.633833804177,0.138352250605,0.0847357355172,1.14111366072,0.108210410295,1.22995098889,-3.49065866979e-05,0.373113982446,-0.211799505701,1.25244794823,2.99879710717,0.629779608223,2.53852413269,0.0334388122439
2.38,-0.633833804177,0.138352250605,0.0847357355172,1.14111366072,0.108210410295,1.22995098889,-3.49065866979e-05,0.373113982446,-0.211799505701,1.25244794823,2.99879710717,0.629779608223,2.53852413269,0.0334388122439
2.4,-0.633432332643,0.145595366335,0.0844564864322,1.13163653567,0.106482534735,1.23525680473,-3.49065866979e-05,0.374231962967,-0.212915338289,1.25246211608,3.00053861772,0.62683067448,2.53966782241,0.0334750374481
2.42,-0.633432332643,0.145595366335,0.0844564864322,1.13163653567,0.106482534735,1.23525680473,-3.49065866979e-05,0.374231962967,-0.212915338289,1.25246211608,3.00053861772,0.62683067448,2.53966782241,0.0334750374481
2.44,-0.632594568743,0.153170095554,0.0841074125923,1.12217685432,0.104649938687,1.23996913512,-3.49065866979e-05,0.375550118604,-0.213999128092,1.25236879638,3.0023401172,0.624122045309,2.54109757496,0.0335130235099
2.46,-0.632594568743,0.153170095554,0.0841074125923,1.12217685432,0.104649938687,1.23996913512,-3.49065866979e-05,0.375550118604,-0.213999128092,1.25236879638,3.0023401172,0.624122045309,2.54109757496,0.0335130235099
2.48,-0.631774315127,0.160570287855,0.0835838184772,1.11170490544,0.102607909987,1.24504804964,-3.49065866979e-05,0.376774318281,-0.215152043447,1.25268343853,3.00439998505,0.622240981691,2.54243560489,0.033519242402
2.5,-0.631774315127,0.160570287855,0.0835838184772,1.11170490544,0.102607909987,1.24504804964,-3.49065866979e-05,0.376774318281,-0.215152043447,1.25268343853,3.00439998505,0.622240981691,2.54243560489,0.033519242402
2.52,-0.631774315127,0.160570287855,0.0835838184772,1.11170490544,0.102607909987,1.24504804964,-3.49065866979e-05,0.376774318281,-0.215152043447,1.25268343853,3.00439998505,0.622240981691,2.54243560489,0.033519242402
2.54,-0.631303068773,0.169157317894,0.0833743775022,1.10133768537,0.100740401562,1.25101712575,-3.49065866979e-05,0.378122887602,-0.216404566391,1.25234507607,3.00623488752,0.618177821909,2.54373305762,0.0335713768108
2.56,-0.631303068773,0.169157317894,0.0833743775022,1.10133768537,0.100740401562,1.25101712575,-3.49065866979e-05,0.378122887602,-0.216404566391,1.25234507607,3.00623488752,0.618177821909,2.54373305762,0.0335713768108
2.58,-0.630395463473,0.177587254719,0.0830602160398,1.09013263482,0.0989601699197,1.25688140647,-3.49065866979e-05,0.379560282375,-0.217523527303,1.25238811929,3.00792917204,0.615204752286,2.54526219167,0.0335900188217
2.6,-0.630395463473,0.177587254719,0.0830602160398,1.09013263482,0.0989601699197,1.25688140647,-3.49065866979e-05,0.379560282375,-0.217523527303,1.25238811929,3.00792917204,0.615204752286,2.54526219167,0.0335900188217
2.62,-0.629662428383,0.186593150064,0.0828682354147,1.07842151708,0.0969704973021,1.26257111698,-3.49065866979e-05,0.381114460947,-0.218806621822,1.2523676446,3.00976687261,0.612340651673,2.54670734422,0.0336064386406
2.64,-0.629662428383,0.186593150064,0.0828682354147,1.07842151708,0.0969704973021,1.26257111698,-3.49065866979e-05,0.381114460947,-0.218806621822,1.2523676446,3.00976687261,0.612340651673,2.54670734422,0.0336064386406
2.66,-0.629662428383,0.186593150064,0.0828682354147,1.07842151708,0.0969704973021,1.26257111698,-3.49065866979e-05,0.381114460947,-0.218806621822,1.2523676446,3.00976687261,0.612340651673,2.54670734422,0.0336064386406
2.68,-0.628877062178,0.196262272389,0.0828333230373,1.06590745628,0.0948586438472,1.26911610167,-3.49065866979e-05,0.382756838785,-0.220085112551,1.25225625249,3.01170707349,0.608770160549,2.54843377605,0.0336240931878
2.7,-0.628877062178,0.196262272389,0.0828333230373,1.06590745628,0.0948586438472,1.26911610167,-3.49065866979e-05,0.382756838785,-0.220085112551,1.25225625249,3.01170707349,0.608770160549,2.54843377605,0.0336240931878
2.72,-0.627864728068,0.205948855064,0.0824319014372,1.05370764848,0.0926420782272,1.27583565658,-3.49065866979e-05,0.384336041919,-0.221390620392,1.25196842575,3.01387874051,0.60469254342,2.5501218097,0.0336481567831
2.74,-0.627864728068,0.205948855064,0.0824319014372,1.05370764848,0.0926420782272,1.27583565658,-3.49065866979e-05,0.384336041919,-0.221390620392,1.25196842575,3.01387874051,0.60469254342,2.5501218097,0.0336481567831
2.76,-0.627184090673,0.215425996764,0.0823620850048,1.04114125656,0.0903731482022,1.28269476112,-3.49065866979e-05,0.385846889397,-0.222685843193,1.2518762016,3.0160204046,0.60105195239,2.55174661787,0.0336481922442
2.78,-0.627184090673,0.215425996764,0.0823620850048,1.04114125656,0.0903731482022,1.28269476112,-3.49065866979e-05,0.385846889397,-0.222685843193,1.2518762016,3.0160204046,0.60105195239,2.55174661787,0.0336481922442
2.8,-0.627184090673,0.215425996764,0.0823620850048,1.04114125656,0.0903731482022,1.28269476112,-3.49065866979e-05,0.385846889397,-0.222685843193,1.2518762016,3.0160204046,0.60105195239,2.55174661787,0.0336481922442
2.82,-0.626067027753,0.225810693829,0.0819432113772,1.02761492823,0.0880518620947,1.28941431603,-3.49065866979e-05,0.387609160732,-0.224103481166,1.25172886127,3.01820114973,0.597596383228,2.55340881076,0.0336420172799
2.84,-0.626067027753,0.225810693829,0.0819432113772,1.02761492823,0.0880518620947,1.28941431603,-3.49065866979e-05,0.387609160732,-0.224103481166,1.25172886127,3.01820114973,0.597596383228,2.55340881076,0.0336420172799
2.86,-0.625176932738,0.237225152064,0.0813323404798,1.01366975123,0.0857131156373,1.29672722322,-3.49065866979e-05,0.389425254422,-0.225784369865,1.2511897122,3.02043268168,0.592935492561,2.55469919467,0.0336556905056
2.88,-0.625176932738,0.237225152064,0.0813323404798,1.01366975123,0.0857131156373,1.29672722322,-3.49065866979e-05,0.389425254422,-0.225784369865,1.2511897122,3.02043268168,0.592935492561,2.55469919467,0.0336556905056
2.9,-0.623990094998,0.248238172054,0.0805818533622,0.999183553062,0.0830253119847,1.30444160195,-3.49065866979e-05,0.391135425804,-0.227365020691,1.25095524846,3.02312660681,0.58882210164,2.55629117455,0.0336323892474
2.92,-0.623990094998,0.248238172054,0.0805818533622,0.999183553062,0.0830253119847,1.30444160195,-3.49065866979e-05,0.391135425804,-0.227365020691,1.25095524846,3.02312660681,0.58882210164,2.55629117455,0.0336323892474
2.94,-0.623990094998,0.248238172054,0.0805818533622,0.999183553062,0.0830253119847,1.30444160195,-3.49065866979e-05,0.391135425804,-0.227365020691,1.25095524846,3.02312660681,0.58882210164,2.55629117455,0.0336323892474
2.96,-0.623099999983,0.259111575824,0.0803724123872,0.985325661171,0.0807563819598,1.31187674824,-3.49065866979e-05,0.392884466396,-0.228799870501,1.25055111517,3.02519228246,0.584484527127,2.55784232914,0.0336121405529
2.98,-0.623099999983,0.259111575824,0.0803724123872,0.985325661171,0.0807563819598,1.31187674824,-3.49065866979e-05,0.392884466396,-0.228799870501,1.25055111517,3.02519228246,0.584484527127,2.55784232914,0.0336121405529
3.0,-0.622035334758,0.270875107899,0.0801280673572,0.969635114977,0.0780685783072,1.31974812032,-3.49065866979e-05,0.394808920825,-0.230378562356,1.25035254189,3.02764083459,0.580662220727,2.55957583733,0.0335547561372
3.02,-0.622035334758,0.270875107899,0.0801280673572,0.969635114977,0.0780685783072,1.31974812032,-3.49065866979e-05,0.394808920825,-0.230378562356,1.25035254189,3.02764083459,0.580662220727,2.55957583733,0.0335547561372
3.04,-0.621005623523,0.282917855769,0.0800407988972,0.954660226746,0.0753284102498,1.32754985073,-3.49065866979e-05,0.396775982957,-0.231943733241,1.24972513126,3.03009771261,0.575912699,2.56137760198,0.0335194264974
3.06,-0.621005623523,0.282917855769,0.0800407988972,0.954660226746,0.0753284102498,1.32754985073,-3.49065866979e-05,0.396775982957,-0.231943733241,1.24972513126,3.03009771261,0.575912699,2.56137760198,0.0335194264974
3.08,-0.621005623523,0.282917855769,0.0800407988972,0.954660226746,0.0753284102498,1.32754985073,-3.49065866979e-05,0.396775982957,-0.231943733241,1.24972513126,3.03009771261,0.575912699,2.56137760198,0.0335194264974
3.1,-0.619975845708,0.295327154474,0.0799186263822,0.938498434197,0.0722740807298,1.33618914531,-3.49065866979e-05,0.398707991649,-0.233579288076,1.24925254423,3.03289305037,0.571152274027,2.56322969982,0.0334488608913
3.12,-0.619975845708,0.295327154474,0.0799186263822,0.938498434197,0.0722740807298,1.33618914531,-3.49065866979e-05,0.398707991649,-0.233579288076,1.24925254423,3.03289305037,0.571152274027,2.56322969982,0.0334488608913
3.14,-0.618981021883,0.307439743744,0.0797790018397,0.922895173107,0.0695513688611,1.34418275648,-3.49065866979e-05,0.400639894114,-0.235170528489,1.24872987838,3.03529840745,0.566757490502,2.56483355661,0.0333702115459
3.16,-0.618981021883,0.307439743744,0.0797790018397,0.922895173107,0.0695513688611,1.34418275648,-3.49065866979e-05,0.400639894114,-0.235170528489,1.24872987838,3.03529840745,0.566757490502,2.56483355661,0.0333702115459
3.18,-0.617741853028,0.319918850559,0.0793252158347,0.906803288537,0.0671428142936,1.35259528289,-5.2359878015e-05,0.402620278563,-0.23674357738,1.24814110519,3.03745784362,0.562053291442,2.56635270972,0.0332761877685
3.2,-0.617741853028,0.319918850559,0.0793252158347,0.906803288537,0.0671428142936,1.35259528289,-5.2359878015e-05,0.402620278563,-0.23674357738,1.24814110519,3.03745784362,0.562053291442,2.56635270972,0.0332761877685
3.22,-0.617741853028,0.319918850559,0.0793252158347,0.906803288537,0.0671428142936,1.35259528289,-5.2359878015e-05,0.402620278563,-0.23674357738,1.24814110519,3.03745784362,0.562053291442,2.56635270972,0.0332761877685
3.24,-0.616467730183,0.333183356869,0.0783652794198,0.890030633412,0.064245569666,1.36167093641,-3.49065866979e-05,0.404557743631,-0.238599997715,1.24732190503,3.04030429838,0.556579545398,2.56759410007,0.0331740704802
3.26,-0.616467730183,0.333183356869,0.0783652794198,0.890030633412,0.064245569666,1.36167093641,-3.49065866979e-05,0.404557743631,-0.238599997715,1.24732190503,3.04030429838,0.556579545398,2.56759410007,0.0331740704802
3.28,-0.615385621253,0.346186041154,0.0774751677597,0.873327819688,0.0612610565786,1.36990889261,-5.2359878015e-05,0.406484883852,-0.240536544205,1.24662719593,3.04320947593,0.552130382363,2.56862199364,0.0330447415688
3.3,-0.615385621253,0.346186041154,0.0774751677597,0.873327819688,0.0612610565786,1.36990889261,-5.2359878015e-05,0.406484883852,-0.240536544205,1.24662719593,3.04320947593,0.552130382363,2.56862199364,0.0330447415688
3.32,-0.614094121283,0.358926969994,0.0768293928073,0.856677403657,0.0582067312198,1.37879266537,-3.49065866979e-05,0.408350817204,-0.242217880825,1.24593568366,3.04612663593,0.547242344289,2.5700477566,0.0328941615316
3.34,-0.614094121283,0.358926969994,0.0768293928073,0.856677403657,0.0582067312198,1.37879266537,-3.49065866979e-05,0.408350817204,-0.242217880825,1.24593568366,3.04612663593,0.547242344289,2.5700477566,0.0328941615316
3.36,-0.614094121283,0.358926969994,0.0768293928073,0.856677403657,0.0582067312198,1.37879266537,-3.49065866979e-05,0.408350817204,-0.242217880825,1.24593568366,3.04612663593,0.547242344289,2.5700477566,0.0328941615316
3.38,-0.613099230878,0.372959398804,0.0765501437222,0.839311396242,0.0552920304036,1.38793822687,-3.49065866979e-05,0.410444771477,-0.244050902236,1.24483309669,3.04866759911,0.541516629468,2.57133725354,0.0327443242706
3.4,-0.613099230878,0.372959398804,0.0765501437222,0.839311396242,0.0552920304036,1.38793822687,-3.49065866979e-05,0.410444771477,-0.244050902236,1.24483309669,3.04866759911,0.541516629468,2.57133725354,0.0327443242706
3.42,-0.611772776918,0.386380998329,0.0759392728248,0.821683533513,0.0524471460198,1.39671720425,-3.49065866979e-05,0.412477847338,-0.245777566508,1.24409592646,3.05126752963,0.537015534621,2.57261709921,0.0325424616586
3.44,-0.611772776918,0.386380998329,0.0759392728248,0.821683533513,0.0524471460198,1.39671720425,-3.49065866979e-05,0.412477847338,-0.245777566508,1.24409592646,3.05126752963,0.537015534621,2.57261709921,0.0325424616586
3.46,-0.610620893168,0.400029465889,0.0755029471697,0.804352413508,0.0493230042286,1.40645611804,-3.49065866979e-05,0.414371710036,-0.247493316583,1.24300784943,3.05413727175,0.531036087601,2.57395226951,0.0323438930323
3.48,-0.610620893168,0.400029465889,0.0755029471697,0.804352413508,0.0493230042286,1.40645611804,-3.49065866979e-05,0.414371710036,-0.247493316583,1.24300784943,3.05413727175,0.531036087601,2.57395226951,0.0323438930323
3.5,-0.609643513048,0.414149179804,0.0753284102498,0.785921740868,0.0460941461111,1.41577611659,-5.2359878015e-05,0.414371710036,-0.247493316583,1.24300784943,3.05413727175,0.531036087601,2.57395226951,0.0323438930323
3.52,-0.609643513048,0.414149179804,0.0753284102498,0.785921740868,0.0460941461111,1.41577611659,-5.2359878015e-05,0.41640870788,-0.249330008819,1.24208308344,3.05691853693,0.52610266904,2.57516327514,0.0320939638701
3.54,-0.609643513048,0.414149179804,0.0753284102498,0.785921740868,0.0460941461111,1.41577611659,-5.2359878015e-05,0.41640870788,-0.249330008819,1.24208308344,3.05691853693,0.52610266904,2.57516327514,0.0320939638701
3.56,-0.608159999163,0.428373622528,0.0751015172473,0.767822698362,0.0431270850511,1.425113692,-5.2359878015e-05,0.418568560503,-0.250919972209,1.24093464631,3.05942253944,0.52070396345,2.57672661193,0.0318396231074
3.58,-0.608159999163,0.428373622528,0.0751015172473,0.767822698362,0.0431270850511,1.425113692,-5.2359878015e-05,0.418568560503,-0.250919972209,1.24093464631,3.05942253944,0.52070396345,2.57672661193,0.0318396231074
3.6,-0.607252393863,0.442126818898,0.0747175476747,0.750020332003,0.0397411462024,1.43478283097,-5.2359878015e-05,0.420355999192,-0.2527429532,1.23982199245,3.06248456372,0.515145166441,2.57766915329,0.0315607549689
3.62,-0.607252393863,0.442126818898,0.0747175476747,0.750020332003,0.0397411462024,1.43478283097,-5.2359878015e-05,0.420355999192,-0.2527429532,1.23982199245,3.06248456372,0.515145166441,2.57766915329,0.0315607549689
3.64,-0.605821211093,0.456333784629,0.0739496002073,0.731432599437,0.0367740893036,1.44380615338,-5.2359878015e-05,0.420355999192,-0.2527429532,1.23982199245,3.06248456372,0.515145166441,2.57766915329,0.0315607549689
3.66,-0.605821211093,0.456333784629,0.0739496002073,0.731432599437,0.0367740893036,1.44380615338,-5.2359878015e-05,0.422408060145,-0.254513690173,1.23877437836,3.06520937753,0.510543803288,2.57865171346,0.0312398379062
3.68,-0.605821211093,0.456333784629,0.0739496002073,0.731432599437,0.0367740893036,1.44380615338,-5.2359878015e-05,0.422408060145,-0.254513690173,1.23877437836,3.06520937753,0.510543803288,2.57865171346,0.0312398379062
3.7,-0.604442426018,0.471064361119,0.0731816527398,0.712478282748,0.0336499475124,1.4541036652,-3.49065866979e-05,0.424356850988,-0.25628487906,1.23743961514,3.06811143292,0.50450936424,2.57961354221,0.030897531125
3.72,-0.604442426018,0.471064361119,0.0731816527398,0.712478282748,0.0336499475124,1.4541036652,-3.49065866979e-05,0.424356850988,-0.25628487906,1.23743961514,3.06811143292,0.50450936424,2.57961354221,0.030897531125
3.74,-0.603185813458,0.486266183963,0.0726231462473,0.693663648858,0.0302989147993,1.46403459291,-5.2359878015e-05,0.426394087838,-0.258142661402,1.23579610792,3.07112544321,0.498232357174,2.58055981291,0.0305505316541
3.76,-0.603185813458,0.486266183963,0.0726231462473,0.693663648858,0.0302989147993,1.46403459291,-5.2359878015e-05,0.426394087838,-0.258142661402,1.23579610792,3.07112544321,0.498232357174,2.58055981291,0.0305505316541
3.78,-0.601929134318,0.499705227193,0.0723264451348,0.675808951383,0.0272620435487,1.47326737293,-5.2359878015e-05,0.426394087838,-0.258142661402,1.23579610792,3.07112544321,0.498232357174,2.58055981291,0.0305505316541
3.8,-0.601929134318,0.499705227193,0.0723264451348,0.675808951383,0.0272620435487,1.47326737293,-5.2359878015e-05,0.428204129316,-0.259654709098,1.23469772586,3.07373277557,0.493449789319,2.58157960274,0.0301657324842
3.82,-0.601929134318,0.499705227193,0.0723264451348,0.675808951383,0.0272620435487,1.47326737293,-5.2359878015e-05,0.428204129316,-0.259654709098,1.23469772586,3.07373277557,0.493449789319,2.58157960274,0.0301657324842
3.84,-0.600602680358,0.514732513118,0.0717330345872,0.656557958548,0.0241902640818,1.48325063175,-5.2359878015e-05,0.43018862271,-0.261389589117,1.23318773085,3.07644838207,0.487715911326,2.58238802545,0.0297424371615
3.86,-0.600602680358,0.514732513118,0.0717330345872,0.656557958548,0.0241902640818,1.48325063175,-5.2359878015e-05,0.43018862271,-0.261389589117,1.23318773085,3.07644838207,0.487715911326,2.58238802545,0.0297424371615
3.88,-0.599363511503,0.529724878343,0.0712617965547,0.637848053468,0.0210486702631,1.49290232702,-5.2359878015e-05,0.432156731123,-0.263118839239,1.23147474464,3.07916714486,0.481804858112,2.58313382711,0.0293167162886
3.9,-0.599363511503,0.529724878343,0.0712617965547,0.637848053468,0.0210486702631,1.49290232702,-5.2359878015e-05,0.432156731123,-0.263118839239,1.23147474464,3.07916714486,0.481804858112,2.58313382711,0.0293167162886
3.92,-0.598124342648,0.544350726023,0.0707556461448,0.618893736778,0.0179245305525,1.50286814213,-5.2359878015e-05,0.432156731123,-0.263118839239,1.23147474464,3.07916714486,0.481804858112,2.58313382711,0.0293167162886
3.94,-0.598124342648,0.544350726023,0.0707556461448,0.618893736778,0.0179245305525,1.50286814213,-5.2359878015e-05,0.433985589566,-0.264764551645,1.22995503925,3.08190280176,0.476184935921,2.58381641721,0.0288420267519
3.96,-0.598124342648,0.544350726023,0.0707556461448,0.618893736778,0.0179245305525,1.50286814213,-5.2359878015e-05,0.433985589566,-0.264764551645,1.22995503925,3.08190280176,0.476184935921,2.58381641721,0.0288420267519
3.98,-0.596623318479,0.559395455654,0.0702495040572,0.600096546593,0.0143989661209,1.51293861948,-6.98131733957e-05,0.435878447973,-0.266368671433,1.22810279006,3.08504129447,0.469882476196,2.58475250539,0.0283605125011
4.0,-0.596623318479,0.559395455654,0.0702495040572,0.600096546593,0.0143989661209,1.51293861948,-6.98131733957e-05,0.435878447973,-0.266368671433,1.22810279006,3.08504129447,0.469882476196,2.58475250539,0.0283605125011
4.02,-0.595401593328,0.573846832993,0.0698306221073,0.580845553758,0.0108734016893,1.52264264586,-6.98131733957e-05,0.437624691809,-0.268011040374,1.22669008163,3.08811416882,0.464987866109,2.58533906332,0.0278134047056
4.04,-0.595401593328,0.573846832993,0.0698306221073,0.580845553758,0.0108734016893,1.52264264586,-6.98131733957e-05,0.437624691809,-0.268011040374,1.22669008163,3.08811416882,0.464987866109,2.58533906332,0.0278134047056
4.06,-0.594197311884,0.589380252683,0.0695513688611,0.560879036118,0.00741764952904,1.53294015769,-6.98131733957e-05,0.439494187678,-0.269692297748,1.2248761392,3.09097126341,0.459132269437,2.58589343398,0.0272322853076
4.08,-0.594197311884,0.589380252683,0.0695513688611,0.560879036118,0.00741764952904,1.53294015769,-6.98131733957e-05,0.439494187678,-0.269692297748,1.2248761392,3.09097126341,0.459132269437,2.58589343398,0.0272322853076
4.1,-0.594197311884,0.589380252683,0.0695513688611,0.560879036118,0.00741764952904,1.53294015769,-6.98131733957e-05,0.439494187678,-0.269692297748,1.2248761392,3.09097126341,0.459132269437,2.58589343398,0.0272322853076
4.12,-0.592591625483,0.603726834633,0.068608892796,0.542203985158,0.0043458698021,1.54260929666,-6.98131733957e-05,0.441208617252,-0.271155891332,1.22321225328,3.09390721264,0.453780816334,2.5864538155,0.0266574687673
4.14,-0.592591625483,0.603726834633,0.068608892796,0.542203985158,0.0043458698021,1.54260929666,-6.98131733957e-05,0.441208617252,-0.271155891332,1.22321225328,3.09390721264,0.453780816334,2.5864538155,0.0266574687673
4.16,-0.591544470543,0.618265430498,0.0679805740323,0.523494046788,0.0012217304816,1.55241798527,-6.98131733957e-05,0.442800711954,-0.272774524597,1.22140568769,3.09669351354,0.448136047114,2.58658122092,0.026059761937
4.18,-0.591544470543,0.618265430498,0.0679805740323,0.523494046788,0.0012217304816,1.55241798527,-6.98131733957e-05,0.442800711954,-0.272774524597,1.22140568769,3.09669351354,0.448136047114,2.58658122092,0.026059761937
4.2,-0.590148175183,0.633711565083,0.0676489605423,0.504190722838,-0.00226892794437,1.56259325801,-6.98131733957e-05,0.44459076188,-0.27428130233,1.21925598855,3.09961003693,0.441813752957,2.58713641168,0.0254265747148
4.22,-0.590148175183,0.633711565083,0.0676489605423,0.504190722838,-0.00226892794437,1.56259325801,-6.98131733957e-05,0.44459076188,-0.27428130233,1.21925598855,3.09961003693,0.441813752957,2.58713641168,0.0254265747148
4.24,-0.590148175183,0.633711565083,0.0676489605423,0.504190722838,-0.00226892794437,1.56259325801,-6.98131733957e-05,0.44459076188,-0.27428130233,1.21925598855,3.09961003693,0.441813752957,2.58713641168,0.0254265747148
4.26,-0.588839164928,0.648389843748,0.067456975756,0.485323691254,-0.00548033403435,1.57254162942,-6.98131733957e-05,0.446250277114,-0.275636670128,1.21732587909,3.1021771012,0.436048929684,2.58763218813,0.0247704822223
4.28,-0.588839164928,0.648389843748,0.067456975756,0.485323691254,-0.00548033403435,1.57254162942,-6.98131733957e-05,0.446250277114,-0.275636670128,1.21732587909,3.1021771012,0.436048929684,2.58763218813,0.0247704822223
4.3,-0.587774499704,0.663591633303,0.0672998950248,0.465810909684,-0.00855211350122,1.58264712733,-6.98131733957e-05,0.44790321717,-0.277108936634,1.21528278219,3.1045381456,0.430246546639,2.58780475777,0.0240653085307
4.32,-0.587774499704,0.663591633303,0.0672998950248,0.465810909684,-0.00855211350122,1.58264712733,-6.98131733957e-05,0.44790321717,-0.277108936634,1.21528278219,3.1045381456,0.430246546639,2.58780475777,0.0240653085307
4.34,-0.586273542113,0.677920771548,0.0670730020223,0.447537330258,-0.0116587991037,1.59224635832,-6.98131733957e-05,0.449520954391,-0.278286866019,1.2132621086,3.10701997807,0.424579916546,2.58837261838,0.0233814448966
4.36,-0.586273542113,0.677920771548,0.0670730020223,0.447537330258,-0.0116587991037,1.59224635832,-6.98131733957e-05,0.449520954391,-0.278286866019,1.2132621086,3.10701997807,0.424579916546,2.58837261838,0.0233814448966
4.38,-0.586273542113,0.677920771548,0.0670730020223,0.447537330258,-0.0116587991037,1.59224635832,-6.98131733957e-05,0.449520954391,-0.278286866019,1.2132621086,3.10701997807,0.424579916546,2.58837261838,0.0233814448966
4.4,-0.585104148079,0.692337194898,0.0668286569923,0.428844835594,-0.0147480326787,1.60170617283,-6.98131733957e-05,0.451048958741,-0.279618826969,1.2113021519,3.10947234512,0.419380887963,2.58851536698,0.0226526300895
4.42,-0.585104148079,0.692337194898,0.0668286569923,0.428844835594,-0.0147480326787,1.60170617283,-6.98131733957e-05,0.451048958741,-0.279618826969,1.2113021519,3.10947234512,0.419380887963,2.58851536698,0.0226526300895
4.44,-0.583760250413,0.707294706002,0.065397486706,0.409733492269,-0.0182735981506,1.61163696738,-6.98131733957e-05,0.452418946479,-0.281216032343,1.20910410663,3.11316409228,0.41356204636,2.58817905796,0.0218857750044
4.46,-0.583760250413,0.707294706002,0.065397486706,0.409733492269,-0.0182735981506,1.61163696738,-6.98131733957e-05,0.452418946479,-0.281216032343,1.20910410663,3.11316409228,0.41356204636,2.58817905796,0.0218857750044
4.48,-0.582521081558,0.720751192937,0.0644724626685,0.392158027234,-0.0214850021599,1.62099198649,-6.98131733957e-05,0.453625519997,-0.282500803969,1.20719052486,3.1162701992,0.408294005729,2.58802839238,0.0211512677153
4.5,-0.582521081558,0.720751192937,0.0644724626685,0.392158027234,-0.0214850021599,1.62099198649,-6.98131733957e-05,0.453625519997,-0.282500803969,1.20719052486,3.1162701992,0.408294005729,2.58802839238,0.0211512677153
4.52,-0.582521081558,0.720751192937,0.0644724626685,0.392158027234,-0.0214850021599,1.62099198649,-6.98131733957e-05,0.453625519997,-0.282500803969,1.20719052486,3.1162701992,0.408294005729,2.58802839238,0.0211512677153
4.54,-0.581212071303,0.735673750052,0.063756879606,0.373570261379,-0.0246265959787,1.63080080826,-6.98131733957e-05,0.45505264215,-0.2838119501,1.20476444555,3.11909548054,0.402120875723,2.58794474221,0.0203637952137
4.56,-0.581212071303,0.735673750052,0.063756879606,0.373570261379,-0.0246265959787,1.63080080826,-6.98131733957e-05,0.45505264215,-0.2838119501,1.20476444555,3.11909548054,0.402120875723,2.58794474221,0.0203637952137
4.58,-0.580025300143,0.749461867122,0.0629540280835,0.355820259424,-0.0276285610937,1.63978924326,-8.72664606492e-05,0.456319436406,-0.285066969151,1.2026786792,3.12190137169,0.397063017769,2.58771909464,0.0195819857773
4.6,-0.580025300143,0.749461867122,0.0629540280835,0.355820259424,-0.0276285610937,1.63978924326,-8.72664606492e-05,0.456319436406,-0.285066969151,1.2026786792,3.12190137169,0.397063017769,2.58771909464,0.0195819857773
4.62,-0.578821018698,0.763965508998,0.0628318514073,0.336778724209,-0.0305956221536,1.64994707229,-8.72664606492e-05,0.45762616683,-0.286137739563,1.20052614373,3.12411975861,0.391421475019,2.58770037106,0.0187134671902
4.64,-0.578821018698,0.763965508998,0.0628318514073,0.336778724209,-0.0305956221536,1.64994707229,-8.72664606492e-05,0.45762616683,-0.286137739563,1.20052614373,3.12411975861,0.391421475019,2.58770037106,0.0187134671902
4.66,-0.578821018698,0.763965508998,0.0628318514073,0.336778724209,-0.0305956221536,1.64994707229,-8.72664606492e-05,0.45762616683,-0.286137739563,1.20052614373,3.12411975861,0.391421475019,2.58770037106,0.0187134671902
4.68,-0.577634180958,0.777858354877,0.0627620391361,0.319028722254,-0.0334928688618,1.65893550728,-8.72664606492e-05,0.458944324734,-0.287167128595,1.19830983537,3.12625722545,0.386269329077,2.58768954251,0.0178894967873
4.7,-0.577634180958,0.777858354877,0.0627620391361,0.319028722254,-0.0334928688618,1.65893550728,-8.72664606492e-05,0.458944324734,-0.287167128595,1.19830983537,3.12625722545,0.386269329077,2.58768954251,0.0178894967873
4.72,-0.576360058113,0.791297398107,0.0626922268648,0.302221213009,-0.0365297401124,1.66771448466,-8.72664606492e-05,0.460184402864,-0.288097217428,1.19600385399,3.12854993715,0.38083762026,2.5877518687,0.0170933487983
4.74,-0.576360058113,0.791297398107,0.0626922268648,0.302221213009,-0.0365297401124,1.66771448466,-8.72664606492e-05,0.460184402864,-0.288097217428,1.19600385399,3.12854993715,0.38083762026,2.5877518687,0.0170933487983
4.76,-0.575120889258,0.805015673777,0.0624653338623,0.283930156589,-0.0394793491449,1.67752317327,-0.00010471975603,0.461286130672,-0.289012305555,1.19393278384,3.1308399384,0.375575778238,2.58762205012,0.0161929804139
4.78,-0.575120889258,0.805015673777,0.0624653338623,0.283930156589,-0.0394793491449,1.67752317327,-0.00010471975603,0.461286130672,-0.289012305555,1.19393278384,3.1308399384,0.375575778238,2.58762205012,0.0161929804139
4.8,-0.575120889258,0.805015673777,0.0624653338623,0.283930156589,-0.0394793491449,1.67752317327,-0.00010471975603,0.461286130672,-0.289012305555,1.19393278384,3.1308399384,0.375575778238,2.58762205012,0.0161929804139
4.82,-0.574230794243,0.818332544492,0.0623606133748,0.267244819859,-0.0425162224761,1.68626726324,-8.72664606492e-05,0.462323605434,-0.290059188117,1.1915857441,3.13313751742,0.370176803438,2.58717131053,0.0153645164876
4.84,-0.574230794243,0.818332544492,0.0623606133748,0.267244819859,-0.0425162224761,1.68626726324,-8.72664606492e-05,0.462323605434,-0.290059188117,1.1915857441,3.13313751742,0.370176803438,2.58717131053,0.0153645164876
4.86,-0.572764724063,0.831509732408,0.0620988163173,0.250227852994,-0.0451865741011,1.69506381747,-8.72664606492e-05,0.463480037723,-0.290779839691,1.18938661797,3.13520461864,0.365194092248,2.58723569614,0.0144970482264
4.88,-0.572764724063,0.831509732408,0.0620988163173,0.250227852994,-0.0451865741011,1.69506381747,-8.72664606492e-05,0.463480037723,-0.290779839691,1.18938661797,3.13520461864,0.365194092248,2.58723569614,0.0144970482264
4.9,-0.571822231353,0.844931331932,0.0618021068823,0.233193442424,-0.0483979801911,1.70410458358,-0.00010471975603,0.464401970083,-0.291803012963,1.18701127635,3.13780549422,0.359739271382,2.58666263894,0.0136131750691
4.92,-0.571822231353,0.844931331932,0.0618021068823,0.233193442424,-0.0483979801911,1.70410458358,-0.00010471975603,0.464401970083,-0.291803012963,1.18701127635,3.13780549422,0.359739271382,2.58666263894,0.0136131750691
4.94,-0.571822231353,0.844931331932,0.0618021068823,0.233193442424,-0.0483979801911,1.70410458358,-0.00010471975603,0.464401970083,-0.291803012963,1.18701127635,3.13780549422,0.359739271382,2.58666263894,0.0136131750691
4.96,-0.570565618793,0.857567498673,0.0601440477548,0.216717530024,-0.0511905084923,1.71248208943,-8.72664606492e-05,0.465223422331,-0.292816780695,1.18488977769,3.1411174302,0.355160029805,2.5859045138,0.0127394248201
4.98,-0.570565618793,0.857567498673,0.0601440477548,0.216717530024,-0.0511905084923,1.71248208943,-8.72664606492e-05,0.465223422331,-0.292816780695,1.18488977769,3.1411174302,0.355160029805,2.5859045138,0.0127394248201
5.0,-0.569378781053,0.870378235622,0.0594110085035,0.200276538324,-0.0540353928761,1.72127864366,-8.72664606492e-05,0.466069421191,-0.293641213361,1.18261163999,-3.13944098976,0.349965254068,2.5854082969,0.0118530406482
5.02,-0.569378781053,0.870378235622,0.0594110085035,0.200276538324,-0.0540353928761,1.72127864366,-8.72664606492e-05,0.466069421191,-0.293641213361,1.18261163999,-3.13944098976,0.349965254068,2.5854082969,0.0118530406482
5.04,-0.568436288343,0.882735169922,0.059061942986,0.184708197934,-0.0567406527173,1.72930714224,-8.72664606492e-05,0.466900652463,-0.294462924744,1.18032194189,-3.13722860753,0.345125781496,2.58484646896,0.0110023684721
5.06,-0.568436288343,0.882735169922,0.059061942986,0.184708197934,-0.0567406527173,1.72930714224,-8.72664606492e-05,0.466900652463,-0.294462924744,1.18032194189,-3.13722860753,0.345125781496,2.58484646896,0.0110023684721
5.08,-0.568436288343,0.882735169922,0.059061942986,0.184708197934,-0.0567406527173,1.72930714224,-8.72664606492e-05,0.466900652463,-0.294462924744,1.18032194189,-3.13722860753,0.345125781496,2.58484646896,0.0110023684721
5.1,-0.567301848298,0.894638301572,0.0586779692523,0.169436566979,-0.0591492072848,1.73721353489,-0.00010471975603,0.467729013108,-0.295094960484,1.17816924226,-3.13524653639,0.340566057727,2.58451857623,0.0101531336492
5.12,-0.567301848298,0.894638301572,0.0586779692523,0.169436566979,-0.0591492072848,1.73721353489,-0.00010471975603,0.467729013108,-0.295094960484,1.17816924226,-3.13524653639,0.340566057727,2.58451857623,0.0101531336492
5.14,-0.566202295663,0.906593830917,0.0579623861898,0.153798418479,-0.0617497507998,1.74557359702,-8.72664606492e-05,0.468412028811,-0.295776611016,1.17605396658,-3.13283749293,0.335865383322,2.58391608394,0.00926874305065
5.16,-0.566202295663,0.906593830917,0.0579623861898,0.153798418479,-0.0617497507998,1.74557359702,-8.72664606492e-05,0.468412028811,-0.295776611016,1.17605396658,-3.13283749293,0.335865383322,2.58391608394,0.00926874305065
5.18,-0.565347021479,0.917606867552,0.0572467989661,0.139835781135,-0.0642106614498,1.75265960289,-0.00010471975603,0.469039525431,-0.296515994842,1.17397866046,-3.13048384139,0.331709444283,2.5832131404,0.00847165139301
5.2,-0.565347021479,0.917606867552,0.0572467989661,0.139835781135,-0.0642106614498,1.75265960289,-0.00010471975603,0.469039525431,-0.296515994842,1.17397866046,-3.13048384139,0.331709444283,2.5832131404,0.00847165139301
5.22,-0.565347021479,0.917606867552,0.0572467989661,0.139835781135,-0.0642106614498,1.75265960289,-0.00010471975603,0.469039525431,-0.296515994842,1.17397866046,-3.13048384139,0.331709444283,2.5832131404,0.00847165139301
5.24,-0.564230025138,0.929387826687,0.0571246264511,0.124773591155,-0.066636672206,1.76019941141,-0.00010471975603,0.469837274306,-0.297053708925,1.17177865174,-3.12870856539,0.327434480887,2.58286365514,0.00760040921069
5.26,-0.564230025138,0.929387826687,0.0571246264511,0.124773591155,-0.066636672206,1.76019941141,-0.00010471975603,0.469837274306,-0.297053708925,1.17177865174,-3.12870856539,0.327434480887,2.58286365514,0.00760040921069
5.28,-0.563339930123,0.940575366952,0.0570199059636,0.11065387724,-0.069062678801,1.76786145903,-0.00010471975603,0.470437696928,-0.297591939055,1.1695835853,-3.1269221824,0.322690369831,2.58231247575,0.0067734823898
5.3,-0.563339930123,0.940575366952,0.0570199059636,0.11065387724,-0.069062678801,1.76786145903,-0.00010471975603,0.470437696928,-0.297591939055,1.1695835853,-3.1269221824,0.322690369831,2.58231247575,0.0067734823898
5.32,-0.562449835108,0.950803037382,0.0568977334486,0.0968657768146,-0.0712094321498,1.7749474649,-0.00010471975603,0.470980011039,-0.298032724131,1.16783055039,-3.12536487448,0.319150863913,2.58181269127,0.00595474518062
5.34,-0.562449835108,0.950803037382,0.0568977334486,0.0968657768146,-0.0712094321498,1.7749474649,-0.00010471975603,0.470980011039,-0.298032724131,1.16783055039,-3.12536487448,0.319150863913,2.58181269127,0.00595474518062
5.36,-0.562449835108,0.950803037382,0.0568977334486,0.0968657768146,-0.0712094321498,1.7749474649,-0.00010471975603,0.470980011039,-0.298032724131,1.16783055039,-3.12536487448,0.319150863913,2.58181269127,0.00595474518062
5.38,-0.561524786103,0.961135370042,0.0567057486623,0.0839154319672,-0.0734958142023,1.7816495761,-0.00010471975603,0.471555044244,-0.298496200142,1.16576108709,-3.12359633738,0.315055209931,2.58132402282,0.0051810779504
5.4,-0.561524786103,0.961135370042,0.0567057486623,0.0839154319672,-0.0734958142023,1.7816495761,-0.00010471975603,0.471555044244,-0.298496200142,1.16576108709,-3.12359633738,0.315055209931,2.58132402282,0.0051810779504
5.42,-0.560739353319,0.971013900052,0.0566010281748,0.0709476350923,-0.0755902073073,1.7880723217,-0.00010471975603,0.472068448893,-0.298952340569,1.16394830589,-3.12208002338,0.311710378312,2.58074483353,0.00439785554029
5.44,-0.560739353319,0.971013900052,0.0566010281748,0.0709476350923,-0.0755902073073,1.7880723217,-0.00010471975603,0.472068448893,-0.298952340569,1.16394830589,-3.12208002338,0.311710378312,2.58074483353,0.00439785554029
5.46,-0.559866702008,0.980979781746,0.0562868667123,0.0587477815236,-0.0777020607622,1.79480932031,-0.00010471975603,0.472532017402,-0.29935154152,1.16181752548,-3.12034530695,0.307198425968,2.58020143512,0.00365580458532
5.48,-0.559866702008,0.980979781746,0.0562868667123,0.0587477815236,-0.0777020607622,1.79480932031,-0.00010471975603,0.472532017402,-0.29935154152,1.16181752548,-3.12034530695,0.307198425968,2.58020143512,0.00365580458532
5.5,-0.559866702008,0.980979781746,0.0562868667123,0.0587477815236,-0.0777020607622,1.79480932031,-0.00010471975603,0.472532017402,-0.29935154152,1.16181752548,-3.12034530695,0.307198425968,2.58020143512,0.00365580458532
5.52,-0.559098779508,0.990003104152,0.0555189234061,0.0465304759274,-0.0796742813522,1.80105762886,-0.00010471975603,0.472855499147,-0.299795321678,1.16023201443,-3.11834021147,0.30413683844,2.57944544167,0.00290503526667
5.54,-0.559098779508,0.990003104152,0.0555189234061,0.0465304759274,-0.0796742813522,1.80105762886,-0.00010471975603,0.472855499147,-0.299795321678,1.16023201443,-3.11834021147,0.30413683844,2.57944544167,0.00290503526667
5.56,-0.558400631828,0.998642465307,0.0549953251298,0.0353952792611,-0.0816988663472,1.80711392349,-0.00010471975603,0.473136057084,-0.300192493076,1.15852552269,-3.11646379783,0.300572646479,2.57872846497,0.00221660771141
5.58,-0.558400631828,0.998642465307,0.0549953251298,0.0353952792611,-0.0816988663472,1.80711392349,-0.00010471975603,0.473136057084,-0.300192493076,1.15852552269,-3.11646379783,0.300572646479,2.57872846497,0.00221660771141
5.6,-0.557580344923,1.007683298,0.0545240870973,0.0240506374587,-0.0838456155348,1.81268152807,-0.00010471975603,0.473550402284,-0.300603581713,1.15667251582,-3.11452605996,0.297307092801,2.57810391218,0.00151116143948
5.62,-0.557580344923,1.007683298,0.0545240870973,0.0240506374587,-0.0838456155348,1.81268152807,-0.00010471975603,0.473550402284,-0.300603581713,1.15667251582,-3.11452605996,0.297307092801,2.57810391218,0.00151116143948
5.64,-0.557580344923,1.007683298,0.0545240870973,0.0240506374587,-0.0838456155348,1.81268152807,-0.00010471975603,0.473550402284,-0.300603581713,1.15667251582,-3.11452605996,0.297307092801,2.57810391218,0.00151116143948
5.66,-0.556934561648,1.01562457805,0.0544891788811,0.0139975403596,-0.0854513185797,1.81788254852,-0.000122173051411,0.473894630218,-0.300868482762,1.15504430265,-3.11341246549,0.29421329208,2.57764516866,0.000881914385436
5.68,-0.556934561648,1.01562457805,0.0544891788811,0.0139975403596,-0.0854513185797,1.81788254852,-0.000122173051411,0.473894630218,-0.300868482762,1.15504430265,-3.11341246549,0.29421329208,2.57764516866,0.000881914385436
5.7,-0.556201526558,1.02368796404,0.0544542706649,0.003490658556,-0.0871093860297,1.82331060345,-0.000139626346791,0.474229713692,-0.301085346583,1.15346611872,-3.11227287282,0.291224345491,2.57721303578,0.00022050909569
5.72,-0.556201526558,1.02368796404,0.0544542706649,0.003490658556,-0.0871093860297,1.82331060345,-0.000139626346791,0.474229713692,-0.301085346583,1.15346611872,-3.11227287282,0.291224345491,2.57721303578,0.00022050909569
5.74,-0.555608107688,1.03089620901,0.0543670063661,-0.00605629255435,-0.0886103685872,1.82800549014,-0.000139626346791,0.474512617574,-0.301325264873,1.15210225894,-3.11119916631,0.288865444608,2.57671204695,0.000383468182448
5.76,-0.555608107688,1.03089620901,0.0543670063661,-0.00605629255435,-0.0886103685872,1.82800549014,-0.000139626346791,0.474512617574,-0.301325264873,1.15210225894,-3.11119916631,0.288865444608,2.57671204695,0.000383468182448
5.78,-0.555608107688,1.03089620901,0.0543670063661,-0.00605629255435,-0.0886103685872,1.82800549014,-0.000139626346791,0.474512617574,-0.301325264873,1.15210225894,-3.11119916631,0.288865444608,2.57671204695,0.000383468182448
5.8,-0.554962357703,1.03808694369,0.0543320981498,-0.01424188643,-0.0899717266022,1.83273539739,-0.000139626346791,0.474811691776,-0.301479279206,1.15032486193,-3.11024584391,0.285129194129,2.57638032796,0.000903871873655
5.82,-0.554962357703,1.03808694369,0.0543320981498,-0.01424188643,-0.0899717266022,1.83273539739,-0.000139626346791,0.474811691776,-0.301479279206,1.15032486193,-3.11024584391,0.285129194129,2.57638032796,0.000903871873655
5.84,-0.554630727568,1.04424796713,0.0542622858786,-0.0232826920718,-0.0914377967822,1.83741284037,-0.000157079625918,0.474871613509,-0.301732335701,1.14938323491,-3.10920928008,0.283329831404,2.57565357835,0.0014800305664
5.86,-0.554630727568,1.04424796713,0.0542622858786,-0.0232826920718,-0.0914377967822,1.83741284037,-0.000157079625918,0.474871613509,-0.301732335701,1.14938323491,-3.10920928008,0.283329831404,2.57565357835,0.0014800305664
5.88,-0.553897692478,1.05023442037,0.0541924736073,-0.0305956221536,-0.0927991547972,1.84104312841,-0.000157079625918,0.475179754206,-0.30182557195,1.14806072549,-3.10819596573,0.281027190021,2.57546400401,0.00194857069015
5.9,-0.553897692478,1.05023442037,0.0541924736073,-0.0305956221536,-0.0927991547972,1.84104312841,-0.000157079625918,0.475179754206,-0.30182557195,1.14806072549,-3.10819596573,0.281027190021,2.57546400401,0.00194857069015
5.92,-0.553897692478,1.05023442037,0.0541924736073,-0.0305956221536,-0.0927991547972,1.84104312841,-0.000157079625918,0.475179754206,-0.30182557195,1.14806072549,-3.10819596573,0.281027190021,2.57546400401,0.00194857069015
5.94,-0.553269386198,1.05581946865,0.0541750215798,-0.0372453273361,-0.0938288993222,1.84472574757,-0.000174532921298,0.475428307113,-0.301865486036,1.14675525255,-3.10749834826,0.278408008177,2.57532119046,0.00237600442343
5.96,-0.553269386198,1.05581946865,0.0541750215798,-0.0372453273361,-0.0938288993222,1.84472574757,-0.000174532921298,0.475428307113,-0.301865486036,1.14675525255,-3.10749834826,0.278408008177,2.57532119046,0.00237600442343
5.98,-0.553059928578,1.06086349575,0.0541401133636,-0.0442964582798,-0.0951029888772,1.84802447205,-0.000174532921298,0.475507100494,-0.302134592817,1.14589099512,-3.10659505391,0.277117491577,2.57464976985,0.00282969979838
6.0,-0.553059928578,1.06086349575,0.0541401133636,-0.0442964582798,-0.0951029888772,1.84802447205,-0.000174532921298,0.475507100494,-0.302134592817,1.14589099512,-3.10659505391,0.277117491577,2.57464976985,0.00282969979838
6.02,-0.552815583548,1.06526170629,0.0540353928761,-0.0500909475349,-0.0962200018622,1.85093916871,-0.000174532921298,0.475578458455,-0.302337656754,1.14502662981,-3.10572180041,0.275602119859,2.57412006416,0.00320366729267
6.04,-0.552815583548,1.06526170629,0.0540353928761,-0.0500909475349,-0.0962200018622,1.85093916871,-0.000174532921298,0.475578458455,-0.302337656754,1.14502662981,-3.10572180041,0.275602119859,2.57412006416,0.00320366729267
6.06,-0.552815583548,1.06526170629,0.0540353928761,-0.0500909475349,-0.0962200018622,1.85093916871,-0.000174532921298,0.475578458455,-0.302337656754,1.14502662981,-3.10572180041,0.275602119859,2.57412006416,0.00320366729267
6.08,-0.552396701598,1.06934579698,0.0539481285773,-0.0552396701598,-0.0970228533847,1.85387130907,-0.000174532921298,0.475690097044,-0.302375042691,1.14414032711,-3.10512011331,0.273735979217,2.57389094743,0.0035366438101
6.1,-0.552396701598,1.06934579698,0.0539481285773,-0.0552396701598,-0.0970228533847,1.85387130907,-0.000174532921298,0.475690097044,-0.302375042691,1.14414032711,-3.10512011331,0.273735979217,2.57389094743,0.0035366438101
6.12,-0.551820759723,1.07316803236,0.0538084998736,-0.0596902617498,-0.0977384364472,1.85622740768,-0.000191986216679,0.475900099315,-0.302350825171,1.14321680393,-3.10451117308,0.272010028555,2.57390897584,0.00382577344806
6.14,-0.551820759723,1.07316803236,0.0538084998736,-0.0596902617498,-0.0977384364472,1.85622740768,-0.000191986216679,0.475900099315,-0.302350825171,1.14321680393,-3.10451117308,0.272010028555,2.57390897584,0.00382577344806
6.16,-0.551593858398,1.07622234523,0.0535990630598,-0.0638441439048,-0.0983842113997,1.85776338584,-0.00020943951206,0.476026399077,-0.302501695178,1.14267339369,-3.10389116813,0.271575859161,2.57362630287,0.00409570594902
6.18,-0.551593858398,1.07622234523,0.0535990630598,-0.0638441439048,-0.0983842113997,1.85776338584,-0.00020943951206,0.476026399077,-0.302501695178,1.14267339369,-3.10389116813,0.271575859161,2.57362630287,0.00409570594902
6.2,-0.551593858398,1.07622234523,0.0535990630598,-0.0638441439048,-0.0983842113997,1.85776338584,-0.00020943951206,0.476026399077,-0.302501695178,1.14267339369,-3.10389116813,0.271575859161,2.57362630287,0.00409570594902
6.22,-0.551366957073,1.07870074952,0.0533023536249,-0.0670380979673,-0.0987856329997,1.8597704772,-0.00020943951206,0.476036781664,-0.302531421151,1.14214419872,-3.10338440968,0.270288344652,2.57341197581,0.00430287594446
6.24,-0.551366957073,1.07870074952,0.0533023536249,-0.0670380979673,-0.0987856329997,1.8597704772,-0.00020943951206,0.476036781664,-0.302531421151,1.14214419872,-3.10338440968,0.270288344652,2.57341197581,0.00430287594446
6.26,-0.551332069663,1.08055078095,0.0524820500748,-0.0695688250498,-0.0992045149497,1.86118421626,-0.000226892807441,0.475956048291,-0.302714998068,1.14180159998,-3.10235374391,0.269567854024,2.5729586825,0.00446708998633
6.28,-0.551332069663,1.08055078095,0.0524820500748,-0.0695688250498,-0.0992045149497,1.86118421626,-0.000226892807441,0.475956048291,-0.302714998068,1.14180159998,-3.10235374391,0.269567854024,2.5729586825,0.00446708998633
6.3,-0.551192420153,1.08213902365,0.0520806243136,-0.0718901111573,-0.0994314079522,1.86231872289,-0.00020943951206,0.475965817868,-0.302773435551,1.14155211248,-3.1018766615,0.269172396823,2.57274906201,0.00461774110801
6.32,-0.551192420153,1.08213902365,0.0520806243136,-0.0718901111573,-0.0994314079522,1.86231872289,-0.00020943951206,0.475965817868,-0.302773435551,1.14155211248,-3.1018766615,0.269172396823,2.57274906201,0.00461774110801
6.34,-0.551192420153,1.08213902365,0.0520806243136,-0.0718901111573,-0.0994314079522,1.86231872289,-0.00020943951206,0.475965817868,-0.302773435551,1.14155211248,-3.1018766615,0.269172396823,2.57274906201,0.00461774110801
6.36,-0.551262228263,1.08274988622,0.0516268383086,-0.0729198556823,-0.0995884845222,1.86261539903,-0.000226892807441,0.475920968915,-0.302914216124,1.1415060034,-3.10135520445,0.269301133355,2.57247979704,0.00468462662588
6.38,-0.551262228263,1.08274988622,0.0516268383086,-0.0729198556823,-0.0995884845222,1.86261539903,-0.000226892807441,0.475920968915,-0.302914216124,1.1415060034,-3.10135520445,0.269301133355,2.57247979704,0.00468462662588
6.4,-0.551140055748,1.08322113258,0.0515570260373,-0.0733561896597,-0.0995710324947,1.86266773015,-0.000226892807441,0.475999886056,-0.302897034811,1.14136847551,-3.10131744347,0.269214072495,2.572566673,0.00471362471066
6.42,-0.551140055748,1.08322113258,0.0515570260373,-0.0733561896597,-0.0995710324947,1.86266773015,-0.000226892807441,0.475999886056,-0.302897034811,1.14136847551,-3.10131744347,0.269214072495,2.572566673,0.00471362471066
6.44,-0.551192420153,1.08316880146,0.0515395740098,-0.0736878031497,-0.0996059365497,1.86268517385,-0.000226892807441,0.475969749299,-0.302927992478,1.14149654371,-3.10128641798,0.269580615295,2.57248004739,0.0047346251706
6.46,-0.551192420153,1.08316880146,0.0515395740098,-0.0736878031497,-0.0996059365497,1.86268517385,-0.000226892807441,0.475969749299,-0.302927992478,1.14149654371,-3.10128641798,0.269580615295,2.57248004739,0.0047346251706
6.48,-0.551192420153,1.08316880146,0.0515395740098,-0.0736878031497,-0.0996059365497,1.86268517385,-0.000226892807441,0.475969749299,-0.302927992478,1.14149654371,-3.10128641798,0.269580615295,2.57248004739,0.0047346251706
6.5,-0.551140055748,1.08325608657,0.0515395740098,-0.0736528907723,-0.0996059365497,1.86270261756,-0.000226892807441,0.475993489197,-0.302907295824,1.14143609357,-3.10128347135,0.269441069345,2.57253410884,0.00473260287155
6.52,-0.551140055748,1.08325608657,0.0515395740098,-0.0736528907723,-0.0996059365497,1.86270261756,-0.000226892807441,0.475993489197,-0.302907295824,1.14143609357,-3.10128347135,0.269441069345,2.57253410884,0.00473260287155
6.54,-0.551157532743,1.08323857628,0.0515046657936,-0.0737052551772,-0.0996059365497,1.86272006126,-0.000244346102821,0.475980796186,-0.302917725179,1.14146108305,-3.10124947068,0.26949326005,2.57252308075,0.00473587517304
6.56,-0.551157532743,1.08323857628,0.0515046657936,-0.0737052551772,-0.0996059365497,1.86272006126,-0.000244346102821,0.475980796186,-0.302917725179,1.14146108305,-3.10124947068,0.26949326005,2.57252308075,0.00473587517304
6.58,-0.551140055748,1.08330841768,0.0515221178211,-0.0736878031497,-0.0996059365497,1.86272006126,-0.000244346102821,0.475995651634,-0.302912062778,1.1414163386,-3.10126340607,0.269405735181,2.57254581726,0.0047349444987
6.6,-0.551140055748,1.08330841768,0.0515221178211,-0.0736878031497,-0.0996059365497,1.86272006126,-0.000244346102821,0.475995651634,-0.302912062778,1.1414163386,-3.10126340607,0.269405735181,2.57254581726,0.0047349444987
6.62,-0.551140055748,1.08330841768,0.0515221178211,-0.0736878031497,-0.0996059365497,1.86272006126,-0.000244346102821,0.475995651634,-0.302912062778,1.1414163386,-3.10126340607,0.269405735181,2.57254581726,0.0047349444987
6.64,-0.551140055748,1.08327353027,0.0515046657936,-0.0737227072048,-0.0996233968996,1.86272006126,-0.000261799381947,0.475988528034,-0.302914514396,1.1414466838,-3.1012294302,0.269475224606,2.57255261736,0.00473708028812
6.66,-0.551140055748,1.08327353027,0.0515046657936,-0.0737227072048,-0.0996233968996,1.86272006126,-0.000261799381947,0.475988528034,-0.302914514396,1.1414466838,-3.1012294302,0.269475224606,2.57255261736,0.00473708028812
6.68,-0.551105168338,1.08330841768,0.0515046657936,-0.0737227072048,-0.0996059365497,1.86273750497,-0.000261799381947,0.476002299896,-0.302896483894,1.14142610289,-3.10124431628,0.269422714917,2.57259215628,0.0047371485965
6.7,-0.551105168338,1.08330841768,0.0515046657936,-0.0737227072048,-0.0996059365497,1.86273750497,-0.000261799381947,0.476002299896,-0.302896483894,1.14142610289,-3.10124431628,0.269422714917,2.57259215628,0.0047371485965
6.72,-0.551122612043,1.08329097398,0.0515046657936,-0.0737227072048,-0.0996059365497,1.86273750497,-0.000261799381947,0.475994988693,-0.302903540891,1.14143594345,-3.10124464011,0.269440155829,2.57257462638,0.00473710290063
6.74,-0.551122612043,1.08329097398,0.0515046657936,-0.0737227072048,-0.0996059365497,1.86273750497,-0.000261799381947,0.475994988693,-0.302903540891,1.14143594345,-3.10124464011,0.269440155829,2.57257462638,0.00473710290063
6.76,-0.551105168338,1.08330841768,0.0514872137661,-0.0737227072048,-0.0993965038971,1.86273750497,-0.000261799381947,0.475994988693,-0.302903540891,1.14143594345,-3.10124464011,0.269440155829,2.57257462638,0.00473710290063
6.78,-0.551105168338,1.08330841768,0.0514872137661,-0.0737227072048,-0.0993965038971,1.86273750497,-0.000261799381947,0.476019595866,-0.302870082494,1.14142491774,-3.10141226184,0.26942061648,2.57265072327,0.00473714911816
6.8,-0.551105168338,1.08330841768,0.0514872137661,-0.0737227072048,-0.0993965038971,1.86273750497,-0.000261799381947,0.476019595866,-0.302870082494,1.14142491774,-3.10141226184,0.26942061648,2.57265072327,0.00473714911816
6.82,-0.551105168338,1.08329097398,0.0514872137661,-0.0737401592323,-0.0980875019647,1.86273750497,-0.000279252693583,0.476134126281,-0.302690885199,1.14143184852,-3.10255817564,0.269440205967,2.57305829043,0.00473822052181
6.84,-0.551105168338,1.08329097398,0.0514872137661,-0.0737401592323,-0.0980875019647,1.86273750497,-0.000279252693583,0.476134126281,-0.302690885199,1.14143184852,-3.10255817564,0.269440205967,2.57305829043,0.00473822052181
6.86,-0.551105168338,1.08330841768,0.0514697575774,-0.0737401592323,-0.0959058403997,1.86275494867,-0.000279252693583,0.476326484365,-0.302395523706,1.14140833808,-3.10445813416,0.269382272136,2.57370474008,0.00473824875984
6.88,-0.551105168338,1.08330841768,0.0514697575774,-0.0737401592323,-0.0959058403997,1.86275494867,-0.000279252693583,0.476326484365,-0.302395523706,1.14140833808,-3.10445813416,0.269382272136,2.57370474008,0.00473824875984
6.9,-0.551087724633,1.08330841768,0.0514697575774,-0.0737401592323,-0.0937241788347,1.86275494867,-0.000279252693583,0.476326484365,-0.302395523706,1.14140833808,-3.10445813416,0.269382272136,2.57370474008,0.00473824875984
6.92,-0.551087724633,1.08330841768,0.0514697575774,-0.0737401592323,-0.0937241788347,1.86275494867,-0.000279252693583,0.476525533475,-0.302089797703,1.14139598111,-3.10637421601,0.269360143348,2.57437321555,0.00473825434141
6.94,-0.551087724633,1.08330841768,0.0514697575774,-0.0737401592323,-0.0937241788347,1.86275494867,-0.000279252693583,0.476525533475,-0.302089797703,1.14139598111,-3.10637421601,0.269360143348,2.57437321555,0.00473825434141
6.96,-0.551105168338,1.08330841768,0.0514697575774,-0.0737576112598,-0.0912632681847,1.86275494867,-0.000279252693583,0.476738379264,-0.301762570858,1.14138803936,-3.10853627158,0.269354045702,2.57508919777,0.00473937410804
6.98,-0.551105168338,1.08330841768,0.0514697575774,-0.0737576112598,-0.0912632681847,1.86275494867,-0.000279252693583,0.476738379264,-0.301762570858,1.14138803936,-3.10853627158,0.269354045702,2.57508919777,0.00473937410804
7.0,-0.551087724633,1.08332586139,0.0514697575774,-0.0737576112598,-0.0896052007348,1.86275494867,-0.000279252693583,0.476892428962,-0.301529092181,1.14136980743,-3.10999222393,0.269321621502,2.57560155891,0.00473942387334
7.02,-0.551087724633,1.08332586139,0.0514697575774,-0.0737576112598,-0.0896052007348,1.86275494867,-0.000279252693583,0.476892428962,-0.301529092181,1.14136980743,-3.10999222393,0.269321621502,2.57560155891,0.00473942387334
7.04,-0.551052803933,1.08332586139,0.0514697575774,-0.0737576112598,-0.0891165106747,1.86277239238,-0.000296705988964,0.476943761396,-0.301444146956,1.14136661762,-3.11041676617,0.269299358936,2.57579986409,0.00473940190875
7.06,-0.551052803933,1.08332586139,0.0514697575774,-0.0737576112598,-0.0891165106747,1.86277239238,-0.000296705988964,0.476943761396,-0.301444146956,1.14136661762,-3.11041676617,0.269299358936,2.57579986409,0.00473940190875
7.08,-0.551052803933,1.08332586139,0.0514697575774,-0.0737576112598,-0.0891165106747,1.86277239238,-0.000296705988964,0.476943761396,-0.301444146956,1.14136661762,-3.11041676617,0.269299358936,2.57579986409,0.00473940190875
7.1,-0.551052803933,1.0833607488,0.0514697575774,-0.0737576112598,-0.0889419820772,1.86277239238,-0.000296705988964,0.476963244032,-0.301422793078,1.14134608548,-3.11056951727,0.269262962769,2.57585209749,0.00473949375715
7.12,-0.551052803933,1.0833607488,0.0514697575774,-0.0737576112598,-0.0889419820772,1.86277239238,-0.000296705988964,0.476963244032,-0.301422793078,1.14134608548,-3.11056951727,0.269262962769,2.57585209749,0.00473949375715
7.14,-0.551052803933,1.08337825908,0.0514697575774,-0.0737576112598,-0.0887499931297,1.86278996924,-0.000314159251835,0.476979817594,-0.301396266528,1.14133448207,-3.11073321245,0.269225692417,2.57592700565,0.00473951678202
7.16,-0.551052803933,1.08337825908,0.0514697575774,-0.0737576112598,-0.0887499931297,1.86278996924,-0.000314159251835,0.476979817594,-0.301396266528,1.14133448207,-3.11073321245,0.269225692417,2.57592700565,0.00473951678202
7.18,-0.551035360228,1.08348292131,0.0514697575774,-0.0737576112598,-0.0885580041822,1.86289463147,-0.000331612547216,0.476999718709,-0.301359984509,1.14126977831,-3.11089636103,0.269014249888,2.57601694012,0.00473965257072
7.2,-0.551035360228,1.08348292131,0.0514697575774,-0.0737576112598,-0.0885580041822,1.86289463147,-0.000331612547216,0.476999718709,-0.301359984509,1.14126977831,-3.11089636103,0.269014249888,2.57601694012,0.00473965257072
7.22,-0.551035360228,1.08348292131,0.0514697575774,-0.0737576112598,-0.0885580041822,1.86289463147,-0.000331612547216,0.476999718709,-0.301359984509,1.14126977831,-3.11089636103,0.269014249888,2.57601694012,0.00473965257072
7.24,-0.551070247638,1.0835004316,0.0514697575774,-0.0737576112598,-0.0884881960722,1.86294696259,-0.000331612547216,0.476990167317,-0.301363737479,1.14125720027,-3.110957868,0.268943840702,2.57600130309,0.00473962913616
7.26,-0.551070247638,1.0835004316,0.0514697575774,-0.0737576112598,-0.0884881960722,1.86294696259,-0.000331612547216,0.476990167317,-0.301363737479,1.14125720027,-3.110957868,0.268943840702,2.57600130309,0.00473962913616
7.28,-0.551035360228,1.08365749152,0.0514697575774,-0.0737576112598,-0.0883834755847,1.86296440629,-0.000349065842597,0.477025747347,-0.301342454686,1.14116730096,-3.1110428289,0.268767939427,2.57608563158,0.00474001763161
7.3,-0.551035360228,1.08365749152,0.0514697575774,-0.0737576112598,-0.0883834755847,1.86296440629,-0.000349065842597,0.477025747347,-0.301342454686,1.14116730096,-3.1110428289,0.268767939427,2.57608563158,0.00474001763161
7.32,-0.551035360228,1.08454758654,0.0514697575774,-0.0738448797198,-0.0882613030697,1.86298185,-0.000349065842597,0.477136893504,-0.301388761619,1.14068974617,-3.11114044434,0.267946582887,2.57612020641,0.00474789632183
7.34,-0.551035360228,1.08454758654,0.0514697575774,-0.0738448797198,-0.0882613030697,1.86298185,-0.000349065842597,0.477136893504,-0.301388761619,1.14068974617,-3.11114044434,0.267946582887,2.57612020641,0.00474789632183
7.36,-0.551035360228,1.08454758654,0.0514697575774,-0.0738448797198,-0.0882613030697,1.86298185,-0.000349065842597,0.477136893504,-0.301388761619,1.14068974617,-3.11114044434,0.267946582887,2.57612020641,0.00474789632183
7.38,-0.551000439528,1.08746228319,0.0514697575774,-0.0738972441247,-0.0881042181772,1.86298185,-0.000366519137977,0.477496065706,-0.301557172737,1.13905926097,-3.11123233564,0.265082607583,2.57622862112,0.00475885638538
7.4,-0.551000439528,1.08746228319,0.0514697575774,-0.0738972441247,-0.0881042181772,1.86298185,-0.000366519137977,0.477496065706,-0.301557172737,1.13905926097,-3.11123233564,0.265082607583,2.57622862112,0.00475885638538
7.42,-0.551070247638,1.092523754,0.0514523055498,-0.0738448797198,-0.0879645936347,1.86301673741,-0.000366519137977,0.478053144586,-0.301921167072,1.13618160913,-3.11126232682,0.259933563989,2.57621785167,0.00476858119964
7.44,-0.551070247638,1.092523754,0.0514523055498,-0.0738448797198,-0.0879645936347,1.86301673741,-0.000366519137977,0.478053144586,-0.301921167072,1.13618160913,-3.11126232682,0.259933563989,2.57621785167,0.00476858119964
7.46,-0.550965552118,1.09859749234,0.0514697575774,-0.0738099756647,-0.0876853445497,1.86301673741,-0.000383972433358,0.478780719074,-0.302241925014,1.13273344862,-3.11142929363,0.253822517434,2.57645229489,0.00478191853673
7.48,-0.550965552118,1.09859749234,0.0514697575774,-0.0738099756647,-0.0876853445497,1.86301673741,-0.000383972433358,0.478780719074,-0.302241925014,1.13273344862,-3.11142929363,0.253822517434,2.57645229489,0.00478191853673
7.5,-0.550965552118,1.09859749234,0.0514697575774,-0.0738099756647,-0.0876853445497,1.86301673741,-0.000383972433358,0.478780719074,-0.302241925014,1.13273344862,-3.11142929363,0.253822517434,2.57645229489,0.00478191853673
7.52,-0.551070247638,1.10545666347,0.0514523055498,-0.0739146961522,-0.0876504321723,1.86301673741,-0.000366519137977,0.479486076477,-0.302742932594,1.12887829112,-3.11135226104,0.247069028384,2.57635512499,0.00480606153723
7.54,-0.551070247638,1.10545666347,0.0514523055498,-0.0739146961522,-0.0876504321723,1.86301673741,-0.000366519137977,0.479486076477,-0.302742932594,1.12887829112,-3.11135226104,0.247069028384,2.57635512499,0.00480606153723
7.56,-0.550982995823,1.11667909114,0.0514697575774,-0.0736703511222,-0.0874409995197,1.86310408909,-0.000383972433358,0.480673002676,-0.303367134329,1.12242982393,-3.11137822205,0.235513989348,2.57657605941,0.00481804956796
7.58,-0.550982995823,1.11667909114,0.0514697575774,-0.0736703511222,-0.0874409995197,1.86310408909,-0.000383972433358,0.480673002676,-0.303367134329,1.12242982393,-3.11137822205,0.235513989348,2.57657605941,0.00481804956796
7.6,-0.550948075123,1.12540580398,0.0514697575774,-0.0736528907723,-0.0872141065172,1.86305175798,-0.000383972433358,0.481565471323,-0.303848729423,1.11746122374,-3.11145369915,0.22682111785,2.57670942004,0.00483825032056
7.62,-0.550948075123,1.12540580398,0.0514697575774,-0.0736528907723,-0.0872141065172,1.86305175798,-0.000383972433358,0.481565471323,-0.303848729423,1.11746122374,-3.11145369915,0.22682111785,2.57670942004,0.00483825032056
7.64,-0.550948075123,1.12540580398,0.0514697575774,-0.0736528907723,-0.0872141065172,1.86305175798,-0.000383972433358,0.481565471323,-0.303848729423,1.11746122374,-3.11145369915,0.22682111785,2.57670942004,0.00483825032056
7.66,-0.551140055748,1.12985634564,0.0514523055498,-0.0739321481797,-0.0872315585447,1.86298185,-0.000383972433358,0.481937862413,-0.304216831232,1.11501214873,-3.11136812548,0.222720024523,2.5765094786,0.00486732448394
7.68,-0.551140055748,1.12985634564,0.0514523055498,-0.0739321481797,-0.0872315585447,1.86298185,-0.000383972433358,0.481937862413,-0.304216831232,1.11501214873,-3.11136812548,0.222720024523,2.5765094786,0.00486732448394
7.7,-0.550668842683,1.13566829524,0.0514872137661,-0.0738972441247,-0.0869523011372,1.86142856129,-0.000383972433358,0.482862554806,-0.304414041514,1.11174325604,-3.11155508119,0.218423620387,2.57713852956,0.00488103901479
7.72,-0.550668842683,1.13566829524,0.0514872137661,-0.0738972441247,-0.0869523011372,1.86142856129,-0.000383972433358,0.482862554806,-0.304414041514,1.11174325604,-3.11155508119,0.218423620387,2.57713852956,0.00488103901479
7.74,-0.550913187713,1.14203870973,0.0514523055498,-0.0739146961522,-0.0869173970822,1.85156740841,-0.000383972433358,0.484740954113,-0.30575815027,1.10847126804,-3.11139534302,0.221928047838,2.57721950425,0.00491043243223
7.76,-0.550913187713,1.14203870973,0.0514523055498,-0.0739146961522,-0.0869173970822,1.85156740841,-0.000383972433358,0.484740954113,-0.30575815027,1.10847126804,-3.11139534302,0.221928047838,2.57721950425,0.00491043243223
7.78,-0.550913187713,1.14203870973,0.0514523055498,-0.0739146961522,-0.0869173970822,1.85156740841,-0.000383972433358,0.484740954113,-0.30575815027,1.10847126804,-3.11139534302,0.221928047838,2.57721950425,0.00491043243223
7.8,-0.550948075123,1.14844414478,0.0514523055498,-0.0737925236372,-0.0868824930272,1.84278843103,-0.000383972433358,0.48651698958,-0.306887581942,1.10508700501,-3.11127142831,0.224175896931,2.57749274309,0.00492867545397
7.82,-0.550948075123,1.14844414478,0.0514523055498,-0.0737925236372,-0.0868824930272,1.84278843103,-0.000383972433358,0.48651698958,-0.306887581942,1.10508700501,-3.11127142831,0.224175896931,2.57749274309,0.00492867545397
7.84,-0.550895710718,1.15347059502,0.0514523055498,-0.0738797837748,-0.0867603205122,1.84120012176,-0.000383972433358,0.487190130546,-0.307247872051,1.10227923663,-3.11130574612,0.220823624964,2.57763812328,0.00494811255874
7.86,-0.550895710718,1.15347059502,0.0514523055498,-0.0738797837748,-0.0867603205122,1.84120012176,-0.000383972433358,0.487190130546,-0.307247872051,1.10227923663,-3.11130574612,0.220823624964,2.57763812328,0.00494811255874
7.88,-0.550773538203,1.16076619167,0.0514697575774,-0.0738448797198,-0.0865334275097,1.84095577673,-0.000383972433358,0.487874559383,-0.30753917514,1.09807193862,-3.11142726448,0.213736078855,2.57785621884,0.00496274054207
7.9,-0.550773538203,1.16076619167,0.0514697575774,-0.0738448797198,-0.0865334275097,1.84095577673,-0.000383972433358,0.487874559383,-0.30753917514,1.09807193862,-3.11142726448,0.213736078855,2.57785621884,0.00496274054207
7.92,-0.550773538203,1.16076619167,0.0514697575774,-0.0738448797198,-0.0865334275097,1.84095577673,-0.000383972433358,0.487874559383,-0.30753917514,1.09807193862,-3.11142726448,0.213736078855,2.57785621884,0.00496274054207
7.94,-0.550913187713,1.1675555214,0.0514697575774,-0.0738797837748,-0.0863065345072,1.84044964296,-0.000383972433358,0.488450488188,-0.307945792285,1.09418168265,-3.11154108158,0.207486328152,2.57781083983,0.00498097639763
7.96,-0.550913187713,1.1675555214,0.0514697575774,-0.0738797837748,-0.0863065345072,1.84044964296,-0.000383972433358,0.488450488188,-0.307945792285,1.09418168265,-3.11154108158,0.207486328152,2.57781083983,0.00498097639763
7.98,-0.551035360228,1.17521743585,0.0514348535223,-0.0739845042623,-0.0840201524547,1.84006574829,-0.000383972433358,0.489235902093,-0.30808032845,1.08978926582,-3.11348916789,0.200296849509,2.57832865689,0.0050054631242
8.0,-0.551035360228,1.17521743585,0.0514348535223,-0.0739845042623,-0.0840201524547,1.84006574829,-0.000383972433358,0.489235902093,-0.30808032845,1.08978926582,-3.11348916789,0.200296849509,2.57832865689,0.0050054631242
8.02,-0.550651365688,1.18356018744,0.0514697575774,-0.0738797837748,-0.0787318052872,1.83992606549,-0.000383972433358,0.490425699157,-0.307526590468,1.08491424415,-3.11823873218,0.191955134381,2.58018146562,0.00501672629819
8.04,-0.550651365688,1.18356018744,0.0514697575774,-0.0738797837748,-0.0787318052872,1.83992606549,-0.000383972433358,0.490425699157,-0.307526590468,1.08491424415,-3.11823873218,0.191955134381,2.58018146562,0.00501672629819
8.06,-0.550651365688,1.18356018744,0.0514697575774,-0.0738797837748,-0.0787318052872,1.83992606549,-0.000383972433358,0.490425699157,-0.307526590468,1.08491424415,-3.11823873218,0.191955134381,2.58018146562,0.00501672629819
8.08,-0.551105168338,1.19082063036,0.0514348535223,-0.0740019562898,-0.0739670522348,1.83980395956,-0.000383972433358,0.491203089783,-0.307404595947,1.0807339133,-3.12248595774,0.184914321833,2.58102011448,0.00504065681275
8.1,-0.551105168338,1.19082063036,0.0514348535223,-0.0740019562898,-0.0739670522348,1.83980395956,-0.000383972433358,0.491203089783,-0.307404595947,1.0807339133,-3.12248595774,0.184914321833,2.58102011448,0.00504065681275
8.12,-0.550791015198,1.20202574749,0.0514697575774,-0.0736878031497,-0.0699702466498,1.83975162844,-0.000383972433358,0.492343327927,-0.307111881346,1.07413255197,-3.12606926544,0.173431097918,2.58245606933,0.00504275890997
8.14,-0.550791015198,1.20202574749,0.0514697575774,-0.0736878031497,-0.0699702466498,1.83975162844,-0.000383972433358,0.492343327927,-0.307111881346,1.07413255197,-3.12606926544,0.173431097918,2.58245606933,0.00504275890997
8.16,-0.550878267013,1.2110490699,0.0514697575774,-0.0737576112598,-0.0687485173386,1.83962938935,-0.000401425728739,0.492953926802,-0.30731277333,1.06891528223,-3.12711549364,0.16459533668,2.58272652092,0.00506600776306
8.18,-0.550878267013,1.2110490699,0.0514697575774,-0.0737576112598,-0.0687485173386,1.83962938935,-0.000401425728739,0.492953926802,-0.30731277333,1.06891528223,-3.12711549364,0.16459533668,2.58272652092,0.00506600776306
8.2,-0.550878267013,1.2110490699,0.0514697575774,-0.0737576112598,-0.0687485173386,1.83962938935,-0.000401425728739,0.492953926802,-0.30731277333,1.06891528223,-3.12711549364,0.16459533668,2.58272652092,0.00506600776306
8.22,-0.550948075123,1.21630255462,0.0514523055498,-0.0738448797198,-0.0686438010123,1.83955961453,-0.000401425728739,0.493232031248,-0.307515577488,1.06589056184,-3.12715499143,0.159498692994,2.58268475613,0.00508256236019
8.24,-0.550948075123,1.21630255462,0.0514523055498,-0.0738448797198,-0.0686438010123,1.83955961453,-0.000401425728739,0.493232031248,-0.307515577488,1.06589056184,-3.12715499143,0.159498692994,2.58268475613,0.00508256236019
8.26,-0.550825902608,1.22070076516,0.0514697575774,-0.0740019562898,-0.0685739845798,1.83948970655,-0.000401425728739,0.49351519267,-0.30759242119,1.06338222157,-3.12720444109,0.155326993292,2.58282746363,0.00510211534793
8.28,-0.550825902608,1.22070076516,0.0514697575774,-0.0740019562898,-0.0685739845798,1.83948970655,-0.000401425728739,0.49351519267,-0.30759242119,1.06338222157,-3.12720444109,0.155326993292,2.58282746363,0.00510211534793
8.3,-0.550791015198,1.22480229956,0.0514697575774,-0.0745779148098,-0.0685216284972,1.83945481914,-0.000383972433358,0.49375349352,-0.307714224729,1.06116967688,-3.12723722384,0.15183564056,2.582834184,0.00514977843189
8.32,-0.550791015198,1.22480229956,0.0514697575774,-0.0745779148098,-0.0685216284972,1.83945481914,-0.000383972433358,0.49375349352,-0.307714224729,1.06116967688,-3.12723722384,0.15183564056,2.582834184,0.00514977843189
8.34,-0.550791015198,1.22480229956,0.0514697575774,-0.0745779148098,-0.0685216284972,1.83945481914,-0.000383972433358,0.49375349352,-0.307714224729,1.06116967688,-3.12723722384,0.15183564056,2.582834184,0.00514977843189
8.36,-0.551157532743,1.22857213724,0.0514348535223,-0.0796917333797,-0.0685565325523,1.83948970655,-0.000383972433358,0.493969176102,-0.308191986739,1.06050459958,-3.12727257623,0.153137593181,2.58218817694,0.00550898603283
8.38,-0.551157532743,1.22857213724,0.0514348535223,-0.0796917333797,-0.0685565325523,1.83948970655,-0.000383972433358,0.493969176102,-0.308191986739,1.06050459958,-3.12727257623,0.153137593181,2.58218817694,0.00550898603283
8.4,-0.550756094498,1.23490766431,0.0514697575774,-0.0881391305547,-0.0684518120648,1.84156670588,-0.000401425728739,0.49436572917,-0.308268059569,1.05928647052,-3.12756934237,0.153159315812,2.58217749695,0.0061009540095
8.42,-0.550756094498,1.23490766431,0.0514697575774,-0.0881391305547,-0.0684518120648,1.84156670588,-0.000401425728739,0.49436572917,-0.308268059569,1.05928647052,-3.12756934237,0.153159315812,2.58217749695,0.0061009540095
8.44,-0.551017883233,1.24208102187,0.0514348535223,-0.101072015052,-0.0684692682535,1.8483211482,-0.000383972433358,0.494036587323,-0.308450689122,1.05879335603,-3.12781180565,0.15214633883,2.58112183121,0.00699669345075
8.46,-0.551017883233,1.24208102187,0.0514348535223,-0.101072015052,-0.0684692682535,1.8483211482,-0.000383972433358,0.494036587323,-0.308450689122,1.05879335603,-3.12781180565,0.15214633883,2.58112183121,0.00699669345075
8.48,-0.551017883233,1.24208102187,0.0514348535223,-0.101072015052,-0.0684692682535,1.8483211482,-0.000383972433358,0.494036587323,-0.308450689122,1.05879335603,-3.12781180565,0.15214633883,2.58112183121,0.00699669345075
8.5,-0.550982995823,1.25274498466,0.0514348535223,-0.118682392465,-0.0684518120648,1.85739680172,-0.000383972433358,0.493741763782,-0.308509669046,1.05758860816,-3.12821090326,0.149991376915,2.58012420379,0.00821823785796
8.52,-0.550982995823,1.25274498466,0.0514348535223,-0.118682392465,-0.0684518120648,1.85739680172,-0.000383972433358,0.493741763782,-0.308509669046,1.05758860816,-3.12821090326,0.149991376915,2.58012420379,0.00821823785796
8.54,-0.550860823308,1.26658543285,0.0514174014948,-0.14348351288,-0.0683819997935,1.86966651749,-0.000383972433358,0.493307903929,-0.308524900459,1.05656292953,-3.12880523,0.148645487932,2.57881078886,0.00993378245283
8.56,-0.550860823308,1.26658543285,0.0514174014948,-0.14348351288,-0.0683819997935,1.86966651749,-0.000383972433358,0.493307903929,-0.308524900459,1.05656292953,-3.12880523,0.148645487932,2.57881078886,0.00993378245283
8.58,-0.550948075123,1.29133418886,0.0513824932786,-0.188460658489,-0.0684169080098,1.88610754248,-0.000383972433358,0.493033539028,-0.309120689336,1.05497161723,-3.12971860677,0.152364728266,2.57614860287,0.0130506464084
8.6,-0.550948075123,1.29133418886,0.0513824932786,-0.188460658489,-0.0684169080098,1.88610754248,-0.000383972433358,0.493033539028,-0.309120689336,1.05497161723,-3.12971860677,0.152364728266,2.57614860287,0.0130506464084
8.62,-0.550948075123,1.29133418886,0.0513824932786,-0.188460658489,-0.0684169080098,1.88610754248,-0.000383972433358,0.493033539028,-0.309120689336,1.05497161723,-3.12971860677,0.152364728266,2.57614860287,0.0130506464084
8.64,-0.550930631418,1.31348250122,0.0513824932786,-0.227398953169,-0.068364547766,1.90127437805,-0.000401425728739,0.492534668097,-0.309387538407,1.0530651981,-3.13059631396,0.153926809549,2.57397468184,0.0157357171695
8.66,-0.550930631418,1.31348250122,0.0513824932786,-0.227398953169,-0.068364547766,1.90127437805,-0.000401425728739,0.492534668097,-0.309387538407,1.0530651981,-3.13059631396,0.153926809549,2.57397468184,0.0157357171695
8.68,-0.551070247638,1.32692147787,0.0513126810073,-0.252200073584,-0.068364547766,1.91003591172,-0.000383972433358,0.492168277739,-0.309646114929,1.05222356746,-3.13106780912,0.156489396443,2.57240186454,0.0174367327163
8.7,-0.551070247638,1.32692147787,0.0513126810073,-0.252200073584,-0.068364547766,1.91003591172,-0.000383972433358,0.492168277739,-0.309646114929,1.05222356746,-3.13106780912,0.156489396443,2.57240186454,0.0174367327163
8.72,-0.550616478278,1.33955764461,0.0512952248186,-0.272672791569,-0.0681725588186,1.91603987524,-0.000383972433358,0.492239627885,-0.309663711103,1.05064153567,-3.131630992,0.15828911936,2.57177447883,0.0188489959415
8.74,-0.550616478278,1.33955764461,0.0512952248186,-0.272672791569,-0.0681725588186,1.91603987524,-0.000383972433358,0.492239627885,-0.309663711103,1.05064153567,-3.131630992,0.15828911936,2.57177447883,0.0188489959415
8.76,-0.550616478278,1.33955764461,0.0512952248186,-0.272672791569,-0.0681725588186,1.91603987524,-0.000383972433358,0.492239627885,-0.309663711103,1.05064153567,-3.131630992,0.15828911936,2.57177447883,0.0188489959415
8.78,-0.550878267013,1.34863343129,0.0512428687361,-0.287630252739,-0.0678234933011,1.91841355072,-0.000383972433358,0.492368729385,-0.310101339128,1.04961908418,-3.13218371569,0.16177306347,2.5708127167,0.0198874048148
8.8,-0.550878267013,1.34863343129,0.0512428687361,-0.287630252739,-0.0678234933011,1.91841355072,-0.000383972433358,0.492368729385,-0.310101339128,1.04961908418,-3.13218371569,0.16177306347,2.5708127167,0.0198874048148
8.82,-0.550982995823,1.35566710604,0.0512254125473,-0.297561180444,-0.0675442400548,1.91874511427,-0.000383972433358,0.492677896887,-0.310476633613,1.04838324302,-3.13258453178,0.164322500352,2.57027620085,0.02058850158
8.84,-0.550982995823,1.35566710604,0.0512254125473,-0.297561180444,-0.0675442400548,1.91874511427,-0.000383972433358,0.492677896887,-0.310476633613,1.04838324302,-3.13258453178,0.164322500352,2.57027620085,0.02058850158
8.86,-0.550651365688,1.36217707017,0.0512254125473,-0.304647219604,-0.0669159254523,1.91916402951,-0.000383972433358,0.493081246225,-0.310496713093,1.04662482628,-3.13322940621,0.164467070667,2.57045214008,0.0210962454372
8.88,-0.550651365688,1.36217707017,0.0512254125473,-0.304647219604,-0.0669159254523,1.91916402951,-0.000383972433358,0.493081246225,-0.310496713093,1.04662482628,-3.13322940621,0.164467070667,2.57045214008,0.0210962454372
8.9,-0.550651365688,1.36217707017,0.0512254125473,-0.304647219604,-0.0669159254523,1.91916402951,-0.000383972433358,0.493081246225,-0.310496713093,1.04662482628,-3.13322940621,0.164467070667,2.57045214008,0.0210962454372
8.92,-0.550913187713,1.36587726619,0.0512079605198,-0.308068050024,-0.0658861809273,1.92052543746,-0.000383972433358,0.49305903328,-0.310522430263,1.04541726521,-3.13415445944,0.162819117318,2.57035921455,0.0213379023264
8.94,-0.550913187713,1.36587726619,0.0512079605198,-0.308068050024,-0.0658861809273,1.92052543746,-0.000383972433358,0.49305903328,-0.310522430263,1.04541726521,-3.13415445944,0.162819117318,2.57035921455,0.0213379023264
8.96,-0.550878267013,1.3672908721,0.0512079605198,-0.308364759459,-0.0639488643923,1.92344013412,-0.000383972433358,0.492877061958,-0.310017182426,1.04459810896,-3.13585015465,0.158783668017,2.57103808882,0.0213491068648
8.98,-0.550878267013,1.3672908721,0.0512079605198,-0.308364759459,-0.0639488643923,1.92344013412,-0.000383972433358,0.492877061958,-0.310017182426,1.04459810896,-3.13585015465,0.158783668017,2.57103808882,0.0213491068648
9.0,-0.550756094498,1.36770978734,0.0512079605198,-0.308434600859,-0.0615228577973,1.92707042216,-0.000383972433358,0.492625744126,-0.30931266716,1.04427628422,-3.13799023364,0.154801246943,2.57199301365,0.0213348842383
9.02,-0.550756094498,1.36770978734,0.0512079605198,-0.308434600859,-0.0615228577973,1.92707042216,-0.000383972433358,0.492625744126,-0.30931266716,1.04427628422,-3.13799023364,0.154801246943,2.57199301365,0.0213348842383
9.04,-0.550756094498,1.36770978734,0.0512079605198,-0.308434600859,-0.0615228577973,1.92707042216,-0.000383972433358,0.492625744126,-0.30931266716,1.04427628422,-3.13799023364,0.154801246943,2.57199301365,0.0213348842383
9.06,-0.550843379603,1.36814614628,0.0511905084923,-0.308382236454,-0.0590095827423,1.9316257592,-0.000383972433358,0.492183309036,-0.30861488989,1.04388926414,-3.14018490059,0.149756374389,2.57278965724,0.0213067856732
