GitHatake/ROS1EARs/catkin_ws/src/torobo_robot/torobo_EARs2021/scripts/arm/2021_kaiya_csv/test_manipulability_joint_4.csv
time,joint_1,joint_2,joint_3,joint_4,joint_5,joint_6,joint_7,x,y,z,roll,pitch,yaw,manipulability
0.0,0.465793465979,0.853884879517,0.0594982728023,0.744225826103,-0.0961501854297,1.33856282079,-0.656278726108,0.498864776576,0.256378308727,1.0280013315,-2.97426608393,0.130777410004,-1.96158101106,0.0430354571705
0.02,0.465828386678,0.853919766928,0.059515728991,0.744243269808,-0.0961327334022,1.33856282079,-0.656278726108,0.498864776576,0.256378308727,1.0280013315,-2.97426608393,0.130777410004,-1.96158101106,0.0430354571705
0.04,0.465828386678,0.853919766928,0.059515728991,0.744243269808,-0.0961327334022,1.33856282079,-0.656278726108,0.498849556991,0.256402825025,1.02797585076,-2.97432389594,0.13075695203,-1.96154183848,0.0430370959075
0.06,0.465828386678,0.853919766928,0.059515728991,0.744243269808,-0.0961327334022,1.33856282079,-0.656278726108,0.498849556991,0.256402825025,1.02797585076,-2.97432389594,0.13075695203,-1.96154183848,0.0430370959075
0.08,0.465810909684,0.853884879517,0.0594982728023,0.744225826103,-0.0961501854297,1.33856282079,-0.656278726108,0.498860304312,0.256387010738,1.0280013315,-2.97426608393,0.130777410004,-1.96156356735,0.0430354571705
0.1,0.465810909684,0.853884879517,0.0594982728023,0.744225826103,-0.0961501854297,1.33856282079,-0.656278726108,0.498860304312,0.256387010738,1.0280013315,-2.97426608393,0.130777410004,-1.96156356735,0.0430354571705
0.12,0.465793465979,0.853902323222,0.0594982728023,0.744225826103,-0.0961501854297,1.33856282079,-0.656278726108,0.498865134983,0.256378488893,1.02799154792,-2.97427760842,0.130764229434,-1.96158251383,0.0430358584269
0.14,0.465793465979,0.853902323222,0.0594982728023,0.744225826103,-0.0961501854297,1.33856282079,-0.656278726108,0.498865134983,0.256378488893,1.02799154792,-2.97427760842,0.130764229434,-1.96158251383,0.0430358584269
0.16,0.465828386678,0.853902323222,0.059515728991,0.744225826103,-0.0961501854297,1.33856282079,-0.656278726108,0.498865134983,0.256378488893,1.02799154792,-2.97427760842,0.130764229434,-1.96158251383,0.0430358584269
0.18,0.465828386678,0.853902323222,0.059515728991,0.744225826103,-0.0961501854297,1.33856282079,-0.656278726108,0.498853376888,0.256401360767,1.02799161387,-2.97428763729,0.130772849198,-1.96153743133,0.0430358509541
0.2,0.465828386678,0.853902323222,0.059515728991,0.744225826103,-0.0961501854297,1.33856282079,-0.656278726108,0.498853376888,0.256401360767,1.02799161387,-2.97428763729,0.130772849198,-1.96153743133,0.0430358509541
0.22,0.465810909684,0.853884879517,0.0594982728023,0.744225826103,-0.0961676457796,1.33856282079,-0.656261282402,0.498861706227,0.256384489512,1.02800147958,-2.9742545901,0.130769423102,-1.96157866066,0.0430354548622
0.24,0.465810909684,0.853884879517,0.0594982728023,0.744225826103,-0.0961676457796,1.33856282079,-0.656261282402,0.498861706227,0.256384489512,1.02800147958,-2.9742545901,0.130769423102,-1.96157866066,0.0430354548622
0.26,0.465810909684,0.853884879517,0.0594982728023,0.744225826103,-0.0961501854297,1.33856282079,-0.656278726108,0.498860304312,0.256387010738,1.0280013315,-2.97426608393,0.130777410004,-1.96156356735,0.0430354571705
0.28,0.465810909684,0.853884879517,0.0594982728023,0.744225826103,-0.0961501854297,1.33856282079,-0.656278726108,0.498860304312,0.256387010738,1.0280013315,-2.97426608393,0.130777410004,-1.96156356735,0.0430354571705
0.3,0.465810909684,0.853919766928,0.0594982728023,0.744225826103,-0.0961501854297,1.33856282079,-0.656278726108,0.498860304312,0.256387010738,1.0280013315,-2.97426608393,0.130777410004,-1.96156356735,0.0430354571705
0.32,0.465810909684,0.853919766928,0.0594982728023,0.744225826103,-0.0961501854297,1.33856282079,-0.656278726108,0.498861020968,0.256387371006,1.02798176432,-2.97428913286,0.130751048847,-1.96156657274,0.0430362596724
0.34,0.465810909684,0.853919766928,0.0594982728023,0.744225826103,-0.0961501854297,1.33856282079,-0.656278726108,0.498861020968,0.256387371006,1.02798176432,-2.97428913286,0.130751048847,-1.96156657274,0.0430362596724
0.36,0.465776022273,0.853919766928,0.0594982728023,0.744225826103,-0.0961501854297,1.33856282079,-0.656278726108,0.498869965356,0.256369966881,1.02798176432,-2.97428913286,0.130751048847,-1.96160146015,0.0430362596724
0.38,0.465776022273,0.853919766928,0.0594982728023,0.744225826103,-0.0961501854297,1.33856282079,-0.656278726108,0.498869965356,0.256369966881,1.02798176432,-2.97428913286,0.130751048847,-1.96160146015,0.0430362596724
0.4,0.465793465979,0.853919766928,0.0594982728023,0.744243269808,-0.0961501854297,1.33856282079,-0.656278726108,0.498862716398,0.256377433215,1.02797593271,-2.97430011749,0.130737445164,-1.96158466659,0.0430371010735
0.42,0.465793465979,0.853919766928,0.0594982728023,0.744243269808,-0.0961501854297,1.33856282079,-0.656278726108,0.498862716398,0.256377433215,1.02797593271,-2.97430011749,0.130737445164,-1.96158466659,0.0430371010735
0.44,0.465810909684,0.853919766928,0.0594982728023,0.744243269808,-0.0961501854297,1.33856282079,-0.656278726108,0.498862716398,0.256377433215,1.02797593271,-2.97430011749,0.130737445164,-1.96158466659,0.0430371010735
0.46,0.465810909684,0.853919766928,0.0594982728023,0.744243269808,-0.0961501854297,1.33856282079,-0.656278726108,0.49885824415,0.25638613519,1.02797593271,-2.97430011749,0.130737445164,-1.96156722288,0.0430371010735
0.48,0.465810909684,0.853919766928,0.0594982728023,0.744243269808,-0.0961501854297,1.33856282079,-0.656278726108,0.49885824415,0.25638613519,1.02797593271,-2.97430011749,0.130737445164,-1.96156722288,0.0430371010735
0.5,0.465776022273,0.853919766928,0.0594982728023,0.744243269808,-0.0961501854297,1.33856282079,-0.656261282402,0.498867188494,0.256368731161,1.02797593271,-2.97430237912,0.130740349753,-1.96161945853,0.0430371010735
0.52,0.465776022273,0.853919766928,0.0594982728023,0.744243269808,-0.0961501854297,1.33856282079,-0.656261282402,0.498867188494,0.256368731161,1.02797593271,-2.97430237912,0.130740349753,-1.96161945853,0.0430371010735
0.54,0.465793465979,0.853919766928,0.0594982728023,0.744243269808,-0.0961327334022,1.33854537708,-0.656261282402,0.498863837175,0.256381391067,1.02797638979,-2.97430518267,0.130764863895,-1.96160194825,0.0430370325792
0.56,0.465793465979,0.853919766928,0.0594982728023,0.744243269808,-0.0961327334022,1.33854537708,-0.656261282402,0.498863837175,0.256381391067,1.02797638979,-2.97430518267,0.130764863895,-1.96160194825,0.0430370325792
0.58,0.465810909684,0.853919766928,0.0594982728023,0.744243269808,-0.0961327334022,1.33856282079,-0.656261282402,0.498863837175,0.256381391067,1.02797638979,-2.97430518267,0.130764863895,-1.96160194825,0.0430370325792
0.6,0.465810909684,0.853919766928,0.0594982728023,0.744243269808,-0.0961327334022,1.33856282079,-0.656261282402,0.498856842894,0.256388655212,1.02797578476,-2.97431612872,0.130751236532,-1.96158682548,0.0430371033804
0.62,0.465810909684,0.853919766928,0.0594982728023,0.744243269808,-0.0961327334022,1.33856282079,-0.656261282402,0.498856842894,0.256388655212,1.02797578476,-2.97431612872,0.130751236532,-1.96158682548,0.0430371033804
0.64,0.465793465979,0.853937210633,0.0594982728023,0.744243269808,-0.0961501854297,1.33856282079,-0.656261282402,0.49886307441,0.256377613182,1.02796614916,-2.97431390327,0.130727168944,-1.96160351713,0.0430375023104
0.66,0.465793465979,0.853937210633,0.0594982728023,0.744243269808,-0.0961501854297,1.33856282079,-0.656261282402,0.49886307441,0.256377613182,1.02796614916,-2.97431390327,0.130727168944,-1.96160351713,0.0430375023104
0.68,0.465810909684,0.853919766928,0.059515728991,0.744243269808,-0.0961501854297,1.33856282079,-0.656278726108,0.498855439351,0.256391586587,1.02797599867,-2.9743101465,0.130746065037,-1.96155706107,0.0430370936005
0.7,0.465810909684,0.853919766928,0.059515728991,0.744243269808,-0.0961501854297,1.33856282079,-0.656278726108,0.498855439351,0.256391586587,1.02797599867,-2.9743101465,0.130746065037,-1.96155706107,0.0430370936005
0.72,0.465810909684,0.853937210633,0.059515728991,0.744243269808,-0.0961327334022,1.33856282079,-0.656278726108,0.498855439351,0.256391586587,1.02797599867,-2.9743101465,0.130746065037,-1.96155706107,0.0430370936005
0.74,0.465810909684,0.853937210633,0.059515728991,0.744243269808,-0.0961327334022,1.33856282079,-0.656278726108,0.498854396073,0.256394286567,1.02796606721,-2.97433542045,0.130743771509,-1.96156081802,0.0430374971446
0.76,0.465810909684,0.853937210633,0.059515728991,0.744243269808,-0.0961327334022,1.33856282079,-0.656278726108,0.498854396073,0.256394286567,1.02796606721,-2.97433542045,0.130743771509,-1.96156081802,0.0430374971446
0.78,0.465776022273,0.853919766928,0.0594982728023,0.744225826103,-0.0961501854297,1.33856282079,-0.656278726108,0.498869965356,0.256369966881,1.02798176432,-2.97428913286,0.130751048847,-1.96160146015,0.0430362596724
0.8,0.465776022273,0.853919766928,0.0594982728023,0.744225826103,-0.0961501854297,1.33856282079,-0.656278726108,0.498869965356,0.256369966881,1.02798176432,-2.97428913286,0.130751048847,-1.96160146015,0.0430362596724
0.82,0.465810909684,0.853902323222,0.0594982728023,0.744208382398,-0.0961501854297,1.33856282079,-0.656278726108,0.498863439357,0.256388426631,1.02799737963,-2.97426662373,0.130777833103,-1.96156441967,0.0430350170107
0.84,0.465810909684,0.853902323222,0.0594982728023,0.744208382398,-0.0961501854297,1.33856282079,-0.656278726108,0.498863439357,0.256388426631,1.02799737963,-2.97426662373,0.130777833103,-1.96156441967,0.0430350170107
0.86,0.465793465979,0.853902323222,0.0594982728023,0.744173494987,-0.0961501854297,1.33856282079,-0.656278726108,0.498873464704,0.256382195754,1.02800904323,-2.97424465427,0.130805040421,-1.96158056202,0.0430333341255
0.88,0.465793465979,0.853902323222,0.0594982728023,0.744173494987,-0.0961501854297,1.33856282079,-0.656278726108,0.498873464704,0.256382195754,1.02800904323,-2.97424465427,0.130805040421,-1.96158056202,0.0430333341255
0.9,0.465793465979,0.853902323222,0.0594982728023,0.744173494987,-0.0961501854297,1.33856282079,-0.656278726108,0.498873464704,0.256382195754,1.02800904323,-2.97424465427,0.130805040421,-1.96158056202,0.0430333341255
0.92,0.465810909684,0.853849992107,0.0594982728023,0.744051322472,-0.0961501854297,1.33856282079,-0.656261282402,0.498887357354,0.256399008395,1.02807924205,-2.97413540899,0.130942766625,-1.96157139093,0.0430262365327
0.94,0.465810909684,0.853849992107,0.0594982728023,0.744051322472,-0.0961501854297,1.33856282079,-0.656261282402,0.498887357354,0.256399008395,1.02807924205,-2.97413540899,0.130942766625,-1.96157139093,0.0430262365327
0.96,0.465810909684,0.853867435812,0.0594982728023,0.743998924778,-0.0961501854297,1.33856282079,-0.656278726108,0.498896054036,0.256402899082,1.02808697742,-2.97411167163,0.130967541353,-1.96155358759,0.04302410976
0.98,0.465810909684,0.853867435812,0.0594982728023,0.743998924778,-0.0961501854297,1.33856282079,-0.656278726108,0.498896054036,0.256402899082,1.02808697742,-2.97411167163,0.130967541353,-1.96155358759,0.04302410976
1.0,0.465793465979,0.853815038118,0.0594808207748,0.743911706252,-0.0961501854297,1.33856282079,-0.656261282402,0.498916123084,0.256394376669,1.02814546558,-2.97401436761,0.13106944295,-1.96159074769,0.0430187035818
1.02,0.465793465979,0.853815038118,0.0594808207748,0.743911706252,-0.0961501854297,1.33856282079,-0.656261282402,0.498916123084,0.256394376669,1.02814546558,-2.97401436761,0.13106944295,-1.96159074769,0.0430187035818
1.04,0.465793465979,0.853815038118,0.0594808207748,0.743911706252,-0.0961501854297,1.33856282079,-0.656261282402,0.498916123084,0.256394376669,1.02814546558,-2.97401436761,0.13106944295,-1.96159074769,0.0430187035818
1.06,0.465776022273,0.853832548402,0.0594633687473,0.743492791013,-0.0961676457796,1.33856282079,-0.656261282402,0.498991773234,0.256407519504,1.02827581894,-2.97373833492,0.13136339596,-1.96160186104,0.0429988924591
1.08,0.465776022273,0.853832548402,0.0594633687473,0.743492791013,-0.0961676457796,1.33856282079,-0.656261282402,0.498991773234,0.256407519504,1.02827581894,-2.97373833492,0.13136339596,-1.96160186104,0.0429988924591
1.1,0.465810909684,0.853797594413,0.0594808207748,0.741642759583,-0.0961501854297,1.33858026449,-0.656261282402,0.499268914891,0.256561612392,1.02891379041,-2.97258468756,0.132838404625,-1.96148776364,0.0429087415054
1.12,0.465810909684,0.853797594413,0.0594808207748,0.741642759583,-0.0961501854297,1.33858026449,-0.656261282402,0.499268914891,0.256561612392,1.02891379041,-2.97258468756,0.132838404625,-1.96148776364,0.0429087415054
1.14,0.465776022273,0.853780150707,0.0594633687473,0.735778478862,-0.0961676457796,1.33856282079,-0.656278726108,0.500208107602,0.256947334904,1.03089049443,-2.96884005853,0.137415270591,-1.9612740983,0.0426235569135
1.16,0.465776022273,0.853780150707,0.0594633687473,0.735778478862,-0.0961676457796,1.33856282079,-0.656278726108,0.500208107602,0.256947334904,1.03089049443,-2.96884005853,0.137415270591,-1.9612740983,0.0426235569135
1.18,0.465776022273,0.853780150707,0.0594633687473,0.735778478862,-0.0961676457796,1.33856282079,-0.656278726108,0.500208107602,0.256947334904,1.03089049443,-2.96884005853,0.137415270591,-1.9612740983,0.0426235569135
1.2,0.465758578568,0.853815038118,0.0594633687473,0.724521097197,-0.0961676457796,1.33858026449,-0.656261282402,0.501956545815,0.257708073838,1.03466097839,-2.96177171309,0.146153526498,-1.9608148889,0.0420724180139
1.22,0.465758578568,0.853815038118,0.0594633687473,0.724521097197,-0.0961676457796,1.33858026449,-0.656261282402,0.501956545815,0.257708073838,1.03466097839,-2.96177171309,0.146153526498,-1.9608148889,0.0420724180139
1.24,0.465776022273,0.853867435812,0.0594633687473,0.706264928188,-0.0961676457796,1.3386151519,-0.656261282402,0.504700839864,0.258918541932,1.0408219945,-2.95027678583,0.160309552108,-1.95986252894,0.0411637116712
1.26,0.465776022273,0.853867435812,0.0594633687473,0.706264928188,-0.0961676457796,1.3386151519,-0.656261282402,0.504700839864,0.258918541932,1.0408219945,-2.95027678583,0.160309552108,-1.95986252894,0.0411637116712
1.28,0.465776022273,0.853884879517,0.0594633687473,0.684221411213,-0.0961676457796,1.33863259561,-0.656261282402,0.507891364027,0.260295000449,1.04835884819,-2.93629579026,0.177440409865,-1.9585010346,0.0400418191767
1.3,0.465776022273,0.853884879517,0.0594633687473,0.684221411213,-0.0961676457796,1.33863259561,-0.656261282402,0.507891364027,0.260295000449,1.04835884819,-2.93629579026,0.177440409865,-1.9585010346,0.0400418191767
1.32,0.465776022273,0.853884879517,0.0594633687473,0.684221411213,-0.0961676457796,1.33863259561,-0.656261282402,0.507891364027,0.260295000449,1.04835884819,-2.93629579026,0.177440409865,-1.9585010346,0.0400418191767
1.34,0.465758578568,0.853884879517,0.0594633687473,0.659333038983,-0.0961676457796,1.33863259561,-0.656278726108,0.511326205087,0.261740626509,1.05696954811,-2.92039792258,0.196783533049,-1.95665921448,0.0387452936999
1.36,0.465758578568,0.853884879517,0.0594633687473,0.659333038983,-0.0961676457796,1.33863259561,-0.656278726108,0.511326205087,0.261740626509,1.05696954811,-2.92039792258,0.196783533049,-1.95665921448,0.0387452936999
1.38,0.465776022273,0.853884879517,0.0594633687473,0.630884153533,-0.0961676457796,1.33863259561,-0.656261282402,0.515013729809,0.263280068698,1.06692135209,-2.90210860132,0.218863418233,-1.95415898902,0.037227645635
1.4,0.465776022273,0.853884879517,0.0594633687473,0.630884153533,-0.0961676457796,1.33863259561,-0.656261282402,0.515013729809,0.263280068698,1.06692135209,-2.90210860132,0.218863418233,-1.95415898902,0.037227645635
1.42,0.465758578568,0.853884879517,0.0594633687473,0.601946578023,-0.0961676457796,1.33866748302,-0.656261282402,0.518515523558,0.264679304331,1.07715369562,-2.88336922526,0.241242010383,-1.95120117754,0.0356480268782
1.44,0.465758578568,0.853884879517,0.0594633687473,0.601946578023,-0.0961676457796,1.33866748302,-0.656261282402,0.518515523558,0.264679304331,1.07715369562,-2.88336922526,0.241242010383,-1.95120117754,0.0356480268782
1.46,0.465758578568,0.853884879517,0.0594633687473,0.601946578023,-0.0961676457796,1.33866748302,-0.656261282402,0.518515523558,0.264679304331,1.07715369562,-2.88336922526,0.241242010383,-1.95120117754,0.0356480268782
1.48,0.465776022273,0.853849992107,0.0594633687473,0.570268876068,-0.0961676457796,1.33863259561,-0.656261282402,0.522050282428,0.266064424203,1.08849859156,-2.86257855075,0.265754035279,-1.9473865139,0.0338799053617
1.5,0.465776022273,0.853849992107,0.0594633687473,0.570268876068,-0.0961676457796,1.33863259561,-0.656261282402,0.522050282428,0.266064424203,1.08849859156,-2.86257855075,0.265754035279,-1.9473865139,0.0338799053617
1.52,0.465776022273,0.853780150707,0.0594633687473,0.539516189828,-0.0961676457796,1.33863259561,-0.656261282402,0.525178110173,0.267224575246,1.09964017405,-2.84216098644,0.289472817597,-1.94316800412,0.0321288662876
1.54,0.465776022273,0.853780150707,0.0594633687473,0.539516189828,-0.0961676457796,1.33863259561,-0.656261282402,0.525178110173,0.267224575246,1.09964017405,-2.84216098644,0.289472817597,-1.94316800412,0.0321288662876
1.56,0.465776022273,0.853727819592,0.0594633687473,0.507087975788,-0.0961676457796,1.33863259561,-0.656261282402,0.528153679256,0.268264251415,1.1114807015,-2.82036857947,0.314372271552,-1.93813988345,0.0302509995163
1.58,0.465776022273,0.853727819592,0.0594633687473,0.507087975788,-0.0961676457796,1.33863259561,-0.656261282402,0.528153679256,0.268264251415,1.1114807015,-2.82036857947,0.314372271552,-1.93813988345,0.0302509995163
1.6,0.465776022273,0.853727819592,0.0594633687473,0.507087975788,-0.0961676457796,1.33863259561,-0.656261282402,0.528153679256,0.268264251415,1.1114807015,-2.82036857947,0.314372271552,-1.93813988345,0.0302509995163
1.62,0.465776022273,0.853710375887,0.0594633687473,0.474502668533,-0.0961676457796,1.33870250358,-0.656261282402,0.530799737944,0.269113859705,1.12344781106,-2.798226021,0.339202184122,-1.93249440707,0.0283365693374
1.64,0.465776022273,0.853710375887,0.0594633687473,0.474502668533,-0.0961676457796,1.33870250358,-0.656261282402,0.530799737944,0.269113859705,1.12344781106,-2.798226021,0.339202184122,-1.93249440707,0.0283365693374
1.66,0.465776022273,0.853815038118,0.0594633687473,0.442161706309,-0.0961850978071,1.33870250358,-0.656261282402,0.533113357753,0.269776195117,1.13533949655,-2.7759276557,0.363672953708,-1.92627068837,0.0264147815334
1.68,0.465776022273,0.853815038118,0.0594633687473,0.442161706309,-0.0961850978071,1.33870250358,-0.656261282402,0.533113357753,0.269776195117,1.13533949655,-2.7759276557,0.363672953708,-1.92627068837,0.0264147815334
1.7,0.465776022273,0.853745263297,0.0594633687473,0.408756112149,-0.0961676457796,1.33870250358,-0.656278726108,0.53512497736,0.270255345066,1.14780094965,-2.75238467906,0.388949966357,-1.91909422604,0.0244066826206
1.72,0.465776022273,0.853745263297,0.0594633687473,0.408756112149,-0.0961676457796,1.33870250358,-0.656278726108,0.53512497736,0.270255345066,1.14780094965,-2.75238467906,0.388949966357,-1.91909422604,0.0244066826206
1.74,0.465776022273,0.853745263297,0.0594633687473,0.408756112149,-0.0961676457796,1.33870250358,-0.656278726108,0.53512497736,0.270255345066,1.14780094965,-2.75238467906,0.388949966357,-1.91909422604,0.0244066826206
1.76,0.465793465979,0.853657978192,0.0594633687473,0.376013744969,-0.0961676457796,1.33870250358,-0.656261282402,0.536736763818,0.270532052693,1.16008490232,-2.72885818423,0.413580660459,-1.91136818819,0.0224234033368
1.78,0.465793465979,0.853657978192,0.0594633687473,0.376013744969,-0.0961676457796,1.33870250358,-0.656261282402,0.536736763818,0.270532052693,1.16008490232,-2.72885818423,0.413580660459,-1.91136818819,0.0224234033368
1.8,0.465776022273,0.853727819592,0.0594633687473,0.341735466209,-0.0961850978071,1.338737391,-0.656261282402,0.538077330239,0.27059875993,1.17289227953,-2.70385221036,0.439019578867,-1.90258749969,0.0203389928817
1.82,0.465776022273,0.853727819592,0.0594633687473,0.341735466209,-0.0961850978071,1.338737391,-0.656261282402,0.538077330239,0.27059875993,1.17289227953,-2.70385221036,0.439019578867,-1.90258749969,0.0203389928817
1.84,0.465758578568,0.853780150707,0.0594633687473,0.308190255829,-0.0961850978071,1.3387548347,-0.656261282402,0.539015701405,0.270458921056,1.18546910738,-2.67882774965,0.463744840838,-1.89319127599,0.0182929907829
1.86,0.465758578568,0.853780150707,0.0594633687473,0.308190255829,-0.0961850978071,1.3387548347,-0.656261282402,0.539015701405,0.270458921056,1.18546910738,-2.67882774965,0.463744840838,-1.89319127599,0.0182929907829
1.88,0.465758578568,0.853780150707,0.0594633687473,0.308190255829,-0.0961850978071,1.3387548347,-0.656261282402,0.539015701405,0.270458921056,1.18546910738,-2.67882774965,0.463744840838,-1.89319127599,0.0182929907829
1.9,0.465776022273,0.853692865603,0.0594633687473,0.274330859019,-0.0961850978071,1.3387548347,-0.656261282402,0.539556809831,0.270117705516,1.19826808771,-2.65285131414,0.488586780164,-1.88278226863,0.0162250619172
1.92,0.465776022273,0.853692865603,0.0594633687473,0.274330859019,-0.0961850978071,1.3387548347,-0.656261282402,0.539556809831,0.270117705516,1.19826808771,-2.65285131414,0.488586780164,-1.88278226863,0.0162250619172
1.94,0.465776022273,0.853675421898,0.0594633687473,0.241361590514,-0.0961676457796,1.3387548347,-0.656261282402,0.539734161346,0.269583176736,1.21069337648,-2.62700331351,0.512498468202,-1.87184548647,0.0142161112699
1.96,0.465776022273,0.853675421898,0.0594633687473,0.241361590514,-0.0961676457796,1.3387548347,-0.656261282402,0.539734161346,0.269583176736,1.21069337648,-2.62700331351,0.512498468202,-1.87184548647,0.0142161112699
1.98,0.465758578568,0.853780150707,0.0594633687473,0.207432385594,-0.0961676457796,1.33880716582,-0.656243772118,0.539565933128,0.268823300785,1.22338997075,-2.59985720746,0.53671342192,-1.85979970737,0.0121582991556
2.0,0.465758578568,0.853780150707,0.0594633687473,0.207432385594,-0.0961676457796,1.33880716582,-0.656243772118,0.539565933128,0.268823300785,1.22338997075,-2.59985720746,0.53671342192,-1.85979970737,0.0121582991556
2.02,0.465758578568,0.853780150707,0.0594633687473,0.207432385594,-0.0961676457796,1.33880716582,-0.656243772118,0.539565933128,0.268823300785,1.22338997075,-2.59985720746,0.53671342192,-1.85979970737,0.0121582991556
2.04,0.465758578568,0.853727819592,0.0594633687473,0.172647973069,-0.0961676457796,1.33880716582,-0.656243772118,0.538970037452,0.267825394259,1.23648242408,-2.57105736606,0.561365031877,-1.84632639642,0.0100602794687
2.06,0.465758578568,0.853727819592,0.0594633687473,0.172647973069,-0.0961676457796,1.33880716582,-0.656243772118,0.538970037452,0.267825394259,1.23648242408,-2.57105736606,0.561365031877,-1.84632639642,0.0100602794687
2.08,0.465776022273,0.853692865603,0.0594633687473,0.139259822615,-0.0961676457796,1.33878972211,-0.656243772118,0.538022697858,0.266673950008,1.24900252073,-2.54260826766,0.584703067742,-1.83237756565,0.00806368226343
2.1,0.465776022273,0.853692865603,0.0594633687473,0.139259822615,-0.0961676457796,1.33878972211,-0.656243772118,0.538022697858,0.266673950008,1.24900252073,-2.54260826766,0.584703067742,-1.83237756565,0.00806368226343
2.12,0.465758578568,0.853727819592,0.0594633687473,0.105505154615,-0.0961850978071,1.33882460952,-0.656243772118,0.536713507597,0.265290412442,1.26155749631,-2.51309126858,0.607853517339,-1.81734040263,0.00606664490603
2.14,0.465758578568,0.853727819592,0.0594633687473,0.105505154615,-0.0961850978071,1.33882460952,-0.656243772118,0.536713507597,0.265290412442,1.26155749631,-2.51309126858,0.607853517339,-1.81734040263,0.00606664490603
2.16,0.465758578568,0.853727819592,0.0594633687473,0.105505154615,-0.0961850978071,1.33882460952,-0.656243772118,0.536713507597,0.265290412442,1.26155749631,-2.51309126858,0.607853517339,-1.81734040263,0.00606664490603
2.18,0.465758578568,0.853745263297,0.0594633687473,0.0697084495923,-0.0961850978071,1.33884205323,-0.656261282402,0.534910134281,0.263614024525,1.27481087822,-2.4807520226,0.632010222206,-1.80014231497,0.00397579317489
2.2,0.465758578568,0.853745263297,0.0594633687473,0.0697084495923,-0.0961850978071,1.33884205323,-0.656261282402,0.534910134281,0.263614024525,1.27481087822,-2.4807520226,0.632010222206,-1.80014231497,0.00397579317489
2.22,0.465776022273,0.853675421898,0.0594633687473,0.0344178928993,-0.0961676457796,1.33882460952,-0.656261282402,0.532700304634,0.261743440724,1.28784111011,-2.44768919606,0.655459147905,-1.78184808602,0.00194578108236
2.24,0.465776022273,0.853675421898,0.0594633687473,0.0344178928993,-0.0961676457796,1.33882460952,-0.656261282402,0.532700304634,0.261743440724,1.28784111011,-2.44768919606,0.655459147905,-1.78184808602,0.00194578108236
2.26,0.465776022273,0.853762707002,0.0594633687473,-0.00352556521178,-0.0961850978071,1.33887694064,-0.656243772118,0.529918103164,0.259492426654,1.30162460146,-2.41107967271,0.679955235847,-1.76089965126,0.000197314628111
2.28,0.465776022273,0.853762707002,0.0594633687473,-0.00352556521178,-0.0961850978071,1.33887694064,-0.656243772118,0.529918103164,0.259492426654,1.30162460146,-2.41107967271,0.679955235847,-1.76089965126,0.000197314628111
2.3,0.465776022273,0.853762707002,0.0594633687473,-0.00352556521178,-0.0961850978071,1.33887694064,-0.656243772118,0.529918103164,0.259492426654,1.30162460146,-2.41107967271,0.679955235847,-1.76089965126,0.000197314628111
2.32,0.465741101574,0.853710375887,0.0594633687473,-0.0397411462024,-0.0961676457796,1.33887694064,-0.656243772118,0.526808225716,0.257084406951,1.31473286419,-2.37464029651,0.702866422417,-1.7393075284,0.00220102537364
2.34,0.465741101574,0.853710375887,0.0594633687473,-0.0397411462024,-0.0961676457796,1.33887694064,-0.656243772118,0.526808225716,0.257084406951,1.31473286419,-2.37464029651,0.702866422417,-1.7393075284,0.00220102537364
2.36,0.465758578568,0.853692865603,0.0594633687473,-0.0778067812497,-0.0961676457796,1.33887694064,-0.656243772118,0.523088151506,0.254344561575,1.32832811241,-2.33488841162,0.726231176964,-1.71494308445,0.00425914111401
2.38,0.465758578568,0.853692865603,0.0594633687473,-0.0778067812497,-0.0961676457796,1.33887694064,-0.656243772118,0.523088151506,0.254344561575,1.32832811241,-2.33488841162,0.726231176964,-1.71494308445,0.00425914111401
2.4,0.465776022273,0.853727819592,0.0594633687473,-0.114790307367,-0.0961676457796,1.33889438434,-0.656243772118,0.519052824484,0.251458368773,1.34132827851,-2.29481146771,0.748162171895,-1.68963886321,0.00620864663631
2.42,0.465776022273,0.853727819592,0.0594633687473,-0.114790307367,-0.0961676457796,1.33889438434,-0.656243772118,0.519052824484,0.251458368773,1.34132827851,-2.29481146771,0.748162171895,-1.68963886321,0.00620864663631
2.44,0.465776022273,0.853727819592,0.0594633687473,-0.114790307367,-0.0961676457796,1.33889438434,-0.656243772118,0.519052824484,0.251458368773,1.34132827851,-2.29481146771,0.748162171895,-1.68963886321,0.00620864663631
2.46,0.465776022273,0.853623090782,0.0594633687473,-0.151738929429,-0.0961676457796,1.33887694064,-0.656243772118,0.514563074579,0.2483218988,1.35421045787,-2.25298232238,0.769381821477,-1.6625101297,0.00810281790246
2.48,0.465776022273,0.853623090782,0.0594633687473,-0.151738929429,-0.0961676457796,1.33887694064,-0.656243772118,0.514563074579,0.2483218988,1.35421045787,-2.25298232238,0.769381821477,-1.6625101297,0.00810281790246
2.5,0.465758578568,0.853727819592,0.0594633687473,-0.190991377249,-0.0961850978071,1.33891182805,-0.656243772118,0.509406878738,0.244770264492,1.36753562746,-2.20703935857,0.790839103533,-1.63198097661,0.0100565419404
2.52,0.465758578568,0.853727819592,0.0594633687473,-0.190991377249,-0.0961850978071,1.33891182805,-0.656243772118,0.509406878738,0.244770264492,1.36753562746,-2.20703935857,0.790839103533,-1.63198097661,0.0100565419404
2.54,0.465776022273,0.853640534487,0.0594633687473,-0.229336269704,-0.0961850978071,1.33889438434,-0.656243772118,0.503856585546,0.241058031544,1.38042083334,-2.15999065156,0.810917180776,-1.5998968763,0.0119007582503
2.56,0.465776022273,0.853640534487,0.0594633687473,-0.229336269704,-0.0961850978071,1.33889438434,-0.656243772118,0.503856585546,0.241058031544,1.38042083334,-2.15999065156,0.810917180776,-1.5998968763,0.0119007582503
2.58,0.465776022273,0.853640534487,0.0594633687473,-0.229336269704,-0.0961850978071,1.33889438434,-0.656243772118,0.503856585546,0.241058031544,1.38042083334,-2.15999065156,0.810917180776,-1.5998968763,0.0119007582503
2.6,0.465776022273,0.853710375887,0.0594808207748,-0.269129771989,-0.0961850978071,1.33891182805,-0.656243772118,0.497694961276,0.236985004472,1.39341897397,-2.10939909522,0.830521898416,-1.56464839424,0.0137492134133
2.62,0.465776022273,0.853710375887,0.0594808207748,-0.269129771989,-0.0961850978071,1.33891182805,-0.656243772118,0.497694961276,0.236985004472,1.39341897397,-2.10939909522,0.830521898416,-1.56464839424,0.0137492134133
2.64,0.465776022273,0.853605647077,0.0594808207748,-0.306951053684,-0.0961850978071,1.33891182805,-0.656243772118,0.491357665708,0.232863739102,1.4055882315,-2.05910762973,0.848048389053,-1.5289129839,0.0154384765905
2.66,0.465776022273,0.853605647077,0.0594808207748,-0.306951053684,-0.0961850978071,1.33891182805,-0.656243772118,0.491357665708,0.232863739102,1.4055882315,-2.05910762973,0.848048389053,-1.5289129839,0.0154384765905
2.68,0.465776022273,0.853692865603,0.0594808207748,-0.346028981229,-0.0961850978071,1.33892927175,-0.656243772118,0.484455737823,0.228422161757,1.41774578312,-2.00543244525,0.864768548489,-1.49010718881,0.0171189910835
2.7,0.465776022273,0.853692865603,0.0594808207748,-0.346028981229,-0.0961850978071,1.33892927175,-0.656243772118,0.484455737823,0.228422161757,1.41774578312,-2.00543244525,0.864768548489,-1.49010718881,0.0171189910835
2.72,0.465776022273,0.853692865603,0.0594808207748,-0.346028981229,-0.0961850978071,1.33892927175,-0.656243772118,0.484455737823,0.228422161757,1.41774578312,-2.00543244525,0.864768548489,-1.49010718881,0.0171189910835
2.74,0.465776022273,0.853605647077,0.0594808207748,-0.384513489904,-0.0961850978071,1.33891182805,-0.656243772118,0.47718620063,0.223806524844,1.42949433541,-1.95030016987,0.879921532343,-1.44960355048,0.018702574503
2.76,0.465776022273,0.853605647077,0.0594808207748,-0.384513489904,-0.0961850978071,1.33891182805,-0.656243772118,0.47718620063,0.223806524844,1.42949433541,-1.95030016987,0.879921532343,-1.44960355048,0.018702574503
2.78,0.465776022273,0.853675421898,0.0594808207748,-0.423242343609,-0.0961850978071,1.33894684861,-0.656243772118,0.469528334554,0.218987182601,1.44088471229,-1.89320566106,0.89361254015,-1.40708287398,0.0202306470424
2.8,0.465776022273,0.853675421898,0.0594808207748,-0.423242343609,-0.0961850978071,1.33894684861,-0.656243772118,0.469528334554,0.218987182601,1.44088471229,-1.89320566106,0.89361254015,-1.40708287398,0.0202306470424
2.82,0.465776022273,0.853605647077,0.0594808207748,-0.458724903813,-0.0961850978071,1.33891182805,-0.656243772118,0.462120055959,0.214373436267,1.45108593255,-1.83897666759,0.904819195738,-1.36621570396,0.0215666803861
2.84,0.465776022273,0.853605647077,0.0594808207748,-0.458724903813,-0.0961850978071,1.33891182805,-0.656243772118,0.462120055959,0.214373436267,1.45108593255,-1.83897666759,0.904819195738,-1.36621570396,0.0215666803861
2.86,0.465776022273,0.853605647077,0.0594808207748,-0.458724903813,-0.0961850978071,1.33891182805,-0.656243772118,0.462120055959,0.214373436267,1.45108593255,-1.83897666759,0.904819195738,-1.36621570396,0.0215666803861
2.88,0.465758578568,0.853640534487,0.0594982728023,-0.492985705578,-0.0961850978071,1.33892927175,-0.656243772118,0.454708169899,0.209778798005,1.4605766964,-1.78549711108,0.914281213981,-1.32554504335,0.0228042912377
2.9,0.465758578568,0.853640534487,0.0594982728023,-0.492985705578,-0.0961850978071,1.33892927175,-0.656243772118,0.454708169899,0.209778798005,1.4605766964,-1.78549711108,0.914281213981,-1.32554504335,0.0228042912377
2.92,0.465776022273,0.853692865603,0.0594982728023,-0.523040277428,-0.0961850978071,1.33898173603,-0.656243772118,0.447971158369,0.205649542017,1.46863591363,-1.73767497759,0.921439873336,-1.28888580846,0.0238466329737
2.94,0.465776022273,0.853692865603,0.0594982728023,-0.523040277428,-0.0961850978071,1.33898173603,-0.656243772118,0.447971158369,0.205649542017,1.46863591363,-1.73767497759,0.921439873336,-1.28888580846,0.0238466329737
2.96,0.465810909684,0.853675421898,0.0594982728023,-0.550476862058,-0.0961501854297,1.33894684861,-0.656243772118,0.441601573144,0.201787256319,1.47582903526,-1.69305064303,0.927059494006,-1.25442796397,0.0247599650609
2.98,0.465810909684,0.853675421898,0.0594982728023,-0.550476862058,-0.0961501854297,1.33894684861,-0.656243772118,0.441601573144,0.201787256319,1.47582903526,-1.69305064303,0.927059494006,-1.25442796397,0.0247599650609
3.0,0.465810909684,0.853675421898,0.0594982728023,-0.550476862058,-0.0961501854297,1.33894684861,-0.656243772118,0.441601573144,0.201787256319,1.47582903526,-1.69305064303,0.927059494006,-1.25442796397,0.0247599650609
3.02,0.465810909684,0.853623090782,0.0594982728023,-0.574597311788,-0.0961327334022,1.33892927175,-0.656261282402,0.435848393606,0.198296837452,1.48199760627,-1.65327391047,0.931208218959,-1.22362474603,0.02553391361
3.04,0.465810909684,0.853623090782,0.0594982728023,-0.574597311788,-0.0961327334022,1.33892927175,-0.656261282402,0.435848393606,0.198296837452,1.48199760627,-1.65327391047,0.931208218959,-1.22362474603,0.02553391361
3.06,0.465810909684,0.853623090782,0.0594982728023,-0.594406769503,-0.0961501854297,1.33894684861,-0.656243772118,0.431044816605,0.195386283201,1.48691540032,-1.62043290025,0.93408054073,-1.19815100384,0.0261514350012
3.08,0.465810909684,0.853623090782,0.0594982728023,-0.594406769503,-0.0961501854297,1.33894684861,-0.656243772118,0.431044816605,0.195386283201,1.48691540032,-1.62043290025,0.93408054073,-1.19815100384,0.0261514350012
3.1,0.465810909684,0.853605647077,0.059515728991,-0.611825174613,-0.0961501854297,1.33894684861,-0.656243772118,0.42674141668,0.192789783448,1.49115769614,-1.59131008303,0.936195143879,-1.17548509932,0.0266793475839
3.12,0.465810909684,0.853605647077,0.059515728991,-0.611825174613,-0.0961501854297,1.33894684861,-0.656243772118,0.42674141668,0.192789783448,1.49115769614,-1.59131008303,0.936195143879,-1.17548509932,0.0266793475839
3.14,0.465810909684,0.853605647077,0.059515728991,-0.611825174613,-0.0961501854297,1.33894684861,-0.656243772118,0.42674141668,0.192789783448,1.49115769614,-1.59131008303,0.936195143879,-1.17548509932,0.0266793475839
3.16,0.465776022273,0.853727819592,0.0595331810186,-0.625752907903,-0.0961850978071,1.33894684861,-0.656243772118,0.423321593905,0.190700133352,1.49442319946,-1.5681458036,0.937590529574,-1.15750267094,0.0270955624747
3.18,0.465776022273,0.853727819592,0.0595331810186,-0.625752907903,-0.0961850978071,1.33894684861,-0.656243772118,0.423321593905,0.190700133352,1.49442319946,-1.5681458036,0.937590529574,-1.15750267094,0.0270955624747
3.2,0.465793465979,0.853553249383,0.059515728991,-0.636626328317,-0.0961850978071,1.33892927175,-0.656261282402,0.420493111203,0.189020030698,1.49706170359,-1.54951737009,0.93848301471,-1.14296266142,0.0274068781216
3.22,0.465793465979,0.853553249383,0.059515728991,-0.636626328317,-0.0961850978071,1.33892927175,-0.656261282402,0.420493111203,0.189020030698,1.49706170359,-1.54951737009,0.93848301471,-1.14296266142,0.0274068781216
3.24,0.465758578568,0.853780150707,0.0595331810186,-0.646208182183,-0.0961850978071,1.33894684861,-0.656243772118,0.418158275852,0.187590991047,1.49917650088,-1.53376762801,0.939185562182,-1.13070688236,0.0276879582682
3.26,0.465758578568,0.853780150707,0.0595331810186,-0.646208182183,-0.0961850978071,1.33894684861,-0.656243772118,0.418158275852,0.187590991047,1.49917650088,-1.53376762801,0.939185562182,-1.13070688236,0.0276879582682
3.28,0.465758578568,0.853780150707,0.0595331810186,-0.646208182183,-0.0961850978071,1.33894684861,-0.656243772118,0.418158275852,0.187590991047,1.49917650088,-1.53376762801,0.939185562182,-1.13070688236,0.0276879582682
3.3,0.465810909684,0.853692865603,0.0595331810186,-0.653468758262,-0.0961850978071,1.33894684861,-0.656243772118,0.416246744989,0.186478166204,1.50088221465,-1.52135375558,0.939622115146,-1.1209595596,0.0278908355043
3.32,0.465810909684,0.853692865603,0.0595331810186,-0.653468758262,-0.0961850978071,1.33894684861,-0.656243772118,0.416246744989,0.186478166204,1.50088221465,-1.52135375558,0.939622115146,-1.1209595596,0.0278908355043
3.34,0.465758578568,0.853727819592,0.0595331810186,-0.658093870128,-0.0961850978071,1.33894684861,-0.656243772118,0.415079428343,0.185751040491,1.50191922307,-1.51359227038,0.939862260345,-1.11495262376,0.0280214412831
3.36,0.465758578568,0.853727819592,0.0595331810186,-0.658093870128,-0.0961850978071,1.33894684861,-0.656243772118,0.415079428343,0.185751040491,1.50191922307,-1.51359227038,0.939862260345,-1.11495262376,0.0280214412831
3.38,0.465776022273,0.853710375887,0.0595331810186,-0.659333038983,-0.0961850978071,1.33894684861,-0.656243772118,0.414748181736,0.185562960785,1.50220815466,-1.51146652286,0.939922106804,-1.11327422144,0.0280555115148
3.4,0.465776022273,0.853710375887,0.0595331810186,-0.659333038983,-0.0961850978071,1.33894684861,-0.656243772118,0.414748181736,0.185562960785,1.50220815466,-1.51146652286,0.939922106804,-1.11327422144,0.0280555115148
3.42,0.465776022273,0.853710375887,0.0595331810186,-0.659333038983,-0.0961850978071,1.33894684861,-0.656243772118,0.414748181736,0.185562960785,1.50220815466,-1.51146652286,0.939922106804,-1.11327422144,0.0280555115148
3.44,0.465810909684,0.853884879517,0.0595506330461,-0.659123581363,-0.0961850978071,1.33896429232,-0.656243772118,0.414874241182,0.185647789551,1.50207822952,-1.51214641976,0.939924618638,-1.11376703946,0.0280548605249
3.46,0.465810909684,0.853884879517,0.0595506330461,-0.659123581363,-0.0961850978071,1.33896429232,-0.656243772118,0.414874241182,0.185647789551,1.50207822952,-1.51214641976,0.939924618638,-1.11376703946,0.0280548605249
3.48,0.465793465979,0.854007052032,0.0595331810186,-0.659106137658,-0.0961850978071,1.33894684861,-0.656243772118,0.414935373499,0.18567149509,1.50202202949,-1.51235331471,0.939908733592,-1.11396269273,0.02805765506
3.5,0.465793465979,0.854007052032,0.0595331810186,-0.659106137658,-0.0961850978071,1.33894684861,-0.656243772118,0.414935373499,0.18567149509,1.50202202949,-1.51235331471,0.939908733592,-1.11396269273,0.02805765506
3.52,0.465793465979,0.854129224547,0.0595506330461,-0.659001408848,-0.0961850978071,1.33894684861,-0.656243772118,0.415017496994,0.18571385913,1.5019425234,-1.51273779459,0.939915732684,-1.11425699934,0.0280582229298
3.54,0.465793465979,0.854129224547,0.0595506330461,-0.659001408848,-0.0961850978071,1.33894684861,-0.656243772118,0.415017496994,0.18571385913,1.5019425234,-1.51273779459,0.939915732684,-1.11425699934,0.0280582229298
3.56,0.465793465979,0.854129224547,0.0595506330461,-0.659001408848,-0.0961850978071,1.33894684861,-0.656243772118,0.415017496994,0.18571385913,1.5019425234,-1.51273779459,0.939915732684,-1.11425699934,0.0280582229298
3.58,0.465810909684,0.854530629503,0.0595506330461,-0.658949077733,-0.0961676457796,1.33894684861,-0.656243772118,0.415204813871,0.185821404359,1.5017483592,-1.51350577631,0.939912759193,-1.11484025212,0.0280682140577
3.6,0.465810909684,0.854530629503,0.0595506330461,-0.658949077733,-0.0961676457796,1.33894684861,-0.656243772118,0.415204813871,0.185821404359,1.5017483592,-1.51350577631,0.939912759193,-1.11484025212,0.0280682140577
3.62,0.465793465979,0.855700023537,0.0595680892348,-0.658791951228,-0.0961850978071,1.33894684861,-0.656243772118,0.415769295657,0.186095434582,1.50118054995,-1.51575518122,0.939902100165,-1.11667268955,0.0280971779015
3.64,0.465793465979,0.855700023537,0.0595680892348,-0.658791951228,-0.0961850978071,1.33894684861,-0.656243772118,0.415769295657,0.186095434582,1.50118054995,-1.51575518122,0.939902100165,-1.11667268955,0.0280971779015
3.66,0.465793465979,0.856869417572,0.0595855412623,-0.656697574768,-0.0961850978071,1.33894684861,-0.656243772118,0.41682774219,0.186677520428,1.50017026595,-1.52127937905,0.939788437142,-1.12102766258,0.0280718242936
3.68,0.465793465979,0.856869417572,0.0595855412623,-0.656697574768,-0.0961850978071,1.33894684861,-0.656243772118,0.41682774219,0.186677520428,1.50017026595,-1.52127937905,0.939788437142,-1.12102766258,0.0280718242936
3.7,0.465793465979,0.856869417572,0.0595855412623,-0.656697574768,-0.0961850978071,1.33894684861,-0.656243772118,0.41682774219,0.186677520428,1.50017026595,-1.52127937905,0.939788437142,-1.12102766258,0.0280718242936
3.72,0.465810909684,0.857742068882,0.0595855412623,-0.651636103958,-0.0961850978071,1.33894684861,-0.656243772118,0.418509552023,0.187656462972,1.4986111266,-1.53131187565,0.939472943627,-1.12888198778,0.0279539186164
3.74,0.465810909684,0.857742068882,0.0595855412623,-0.651636103958,-0.0961850978071,1.33894684861,-0.656243772118,0.418509552023,0.187656462972,1.4986111266,-1.53131187565,0.939472943627,-1.12888198778,0.0279539186164
3.76,0.465776022273,0.858108586427,0.0595855412623,-0.644043964323,-0.0961850978071,1.33894684861,-0.656243772118,0.420615881049,0.188884444337,1.49668684627,-1.54474831947,0.938945820349,-1.13941935224,0.0277480391247
3.78,0.465776022273,0.858108586427,0.0595855412623,-0.644043964323,-0.0961850978071,1.33894684861,-0.656243772118,0.420615881049,0.188884444337,1.49668684627,-1.54474831947,0.938945820349,-1.13941935224,0.0277480391247
3.8,0.465776022273,0.858056188733,0.0595855412623,-0.633135656498,-0.0961850978071,1.33894684861,-0.656243772118,0.423356485171,0.190531347529,1.49415784133,-1.56303904789,0.938071471725,-1.15368273829,0.0274314324451
3.82,0.465776022273,0.858056188733,0.0595855412623,-0.633135656498,-0.0961850978071,1.33894684861,-0.656243772118,0.423356485171,0.190531347529,1.49415784133,-1.56303904789,0.938071471725,-1.15368273829,0.0274314324451
3.84,0.465776022273,0.858056188733,0.0595855412623,-0.633135656498,-0.0961850978071,1.33894684861,-0.656243772118,0.423356485171,0.190531347529,1.49415784133,-1.56303904789,0.938071471725,-1.15368273829,0.0274314324451
3.86,0.465776022273,0.858108586427,0.0595855412623,-0.620290032138,-0.0961850978071,1.33896429232,-0.656243772118,0.426601132531,0.192480205806,1.49107901198,-1.58473956009,0.936836962446,-1.17059559737,0.0270552064869
3.88,0.465776022273,0.858108586427,0.0595855412623,-0.620290032138,-0.0961850978071,1.33896429232,-0.656243772118,0.426601132531,0.192480205806,1.49107901198,-1.58473956009,0.936836962446,-1.17059559737,0.0270552064869
3.9,0.465810909684,0.857986413912,0.059637901506,-0.605786323683,-0.0961850978071,1.33894684861,-0.656243772118,0.430138400906,0.194632957905,1.48763578309,-1.60878573256,0.935238845295,-1.18923577618,0.0266162463779
3.92,0.465810909684,0.857986413912,0.059637901506,-0.605786323683,-0.0961850978071,1.33894684861,-0.656243772118,0.430138400906,0.194632957905,1.48763578309,-1.60878573256,0.935238845295,-1.18923577618,0.0266162463779
3.94,0.465776022273,0.858108586427,0.059637901506,-0.590060890078,-0.0961850978071,1.33896429232,-0.656243772118,0.434042923896,0.196968493819,1.48370882939,-1.63521068422,0.933134761087,-1.2098103554,0.0261369457604
3.96,0.465776022273,0.858108586427,0.059637901506,-0.590060890078,-0.0961850978071,1.33896429232,-0.656243772118,0.434042923896,0.196968493819,1.48370882939,-1.63521068422,0.933134761087,-1.2098103554,0.0261369457604
3.98,0.465810909684,0.857899128807,0.0596204453173,-0.570967023748,-0.0961676457796,1.33892927175,-0.656243772118,0.434042923896,0.196968493819,1.48370882939,-1.63521068422,0.933134761087,-1.2098103554,0.0261369457604
4.0,0.465810909684,0.857899128807,0.0596204453173,-0.570967023748,-0.0961676457796,1.33892927175,-0.656243772118,0.438540293958,0.19972806164,1.4790273328,-1.66639107139,0.930191283005,-1.23393642619,0.0255299986213
4.02,0.465810909684,0.857899128807,0.0596204453173,-0.570967023748,-0.0961676457796,1.33892927175,-0.656243772118,0.438540293958,0.19972806164,1.4790273328,-1.66639107139,0.930191283005,-1.23393642619,0.0255299986213
4.04,0.465741101574,0.858091142722,0.0599171547523,-0.550197596328,-0.0961850978071,1.33894684861,-0.656243772118,0.443547797378,0.20271125306,1.47360382343,-1.70085584937,0.926637933798,-1.26048594419,0.0248625693915
4.06,0.465741101574,0.858091142722,0.0599171547523,-0.550197596328,-0.0961850978071,1.33894684861,-0.656243772118,0.443547797378,0.20271125306,1.47360382343,-1.70085584937,0.926637933798,-1.26048594419,0.0248625693915
4.08,0.465793465979,0.858003857617,0.0598822465361,-0.527281428043,-0.0961676457796,1.33892927175,-0.656243772118,0.448791472944,0.205956715717,1.46763961966,-1.73785357851,0.92188643244,-1.28893419419,0.0240953297273
4.1,0.465793465979,0.858003857617,0.0598822465361,-0.527281428043,-0.0961676457796,1.33892927175,-0.656243772118,0.448791472944,0.205956715717,1.46763961966,-1.73785357851,0.92188643244,-1.28893419419,0.0240953297273
4.12,0.465758578568,0.858073699017,0.0598996985636,-0.500595322209,-0.0961850978071,1.33891182805,-0.656243772118,0.448791472944,0.205956715717,1.46763961966,-1.73785357851,0.92188643244,-1.28893419419,0.0240953297273
4.14,0.465758578568,0.858073699017,0.0598996985636,-0.500595322209,-0.0961850978071,1.33891182805,-0.656243772118,0.454834514445,0.209643775619,1.46043176201,-1.7806196846,0.915556557947,-1.32175949165,0.0231758212531
4.16,0.465758578568,0.858073699017,0.0598996985636,-0.500595322209,-0.0961850978071,1.33891182805,-0.656243772118,0.454834514445,0.209643775619,1.46043176201,-1.7806196846,0.915556557947,-1.32175949165,0.0231758212531
4.18,0.465776022273,0.858021301322,0.0598996985636,-0.473560175824,-0.0961676457796,1.33891182805,-0.656243772118,0.460714886981,0.213294982234,1.45299968897,-1.8230314774,0.908316022542,-1.35403798018,0.0222080972025
4.2,0.465776022273,0.858021301322,0.0598996985636,-0.473560175824,-0.0961676457796,1.33891182805,-0.656243772118,0.460714886981,0.213294982234,1.45299968897,-1.8230314774,0.908316022542,-1.35403798018,0.0222080972025
4.22,0.465758578568,0.858056188733,0.0599346067798,-0.441463591918,-0.0961850978071,1.33889438434,-0.656243772118,0.467508791691,0.217507463954,1.44389034796,-1.87245836213,0.898639912709,-1.39142208358,0.0210173826213
4.24,0.465758578568,0.858056188733,0.0599346067798,-0.441463591918,-0.0961850978071,1.33889438434,-0.656243772118,0.467508791691,0.217507463954,1.44389034796,-1.87245836213,0.898639912709,-1.39142208358,0.0210173826213
4.26,0.465758578568,0.858056188733,0.0599520588073,-0.407307485674,-0.0961850978071,1.33892927175,-0.656243772118,0.467508791691,0.217507463954,1.44389034796,-1.87245836213,0.898639912709,-1.39142208358,0.0210173826213
4.28,0.465758578568,0.858056188733,0.0599520588073,-0.407307485674,-0.0961850978071,1.33892927175,-0.656243772118,0.474425508317,0.221847299548,1.43393152482,-1.92372377884,0.887107281771,-1.42979581622,0.0196973622728
4.3,0.465758578568,0.858056188733,0.0599520588073,-0.407307485674,-0.0961850978071,1.33892927175,-0.656243772118,0.474425508317,0.221847299548,1.43393152482,-1.92372377884,0.887107281771,-1.42979581622,0.0196973622728
4.32,0.465776022273,0.858126030132,0.0600742313223,-0.369032401329,-0.0962025498347,1.33894684861,-0.656243772118,0.481832933065,0.226547645258,1.4224141078,-1.97952545051,0.872806324425,-1.47098954425,0.0181549902984
4.34,0.465776022273,0.858126030132,0.0600742313223,-0.369032401329,-0.0962025498347,1.33894684861,-0.656243772118,0.481832933065,0.226547645258,1.4224141078,-1.97952545051,0.872806324425,-1.47098954425,0.0181549902984
4.36,0.465758578568,0.858108586427,0.0602313120536,-0.329657797639,-0.0961850978071,1.33892927175,-0.656243772118,0.489009279863,0.231147812926,1.4102794646,-2.03477177887,0.856699253293,-1.51114256014,0.0164958434827
4.38,0.465758578568,0.858108586427,0.0602313120536,-0.329657797639,-0.0961850978071,1.33892927175,-0.656243772118,0.489009279863,0.231147812926,1.4102794646,-2.03477177887,0.856699253293,-1.51114256014,0.0164958434827
4.4,0.465810909684,0.858126030132,0.0601964038373,-0.288293479719,-0.0961676457796,1.33894684861,-0.656243772118,0.489009279863,0.231147812926,1.4102794646,-2.03477177887,0.856699253293,-1.51114256014,0.0164958434827
4.42,0.465810909684,0.858126030132,0.0601964038373,-0.288293479719,-0.0961676457796,1.33894684861,-0.656243772118,0.496079686502,0.235774306032,1.39715847207,-2.09059619972,0.838116066559,-1.55106533502,0.0146773091575
4.44,0.465810909684,0.858126030132,0.0601964038373,-0.288293479719,-0.0961676457796,1.33894684861,-0.656243772118,0.496079686502,0.235774306032,1.39715847207,-2.09059619972,0.838116066559,-1.55106533502,0.0146773091575
4.46,0.465776022273,0.858160917543,0.060336032541,-0.246161239299,-0.0961501854297,1.33892927175,-0.656243772118,0.502802437552,0.240198561767,1.38344235595,-2.14516976264,0.817856496642,-1.58927789395,0.0127459089784
4.48,0.465776022273,0.858160917543,0.060336032541,-0.246161239299,-0.0961501854297,1.33892927175,-0.656243772118,0.502802437552,0.240198561767,1.38344235595,-2.14516976264,0.817856496642,-1.58927789395,0.0127459089784
4.5,0.465793465979,0.858160917543,0.0602487640811,-0.206786602319,-0.0961676457796,1.33891182805,-0.656243772118,0.508601420287,0.244088456162,1.37034976463,-2.19389485999,0.797553997739,-1.62275491732,0.0108699712384
4.52,0.465793465979,0.858160917543,0.0602487640811,-0.206786602319,-0.0961676457796,1.33891182805,-0.656243772118,0.508601420287,0.244088456162,1.37034976463,-2.19389485999,0.797553997739,-1.62275491732,0.0108699712384
4.54,0.465793465979,0.858230758942,0.0602836722973,-0.165439761394,-0.0961676457796,1.33891182805,-0.656243772118,0.51421321926,0.247926937062,1.35627441795,-2.24310882371,0.77511994241,-1.65568537886,0.00882964274937
4.56,0.465793465979,0.858230758942,0.0602836722973,-0.165439761394,-0.0961676457796,1.33891182805,-0.656243772118,0.51421321926,0.247926937062,1.35627441795,-2.24310882371,0.77511994241,-1.65568537886,0.00882964274937
4.58,0.465793465979,0.858230758942,0.0602836722973,-0.165439761394,-0.0961676457796,1.33891182805,-0.656243772118,0.51421321926,0.247926937062,1.35627441795,-2.24310882371,0.77511994241,-1.65568537886,0.00882964274937
4.6,0.465776022273,0.858230758942,0.0603883927848,-0.126972704747,-0.0961850978071,1.33891182805,-0.656243772118,0.518948550512,0.25123932376,1.34297594593,-2.28695856501,0.753335193152,-1.6842396457,0.00686784118097
4.62,0.465776022273,0.858230758942,0.0603883927848,-0.126972704747,-0.0961850978071,1.33891182805,-0.656243772118,0.518948550512,0.25123932376,1.34297594593,-2.28695856501,0.753335193152,-1.6842396457,0.00686784118097
4.64,0.465776022273,0.858248202647,0.0602836722973,-0.0893783077323,-0.0961676457796,1.33889438434,-0.656243772118,0.523145574099,0.254237586005,1.32976884978,-2.32803115952,0.73109669359,-1.71034516212,0.00489470231987
4.66,0.465776022273,0.858248202647,0.0602836722973,-0.0893783077323,-0.0961676457796,1.33889438434,-0.656243772118,0.523145574099,0.254237586005,1.32976884978,-2.32803115952,0.73109669359,-1.71034516212,0.00489470231987
4.68,0.465776022273,0.858283090058,0.0605803775711,-0.0515046657936,-0.0962025498347,1.33891182805,-0.656243772118,0.526908688719,0.257065068715,1.31626135133,-2.36807359387,0.708115676329,-1.73484035506,0.00285410002486
4.7,0.465776022273,0.858283090058,0.0605803775711,-0.0515046657936,-0.0962025498347,1.33891182805,-0.656243772118,0.526908688719,0.257065068715,1.31626135133,-2.36807359387,0.708115676329,-1.73484035506,0.00285410002486
4.72,0.465776022273,0.858283090058,0.0605803775711,-0.0515046657936,-0.0962025498347,1.33891182805,-0.656243772118,0.526908688719,0.257065068715,1.31626135133,-2.36807359387,0.708115676329,-1.73484035506,0.00285410002486
4.74,0.465776022273,0.858300533763,0.0604582050561,-0.0182561440424,-0.0961501854297,1.33887694064,-0.656261282402,0.529855345626,0.259310574185,1.30428215938,-2.40171619627,0.687196724566,-1.75496729617,0.00102155285505
4.76,0.465776022273,0.858300533763,0.0604582050561,-0.0182561440424,-0.0961501854297,1.33887694064,-0.656261282402,0.529855345626,0.259310574185,1.30428215938,-2.40171619627,0.687196724566,-1.75496729617,0.00102155285505
4.78,0.465793465979,0.858335487752,0.0605280173273,0.0176976396306,-0.0961501854297,1.33887694064,-0.656243772118,0.532631068857,0.261555284439,1.29118362495,-2.4370163765,0.664095627243,-1.77534907098,0.00100015162043
4.8,0.465793465979,0.858335487752,0.0605280173273,0.0176976396306,-0.0961501854297,1.33887694064,-0.656243772118,0.532631068857,0.261555284439,1.29118362495,-2.4370163765,0.664095627243,-1.77534907098,0.00100015162043
4.82,0.465758578568,0.858440216562,0.0605105652998,0.0513999453061,-0.0961850978071,1.33887694064,-0.656261282402,0.534893585795,0.263419524633,1.27875588366,-2.46897381719,0.641813907113,-1.79328128386,0.00293016764704
4.84,0.465758578568,0.858440216562,0.0605105652998,0.0513999453061,-0.0961850978071,1.33887694064,-0.656261282402,0.534893585795,0.263419524633,1.27875588366,-2.46897381719,0.641813907113,-1.79328128386,0.00293016764704
4.86,0.465758578568,0.858440216562,0.0605105652998,0.0513999453061,-0.0961850978071,1.33887694064,-0.656261282402,0.534893585795,0.263419524633,1.27875588366,-2.46897381719,0.641813907113,-1.79328128386,0.00293016764704
4.88,0.465776022273,0.858335487752,0.0604582050561,0.0877377006322,-0.0961501854297,1.33884205323,-0.656261282402,0.536853869573,0.2652154142,1.26539089542,-2.50209673407,0.617502564246,-1.81112120284,0.00504429687001
4.9,0.465776022273,0.858335487752,0.0604582050561,0.0877377006322,-0.0961501854297,1.33884205323,-0.656261282402,0.536853869573,0.2652154142,1.26539089542,-2.50209673407,0.617502564246,-1.81112120284,0.00504429687001
4.92,0.465776022273,0.858475103972,0.0607025500861,0.122452296725,-0.0961676457796,1.33884205323,-0.656243772118,0.538358422763,0.266775686253,1.25239398813,-2.53312724309,0.593816531548,-1.8270603858,0.00709388450824
4.94,0.465776022273,0.858475103972,0.0607025500861,0.122452296725,-0.0961676457796,1.33884205323,-0.656243772118,0.538358422763,0.266775686253,1.25239398813,-2.53312724309,0.593816531548,-1.8270603858,0.00709388450824
4.96,0.465776022273,0.858527435088,0.0605280173273,0.15617206067,-0.0961501854297,1.33884205323,-0.656243772118,0.539455424734,0.268004563872,1.23975995452,-2.56205947645,0.570269495867,-1.84152564843,0.0091076280277
4.98,0.465776022273,0.858527435088,0.0605280173273,0.15617206067,-0.0961501854297,1.33884205323,-0.656243772118,0.539455424734,0.268004563872,1.23975995452,-2.56205947645,0.570269495867,-1.84152564843,0.0091076280277
5.0,0.465776022273,0.858527435088,0.0605280173273,0.15617206067,-0.0961501854297,1.33884205323,-0.656243772118,0.539455424734,0.268004563872,1.23975995452,-2.56205947645,0.570269495867,-1.84152564843,0.0091076280277
5.02,0.465776022273,0.858440216562,0.0605629255435,0.192021121774,-0.0961501854297,1.33880716582,-0.656243772118,0.540166933203,0.2691124728,1.22636897962,-2.59188497423,0.545103301058,-1.85564611265,0.0112678685086
5.04,0.465776022273,0.858440216562,0.0605629255435,0.192021121774,-0.0961501854297,1.33880716582,-0.656243772118,0.540166933203,0.2691124728,1.22636897962,-2.59188497423,0.545103301058,-1.85564611265,0.0112678685086
5.06,0.465776022273,0.858509991382,0.0605978295986,0.227276780654,-0.0961501854297,1.33880716582,-0.656261282402,0.540480474361,0.269989565696,1.21306904729,-2.62053256112,0.519880622871,-1.86854042348,0.013409625444
5.08,0.465776022273,0.858509991382,0.0605978295986,0.227276780654,-0.0961501854297,1.33880716582,-0.656261282402,0.540480474361,0.269989565696,1.21306904729,-2.62053256112,0.519880622871,-1.86854042348,0.013409625444
5.1,0.465793465979,0.858544945372,0.0605629255435,0.265447119544,-0.0961850978071,1.33877227841,-0.656261282402,0.540358351434,0.270670825943,1.19868076264,-2.65055753206,0.492231417,-1.88136703188,0.0157400860798
5.12,0.465793465979,0.858544945372,0.0605629255435,0.265447119544,-0.0961850978071,1.33877227841,-0.656261282402,0.540358351434,0.270670825943,1.19868076264,-2.65055753206,0.492231417,-1.88136703188,0.0157400860798
5.14,0.465793465979,0.858544945372,0.0605629255435,0.265447119544,-0.0961850978071,1.33877227841,-0.656261282402,0.540358351434,0.270670825943,1.19868076264,-2.65055753206,0.492231417,-1.88136703188,0.0157400860798
5.16,0.465758578568,0.858544945372,0.060789818546,0.302814631879,-0.0961327334022,1.33878972211,-0.656261282402,0.539738798679,0.271118176241,1.18461171704,-2.6793820959,0.465035389576,-1.89279491139,0.0180272277339
5.18,0.465758578568,0.858544945372,0.060789818546,0.302814631879,-0.0961327334022,1.33878972211,-0.656261282402,0.539738798679,0.271118176241,1.18461171704,-2.6793820959,0.465035389576,-1.89279491139,0.0180272277339
5.2,0.465758578568,0.858614720192,0.0605629255435,0.341979811239,-0.0961501854297,1.33877227841,-0.656261282402,0.538660115936,0.271221943307,1.16985185542,-2.70850784084,0.43591560583,-1.90383445431,0.0204246251571
5.22,0.465758578568,0.858614720192,0.0605629255435,0.341979811239,-0.0961501854297,1.33877227841,-0.656261282402,0.538660115936,0.271221943307,1.16985185542,-2.70850784084,0.43591560583,-1.90383445431,0.0204246251571
5.24,0.465776022273,0.858614720192,0.0607549103298,0.381232275704,-0.0961501854297,1.3387548347,-0.656261282402,0.537006391284,0.271150994738,1.1551480423,-2.73718077066,0.406740730887,-1.91361773915,0.0228181862058
5.26,0.465776022273,0.858614720192,0.0607549103298,0.381232275704,-0.0961501854297,1.3387548347,-0.656261282402,0.537006391284,0.271150994738,1.1551480423,-2.73718077066,0.406740730887,-1.91361773915,0.0228181862058
5.28,0.465776022273,0.858614720192,0.0607549103298,0.381232275704,-0.0961501854297,1.3387548347,-0.656261282402,0.537006391284,0.271150994738,1.1551480423,-2.73718077066,0.406740730887,-1.91361773915,0.0228181862058
5.3,0.465793465979,0.858667117887,0.0607549103298,0.417343142188,-0.0961676457796,1.3387548347,-0.656261282402,0.535067617337,0.270794455007,1.14164908536,-2.76290799366,0.379531512539,-1.92180297229,0.0250071469384
5.32,0.465793465979,0.858667117887,0.0607549103298,0.417343142188,-0.0961676457796,1.3387548347,-0.656261282402,0.535067617337,0.270794455007,1.14164908536,-2.76290799366,0.379531512539,-1.92180297229,0.0250071469384
5.34,0.465776022273,0.858632163897,0.0605803775711,0.457171548528,-0.0961501854297,1.3387548347,-0.656261282402,0.532457865129,0.270058623023,1.12690489465,-2.79055677531,0.349310250817,-1.92995748306,0.0273967682543
5.36,0.465776022273,0.858632163897,0.0605803775711,0.457171548528,-0.0961501854297,1.3387548347,-0.656261282402,0.532457865129,0.270058623023,1.12690489465,-2.79055677531,0.349310250817,-1.92995748306,0.0273967682543
5.38,0.465776022273,0.858719449002,0.0605629255435,0.493090434388,-0.0961501854297,1.33871994729,-0.656261282402,0.529662137818,0.269198111912,1.11363927928,-2.81515240747,0.321888116855,-1.93642245203,0.029526219025
5.4,0.465776022273,0.858719449002,0.0605629255435,0.493090434388,-0.0961501854297,1.33871994729,-0.656261282402,0.529662137818,0.269198111912,1.11363927928,-2.81515240747,0.321888116855,-1.93642245203,0.029526219025
5.42,0.465776022273,0.858719449002,0.0605629255435,0.493090434388,-0.0961501854297,1.33871994729,-0.656261282402,0.529662137818,0.269198111912,1.11363927928,-2.81515240747,0.321888116855,-1.93642245203,0.029526219025
5.44,0.465776022273,0.858684561592,0.0605803775711,0.532063633123,-0.0961501854297,1.33868492672,-0.656261282402,0.526144687608,0.268003377426,1.09944922304,-2.8413218432,0.292088632137,-1.94253261436,0.0317972088351
5.46,0.465776022273,0.858684561592,0.0605803775711,0.532063633123,-0.0961501854297,1.33868492672,-0.656261282402,0.526144687608,0.268003377426,1.09944922304,-2.8413218432,0.292088632137,-1.94253261436,0.0317972088351
5.48,0.465793465979,0.858736892707,0.0606501898423,0.569954689639,-0.0961676457796,1.33868492672,-0.656278726108,0.522256724544,0.266602835935,1.08574676702,-2.86646527918,0.262901318964,-1.94760751812,0.0339625197278
5.5,0.465793465979,0.858736892707,0.0606501898423,0.569954689639,-0.0961676457796,1.33868492672,-0.656278726108,0.522256724544,0.266602835935,1.08574676702,-2.86646527918,0.262901318964,-1.94760751812,0.0339625197278
5.52,0.465741101574,0.858754336412,0.0604931132723,0.607322235263,-0.0961850978071,1.33863259561,-0.656278726108,0.518040234918,0.264871673826,1.07241720784,-2.8907428143,0.233962381296,-1.95201983714,0.0360470015509
5.54,0.465741101574,0.858754336412,0.0604931132723,0.607322235263,-0.0961850978071,1.33863259561,-0.656278726108,0.518040234918,0.264871673826,1.07241720784,-2.8907428143,0.233962381296,-1.95201983714,0.0360470015509
5.56,0.465741101574,0.858754336412,0.0604931132723,0.607322235263,-0.0961850978071,1.33863259561,-0.656278726108,0.518040234918,0.264871673826,1.07241720784,-2.8907428143,0.233962381296,-1.95201983714,0.0360470015509
5.58,0.465776022273,0.858789290402,0.0604931132723,0.645265689473,-0.0961501854297,1.33865003931,-0.656261282402,0.513259295874,0.262955070071,1.0590510367,-2.91530096029,0.204533458614,-1.95560464261,0.0381061478841
5.6,0.465776022273,0.858789290402,0.0604931132723,0.645265689473,-0.0961501854297,1.33865003931,-0.656261282402,0.513259295874,0.262955070071,1.0590510367,-2.91530096029,0.204533458614,-1.95560464261,0.0381061478841
5.62,0.465776022273,0.858824177812,0.0605105652998,0.684151636392,-0.0961501854297,1.3386151519,-0.656278726108,0.507923760009,0.260715103686,1.0455677786,-2.9401543339,0.174313649701,-1.95847496171,0.0401480209169
5.64,0.465776022273,0.858824177812,0.0605105652998,0.684151636392,-0.0961501854297,1.3386151519,-0.656278726108,0.507923760009,0.260715103686,1.0455677786,-2.9401543339,0.174313649701,-1.95847496171,0.0401480209169
5.66,0.465776022273,0.858789290402,0.0605280173273,0.721292214113,-0.0961327334022,1.3386151519,-0.656278726108,0.502399066859,0.258331013654,1.03294493497,-2.96368988847,0.145433507938,-1.96050982252,0.0420254979255
5.68,0.465776022273,0.858789290402,0.0605280173273,0.721292214113,-0.0961327334022,1.3386151519,-0.656278726108,0.502399066859,0.258331013654,1.03294493497,-2.96368988847,0.145433507938,-1.96050982252,0.0420254979255
5.7,0.465776022273,0.858789290402,0.0605280173273,0.721292214113,-0.0961327334022,1.3386151519,-0.656278726108,0.502399066859,0.258331013654,1.03294493497,-2.96368988847,0.145433507938,-1.96050982252,0.0420254979255
5.72,0.465776022273,0.858859065222,0.0605105652998,0.759689470972,-0.0961501854297,1.3385977082,-0.656278726108,0.496277685568,0.255605959543,1.02007899821,-2.9878761071,0.115428845054,-1.96190765614,0.0438886147619
5.74,0.465776022273,0.858859065222,0.0605105652998,0.759689470972,-0.0961501854297,1.3385977082,-0.656278726108,0.496277685568,0.255605959543,1.02007899821,-2.9878761071,0.115428845054,-1.96190765614,0.0438886147619
5.76,0.465776022273,0.858824177812,0.0605105652998,0.800425449322,-0.0961501854297,1.33858026449,-0.656278726108,0.489316844877,0.252452500799,1.00678088443,-3.01336543059,0.0836726368849,-1.96257522577,0.0457660059076
5.78,0.465776022273,0.858824177812,0.0605105652998,0.800425449322,-0.0961501854297,1.33858026449,-0.656278726108,0.489316844877,0.252452500799,1.00678088443,-3.01336543059,0.0836726368849,-1.96257522577,0.0457660059076
5.8,0.465776022273,0.858859065222,0.0604931132723,0.839625516093,-0.0961501854297,1.33854537708,-0.656278726108,0.482187404065,0.249156432116,0.994249358748,-3.03784493802,0.0530611231563,-1.96246275547,0.0474729594676
5.82,0.465776022273,0.858859065222,0.0604931132723,0.839625516093,-0.0961501854297,1.33854537708,-0.656278726108,0.482187404065,0.249156432116,0.994249358748,-3.03784493802,0.0530611231563,-1.96246275547,0.0474729594676
5.84,0.465776022273,0.858859065222,0.0604931132723,0.839625516093,-0.0961501854297,1.33854537708,-0.656278726108,0.482187404065,0.249156432116,0.994249358748,-3.03784493802,0.0530611231563,-1.96246275547,0.0474729594676
5.86,0.465758578568,0.858824177812,0.0604931132723,0.876766160392,-0.0961327334022,1.33854537708,-0.656278726108,0.475043335236,0.245802215437,0.982703889842,-3.06101388619,0.0241129460339,-1.96167651389,0.0489911395082
5.88,0.465758578568,0.858824177812,0.0604931132723,0.876766160392,-0.0961327334022,1.33854537708,-0.656278726108,0.475043335236,0.245802215437,0.982703889842,-3.06101388619,0.0241129460339,-1.96167651389,0.0489911395082
5.9,0.465776022273,0.858893952633,0.0605105652998,0.913819519587,-0.0961501854297,1.33852793338,-0.656278726108,0.467544087702,0.242256705076,0.971429401066,-3.08418605815,-0.00481864173316,-1.96017081196,0.0504080427981
5.92,0.465776022273,0.858893952633,0.0605105652998,0.913819519587,-0.0961501854297,1.33852793338,-0.656278726108,0.467544087702,0.242256705076,0.971429401066,-3.08418605815,-0.00481864173316,-1.96017081196,0.0504080427981
5.94,0.465776022273,0.858841621517,0.0604931132723,0.952600737696,-0.0961501854297,1.33852793338,-0.656278726108,0.459327478003,0.238301801064,0.960031462129,-3.10842142727,-0.0349806473823,-1.95792433563,0.0517757806842
5.96,0.465776022273,0.858841621517,0.0604931132723,0.952600737696,-0.0961501854297,1.33852793338,-0.656278726108,0.459327478003,0.238301801064,0.960031462129,-3.10842142727,-0.0349806473823,-1.95792433563,0.0517757806842
5.98,0.465776022273,0.858841621517,0.0604931132723,0.952600737696,-0.0961501854297,1.33852793338,-0.656278726108,0.459327478003,0.238301801064,0.960031462129,-3.10842142727,-0.0349806473823,-1.95792433563,0.0517757806842
6.0,0.465776022273,0.858911462917,0.0604931132723,0.988554477677,-0.0961501854297,1.33849304597,-0.656278726108,0.451373008618,0.234439206572,0.949725637998,-3.13104860558,-0.062940354995,-1.95516928804,0.0529392129864
6.02,0.465776022273,0.858911462917,0.0604931132723,0.988554477677,-0.0961501854297,1.33849304597,-0.656278726108,0.451373008618,0.234439206572,0.949725637998,-3.13104860558,-0.062940354995,-1.95516928804,0.0529392129864
6.04,0.465758578568,0.858859065222,0.0604931132723,1.02602668553,-0.0961501854297,1.33847560226,-0.656278726108,0.442758803822,0.230205974323,0.939392984215,3.12849082362,-0.0919276509512,-1.9516410943,0.0540350094348
6.06,0.465758578568,0.858859065222,0.0604931132723,1.02602668553,-0.0961501854297,1.33847560226,-0.656278726108,0.442758803822,0.230205974323,0.939392984215,3.12849082362,-0.0919276509512,-1.9516410943,0.0540350094348
6.08,0.465758578568,0.858859065222,0.0604931132723,1.05969410172,-0.0961501854297,1.33847560226,-0.656278726108,0.434732629964,0.226236820739,0.930397601505,3.10705533064,-0.117941247849,-1.94785447778,0.0549183378837
6.1,0.465758578568,0.858859065222,0.0604931132723,1.05969410172,-0.0961501854297,1.33847560226,-0.656278726108,0.434732629964,0.226236820739,0.930397601505,3.10705533064,-0.117941247849,-1.94785447778,0.0549183378837
6.12,0.465758578568,0.858859065222,0.0604931132723,1.05969410172,-0.0961501854297,1.33847560226,-0.656278726108,0.434732629964,0.226236820739,0.930397601505,3.10705533064,-0.117941247849,-1.94785447778,0.0549183378837
6.14,0.465776022273,0.858928906622,0.0604931132723,1.09353602153,-0.0961501854297,1.33845815855,-0.656278726108,0.42640233003,0.222095662736,0.921629843919,3.08529812728,-0.144040055331,-1.9434448836,0.0557075003041
6.16,0.465776022273,0.858928906622,0.0604931132723,1.09353602153,-0.0961501854297,1.33845815855,-0.656278726108,0.42640233003,0.222095662736,0.921629843919,3.08529812728,-0.144040055331,-1.9434448836,0.0557075003041
6.18,0.465741101574,0.858963794032,0.0604582050561,1.12467276889,-0.0961676457796,1.33845815855,-0.656278726108,0.418537332992,0.218113499027,0.913859814304,3.06514132975,-0.16798201043,-1.93893862333,0.0563423179236
6.2,0.465741101574,0.858963794032,0.0604582050561,1.12467276889,-0.0961676457796,1.33845815855,-0.656278726108,0.418537332992,0.218113499027,0.913859814304,3.06514132975,-0.16798201043,-1.93893862333,0.0563423179236
6.22,0.465741101574,0.858841621517,0.0604931132723,1.15467487647,-0.0961501854297,1.33840569428,-0.656278726108,0.410766632472,0.214210466561,0.906706493805,3.04560748198,-0.190749651987,-1.93406257737,0.0568668164253
6.24,0.465741101574,0.858841621517,0.0604931132723,1.15467487647,-0.0961501854297,1.33840569428,-0.656278726108,0.410766632472,0.214210466561,0.906706493805,3.04560748198,-0.190749651987,-1.93406257737,0.0568668164253
6.26,0.465741101574,0.858841621517,0.0604931132723,1.15467487647,-0.0961501854297,1.33840569428,-0.656278726108,0.410766632472,0.214210466561,0.906706493805,3.04560748198,-0.190749651987,-1.93406257737,0.0568668164253
6.28,0.465741101574,0.858771780118,0.0604931132723,1.18516580726,-0.0961501854297,1.33840569428,-0.656278726108,0.402681257287,0.2101068526,0.899682051887,3.02550781597,-0.21389785619,-1.92862757164,0.0573160891191
6.3,0.465741101574,0.858771780118,0.0604931132723,1.18516580726,-0.0961501854297,1.33840569428,-0.656278726108,0.402681257287,0.2101068526,0.899682051887,3.02550781597,-0.21389785619,-1.92862757164,0.0573160891191
6.32,0.465741101574,0.858736892707,0.0604582050561,1.21450478773,-0.0961501854297,1.33840569428,-0.656278726108,0.394736299249,0.206038304669,0.893170950602,3.00594234905,-0.236107292454,-1.92294227948,0.0576672003963
6.34,0.465741101574,0.858736892707,0.0604582050561,1.21450478773,-0.0961501854297,1.33840569428,-0.656278726108,0.394736299249,0.206038304669,0.893170950602,3.00594234905,-0.236107292454,-1.92294227948,0.0576672003963
6.36,0.465758578568,0.858876508927,0.0604582050561,1.24583341584,-0.0961676457796,1.33838825058,-0.656278726108,0.386053418961,0.201590893574,0.886431977498,2.98466004404,-0.259801823674,-1.91625864887,0.0579562141233
6.38,0.465758578568,0.858876508927,0.0604582050561,1.24583341584,-0.0961676457796,1.33838825058,-0.656278726108,0.386053418961,0.201590893574,0.886431977498,2.98466004404,-0.259801823674,-1.91625864887,0.0579562141233
6.4,0.465758578568,0.858876508927,0.0604582050561,1.24583341584,-0.0961676457796,1.33838825058,-0.656278726108,0.386053418961,0.201590893574,0.886431977498,2.98466004404,-0.259801823674,-1.91625864887,0.0579562141233
6.42,0.465741101574,0.858859065222,0.0604582050561,1.27663859964,-0.0961501854297,1.33837080687,-0.656278726108,0.377367315851,0.197108550892,0.880174026718,2.96352483227,-0.282829329179,-1.9092104959,0.0581467255804
6.44,0.465741101574,0.858859065222,0.0604582050561,1.27663859964,-0.0961501854297,1.33837080687,-0.656278726108,0.377367315851,0.197108550892,0.880174026718,2.96352483227,-0.282829329179,-1.9092104959,0.0581467255804
6.46,0.465758578568,0.858789290402,0.0604582050561,1.30850824894,-0.0961676457796,1.33835336317,-0.656278726108,0.368216853785,0.192374032048,0.87404074434,2.94138601115,-0.306477120986,-1.90129492454,0.0582481735838
6.48,0.465758578568,0.858789290402,0.0604582050561,1.30850824894,-0.0961676457796,1.33835336317,-0.656278726108,0.368216853785,0.192374032048,0.87404074434,2.94138601115,-0.306477120986,-1.90129492454,0.0582481735838
6.5,0.465776022273,0.858702005297,0.0604756570836,1.33898173603,-0.0961676457796,1.33831847576,-0.656278726108,0.359318625325,0.187758921233,0.868491556328,2.91987879266,-0.328878898659,-1.89315206347,0.0582548147403
6.52,0.465776022273,0.858702005297,0.0604756570836,1.33898173603,-0.0961676457796,1.33831847576,-0.656278726108,0.359318625325,0.187758921233,0.868491556328,2.91987879266,-0.328878898659,-1.89315206347,0.0582548147403
6.54,0.465776022273,0.858702005297,0.0604756570836,1.33898173603,-0.0961676457796,1.33831847576,-0.656278726108,0.359318625325,0.187758921233,0.868491556328,2.91987879266,-0.328878898659,-1.89315206347,0.0582548147403
6.56,0.465741101574,0.858667117887,0.0604756570836,1.36790180125,-0.0961676457796,1.33831847576,-0.656296169813,0.350748765425,0.183264242632,0.863491421191,2.89907683052,-0.350043395973,-1.88492052904,0.058181086792
6.58,0.465741101574,0.858667117887,0.0604756570836,1.36790180125,-0.0961676457796,1.33831847576,-0.656296169813,0.350748765425,0.183264242632,0.863491421191,2.89907683052,-0.350043395973,-1.88492052904,0.058181086792
6.6,0.465758578568,0.858702005297,0.0604582050561,1.39666487313,-0.0961501854297,1.33833591946,-0.656278726108,0.342089796239,0.178724465868,0.858771414434,2.87798386294,-0.370997384073,-1.87618432342,0.0580312150837
6.62,0.465758578568,0.858702005297,0.0604582050561,1.39666487313,-0.0961501854297,1.33833591946,-0.656278726108,0.342089796239,0.178724465868,0.858771414434,2.87798386294,-0.370997384073,-1.87618432342,0.0580312150837
6.64,0.465741101574,0.858702005297,0.0604407530285,1.42082014369,-0.0961676457796,1.33831847576,-0.656278726108,0.334750544753,0.174842015604,0.855035020129,2.86004310054,-0.388426627955,-1.86844660483,0.0578452154247
6.66,0.465741101574,0.858702005297,0.0604407530285,1.42082014369,-0.0961676457796,1.33831847576,-0.656278726108,0.334750544753,0.174842015604,0.855035020129,2.86004310054,-0.388426627955,-1.86844660483,0.0578452154247
6.68,0.465741101574,0.858702005297,0.0604407530285,1.42082014369,-0.0961676457796,1.33831847576,-0.656278726108,0.334750544753,0.174842015604,0.855035020129,2.86004310054,-0.388426627955,-1.86844660483,0.0578452154247
6.7,0.465741101574,0.858702005297,0.0604407530285,1.44373637855,-0.0961676457796,1.33830103205,-0.656278726108,0.327713595971,0.171125265384,0.851676266255,2.84274707845,-0.404820524143,-1.86071631065,0.0576189818957
6.72,0.465741101574,0.858702005297,0.0604407530285,1.44373637855,-0.0961676457796,1.33830103205,-0.656278726108,0.327713595971,0.171125265384,0.851676266255,2.84274707845,-0.404820524143,-1.86071631065,0.0576189818957
6.74,0.465741101574,0.858684561592,0.0604407530285,1.4627952909,-0.0961676457796,1.33828358835,-0.656278726108,0.321816873498,0.168002267445,0.849028232437,2.82817903042,-0.418344614314,-1.85401605475,0.0573939948855
6.76,0.465741101574,0.858684561592,0.0604407530285,1.4627952909,-0.0961676457796,1.33828358835,-0.656278726108,0.321816873498,0.168002267445,0.849028232437,2.82817903042,-0.418344614314,-1.85401605475,0.0573939948855
6.78,0.465741101574,0.858702005297,0.0604407530285,1.48075485034,-0.0961676457796,1.33830103205,-0.656278726108,0.316214301877,0.16502781098,0.84664023836,2.81422671308,-0.431053280938,-1.84744605234,0.0571525572199
6.8,0.465741101574,0.858702005297,0.0604407530285,1.48075485034,-0.0961676457796,1.33830103205,-0.656278726108,0.316214301877,0.16502781098,0.84664023836,2.81422671308,-0.431053280938,-1.84744605234,0.0571525572199
6.82,0.465741101574,0.858702005297,0.0604407530285,1.48075485034,-0.0961676457796,1.33830103205,-0.656278726108,0.316214301877,0.16502781098,0.84664023836,2.81422671308,-0.431053280938,-1.84744605234,0.0571525572199
6.84,0.465758578568,0.858649607603,0.0604582050561,1.49489197467,-0.0961676457796,1.33826614464,-0.656278726108,0.311789880056,0.162688307572,0.844859927676,2.80320119501,-0.440906713774,-1.84211369235,0.0569410183915
6.86,0.465758578568,0.858649607603,0.0604582050561,1.49489197467,-0.0961676457796,1.33826614464,-0.656278726108,0.311789880056,0.162688307572,0.844859927676,2.80320119501,-0.440906713774,-1.84211369235,0.0569410183915
6.88,0.465776022273,0.858667117887,0.0604582050561,1.50703945135,-0.0961501854297,1.33826614464,-0.656278726108,0.307959870764,0.160657687111,0.843367240386,2.7935644894,-0.449394620289,-1.83740344796,0.0567461634087
6.9,0.465776022273,0.858667117887,0.0604582050561,1.50703945135,-0.0961501854297,1.33826614464,-0.656278726108,0.307959870764,0.160657687111,0.843367240386,2.7935644894,-0.449394620289,-1.83740344796,0.0567461634087
6.92,0.465741101574,0.858632163897,0.0604232968398,1.51752884394,-0.0961676457796,1.33824870094,-0.656296169813,0.304666900811,0.15886993677,0.84213637228,2.78526013851,-0.456673632734,-1.83331914835,0.0565666810678
6.94,0.465741101574,0.858632163897,0.0604232968398,1.51752884394,-0.0961676457796,1.33824870094,-0.656296169813,0.304666900811,0.15886993677,0.84213637228,2.78526013851,-0.456673632734,-1.83331914835,0.0565666810678
6.96,0.465741101574,0.858632163897,0.0604232968398,1.51752884394,-0.0961676457796,1.33824870094,-0.656296169813,0.304666900811,0.15886993677,0.84213637228,2.78526013851,-0.456673632734,-1.83331914835,0.0565666810678
6.98,0.465776022273,0.858632163897,0.0604582050561,1.52655216634,-0.0961676457796,1.33826614464,-0.656278726108,0.301795604507,0.157363121671,0.841101801968,2.77798625394,-0.462921701923,-1.8296358979,0.0564050713944
7.0,0.465776022273,0.858632163897,0.0604582050561,1.52655216634,-0.0961676457796,1.33826614464,-0.656278726108,0.301795604507,0.157363121671,0.841101801968,2.77798625394,-0.462921701923,-1.8296358979,0.0564050713944
7.02,0.465741101574,0.858614720192,0.0604232968398,1.53327172125,-0.0961676457796,1.33826614464,-0.656278726108,0.299675930144,0.156202474355,0.840354833487,2.77259077313,-0.467567926278,-1.82696574671,0.0562799074855
7.04,0.465741101574,0.858614720192,0.0604232968398,1.53327172125,-0.0961676457796,1.33826614464,-0.656278726108,0.299675930144,0.156202474355,0.840354833487,2.77259077313,-0.467567926278,-1.82696574671,0.0562799074855
7.06,0.465758578568,0.858614720192,0.0604232968398,1.5361689742,-0.0961501854297,1.33826614464,-0.656278726108,0.29875059823,0.155717360151,0.840035218781,2.77023170821,-0.469555354998,-1.82576324894,0.0562248401606
7.08,0.465758578568,0.858614720192,0.0604232968398,1.5361689742,-0.0961501854297,1.33826614464,-0.656278726108,0.29875059823,0.155717360151,0.840035218781,2.77023170821,-0.469555354998,-1.82576324894,0.0562248401606
7.1,0.465758578568,0.858614720192,0.0604232968398,1.5361689742,-0.0961501854297,1.33826614464,-0.656278726108,0.29875059823,0.155717360151,0.840035218781,2.77023170821,-0.469555354998,-1.82576324894,0.0562248401606
7.12,0.465758578568,0.858544945372,0.0604407530285,1.53657044573,-0.0961676457796,1.33826614464,-0.656296169813,0.298632016734,0.155657134383,0.840014793445,2.76995617568,-0.46977759077,-1.8255815001,0.0562160969585
7.14,0.465758578568,0.858544945372,0.0604407530285,1.53657044573,-0.0961676457796,1.33826614464,-0.656296169813,0.298632016734,0.155657134383,0.840014793445,2.76995617568,-0.46977759077,-1.8255815001,0.0562160969585
7.16,0.465741101574,0.858492547677,0.0604232968398,1.53622130531,-0.0961850978071,1.33826614464,-0.656278726108,0.298757826421,0.155707440002,0.84007074266,2.77031145395,-0.469527150336,-1.82578884541,0.0562220204857
7.18,0.465741101574,0.858492547677,0.0604232968398,1.53622130531,-0.0961850978071,1.33826614464,-0.656278726108,0.298757826421,0.155707440002,0.84007074266,2.77031145395,-0.469527150336,-1.82578884541,0.0562220204857
7.2,0.465776022273,0.858457660267,0.0604232968398,1.5355756219,-0.0961676457796,1.33826614464,-0.656278726108,0.298961274684,0.155832747919,0.840153417442,2.77085518846,-0.469051377907,-1.82604211831,0.0562338445006
7.22,0.465776022273,0.858457660267,0.0604232968398,1.5355756219,-0.0961676457796,1.33826614464,-0.656278726108,0.298961274684,0.155832747919,0.840153417442,2.77085518846,-0.469051377907,-1.82604211831,0.0562338445006
7.24,0.465776022273,0.858457660267,0.0604232968398,1.5355756219,-0.0961676457796,1.33826614464,-0.656278726108,0.298961274684,0.155832747919,0.840153417442,2.77085518846,-0.469051377907,-1.82604211831,0.0562338445006
7.26,0.465776022273,0.858405262573,0.0604232968398,1.53362086166,-0.0961850978071,1.33824870094,-0.656278726108,0.299593998355,0.156167968485,0.840385334069,2.77250689312,-0.467665473344,-1.82686396149,0.0562701523536
7.28,0.465776022273,0.858405262573,0.0604232968398,1.53362086166,-0.0961850978071,1.33824870094,-0.656278726108,0.299593998355,0.156167968485,0.840385334069,2.77250689312,-0.467665473344,-1.82686396149,0.0562701523536
7.3,0.465776022273,0.858352931457,0.0604232968398,1.53088060206,-0.0961850978071,1.33826614464,-0.656296169813,0.300470044985,0.156636110851,0.840709591309,2.77474720227,-0.465747819874,-1.82798302684,0.0563209021194
7.32,0.465776022273,0.858352931457,0.0604232968398,1.53088060206,-0.0961850978071,1.33826614464,-0.656296169813,0.300470044985,0.156636110851,0.840709591309,2.77474720227,-0.465747819874,-1.82798302684,0.0563209021194
7.34,0.465758578568,0.858352931457,0.0604058448123,1.52501632134,-0.0961850978071,1.33828358835,-0.656278726108,0.302333963966,0.157618785001,0.841372795539,2.7794829594,-0.461725390115,-1.83041304075,0.0564289668712
7.36,0.465758578568,0.858352931457,0.0604058448123,1.52501632134,-0.0961850978071,1.33828358835,-0.656278726108,0.302333963966,0.157618785001,0.841372795539,2.7794829594,-0.461725390115,-1.83041304075,0.0564289668712
7.38,0.465758578568,0.858352931457,0.0604058448123,1.52501632134,-0.0961850978071,1.33828358835,-0.656278726108,0.302333963966,0.157618785001,0.841372795539,2.7794829594,-0.461725390115,-1.83041304075,0.0564289668712
7.4,0.465741101574,0.858387818867,0.0603883927848,1.51456181617,-0.0961850978071,1.33826614464,-0.656278726108,0.305645539671,0.159373987124,0.842569243355,2.78786068665,-0.454497989624,-1.83462425678,0.0566146163457
7.42,0.465741101574,0.858387818867,0.0603883927848,1.51456181617,-0.0961850978071,1.33826614464,-0.656278726108,0.305645539671,0.159373987124,0.842569243355,2.78786068665,-0.454497989624,-1.83462425678,0.0566146163457
7.44,0.465776022273,0.858405262573,0.0604058448123,1.49927274151,-0.0961850978071,1.33828358835,-0.656278726108,0.310452909772,0.161957868326,0.8444047312,2.79997148184,-0.443858095961,-1.84053567447,0.0568684400976
7.46,0.465776022273,0.858405262573,0.0604058448123,1.49927274151,-0.0961850978071,1.33828358835,-0.656278726108,0.310452909772,0.161957868326,0.8444047312,2.79997148184,-0.443858095961,-1.84053567447,0.0568684400976
7.48,0.465758578568,0.858422706278,0.0604058448123,1.47674053447,-0.0961850978071,1.33830103205,-0.656278726108,0.317512268823,0.165706215128,0.847262979796,2.8176100884,-0.428064332746,-1.84903186548,0.0572046747254
7.5,0.465758578568,0.858422706278,0.0604058448123,1.47674053447,-0.0961850978071,1.33830103205,-0.656278726108,0.317512268823,0.165706215128,0.847262979796,2.8176100884,-0.428064332746,-1.84903186548,0.0572046747254
7.52,0.465741101574,0.858370375162,0.0604058448123,1.4498275606,-0.0961850978071,1.33830103205,-0.656278726108,0.317512268823,0.165706215128,0.847262979796,2.8176100884,-0.428064332746,-1.84903186548,0.0572046747254
7.54,0.465741101574,0.858370375162,0.0604058448123,1.4498275606,-0.0961850978071,1.33830103205,-0.656278726108,0.325885000102,0.170139012704,0.85093640658,2.83839654818,-0.408961549987,-1.85872729392,0.0575453228836
7.56,0.465741101574,0.858370375162,0.0604058448123,1.4498275606,-0.0961850978071,1.33830103205,-0.656278726108,0.325885000102,0.170139012704,0.85093640658,2.83839654818,-0.408961549987,-1.85872729392,0.0575453228836
7.58,0.465741101574,0.858405262573,0.0603883927848,1.41692806692,-0.0961850978071,1.33831847576,-0.656278726108,0.335989498577,0.175469708765,0.855735595528,2.86322896905,-0.385459945821,-1.86984960409,0.0578737883075
7.6,0.465741101574,0.858405262573,0.0603883927848,1.41692806692,-0.0961850978071,1.33831847576,-0.656278726108,0.335989498577,0.175469708765,0.855735595528,2.86322896905,-0.385459945821,-1.86984960409,0.0578737883075
7.62,0.465741101574,0.858492547677,0.0603883927848,1.38095688323,-0.0961850978071,1.33830103205,-0.656278726108,0.346877284392,0.181195629429,0.86138665459,2.88977480957,-0.359480870727,-1.88115410027,0.0581192677326
7.64,0.465741101574,0.858492547677,0.0603883927848,1.38095688323,-0.0961850978071,1.33830103205,-0.656278726108,0.346877284392,0.181195629429,0.86138665459,2.88977480957,-0.359480870727,-1.88115410027,0.0581192677326
7.66,0.465741101574,0.858422706278,0.0603883927848,1.34077936976,-0.0961850978071,1.33833591946,-0.656278726108,0.346877284392,0.181195629429,0.86138665459,2.88977480957,-0.359480870727,-1.88115410027,0.0581192677326
7.68,0.465741101574,0.858422706278,0.0603883927848,1.34077936976,-0.0961850978071,1.33833591946,-0.656278726108,0.358843440643,0.187454773845,0.868285633432,2.91885177147,-0.33007226157,-1.89281988465,0.0582475103074
7.7,0.465741101574,0.858422706278,0.0603883927848,1.34077936976,-0.0961850978071,1.33833591946,-0.656278726108,0.358843440643,0.187454773845,0.868285633432,2.91885177147,-0.33007226157,-1.89281988465,0.0582475103074
7.72,0.465758578568,0.858475103972,0.0603883927848,1.29981649009,-0.0961850978071,1.33831847576,-0.656278726108,0.370785435998,0.193674230205,0.875817835555,2.94778309704,-0.299823728308,-1.90363666594,0.0582235760164
7.74,0.465758578568,0.858475103972,0.0603883927848,1.29981649009,-0.0961850978071,1.33831847576,-0.656278726108,0.370785435998,0.193674230205,0.875817835555,2.94778309704,-0.299823728308,-1.90363666594,0.0582235760164
7.76,0.465776022273,0.858475103972,0.0603883927848,1.25518843496,-0.0961850978071,1.33837080687,-0.656278726108,0.383486541397,0.200245618268,0.884670321648,2.97861998344,-0.266562774296,-1.91427825826,0.0580156698658
7.78,0.465776022273,0.858475103972,0.0603883927848,1.25518843496,-0.0961850978071,1.33837080687,-0.656278726108,0.383486541397,0.200245618268,0.884670321648,2.97861998344,-0.266562774296,-1.91427825826,0.0580156698658
7.8,0.465758578568,0.858440216562,0.0603883927848,1.21232312616,-0.0961850978071,1.33837080687,-0.656278726108,0.383486541397,0.200245618268,0.884670321648,2.97861998344,-0.266562774296,-1.91427825826,0.0580156698658
7.82,0.465758578568,0.858440216562,0.0603883927848,1.21232312616,-0.0961850978071,1.33837080687,-0.656278726108,0.395379200017,0.206340110123,0.893777847876,3.00770318136,-0.234270634316,-1.92346238702,0.0576376376379
7.84,0.465758578568,0.858440216562,0.0603883927848,1.21232312616,-0.0961850978071,1.33837080687,-0.656278726108,0.395379200017,0.206340110123,0.893777847876,3.00770318136,-0.234270634316,-1.92346238702,0.0576376376379
7.86,0.465776022273,0.858457660267,0.0604058448123,1.16903903528,-0.0961850978071,1.33833591946,-0.656278726108,0.407032756906,0.212293612614,0.903521346727,3.03652737936,-0.201419292822,-1.93164069647,0.0570816027423
7.88,0.465776022273,0.858457660267,0.0604058448123,1.16903903528,-0.0961850978071,1.33833591946,-0.656278726108,0.407032756906,0.212293612614,0.903521346727,3.03652737936,-0.201419292822,-1.93164069647,0.0570816027423
7.9,0.465776022273,0.858405262573,0.0604058448123,1.12386982582,-0.0961676457796,1.33840569428,-0.656278726108,0.418797372711,0.218241348204,0.914318161786,3.06610662704,-0.166938650241,-1.93913329506,0.0563147536598
7.92,0.465776022273,0.858405262573,0.0604058448123,1.12386982582,-0.0961676457796,1.33840569428,-0.656278726108,0.418797372711,0.218241348204,0.914318161786,3.06610662704,-0.166938650241,-1.93913329506,0.0563147536598
7.94,0.465758578568,0.858387818867,0.0603883927848,1.08037627732,-0.0961850978071,1.33844058169,-0.656278726108,0.429735365849,0.22370051622,0.925249866439,3.09422767975,-0.133573776955,-1.94535450394,0.0554012527321
7.96,0.465758578568,0.858387818867,0.0603883927848,1.08037627732,-0.0961850978071,1.33844058169,-0.656278726108,0.429735365849,0.22370051622,0.925249866439,3.09422767975,-0.133573776955,-1.94535450394,0.0554012527321
7.98,0.465758578568,0.858387818867,0.0603883927848,1.08037627732,-0.0961850978071,1.33844058169,-0.656278726108,0.429735365849,0.22370051622,0.925249866439,3.09422767975,-0.133573776955,-1.94535450394,0.0554012527321
8.0,0.465793465979,0.858352931457,0.0604058448123,1.03461371557,-0.0961850978071,1.33842313799,-0.656278726108,0.440784681776,0.229209940041,0.937320609666,3.12348350416,-0.0982141174373,-1.95078195487,0.0542580026026
8.02,0.465793465979,0.858352931457,0.0604058448123,1.03461371557,-0.0961850978071,1.33842313799,-0.656278726108,0.440784681776,0.229209940041,0.937320609666,3.12348350416,-0.0982141174373,-1.95078195487,0.0542580026026
8.04,0.465776022273,0.858335487752,0.0604232968398,0.991713519362,-0.0961850978071,1.33847560226,-0.656278726108,0.450705186356,0.234078379571,0.949130849995,-3.13258223418,-0.0650008853661,-1.95496203593,0.0530229713366
8.06,0.465776022273,0.858335487752,0.0604232968398,0.991713519362,-0.0961850978071,1.33847560226,-0.656278726108,0.450705186356,0.234078379571,0.949130849995,-3.13258223418,-0.0650008853661,-1.95496203593,0.0530229713366
8.08,0.465758578568,0.858300533763,0.0604058448123,0.947626485412,-0.0961850978071,1.33849304597,-0.656278726108,0.460451208486,0.238792887904,0.961757547734,-3.10484858414,-0.0307403174554,-1.95833380071,0.0515941587979
8.1,0.465758578568,0.858300533763,0.0604058448123,0.947626485412,-0.0961850978071,1.33849304597,-0.656278726108,0.460451208486,0.238792887904,0.961757547734,-3.10484858414,-0.0307403174554,-1.95833380071,0.0515941587979
8.12,0.465758578568,0.858300533763,0.0604058448123,0.947626485412,-0.0961850978071,1.33849304597,-0.656278726108,0.460451208486,0.238792887904,0.961757547734,-3.10484858414,-0.0307403174554,-1.95833380071,0.0515941587979
8.14,0.465758578568,0.858335487752,0.0604058448123,0.905511721987,-0.0961676457796,1.33849304597,-0.656278726108,0.469299495727,0.24303871762,0.974217210552,-3.07853335982,0.0020425023342,-1.9606393972,0.0500865539222
8.16,0.465758578568,0.858335487752,0.0604058448123,0.905511721987,-0.0961676457796,1.33849304597,-0.656278726108,0.469299495727,0.24303871762,0.974217210552,-3.07853335982,0.0020425023342,-1.9606393972,0.0500865539222
8.18,0.465741101574,0.858318044047,0.0603883927848,0.864287053577,-0.0961850978071,1.33852793338,-0.656278726108,0.477522995198,0.246907596589,0.98682898652,-3.05278327474,0.0341621210842,-1.96208413684,0.0484798745283
8.2,0.465741101574,0.858318044047,0.0603883927848,0.864287053577,-0.0961850978071,1.33852793338,-0.656278726108,0.477522995198,0.246907596589,0.98682898652,-3.05278327474,0.0341621210842,-1.96208413684,0.0484798745283
8.22,0.465741101574,0.858318044047,0.0604058448123,0.822102448752,-0.0961850978071,1.33852793338,-0.656278726108,0.48546123445,0.250612292648,1.0001007479,-3.02646122023,0.06709931423,-1.96266750319,0.0467103185717
8.24,0.465741101574,0.858318044047,0.0604058448123,0.822102448752,-0.0961850978071,1.33852793338,-0.656278726108,0.48546123445,0.250612292648,1.0001007479,-3.02646122023,0.06709931423,-1.96266750319,0.0467103185717
8.26,0.465741101574,0.858318044047,0.0604058448123,0.822102448752,-0.0961850978071,1.33852793338,-0.656278726108,0.48546123445,0.250612292648,1.0001007479,-3.02646122023,0.06709931423,-1.96266750319,0.0467103185717
8.28,0.465776022273,0.858352931457,0.0604058448123,0.782204234302,-0.0961850978071,1.33858026449,-0.656278726108,0.492505845574,0.253857775187,1.01296064997,-3.00156393055,0.0981799650121,-1.96240266509,0.0449278217491
8.3,0.465776022273,0.858352931457,0.0604058448123,0.782204234302,-0.0961850978071,1.33858026449,-0.656278726108,0.492505845574,0.253857775187,1.01296064997,-3.00156393055,0.0981799650121,-1.96240266509,0.0449278217491
8.32,0.465776022273,0.858318044047,0.0604232968398,0.740682823168,-0.0961850978071,1.33858026449,-0.656278726108,0.499374082762,0.256947154781,1.02670082929,-2.97548034268,0.130613547349,-1.96131076265,0.0429653654136
8.34,0.465776022273,0.858318044047,0.0604232968398,0.740682823168,-0.0961850978071,1.33858026449,-0.656278726108,0.499374082762,0.256947154781,1.02670082929,-2.97548034268,0.130613547349,-1.96131076265,0.0429653654136
8.36,0.465776022273,0.858370375162,0.0603883927848,0.703036045103,-0.0961676457796,1.33863259561,-0.656278726108,0.505172339039,0.259480208221,1.03936853985,-2.95176684293,0.15986899291,-1.95962385562,0.0411021030481
8.38,0.465776022273,0.858370375162,0.0603883927848,0.703036045103,-0.0961676457796,1.33863259561,-0.656278726108,0.505172339039,0.259480208221,1.03936853985,-2.95176684293,0.15986899291,-1.95962385562,0.0411021030481
8.4,0.465776022273,0.858370375162,0.0603883927848,0.703036045103,-0.0961676457796,1.33863259561,-0.656278726108,0.505172339039,0.259480208221,1.03936853985,-2.95176684293,0.15986899291,-1.95962385562,0.0411021030481
8.42,0.465776022273,0.858335487752,0.0604058448123,0.664586457128,-0.0961676457796,1.33863259561,-0.656278726108,0.51066140386,0.261833480984,1.05259400169,-2.92729152246,0.18982128027,-1.95711068989,0.0391194273532
8.44,0.465776022273,0.858335487752,0.0604058448123,0.664586457128,-0.0961676457796,1.33863259561,-0.656278726108,0.51066140386,0.261833480984,1.05259400169,-2.92729152246,0.18982128027,-1.95711068989,0.0391194273532
8.46,0.465758578568,0.858405262573,0.0604058448123,0.626922235358,-0.0961850978071,1.33866748302,-0.656261282402,0.515616847064,0.26387256246,1.06569966963,-2.90316740918,0.218974091057,-1.95397124415,0.0371106762137
8.48,0.465758578568,0.858405262573,0.0604058448123,0.626922235358,-0.0961850978071,1.33866748302,-0.656261282402,0.515616847064,0.26387256246,1.06569966963,-2.90316740918,0.218974091057,-1.95397124415,0.0371106762137
8.5,0.465776022273,0.858370375162,0.0604232968398,0.590287791403,-0.0961850978071,1.33866748302,-0.656261282402,0.520008342634,0.265642079471,1.07869125758,-2.87937869626,0.247368203009,-1.95011901465,0.0350956243854
8.52,0.465776022273,0.858370375162,0.0604232968398,0.590287791403,-0.0961850978071,1.33866748302,-0.656261282402,0.520008342634,0.265642079471,1.07869125758,-2.87937869626,0.247368203009,-1.95011901465,0.0350956243854
8.54,0.465776022273,0.858370375162,0.0604232968398,0.590287791403,-0.0961850978071,1.33866748302,-0.656261282402,0.520008342634,0.265642079471,1.07869125758,-2.87937869626,0.247368203009,-1.95011901465,0.0350956243854
8.56,0.465758578568,0.858318044047,0.0604232968398,0.553950056883,-0.0961850978071,1.33868492672,-0.656278726108,0.52396130377,0.267136257033,1.0917485332,-2.85547718582,0.275422732317,-1.94560412649,0.033045784533
8.58,0.465758578568,0.858318044047,0.0604232968398,0.553950056883,-0.0961850978071,1.33868492672,-0.656278726108,0.52396130377,0.267136257033,1.0917485332,-2.85547718582,0.275422732317,-1.94560412649,0.033045784533
8.6,0.465776022273,0.858387818867,0.0604232968398,0.519305260578,-0.0961676457796,1.33871994729,-0.656261282402,0.527341416848,0.268364507653,1.10425926564,-2.83249985346,0.301983377999,-1.94064199505,0.0310526400145
8.62,0.465776022273,0.858387818867,0.0604232968398,0.519305260578,-0.0961676457796,1.33871994729,-0.656261282402,0.527341416848,0.268364507653,1.10425926564,-2.83249985346,0.301983377999,-1.94064199505,0.0310526400145
8.64,0.465776022273,0.858335487752,0.0604232968398,0.484276503023,-0.0961676457796,1.33870250358,-0.656278726108,0.530374972471,0.269373201933,1.11710224438,-2.80877491865,0.328827434191,-1.93486585771,0.0289996395266
8.66,0.465776022273,0.858335487752,0.0604232968398,0.484276503023,-0.0961676457796,1.33870250358,-0.656278726108,0.530374972471,0.269373201933,1.11710224438,-2.80877491865,0.328827434191,-1.93486585771,0.0289996395266
8.68,0.465776022273,0.858335487752,0.0604232968398,0.484276503023,-0.0961676457796,1.33870250358,-0.656278726108,0.530374972471,0.269373201933,1.11710224438,-2.80877491865,0.328827434191,-1.93486585771,0.0289996395266
8.7,0.465776022273,0.858318044047,0.0604232968398,0.450207681884,-0.0961850978071,1.338737391,-0.656261282402,0.532946031201,0.270135816908,1.12966786168,-2.78538341829,0.354740178442,-1.92860318324,0.0269753511275
8.72,0.465776022273,0.858318044047,0.0604232968398,0.450207681884,-0.0961850978071,1.338737391,-0.656261282402,0.532946031201,0.270135816908,1.12966786168,-2.78538341829,0.354740178442,-1.92860318324,0.0269753511275
8.74,0.465758578568,0.858440216562,0.0604058448123,0.417744547144,-0.0961850978071,1.33878972211,-0.656261282402,0.535067793154,0.270661592783,1.14163257175,-2.76282816482,0.379176319558,-1.92202471776,0.0250277314251
8.76,0.465758578568,0.858440216562,0.0604058448123,0.417744547144,-0.0961850978071,1.33878972211,-0.656261282402,0.535067793154,0.270661592783,1.14163257175,-2.76282816482,0.379176319558,-1.92202471776,0.0250277314251
8.78,0.465776022273,0.858370375162,0.0604232968398,0.382977611614,-0.0961676457796,1.33877227841,-0.656261282402,0.536930670419,0.271035745076,1.15464086934,-2.73805390464,0.405412332358,-1.91410583886,0.0229205520728
8.8,0.465776022273,0.858370375162,0.0604232968398,0.382977611614,-0.0961676457796,1.33877227841,-0.656261282402,0.536930670419,0.271035745076,1.15464086934,-2.73805390464,0.405412332358,-1.91410583886,0.0229205520728
8.82,0.465776022273,0.858370375162,0.0604232968398,0.382977611614,-0.0961676457796,1.33877227841,-0.656261282402,0.536930670419,0.271035745076,1.15464086934,-2.73805390464,0.405412332358,-1.91410583886,0.0229205520728
8.84,0.465741101574,0.858318044047,0.0604058448123,0.350200323734,-0.0961850978071,1.3387548347,-0.656261282402,0.538346962321,0.271145182604,1.16694816675,-2.71418867711,0.429924165829,-1.90597352515,0.0209224522092
8.86,0.465741101574,0.858318044047,0.0604058448123,0.350200323734,-0.0961850978071,1.3387548347,-0.656261282402,0.538346962321,0.271145182604,1.16694816675,-2.71418867711,0.429924165829,-1.90597352515,0.0209224522092
8.88,0.465758578568,0.858352931457,0.0604232968398,0.315817316164,-0.0961850978071,1.33882460952,-0.656261282402,0.539435797952,0.271089637079,1.17983392005,-2.68879079593,0.455339308188,-1.89663908628,0.0188208051846
8.9,0.465758578568,0.858352931457,0.0604232968398,0.315817316164,-0.0961850978071,1.33882460952,-0.656261282402,0.539435797952,0.271089637079,1.17983392005,-2.68879079593,0.455339308188,-1.89663908628,0.0188208051846
8.92,0.465741101574,0.858422706278,0.0604232968398,0.282446642704,-0.0961850978071,1.33880716582,-0.656261282402,0.540149400267,0.270815271578,1.19235016209,-2.66352525094,0.479817394536,-1.88679183085,0.0167788131225
8.94,0.465741101574,0.858422706278,0.0604232968398,0.282446642704,-0.0961850978071,1.33880716582,-0.656261282402,0.540149400267,0.270815271578,1.19235016209,-2.66352525094,0.479817394536,-1.88679183085,0.0167788131225
8.96,0.465741101574,0.858422706278,0.0604232968398,0.282446642704,-0.0961850978071,1.33880716582,-0.656261282402,0.540149400267,0.270815271578,1.19235016209,-2.66352525094,0.479817394536,-1.88679183085,0.0167788131225
8.98,0.465741101574,0.858318044047,0.0604232968398,0.248377804919,-0.0961676457796,1.33880716582,-0.656261282402,0.540461193729,0.270321288007,1.20524172415,-2.63698810449,0.504688068604,-1.87579802579,0.0146945033298
9.0,0.465741101574,0.858318044047,0.0604232968398,0.248377804919,-0.0961676457796,1.33880716582,-0.656261282402,0.540461193729,0.270321288007,1.20524172415,-2.63698810449,0.504688068604,-1.87579802579,0.0146945033298
9.02,0.465706214163,0.858318044047,0.0604232968398,0.214850038244,-0.0961850978071,1.33882460952,-0.656261282402,0.540421450679,0.26961227986,1.21785914104,-2.61027466703,0.52879628008,-1.86417461442,0.0126516225874
9.04,0.465706214163,0.858318044047,0.0604232968398,0.214850038244,-0.0961850978071,1.33882460952,-0.656261282402,0.540421450679,0.26961227986,1.21785914104,-2.61027466703,0.52879628008,-1.86417461442,0.0126516225874
9.06,0.465741101574,0.858405262573,0.0604232968398,0.181426983734,-0.0961850978071,1.33889438434,-0.656261282402,0.540004709858,0.268748436782,1.23035859462,-2.58306574687,0.552464070173,-1.85166451024,0.0106272382382
9.08,0.465741101574,0.858405262573,0.0604232968398,0.181426983734,-0.0961850978071,1.33889438434,-0.656261282402,0.540004709858,0.268748436782,1.23035859462,-2.58306574687,0.552464070173,-1.85166451024,0.0106272382382
9.1,0.465741101574,0.858405262573,0.0604232968398,0.181426983734,-0.0961850978071,1.33889438434,-0.656261282402,0.540004709858,0.268748436782,1.23035859462,-2.58306574687,0.552464070173,-1.85166451024,0.0106272382382
9.12,0.465741101574,0.858405262573,0.0604232968398,0.14735814595,-0.0961676457796,1.33882460952,-0.656261282402,0.539207845026,0.267643261859,1.24313512006,-2.554357931,0.576439416618,-1.83785081383,0.00857850136609
9.14,0.465741101574,0.858405262573,0.0604232968398,0.14735814595,-0.0961676457796,1.33882460952,-0.656261282402,0.539207845026,0.267643261859,1.24313512006,-2.554357931,0.576439416618,-1.83785081383,0.00857850136609
9.16,0.465741101574,0.858405262573,0.0604232968398,0.116186569437,-0.0961676457796,1.33882460952,-0.656261282402,0.538138800138,0.26644338738,1.25477459454,-2.52738927802,0.59801839302,-1.82433183986,0.0067217510826
